(1001)
(T1 D=3 CR=0 - ZMIN=-10 - Schaftfrser)
G90 G94
G17
G21
(-Attention- Property Safe Retracts is set to Clearance Height.)
(Ensure the clearance height will clear the part and or fixtures.)
(Raise the Z-axis to a safe height before starting the program.)
(When using Fusion for Personal Use, the feedrate of rapid)
(moves is reduced to match the feedrate of cutting moves,)
(which can increase machining time. Unrestricted rapid moves)
(are available with a Fusion Subscription.)

(2D-Kontur1)
T1
S5000 M3
G17 G90 G94
G54
M8
G0 X349.254 Y563.4
Z30
G1 Z5 F1000
Z0 F333.3
X349.459 Y563.445 F1000
G3 X344.291 Y585.24 I-2.584 J10.898
X349.254 Y563.399 I2.584 J-10.898
G1 Y563.4 Z30
X237.294 Y360.114
Z5
Z-2 F333.3
X237.499 Y360.159 F1000
G3 X232.332 Y381.955 I-2.584 J10.898
X237.294 Y360.113 I2.584 J-10.898
G1 Y360.114 Z-4 F333.3
G3 X232.537 Y382.002 I-2.378 J10.944 F1000
X237.1 Y360.075 I2.378 J-10.944
G1 X237.294 Y360.114
Z-6 F333.3
G3 X232.537 Y382.002 I-2.378 J10.944 F1000
X237.1 Y360.075 I2.378 J-10.944
G1 X237.294 Y360.114
Z-8 F333.3
G3 X232.537 Y382.002 I-2.378 J10.944 F1000
X237.1 Y360.075 I2.378 J-10.944
G1 X237.294 Y360.114
Z-10 F333.3
G3 X232.537 Y382.002 I-2.378 J10.944 F1000
X237.1 Y360.075 I2.378 J-10.944
G1 X237.294 Y360.114
Z10
X242.568 Y318.235
Z5
Z-2 F333.3
X242.713 Y318.386 F1000
G3 X226.286 Y333.614 I-8.213 J7.614
X242.569 Y318.234 I8.213 J-7.614
G1 X242.568 Y318.235 Z-4 F333.3
G3 X226.43 Y333.767 I-8.069 J7.766 F1000
X242.418 Y318.082 I8.069 J-7.766
G1 X242.568 Y318.235
Z-6 F333.3
G3 X226.43 Y333.767 I-8.069 J7.766 F1000
X242.418 Y318.082 I8.069 J-7.766
G1 X242.568 Y318.235
Z-8 F333.3
G3 X226.43 Y333.767 I-8.069 J7.766 F1000
X242.418 Y318.082 I8.069 J-7.766
G1 X242.568 Y318.235
Z-10 F333.3
G3 X226.43 Y333.767 I-8.069 J7.766 F1000
X242.418 Y318.082 I8.069 J-7.766
G1 X242.568 Y318.235
Z10
Y273.235
Z5
Z-2 F333.3
X242.713 Y273.386 F1000
G3 X226.286 Y288.614 I-8.213 J7.614
X242.569 Y273.234 I8.213 J-7.614
G1 X242.568 Y273.235 Z-4 F333.3
G3 X226.43 Y288.767 I-8.069 J7.766 F1000
X242.418 Y273.082 I8.069 J-7.766
G1 X242.568 Y273.235
Z-6 F333.3
G3 X226.43 Y288.767 I-8.069 J7.766 F1000
X242.418 Y273.082 I8.069 J-7.766
G1 X242.568 Y273.235
Z-8 F333.3
G3 X226.43 Y288.767 I-8.069 J7.766 F1000
X242.418 Y273.082 I8.069 J-7.766
G1 X242.568 Y273.235
Z-10 F333.3
G3 X226.43 Y288.767 I-8.069 J7.766 F1000
X242.418 Y273.082 I8.069 J-7.766
G1 X242.568 Y273.235
Z10
X326.627 Y217.342
Z5
Z-2 F333.3
X326.746 Y217.452 F1000
X326.929 Y217.647
X327.101 Y217.853
X327.26 Y218.068
X327.406 Y218.292
X327.538 Y218.525
X327.657 Y218.765
X327.761 Y219.011
X327.85 Y219.264
X327.924 Y219.521
X327.982 Y219.782
X328.025 Y220.046
X328.052 Y220.313
X328.063 Y220.58
X328.058 Y220.848
X328.038 Y221.115
X328.001 Y221.38
X327.949 Y221.642
X327.881 Y221.901
X327.798 Y222.156
X327.7 Y222.405
X327.588 Y222.648
X327.461 Y222.883
X327.32 Y223.111
X327.166 Y223.33
X326.999 Y223.539
X326.821 Y223.738
X326.63 Y223.927
X326.429 Y224.103
X326.218 Y224.267
X325.997 Y224.419
X325.767 Y224.557
X325.53 Y224.681
X325.286 Y224.79
X325.036 Y224.885
X324.781 Y224.965
X324.521 Y225.03
X324.258 Y225.079
X323.992 Y225.113
X323.725 Y225.13
X323.458 Y225.132
X323.19 Y225.117
X322.924 Y225.087
X322.661 Y225.041
X322.4 Y224.98
X322.144 Y224.903
X321.893 Y224.811
X321.647 Y224.704
X321.409 Y224.583
X321.178 Y224.448
X320.955 Y224.299
X320.742 Y224.137
X320.538 Y223.963
X320.346 Y223.778
X320.164 Y223.581
X319.995 Y223.373
X319.839 Y223.156
X319.695 Y222.93
X319.566 Y222.696
X319.45 Y222.455
X319.349 Y222.207
X319.263 Y221.953
X319.192 Y221.695
X319.137 Y221.433
X319.097 Y221.169
X319.073 Y220.902
X319.065 Y220.635
X319.073 Y220.367
X319.097 Y220.101
X319.137 Y219.836
X319.192 Y219.574
X319.263 Y219.316
X319.349 Y219.063
X319.449 Y218.815
X319.565 Y218.573
X319.695 Y218.339
X319.838 Y218.113
X319.994 Y217.896
X320.163 Y217.689
X320.345 Y217.492
X320.537 Y217.306
X320.74 Y217.132
X320.954 Y216.97
X321.176 Y216.821
X321.407 Y216.686
X321.646 Y216.565
X321.891 Y216.458
X322.142 Y216.366
X322.399 Y216.289
X322.659 Y216.227
X322.923 Y216.181
X323.189 Y216.151
X323.456 Y216.136
X323.723 Y216.138
X323.991 Y216.155
X324.256 Y216.189
X324.519 Y216.238
X324.779 Y216.302
X325.034 Y216.382
X325.284 Y216.477
X325.529 Y216.587
X325.766 Y216.711
X325.995 Y216.849
X326.216 Y217
X326.427 Y217.164
X326.629 Y217.34
X326.627 Y217.342 Z-4 F333.3
X326.817 Y217.53 F1000
X326.996 Y217.729
X327.163 Y217.938
X327.317 Y218.157
X327.457 Y218.384
X327.584 Y218.62
X327.697 Y218.862
X327.795 Y219.111
X327.878 Y219.365
X327.946 Y219.624
X327.998 Y219.886
X328.035 Y220.151
X328.056 Y220.418
X328.061 Y220.685
X328.05 Y220.952
X328.023 Y221.218
X327.981 Y221.482
X327.922 Y221.743
X327.849 Y222.001
X327.76 Y222.253
X327.656 Y222.499
X327.538 Y222.739
X327.406 Y222.972
X327.261 Y223.196
X327.102 Y223.411
X326.931 Y223.617
X326.748 Y223.812
X326.553 Y223.995
X326.348 Y224.167
X326.133 Y224.326
X325.909 Y224.473
X325.677 Y224.605
X325.438 Y224.724
X325.191 Y224.828
X324.939 Y224.917
X324.682 Y224.992
X324.421 Y225.051
X324.157 Y225.094
X323.891 Y225.121
X323.624 Y225.133
X323.357 Y225.128
X323.09 Y225.108
X322.825 Y225.072
X322.563 Y225.021
X322.304 Y224.953
X322.05 Y224.871
X321.801 Y224.774
X321.558 Y224.661
X321.322 Y224.535
X321.094 Y224.395
X320.875 Y224.242
X320.666 Y224.076
X320.466 Y223.897
X320.278 Y223.708
X320.101 Y223.507
X319.936 Y223.296
X319.785 Y223.076
X319.646 Y222.847
X319.522 Y222.61
X319.412 Y222.367
X319.316 Y222.117
X319.236 Y221.862
X319.17 Y221.603
X319.121 Y221.34
X319.087 Y221.075
X319.068 Y220.808
X319.066 Y220.54
X319.08 Y220.273
X319.109 Y220.008
X319.154 Y219.744
X319.215 Y219.484
X319.291 Y219.227
X319.382 Y218.976
X319.488 Y218.73
X319.609 Y218.492
X319.743 Y218.26
X319.891 Y218.038
X320.052 Y217.824
X320.225 Y217.62
X320.41 Y217.427
X320.607 Y217.246
X320.813 Y217.076
X321.03 Y216.919
X321.255 Y216.775
X321.488 Y216.645
X321.729 Y216.528
X321.977 Y216.427
X322.229 Y216.34
X322.487 Y216.268
X322.749 Y216.212
X323.013 Y216.171
X323.279 Y216.147
X323.546 Y216.138
X323.814 Y216.145
X324.08 Y216.168
X324.345 Y216.206
X324.606 Y216.26
X324.865 Y216.33
X325.118 Y216.415
X325.366 Y216.515
X325.608 Y216.63
X325.842 Y216.758
X326.069 Y216.901
X326.286 Y217.056
X326.494 Y217.224
X326.627 Y217.342
Z-6 F333.3
X326.817 Y217.53 F1000
X326.996 Y217.729
X327.163 Y217.938
X327.317 Y218.157
X327.457 Y218.384
X327.584 Y218.62
X327.697 Y218.862
X327.795 Y219.111
X327.878 Y219.365
X327.946 Y219.624
X327.998 Y219.886
X328.035 Y220.151
X328.056 Y220.418
X328.061 Y220.685
X328.05 Y220.952
X328.023 Y221.218
X327.981 Y221.482
X327.922 Y221.743
X327.849 Y222.001
X327.76 Y222.253
X327.656 Y222.499
X327.538 Y222.739
X327.406 Y222.972
X327.261 Y223.196
X327.102 Y223.411
X326.931 Y223.617
X326.748 Y223.812
X326.553 Y223.995
X326.348 Y224.167
X326.133 Y224.326
X325.909 Y224.473
X325.677 Y224.605
X325.438 Y224.724
X325.191 Y224.828
X324.939 Y224.917
X324.682 Y224.992
X324.421 Y225.051
X324.157 Y225.094
X323.891 Y225.121
X323.624 Y225.133
X323.357 Y225.128
X323.09 Y225.108
X322.825 Y225.072
X322.563 Y225.021
X322.304 Y224.953
X322.05 Y224.871
X321.801 Y224.774
X321.558 Y224.661
X321.322 Y224.535
X321.094 Y224.395
X320.875 Y224.242
X320.666 Y224.076
X320.466 Y223.897
X320.278 Y223.708
X320.101 Y223.507
X319.936 Y223.296
X319.785 Y223.076
X319.646 Y222.847
X319.522 Y222.61
X319.412 Y222.367
X319.316 Y222.117
X319.236 Y221.862
X319.17 Y221.603
X319.121 Y221.34
X319.087 Y221.075
X319.068 Y220.808
X319.066 Y220.54
X319.08 Y220.273
X319.109 Y220.008
X319.154 Y219.744
X319.215 Y219.484
X319.291 Y219.227
X319.382 Y218.976
X319.488 Y218.73
X319.609 Y218.492
X319.743 Y218.26
X319.891 Y218.038
X320.052 Y217.824
X320.225 Y217.62
X320.41 Y217.427
X320.607 Y217.246
X320.813 Y217.076
X321.03 Y216.919
X321.255 Y216.775
X321.488 Y216.645
X321.729 Y216.528
X321.977 Y216.427
X322.229 Y216.34
X322.487 Y216.268
X322.749 Y216.212
X323.013 Y216.171
X323.279 Y216.147
X323.546 Y216.138
X323.814 Y216.145
X324.08 Y216.168
X324.345 Y216.206
X324.606 Y216.26
X324.865 Y216.33
X325.118 Y216.415
X325.366 Y216.515
X325.608 Y216.63
X325.842 Y216.758
X326.069 Y216.901
X326.286 Y217.056
X326.494 Y217.224
X326.627 Y217.342
Z-8 F333.3
X326.817 Y217.53 F1000
X326.996 Y217.729
X327.163 Y217.938
X327.317 Y218.157
X327.457 Y218.384
X327.584 Y218.62
X327.697 Y218.862
X327.795 Y219.111
X327.878 Y219.365
X327.946 Y219.624
X327.998 Y219.886
X328.035 Y220.151
X328.056 Y220.418
X328.061 Y220.685
X328.05 Y220.952
X328.023 Y221.218
X327.981 Y221.482
X327.922 Y221.743
X327.849 Y222.001
X327.76 Y222.253
X327.656 Y222.499
X327.538 Y222.739
X327.406 Y222.972
X327.261 Y223.196
X327.102 Y223.411
X326.931 Y223.617
X326.748 Y223.812
X326.553 Y223.995
X326.348 Y224.167
X326.133 Y224.326
X325.909 Y224.473
X325.677 Y224.605
X325.438 Y224.724
X325.191 Y224.828
X324.939 Y224.917
X324.682 Y224.992
X324.421 Y225.051
X324.157 Y225.094
X323.891 Y225.121
X323.624 Y225.133
X323.357 Y225.128
X323.09 Y225.108
X322.825 Y225.072
X322.563 Y225.021
X322.304 Y224.953
X322.05 Y224.871
X321.801 Y224.774
X321.558 Y224.661
X321.322 Y224.535
X321.094 Y224.395
X320.875 Y224.242
X320.666 Y224.076
X320.466 Y223.897
X320.278 Y223.708
X320.101 Y223.507
X319.936 Y223.296
X319.785 Y223.076
X319.646 Y222.847
X319.522 Y222.61
X319.412 Y222.367
X319.316 Y222.117
X319.236 Y221.862
X319.17 Y221.603
X319.121 Y221.34
X319.087 Y221.075
X319.068 Y220.808
X319.066 Y220.54
X319.08 Y220.273
X319.109 Y220.008
X319.154 Y219.744
X319.215 Y219.484
X319.291 Y219.227
X319.382 Y218.976
X319.488 Y218.73
X319.609 Y218.492
X319.743 Y218.26
X319.891 Y218.038
X320.052 Y217.824
X320.225 Y217.62
X320.41 Y217.427
X320.607 Y217.246
X320.813 Y217.076
X321.03 Y216.919
X321.255 Y216.775
X321.488 Y216.645
X321.729 Y216.528
X321.977 Y216.427
X322.229 Y216.34
X322.487 Y216.268
X322.749 Y216.212
X323.013 Y216.171
X323.279 Y216.147
X323.546 Y216.138
X323.814 Y216.145
X324.08 Y216.168
X324.345 Y216.206
X324.606 Y216.26
X324.865 Y216.33
X325.118 Y216.415
X325.366 Y216.515
X325.608 Y216.63
X325.842 Y216.758
X326.069 Y216.901
X326.286 Y217.056
X326.494 Y217.224
X326.627 Y217.342
Z-10 F333.3
X326.817 Y217.53 F1000
X326.996 Y217.729
X327.163 Y217.938
X327.317 Y218.157
X327.457 Y218.384
X327.584 Y218.62
X327.697 Y218.862
X327.795 Y219.111
X327.878 Y219.365
X327.946 Y219.624
X327.998 Y219.886
X328.035 Y220.151
X328.056 Y220.418
X328.061 Y220.685
X328.05 Y220.952
X328.023 Y221.218
X327.981 Y221.482
X327.922 Y221.743
X327.849 Y222.001
X327.76 Y222.253
X327.656 Y222.499
X327.538 Y222.739
X327.406 Y222.972
X327.261 Y223.196
X327.102 Y223.411
X326.931 Y223.617
X326.748 Y223.812
X326.553 Y223.995
X326.348 Y224.167
X326.133 Y224.326
X325.909 Y224.473
X325.677 Y224.605
X325.438 Y224.724
X325.191 Y224.828
X324.939 Y224.917
X324.682 Y224.992
X324.421 Y225.051
X324.157 Y225.094
X323.891 Y225.121
X323.624 Y225.133
X323.357 Y225.128
X323.09 Y225.108
X322.825 Y225.072
X322.563 Y225.021
X322.304 Y224.953
X322.05 Y224.871
X321.801 Y224.774
X321.558 Y224.661
X321.322 Y224.535
X321.094 Y224.395
X320.875 Y224.242
X320.666 Y224.076
X320.466 Y223.897
X320.278 Y223.708
X320.101 Y223.507
X319.936 Y223.296
X319.785 Y223.076
X319.646 Y222.847
X319.522 Y222.61
X319.412 Y222.367
X319.316 Y222.117
X319.236 Y221.862
X319.17 Y221.603
X319.121 Y221.34
X319.087 Y221.075
X319.068 Y220.808
X319.066 Y220.54
X319.08 Y220.273
X319.109 Y220.008
X319.154 Y219.744
X319.215 Y219.484
X319.291 Y219.227
X319.382 Y218.976
X319.488 Y218.73
X319.609 Y218.492
X319.743 Y218.26
X319.891 Y218.038
X320.052 Y217.824
X320.225 Y217.62
X320.41 Y217.427
X320.607 Y217.246
X320.813 Y217.076
X321.03 Y216.919
X321.255 Y216.775
X321.488 Y216.645
X321.729 Y216.528
X321.977 Y216.427
X322.229 Y216.34
X322.487 Y216.268
X322.749 Y216.212
X323.013 Y216.171
X323.279 Y216.147
X323.546 Y216.138
X323.814 Y216.145
X324.08 Y216.168
X324.345 Y216.206
X324.606 Y216.26
X324.865 Y216.33
X325.118 Y216.415
X325.366 Y216.515
X325.608 Y216.63
X325.842 Y216.758
X326.069 Y216.901
X326.286 Y217.056
X326.494 Y217.224
X326.627 Y217.342
Z10
X350.473 Y239.378
Z5
Z-2 F333.3
X350.44 Y239.414 F1000
G3 X349.028 Y238.002 I-0.706 J-0.706
X350.473 Y239.379 I0.706 J0.706
G1 Y239.378 Z-4 F333.3
G3 X348.994 Y238.037 I-0.739 J-0.671 F1000
X350.507 Y239.337 I0.739 J0.671
G1 X350.473 Y239.378
Z-6 F333.3
G3 X348.994 Y238.037 I-0.739 J-0.671 F1000
X350.507 Y239.337 I0.739 J0.671
G1 X350.473 Y239.378
Z-8 F333.3
G3 X348.994 Y238.037 I-0.739 J-0.671 F1000
X350.507 Y239.337 I0.739 J0.671
G1 X350.473 Y239.378
Z-10 F333.3
G3 X348.994 Y238.037 I-0.739 J-0.671 F1000
X350.507 Y239.337 I0.739 J0.671
G1 X350.473 Y239.378
Z10
X374.627 Y255.495
Z5
Z-2 F333.3
X374.528 Y255.674 F1000
G3 X365.059 Y250.08 I-4.709 J-2.841
G1 X365.214 Y249.828
X365.382 Y249.584
X365.564 Y249.35
X365.757 Y249.126
X365.963 Y248.913
X366.179 Y248.711
X366.406 Y248.521
X366.643 Y248.344
X366.889 Y248.179
X367.144 Y248.028
X367.406 Y247.891
X367.676 Y247.769
X367.952 Y247.661
X368.233 Y247.568
X368.518 Y247.49
X368.808 Y247.428
X369.1 Y247.381
X369.394 Y247.35
X369.69 Y247.335
X369.986 Y247.336
X370.282 Y247.353
X370.576 Y247.386
X370.868 Y247.435
X371.157 Y247.499
X371.442 Y247.579
X371.722 Y247.674
X371.997 Y247.784
X372.266 Y247.908
X372.527 Y248.047
X372.781 Y248.2
X373.026 Y248.366
X373.262 Y248.545
X373.488 Y248.736
X373.703 Y248.94
X373.907 Y249.154
X374.099 Y249.38
X374.278 Y249.615
X374.445 Y249.86
X374.598 Y250.113
X374.738 Y250.374
X374.863 Y250.642
X374.973 Y250.917
X375.069 Y251.197
X375.149 Y251.482
X375.214 Y251.771
X375.264 Y252.063
X375.297 Y252.357
X375.315 Y252.652
X375.317 Y252.948
X375.302 Y253.244
X375.272 Y253.539
X375.226 Y253.831
X375.165 Y254.121
X375.088 Y254.407
X374.995 Y254.688
X374.888 Y254.964
X374.766 Y255.233
X374.63 Y255.496
X374.627 Y255.495 Z-4 F333.3
X374.477 Y255.75 F1000
X374.313 Y255.996
X374.137 Y256.233
X373.947 Y256.461
X373.746 Y256.678
X373.533 Y256.884
X373.31 Y257.078
X373.077 Y257.259
X372.834 Y257.428
X372.582 Y257.584
X372.322 Y257.726
X372.055 Y257.853
X371.782 Y257.967
X371.503 Y258.065
X371.219 Y258.148
X370.931 Y258.216
X370.64 Y258.268
X370.346 Y258.304
X370.051 Y258.325
X369.755 Y258.329
X369.459 Y258.318
X369.165 Y258.291
X368.872 Y258.248
X368.582 Y258.189
X368.296 Y258.115
X368.014 Y258.026
X367.737 Y257.921
X367.466 Y257.802
X367.202 Y257.668
X366.946 Y257.52
X366.698 Y257.359
X366.459 Y257.185
X366.229 Y256.998
X366.01 Y256.799
X365.803 Y256.588
X365.606 Y256.367
X365.422 Y256.135
X365.251 Y255.894
X365.093 Y255.644
X364.948 Y255.386
X364.818 Y255.12
X364.702 Y254.848
X364.601 Y254.57
X364.515 Y254.287
X364.445 Y253.999
X364.389 Y253.709
X364.35 Y253.416
X364.327 Y253.121
X364.319 Y252.825
X364.327 Y252.529
X364.352 Y252.234
X364.392 Y251.941
X364.447 Y251.651
X364.519 Y251.363
X364.605 Y251.081
X364.707 Y250.803
X364.824 Y250.531
X364.955 Y250.266
X365.1 Y250.008
X365.259 Y249.758
X365.431 Y249.517
X365.615 Y249.286
X365.812 Y249.065
X366.02 Y248.855
X366.24 Y248.657
X366.47 Y248.47
X366.709 Y248.297
X366.958 Y248.136
X367.214 Y247.989
X367.479 Y247.856
X367.75 Y247.737
X368.027 Y247.634
X368.309 Y247.545
X368.595 Y247.471
X368.886 Y247.413
X369.178 Y247.371
X369.473 Y247.345
X369.769 Y247.334
X370.064 Y247.34
X370.36 Y247.361
X370.653 Y247.398
X370.944 Y247.451
X371.232 Y247.519
X371.516 Y247.603
X371.794 Y247.702
X372.068 Y247.816
X372.334 Y247.944
X372.593 Y248.087
X372.845 Y248.243
X373.087 Y248.412
X373.32 Y248.595
X373.543 Y248.789
X373.755 Y248.996
X373.956 Y249.213
X374.144 Y249.441
X374.32 Y249.679
X374.483 Y249.926
X374.633 Y250.181
X374.769 Y250.444
X374.89 Y250.713
X374.996 Y250.989
X375.088 Y251.271
X375.164 Y251.557
X375.225 Y251.846
X375.27 Y252.138
X375.3 Y252.433
X375.313 Y252.728
X375.311 Y253.024
X375.293 Y253.319
X375.258 Y253.613
X375.208 Y253.905
X375.143 Y254.193
X375.062 Y254.478
X374.966 Y254.758
X374.855 Y255.032
X374.729 Y255.3
X374.627 Y255.495
Z-6 F333.3
X374.477 Y255.75 F1000
X374.313 Y255.996
X374.137 Y256.233
X373.947 Y256.461
X373.746 Y256.678
X373.533 Y256.884
X373.31 Y257.078
X373.077 Y257.259
X372.834 Y257.428
X372.582 Y257.584
X372.322 Y257.726
X372.055 Y257.853
X371.782 Y257.967
X371.503 Y258.065
X371.219 Y258.148
X370.931 Y258.216
X370.64 Y258.268
X370.346 Y258.304
X370.051 Y258.325
X369.755 Y258.329
X369.459 Y258.318
X369.165 Y258.291
X368.872 Y258.248
X368.582 Y258.189
X368.296 Y258.115
X368.014 Y258.026
X367.737 Y257.921
X367.466 Y257.802
X367.202 Y257.668
X366.946 Y257.52
X366.698 Y257.359
X366.459 Y257.185
X366.229 Y256.998
X366.01 Y256.799
X365.803 Y256.588
X365.606 Y256.367
X365.422 Y256.135
X365.251 Y255.894
X365.093 Y255.644
X364.948 Y255.386
X364.818 Y255.12
X364.702 Y254.848
X364.601 Y254.57
X364.515 Y254.287
X364.445 Y253.999
X364.389 Y253.709
X364.35 Y253.416
X364.327 Y253.121
X364.319 Y252.825
X364.327 Y252.529
X364.352 Y252.234
X364.392 Y251.941
X364.447 Y251.651
X364.519 Y251.363
X364.605 Y251.081
X364.707 Y250.803
X364.824 Y250.531
X364.955 Y250.266
X365.1 Y250.008
X365.259 Y249.758
X365.431 Y249.517
X365.615 Y249.286
X365.812 Y249.065
X366.02 Y248.855
X366.24 Y248.657
X366.47 Y248.47
X366.709 Y248.297
X366.958 Y248.136
X367.214 Y247.989
X367.479 Y247.856
X367.75 Y247.737
X368.027 Y247.634
X368.309 Y247.545
X368.595 Y247.471
X368.886 Y247.413
X369.178 Y247.371
X369.473 Y247.345
X369.769 Y247.334
X370.064 Y247.34
X370.36 Y247.361
X370.653 Y247.398
X370.944 Y247.451
X371.232 Y247.519
X371.516 Y247.603
X371.794 Y247.702
X372.068 Y247.816
X372.334 Y247.944
X372.593 Y248.087
X372.845 Y248.243
X373.087 Y248.412
X373.32 Y248.595
X373.543 Y248.789
X373.755 Y248.996
X373.956 Y249.213
X374.144 Y249.441
X374.32 Y249.679
X374.483 Y249.926
X374.633 Y250.181
X374.769 Y250.444
X374.89 Y250.713
X374.996 Y250.989
X375.088 Y251.271
X375.164 Y251.557
X375.225 Y251.846
X375.27 Y252.138
X375.3 Y252.433
X375.313 Y252.728
X375.311 Y253.024
X375.293 Y253.319
X375.258 Y253.613
X375.208 Y253.905
X375.143 Y254.193
X375.062 Y254.478
X374.966 Y254.758
X374.855 Y255.032
X374.729 Y255.3
X374.627 Y255.495
Z-8 F333.3
X374.477 Y255.75 F1000
X374.313 Y255.996
X374.137 Y256.233
X373.947 Y256.461
X373.746 Y256.678
X373.533 Y256.884
X373.31 Y257.078
X373.077 Y257.259
X372.834 Y257.428
X372.582 Y257.584
X372.322 Y257.726
X372.055 Y257.853
X371.782 Y257.967
X371.503 Y258.065
X371.219 Y258.148
X370.931 Y258.216
X370.64 Y258.268
X370.346 Y258.304
X370.051 Y258.325
X369.755 Y258.329
X369.459 Y258.318
X369.165 Y258.291
X368.872 Y258.248
X368.582 Y258.189
X368.296 Y258.115
X368.014 Y258.026
X367.737 Y257.921
X367.466 Y257.802
X367.202 Y257.668
X366.946 Y257.52
X366.698 Y257.359
X366.459 Y257.185
X366.229 Y256.998
X366.01 Y256.799
X365.803 Y256.588
X365.606 Y256.367
X365.422 Y256.135
X365.251 Y255.894
X365.093 Y255.644
X364.948 Y255.386
X364.818 Y255.12
X364.702 Y254.848
X364.601 Y254.57
X364.515 Y254.287
X364.445 Y253.999
X364.389 Y253.709
X364.35 Y253.416
X364.327 Y253.121
X364.319 Y252.825
X364.327 Y252.529
X364.352 Y252.234
X364.392 Y251.941
X364.447 Y251.651
X364.519 Y251.363
X364.605 Y251.081
X364.707 Y250.803
X364.824 Y250.531
X364.955 Y250.266
X365.1 Y250.008
X365.259 Y249.758
X365.431 Y249.517
X365.615 Y249.286
X365.812 Y249.065
X366.02 Y248.855
X366.24 Y248.657
X366.47 Y248.47
X366.709 Y248.297
X366.958 Y248.136
X367.214 Y247.989
X367.479 Y247.856
X367.75 Y247.737
X368.027 Y247.634
X368.309 Y247.545
X368.595 Y247.471
X368.886 Y247.413
X369.178 Y247.371
X369.473 Y247.345
X369.769 Y247.334
X370.064 Y247.34
X370.36 Y247.361
X370.653 Y247.398
X370.944 Y247.451
X371.232 Y247.519
X371.516 Y247.603
X371.794 Y247.702
X372.068 Y247.816
X372.334 Y247.944
X372.593 Y248.087
X372.845 Y248.243
X373.087 Y248.412
X373.32 Y248.595
X373.543 Y248.789
X373.755 Y248.996
X373.956 Y249.213
X374.144 Y249.441
X374.32 Y249.679
X374.483 Y249.926
X374.633 Y250.181
X374.769 Y250.444
X374.89 Y250.713
X374.996 Y250.989
X375.088 Y251.271
X375.164 Y251.557
X375.225 Y251.846
X375.27 Y252.138
X375.3 Y252.433
X375.313 Y252.728
X375.311 Y253.024
X375.293 Y253.319
X375.258 Y253.613
X375.208 Y253.905
X375.143 Y254.193
X375.062 Y254.478
X374.966 Y254.758
X374.855 Y255.032
X374.729 Y255.3
X374.627 Y255.495
Z-10 F333.3
X374.477 Y255.75 F1000
X374.313 Y255.996
X374.137 Y256.233
X373.947 Y256.461
X373.746 Y256.678
X373.533 Y256.884
X373.31 Y257.078
X373.077 Y257.259
X372.834 Y257.428
X372.582 Y257.584
X372.322 Y257.726
X372.055 Y257.853
X371.782 Y257.967
X371.503 Y258.065
X371.219 Y258.148
X370.931 Y258.216
X370.64 Y258.268
X370.346 Y258.304
X370.051 Y258.325
X369.755 Y258.329
X369.459 Y258.318
X369.165 Y258.291
X368.872 Y258.248
X368.582 Y258.189
X368.296 Y258.115
X368.014 Y258.026
X367.737 Y257.921
X367.466 Y257.802
X367.202 Y257.668
X366.946 Y257.52
X366.698 Y257.359
X366.459 Y257.185
X366.229 Y256.998
X366.01 Y256.799
X365.803 Y256.588
X365.606 Y256.367
X365.422 Y256.135
X365.251 Y255.894
X365.093 Y255.644
X364.948 Y255.386
X364.818 Y255.12
X364.702 Y254.848
X364.601 Y254.57
X364.515 Y254.287
X364.445 Y253.999
X364.389 Y253.709
X364.35 Y253.416
X364.327 Y253.121
X364.319 Y252.825
X364.327 Y252.529
X364.352 Y252.234
X364.392 Y251.941
X364.447 Y251.651
X364.519 Y251.363
X364.605 Y251.081
X364.707 Y250.803
X364.824 Y250.531
X364.955 Y250.266
X365.1 Y250.008
X365.259 Y249.758
X365.431 Y249.517
X365.615 Y249.286
X365.812 Y249.065
X366.02 Y248.855
X366.24 Y248.657
X366.47 Y248.47
X366.709 Y248.297
X366.958 Y248.136
X367.214 Y247.989
X367.479 Y247.856
X367.75 Y247.737
X368.027 Y247.634
X368.309 Y247.545
X368.595 Y247.471
X368.886 Y247.413
X369.178 Y247.371
X369.473 Y247.345
X369.769 Y247.334
X370.064 Y247.34
X370.36 Y247.361
X370.653 Y247.398
X370.944 Y247.451
X371.232 Y247.519
X371.516 Y247.603
X371.794 Y247.702
X372.068 Y247.816
X372.334 Y247.944
X372.593 Y248.087
X372.845 Y248.243
X373.087 Y248.412
X373.32 Y248.595
X373.543 Y248.789
X373.755 Y248.996
X373.956 Y249.213
X374.144 Y249.441
X374.32 Y249.679
X374.483 Y249.926
X374.633 Y250.181
X374.769 Y250.444
X374.89 Y250.713
X374.996 Y250.989
X375.088 Y251.271
X375.164 Y251.557
X375.225 Y251.846
X375.27 Y252.138
X375.3 Y252.433
X375.313 Y252.728
X375.311 Y253.024
X375.293 Y253.319
X375.258 Y253.613
X375.208 Y253.905
X375.143 Y254.193
X375.062 Y254.478
X374.966 Y254.758
X374.855 Y255.032
X374.729 Y255.3
X374.627 Y255.495
Z10
X410.478 Y276.561
Z5
Z-2 F333.3
X410.51 Y276.759 F1000
X410.538 Y277.054
X410.551 Y277.35
X410.548 Y277.646
X410.528 Y277.941
X410.493 Y278.235
X410.442 Y278.527
X410.376 Y278.815
X410.294 Y279.1
X410.197 Y279.38
X410.085 Y279.654
X409.958 Y279.922
X409.817 Y280.182
X409.663 Y280.435
X409.495 Y280.678
X409.314 Y280.913
X409.12 Y281.137
X408.915 Y281.351
X408.699 Y281.553
X408.472 Y281.743
X408.235 Y281.921
X407.989 Y282.086
X407.735 Y282.237
X407.473 Y282.375
X407.203 Y282.498
X406.928 Y282.606
X406.647 Y282.7
X406.361 Y282.778
X406.072 Y282.841
X405.779 Y282.888
X405.485 Y282.919
X405.189 Y282.934
X404.893
X404.598 Y282.917
X404.303 Y282.885
X404.011 Y282.837
X403.722 Y282.773
X403.437 Y282.693
X403.156 Y282.599
X402.881 Y282.489
X402.612 Y282.365
X402.35 Y282.227
X402.097 Y282.074
X401.851 Y281.908
X401.615 Y281.73
X401.389 Y281.538
X401.174 Y281.335
X400.969 Y281.121
X400.777 Y280.896
X400.597 Y280.661
X400.43 Y280.416
X400.276 Y280.163
X400.137 Y279.902
X400.011 Y279.634
X399.9 Y279.359
X399.804 Y279.079
X399.723 Y278.794
X399.658 Y278.506
X399.608 Y278.214
X399.574 Y277.92
X399.556 Y277.624
X399.554 Y277.328
X399.568 Y277.032
X399.598 Y276.738
X399.643 Y276.445
X399.705 Y276.155
X399.781 Y275.869
X399.873 Y275.588
X399.98 Y275.312
X400.102 Y275.042
X400.238 Y274.779
X400.388 Y274.524
X400.552 Y274.277
X400.728 Y274.039
X400.917 Y273.811
X401.119 Y273.594
X401.331 Y273.388
X401.554 Y273.194
X401.788 Y273.012
X402.031 Y272.842
X402.283 Y272.686
X402.542 Y272.544
X402.809 Y272.416
X403.083 Y272.303
X403.362 Y272.204
X403.646 Y272.121
X403.934 Y272.053
X404.226 Y272
X404.52 Y271.964
X404.815 Y271.943
X405.111 Y271.938
X405.407 Y271.949
X405.702 Y271.977
X405.995 Y272.019
X406.285 Y272.078
X406.571 Y272.152
X406.854 Y272.242
X407.131 Y272.346
X407.402 Y272.465
X407.666 Y272.599
X407.922 Y272.747
X408.171 Y272.908
X408.41 Y273.083
X408.639 Y273.27
X408.859 Y273.469
X409.067 Y273.679
X409.263 Y273.901
X409.447 Y274.133
X409.619 Y274.374
X409.777 Y274.624
X409.922 Y274.883
X410.052 Y275.149
X410.168 Y275.421
X410.269 Y275.699
X410.355 Y275.983
X410.425 Y276.27
X410.48 Y276.561
X410.478 Z-4 F333.3
X410.517 Y276.855 F1000
X410.54 Y277.15
X410.548 Y277.446
X410.539 Y277.742
X410.515 Y278.037
X410.475 Y278.33
X410.419 Y278.621
X410.347 Y278.908
X410.261 Y279.191
X410.159 Y279.469
X410.042 Y279.741
X409.911 Y280.007
X409.765 Y280.264
X409.606 Y280.514
X409.434 Y280.755
X409.249 Y280.986
X409.052 Y281.207
X408.843 Y281.417
X408.623 Y281.615
X408.393 Y281.802
X408.154 Y281.975
X407.905 Y282.136
X407.648 Y282.283
X407.383 Y282.415
X407.112 Y282.534
X406.835 Y282.637
X406.552 Y282.726
X406.265 Y282.799
X405.975 Y282.857
X405.682 Y282.899
X405.387 Y282.925
X405.091 Y282.935
X404.795 Y282.929
X404.5 Y282.908
X404.206 Y282.87
X403.915 Y282.817
X403.627 Y282.748
X403.343 Y282.664
X403.064 Y282.564
X402.791 Y282.45
X402.525 Y282.321
X402.266 Y282.178
X402.015 Y282.021
X401.772 Y281.851
X401.539 Y281.668
X401.317 Y281.473
X401.105 Y281.267
X400.904 Y281.049
X400.716 Y280.82
X400.54 Y280.582
X400.378 Y280.335
X400.228 Y280.079
X400.093 Y279.816
X399.972 Y279.546
X399.866 Y279.269
X399.775 Y278.988
X399.699 Y278.701
X399.639 Y278.412
X399.594 Y278.119
X399.566 Y277.824
X399.553 Y277.529
X399.556 Y277.233
X399.575 Y276.937
X399.61 Y276.643
X399.66 Y276.352
X399.727 Y276.063
X399.808 Y275.779
X399.905 Y275.499
X400.017 Y275.225
X400.143 Y274.957
X400.284 Y274.697
X400.438 Y274.444
X400.606 Y274.2
X400.787 Y273.966
X400.98 Y273.741
X401.185 Y273.528
X401.401 Y273.325
X401.627 Y273.135
X401.864 Y272.957
X402.11 Y272.792
X402.364 Y272.64
X402.626 Y272.503
X402.895 Y272.379
X403.17 Y272.271
X403.451 Y272.177
X403.737 Y272.099
X404.026 Y272.036
X404.318 Y271.989
X404.613 Y271.957
X404.908 Y271.941
X405.204 Y271.942
X405.5 Y271.958
X405.794 Y271.99
X406.086 Y272.038
X406.375 Y272.102
X406.66 Y272.181
X406.941 Y272.275
X407.216 Y272.385
X407.485 Y272.509
X407.747 Y272.647
X408.001 Y272.799
X408.246 Y272.964
X408.482 Y273.143
X408.708 Y273.334
X408.924 Y273.537
X409.128 Y273.751
X409.321 Y273.976
X409.501 Y274.211
X409.668 Y274.455
X409.822 Y274.708
X409.962 Y274.969
X410.087 Y275.237
X410.199 Y275.511
X410.295 Y275.791
X410.376 Y276.076
X410.441 Y276.364
X410.478 Y276.561
Z-6 F333.3
X410.517 Y276.855 F1000
X410.54 Y277.15
X410.548 Y277.446
X410.539 Y277.742
X410.515 Y278.037
X410.475 Y278.33
X410.419 Y278.621
X410.347 Y278.908
X410.261 Y279.191
X410.159 Y279.469
X410.042 Y279.741
X409.911 Y280.007
X409.765 Y280.264
X409.606 Y280.514
X409.434 Y280.755
X409.249 Y280.986
X409.052 Y281.207
X408.843 Y281.417
X408.623 Y281.615
X408.393 Y281.802
X408.154 Y281.975
X407.905 Y282.136
X407.648 Y282.283
X407.383 Y282.415
X407.112 Y282.534
X406.835 Y282.637
X406.552 Y282.726
X406.265 Y282.799
X405.975 Y282.857
X405.682 Y282.899
X405.387 Y282.925
X405.091 Y282.935
X404.795 Y282.929
X404.5 Y282.908
X404.206 Y282.87
X403.915 Y282.817
X403.627 Y282.748
X403.343 Y282.664
X403.064 Y282.564
X402.791 Y282.45
X402.525 Y282.321
X402.266 Y282.178
X402.015 Y282.021
X401.772 Y281.851
X401.539 Y281.668
X401.317 Y281.473
X401.105 Y281.267
X400.904 Y281.049
X400.716 Y280.82
X400.54 Y280.582
X400.378 Y280.335
X400.228 Y280.079
X400.093 Y279.816
X399.972 Y279.546
X399.866 Y279.269
X399.775 Y278.988
X399.699 Y278.701
X399.639 Y278.412
X399.594 Y278.119
X399.566 Y277.824
X399.553 Y277.529
X399.556 Y277.233
X399.575 Y276.937
X399.61 Y276.643
X399.66 Y276.352
X399.727 Y276.063
X399.808 Y275.779
X399.905 Y275.499
X400.017 Y275.225
X400.143 Y274.957
X400.284 Y274.697
X400.438 Y274.444
X400.606 Y274.2
X400.787 Y273.966
X400.98 Y273.741
X401.185 Y273.528
X401.401 Y273.325
X401.627 Y273.135
X401.864 Y272.957
X402.11 Y272.792
X402.364 Y272.64
X402.626 Y272.503
X402.895 Y272.379
X403.17 Y272.271
X403.451 Y272.177
X403.737 Y272.099
X404.026 Y272.036
X404.318 Y271.989
X404.613 Y271.957
X404.908 Y271.941
X405.204 Y271.942
X405.5 Y271.958
X405.794 Y271.99
X406.086 Y272.038
X406.375 Y272.102
X406.66 Y272.181
X406.941 Y272.275
X407.216 Y272.385
X407.485 Y272.509
X407.747 Y272.647
X408.001 Y272.799
X408.246 Y272.964
X408.482 Y273.143
X408.708 Y273.334
X408.924 Y273.537
X409.128 Y273.751
X409.321 Y273.976
X409.501 Y274.211
X409.668 Y274.455
X409.822 Y274.708
X409.962 Y274.969
X410.087 Y275.237
X410.199 Y275.511
X410.295 Y275.791
X410.376 Y276.076
X410.441 Y276.364
X410.478 Y276.561
Z-8 F333.3
X410.517 Y276.855 F1000
X410.54 Y277.15
X410.548 Y277.446
X410.539 Y277.742
X410.515 Y278.037
X410.475 Y278.33
X410.419 Y278.621
X410.347 Y278.908
X410.261 Y279.191
X410.159 Y279.469
X410.042 Y279.741
X409.911 Y280.007
X409.765 Y280.264
X409.606 Y280.514
X409.434 Y280.755
X409.249 Y280.986
X409.052 Y281.207
X408.843 Y281.417
X408.623 Y281.615
X408.393 Y281.802
X408.154 Y281.975
X407.905 Y282.136
X407.648 Y282.283
X407.383 Y282.415
X407.112 Y282.534
X406.835 Y282.637
X406.552 Y282.726
X406.265 Y282.799
X405.975 Y282.857
X405.682 Y282.899
X405.387 Y282.925
X405.091 Y282.935
X404.795 Y282.929
X404.5 Y282.908
X404.206 Y282.87
X403.915 Y282.817
X403.627 Y282.748
X403.343 Y282.664
X403.064 Y282.564
X402.791 Y282.45
X402.525 Y282.321
X402.266 Y282.178
X402.015 Y282.021
X401.772 Y281.851
X401.539 Y281.668
X401.317 Y281.473
X401.105 Y281.267
X400.904 Y281.049
X400.716 Y280.82
X400.54 Y280.582
X400.378 Y280.335
X400.228 Y280.079
X400.093 Y279.816
X399.972 Y279.546
X399.866 Y279.269
X399.775 Y278.988
X399.699 Y278.701
X399.639 Y278.412
X399.594 Y278.119
X399.566 Y277.824
X399.553 Y277.529
X399.556 Y277.233
X399.575 Y276.937
X399.61 Y276.643
X399.66 Y276.352
X399.727 Y276.063
X399.808 Y275.779
X399.905 Y275.499
X400.017 Y275.225
X400.143 Y274.957
X400.284 Y274.697
X400.438 Y274.444
X400.606 Y274.2
X400.787 Y273.966
X400.98 Y273.741
X401.185 Y273.528
X401.401 Y273.325
X401.627 Y273.135
X401.864 Y272.957
X402.11 Y272.792
X402.364 Y272.64
X402.626 Y272.503
X402.895 Y272.379
X403.17 Y272.271
X403.451 Y272.177
X403.737 Y272.099
X404.026 Y272.036
X404.318 Y271.989
X404.613 Y271.957
X404.908 Y271.941
X405.204 Y271.942
X405.5 Y271.958
X405.794 Y271.99
X406.086 Y272.038
X406.375 Y272.102
X406.66 Y272.181
X406.941 Y272.275
X407.216 Y272.385
X407.485 Y272.509
X407.747 Y272.647
X408.001 Y272.799
X408.246 Y272.964
X408.482 Y273.143
X408.708 Y273.334
X408.924 Y273.537
X409.128 Y273.751
X409.321 Y273.976
X409.501 Y274.211
X409.668 Y274.455
X409.822 Y274.708
X409.962 Y274.969
X410.087 Y275.237
X410.199 Y275.511
X410.295 Y275.791
X410.376 Y276.076
X410.441 Y276.364
X410.478 Y276.561
Z-10 F333.3
X410.517 Y276.855 F1000
X410.54 Y277.15
X410.548 Y277.446
X410.539 Y277.742
X410.515 Y278.037
X410.475 Y278.33
X410.419 Y278.621
X410.347 Y278.908
X410.261 Y279.191
X410.159 Y279.469
X410.042 Y279.741
X409.911 Y280.007
X409.765 Y280.264
X409.606 Y280.514
X409.434 Y280.755
X409.249 Y280.986
X409.052 Y281.207
X408.843 Y281.417
X408.623 Y281.615
X408.393 Y281.802
X408.154 Y281.975
X407.905 Y282.136
X407.648 Y282.283
X407.383 Y282.415
X407.112 Y282.534
X406.835 Y282.637
X406.552 Y282.726
X406.265 Y282.799
X405.975 Y282.857
X405.682 Y282.899
X405.387 Y282.925
X405.091 Y282.935
X404.795 Y282.929
X404.5 Y282.908
X404.206 Y282.87
X403.915 Y282.817
X403.627 Y282.748
X403.343 Y282.664
X403.064 Y282.564
X402.791 Y282.45
X402.525 Y282.321
X402.266 Y282.178
X402.015 Y282.021
X401.772 Y281.851
X401.539 Y281.668
X401.317 Y281.473
X401.105 Y281.267
X400.904 Y281.049
X400.716 Y280.82
X400.54 Y280.582
X400.378 Y280.335
X400.228 Y280.079
X400.093 Y279.816
X399.972 Y279.546
X399.866 Y279.269
X399.775 Y278.988
X399.699 Y278.701
X399.639 Y278.412
X399.594 Y278.119
X399.566 Y277.824
X399.553 Y277.529
X399.556 Y277.233
X399.575 Y276.937
X399.61 Y276.643
X399.66 Y276.352
X399.727 Y276.063
X399.808 Y275.779
X399.905 Y275.499
X400.017 Y275.225
X400.143 Y274.957
X400.284 Y274.697
X400.438 Y274.444
X400.606 Y274.2
X400.787 Y273.966
X400.98 Y273.741
X401.185 Y273.528
X401.401 Y273.325
X401.627 Y273.135
X401.864 Y272.957
X402.11 Y272.792
X402.364 Y272.64
X402.626 Y272.503
X402.895 Y272.379
X403.17 Y272.271
X403.451 Y272.177
X403.737 Y272.099
X404.026 Y272.036
X404.318 Y271.989
X404.613 Y271.957
X404.908 Y271.941
X405.204 Y271.942
X405.5 Y271.958
X405.794 Y271.99
X406.086 Y272.038
X406.375 Y272.102
X406.66 Y272.181
X406.941 Y272.275
X407.216 Y272.385
X407.485 Y272.509
X407.747 Y272.647
X408.001 Y272.799
X408.246 Y272.964
X408.482 Y273.143
X408.708 Y273.334
X408.924 Y273.537
X409.128 Y273.751
X409.321 Y273.976
X409.501 Y274.211
X409.668 Y274.455
X409.822 Y274.708
X409.962 Y274.969
X410.087 Y275.237
X410.199 Y275.511
X410.295 Y275.791
X410.376 Y276.076
X410.441 Y276.364
X410.478 Y276.561
Z10
X424.066 Y290.251
Z5
Z-2 F333.3
X424.053 Y290.304 F1000
G3 X422.144 Y289.717 I-0.955 J-0.293
X424.067 Y290.252 I0.955 J0.293
G1 X424.066 Y290.251 Z-4 F333.3
G3 X422.129 Y289.769 I-0.969 J-0.241 F1000
X424.076 Y290.206 I0.969 J0.241
G1 X424.066 Y290.251
Z-6 F333.3
G3 X422.129 Y289.769 I-0.969 J-0.241 F1000
X424.076 Y290.206 I0.969 J0.241
G1 X424.066 Y290.251
Z-8 F333.3
G3 X422.129 Y289.769 I-0.969 J-0.241 F1000
X424.076 Y290.206 I0.969 J0.241
G1 X424.066 Y290.251
Z-10 F333.3
G3 X422.129 Y289.769 I-0.969 J-0.241 F1000
X424.076 Y290.206 I0.969 J0.241
G1 X424.066 Y290.251
Z10
X424.189 Y354.487
Z5
Z-2 F333.3
X424.186 Y354.54 F1000
G3 X422.199 Y354.338 I-0.994 J-0.101
X424.19 Y354.487 I0.994 J0.101
G1 X424.189 Z-4 F333.3
G3 X422.195 Y354.391 I-0.997 J-0.048 F1000
X424.19 Y354.431 I0.997 J0.048
G1 X424.189 Y354.487
Z-6 F333.3
G3 X422.195 Y354.391 I-0.997 J-0.048 F1000
X424.19 Y354.431 I0.997 J0.048
G1 X424.189 Y354.487
Z-8 F333.3
G3 X422.195 Y354.391 I-0.997 J-0.048 F1000
X424.19 Y354.431 I0.997 J0.048
G1 X424.189 Y354.487
Z-10 F333.3
G3 X422.195 Y354.391 I-0.997 J-0.048 F1000
X424.19 Y354.431 I0.997 J0.048
G1 X424.189 Y354.487
Z10
X463.373 Y380.879
Z5
Z-2 F333.3
X463.39 Y380.897 F1000
G3 X462.629 Y381.542 I-0.38 J0.323
X463.373 Y380.879 I0.38 J-0.323
G1 Z-4 F333.3
G3 X462.645 Y381.561 I-0.364 J0.341 F1000
X463.362 Y380.867 I0.364 J-0.341
G1 X463.373 Y380.879
Z-6 F333.3
G3 X462.645 Y381.561 I-0.364 J0.341 F1000
X463.362 Y380.867 I0.364 J-0.341
G1 X463.373 Y380.879
Z-8 F333.3
G3 X462.645 Y381.561 I-0.364 J0.341 F1000
X463.362 Y380.867 I0.364 J-0.341
G1 X463.373 Y380.879
Z-10 F333.3
G3 X462.645 Y381.561 I-0.364 J0.341 F1000
X463.362 Y380.867 I0.364 J-0.341
G1 X463.373 Y380.879
Z10
X517.89 Y326.691
Z5
Z-2 F333.3
X517.905 Y326.708 F1000
G3 X517.099 Y327.296 I-0.403 J0.294
X517.891 Y326.69 I0.403 J-0.294
G1 X517.89 Y326.691 Z-4 F333.3
G3 X517.112 Y327.314 I-0.389 J0.312 F1000
X517.879 Y326.677 I0.389 J-0.312
G1 X517.89 Y326.691
Z-6 F333.3
G3 X517.112 Y327.314 I-0.389 J0.312 F1000
X517.879 Y326.677 I0.389 J-0.312
G1 X517.89 Y326.691
Z-8 F333.3
G3 X517.112 Y327.314 I-0.389 J0.312 F1000
X517.879 Y326.677 I0.389 J-0.312
G1 X517.89 Y326.691
Z-10 F333.3
G3 X517.112 Y327.314 I-0.389 J0.312 F1000
X517.879 Y326.677 I0.389 J-0.312
G1 X517.89 Y326.691
Z10
X463.373 Y230.86
Z5
Z-2 F333.3
X463.39 Y230.878 F1000
G3 X462.629 Y231.524 I-0.38 J0.323
X463.373 Y230.86 I0.38 J-0.323
G1 Z-4 F333.3
G3 X462.645 Y231.542 I-0.364 J0.341 F1000
X463.362 Y230.848 I0.364 J-0.341
G1 X463.373 Y230.86
Z-6 F333.3
G3 X462.645 Y231.542 I-0.364 J0.341 F1000
X463.362 Y230.848 I0.364 J-0.341
G1 X463.373 Y230.86
Z-8 F333.3
G3 X462.645 Y231.542 I-0.364 J0.341 F1000
X463.362 Y230.848 I0.364 J-0.341
G1 X463.373 Y230.86
Z-10 F333.3
G3 X462.645 Y231.542 I-0.364 J0.341 F1000
X463.362 Y230.848 I0.364 J-0.341
G1 X463.373 Y230.86
Z10
X429.503 Y145.59
Z5
Z-2 F333.3
X434.877 Y149.343 F1000
X434.608 Y149.728
G2 X434.972 Y151.812 I1.23 J0.859
G1 X445.747 Y159.427
X430.164 Y181.476
X419.528 Y173.959
G2 X417.432 Y174.325 I-0.866 J1.225
G1 X417.129 Y174.759
X401.55 Y163.881
X401.925 Y163.343
G2 X401.561 Y161.26 I-1.23 J-0.858
G1 X228.459 Y38.914
X244.042 Y16.865
X417.006 Y139.114
G2 X419.102 Y138.747 I0.866 J-1.225
G1 X419.299 Y138.465
X429.503 Y145.59
Z-4 F333.3
X434.877 Y149.343 F1000
X434.608 Y149.728
G2 X434.972 Y151.812 I1.23 J0.859
G1 X445.747 Y159.427
X430.164 Y181.476
X419.528 Y173.959
G2 X417.432 Y174.325 I-0.866 J1.225
G1 X417.129 Y174.759
X401.55 Y163.881
X401.925 Y163.343
G2 X401.561 Y161.26 I-1.23 J-0.858
G1 X228.459 Y38.914
X244.042 Y16.865
X417.006 Y139.114
G2 X419.102 Y138.747 I0.866 J-1.225
G1 X419.299 Y138.465
X429.503 Y145.59
Z-6 F333.3
X434.877 Y149.343 F1000
X434.608 Y149.728
G2 X434.972 Y151.812 I1.23 J0.859
G1 X445.747 Y159.427
X430.164 Y181.476
X419.528 Y173.959
G2 X417.432 Y174.325 I-0.866 J1.225
G1 X417.129 Y174.759
X401.55 Y163.881
X401.925 Y163.343
G2 X401.561 Y161.26 I-1.23 J-0.858
G1 X228.459 Y38.914
X244.042 Y16.865
X417.006 Y139.114
G2 X419.102 Y138.747 I0.866 J-1.225
G1 X419.299 Y138.465
X429.503 Y145.59
Z-8 F333.3
X434.877 Y149.343 F1000
X434.608 Y149.728
G2 X434.972 Y151.812 I1.23 J0.859
G1 X445.747 Y159.427
X430.164 Y181.476
X419.528 Y173.959
G2 X417.432 Y174.325 I-0.866 J1.225
G1 X417.129 Y174.759
X401.55 Y163.881
X401.925 Y163.343
G2 X401.561 Y161.26 I-1.23 J-0.858
G1 X228.459 Y38.914
X244.042 Y16.865
X417.006 Y139.114
G2 X419.102 Y138.747 I0.866 J-1.225
G1 X419.299 Y138.465
X429.503 Y145.59
Z-10 F333.3
X434.877 Y149.343 F1000
X434.608 Y149.728
G2 X434.972 Y151.812 I1.23 J0.859
G1 X445.747 Y159.427
X430.164 Y181.476
X419.528 Y173.959
G2 X417.432 Y174.325 I-0.866 J1.225
G1 X417.129 Y174.759
X401.55 Y163.881
X401.925 Y163.343
G2 X401.561 Y161.26 I-1.23 J-0.858
G1 X228.459 Y38.914
X244.042 Y16.865
X417.006 Y139.114
G2 X419.102 Y138.747 I0.866 J-1.225
G1 X419.299 Y138.465
X429.503 Y145.59
Z10
X508.996 Y133.048
Z5
Z-2 F333.3
X508.993 Y133.1 F1000
G3 X507.006 Y132.899 I-0.994 J-0.101
X508.997 Y133.048 I0.994 J0.101
G1 X508.996 Z-4 F333.3
G3 X507.001 Y132.951 I-0.997 J-0.048 F1000
X508.997 Y132.992 I0.997 J0.048
G1 X508.996 Y133.048
Z-6 F333.3
G3 X507.001 Y132.951 I-0.997 J-0.048 F1000
X508.997 Y132.992 I0.997 J0.048
G1 X508.996 Y133.048
Z-8 F333.3
G3 X507.001 Y132.951 I-0.997 J-0.048 F1000
X508.997 Y132.992 I0.997 J0.048
G1 X508.996 Y133.048
Z-10 F333.3
G3 X507.001 Y132.951 I-0.997 J-0.048 F1000
X508.997 Y132.992 I0.997 J0.048
G1 X508.996 Y133.048
Z10
X517.892 Y180.837
Z5
Z-2 F333.3
X517.905 Y180.853 F1000
G3 X517.098 Y181.44 I-0.403 J0.293
X517.892 Y180.837 I0.403 J-0.293
G1 Z-4 F333.3
G3 X517.111 Y181.457 I-0.391 J0.31 F1000
X517.877 Y180.819 I0.391 J-0.31
G1 X517.892 Y180.837
Z-6 F333.3
G3 X517.111 Y181.457 I-0.391 J0.31 F1000
X517.877 Y180.819 I0.391 J-0.31
G1 X517.892 Y180.837
Z-8 F333.3
G3 X517.111 Y181.457 I-0.391 J0.31 F1000
X517.877 Y180.819 I0.391 J-0.31
G1 X517.892 Y180.837
Z-10 F333.3
G3 X517.111 Y181.457 I-0.391 J0.31 F1000
X517.877 Y180.819 I0.391 J-0.31
G1 X517.892 Y180.837
Z10
X392.622 Y32.805
Z5
Z-2 F333.3
X392.779 Y32.957 F1000
G3 X377.221 Y48.511 I-7.779 J7.777
X392.623 Y32.804 I7.779 J-7.777
G1 X392.622 Y32.805 Z-4 F333.3
G3 X377.376 Y48.664 I-7.623 J7.929 F1000
X392.477 Y32.669 I7.623 J-7.929
G1 X392.622 Y32.805
Z-6 F333.3
G3 X377.376 Y48.664 I-7.623 J7.929 F1000
X392.477 Y32.669 I7.623 J-7.929
G1 X392.622 Y32.805
Z-8 F333.3
G3 X377.376 Y48.664 I-7.623 J7.929 F1000
X392.477 Y32.669 I7.623 J-7.929
G1 X392.622 Y32.805
Z-10 F333.3
G3 X377.376 Y48.664 I-7.623 J7.929 F1000
X392.477 Y32.669 I7.623 J-7.929
G1 X392.622 Y32.805
Z10
X242.568 Y160.514
Z5
Z-2 F333.3
X242.713 Y160.664 F1000
G3 X226.287 Y175.893 I-8.213 J7.614
X242.569 Y160.512 I8.213 J-7.614
G1 X242.568 Y160.514 Z-4 F333.3
G3 X226.43 Y176.045 I-8.069 J7.766 F1000
X242.418 Y160.36 I8.069 J-7.766
G1 X242.568 Y160.514
Z-6 F333.3
G3 X226.43 Y176.045 I-8.069 J7.766 F1000
X242.418 Y160.36 I8.069 J-7.766
G1 X242.568 Y160.514
Z-8 F333.3
G3 X226.43 Y176.045 I-8.069 J7.766 F1000
X242.418 Y160.36 I8.069 J-7.766
G1 X242.568 Y160.514
Z-10 F333.3
G3 X226.43 Y176.045 I-8.069 J7.766 F1000
X242.418 Y160.36 I8.069 J-7.766
G1 X242.568 Y160.514
Z10
X149.981 Y222.966
Z5
Z-2 F333.3
X149.911 Y223.119 F1000
G3 X141.882 Y219.057 I-4.015 J-2.031
X149.984 Y222.967 I4.015 J2.031
G1 X149.981 Y222.966 Z-4 F333.3
G3 X141.807 Y219.208 I-4.087 J-1.879 F1000
X150.05 Y222.808 I4.087 J1.879
G1 X149.981 Y222.966
Z-6 F333.3
G3 X141.807 Y219.208 I-4.087 J-1.879 F1000
X150.05 Y222.808 I4.087 J1.879
G1 X149.981 Y222.966
Z-8 F333.3
G3 X141.807 Y219.208 I-4.087 J-1.879 F1000
X150.05 Y222.808 I4.087 J1.879
G1 X149.981 Y222.966
Z-10 F333.3
G3 X141.807 Y219.208 I-4.087 J-1.879 F1000
X150.05 Y222.808 I4.087 J1.879
G1 X149.981 Y222.966
Z10
X121.106 Y238.932
Z5
Z-2 F333.3
X121.098 Y238.984 F1000
G3 X119.14 Y238.587 I-0.979 J-0.198
X121.107 Y238.932 I0.979 J0.198
G1 X121.106 Z-4 F333.3
G3 X119.131 Y238.638 I-0.987 J-0.147 F1000
X121.111 Y238.883 I0.987 J0.147
G1 X121.106 Y238.932
Z-6 F333.3
G3 X119.131 Y238.638 I-0.987 J-0.147 F1000
X121.111 Y238.883 I0.987 J0.147
G1 X121.106 Y238.932
Z-8 F333.3
G3 X119.131 Y238.638 I-0.987 J-0.147 F1000
X121.111 Y238.883 I0.987 J0.147
G1 X121.106 Y238.932
Z-10 F333.3
G3 X119.131 Y238.638 I-0.987 J-0.147 F1000
X121.111 Y238.883 I0.987 J0.147
G1 X121.106 Y238.932
Z10
X105.315 Y254.425
Z5
Z-2 F333.3
X105.254 Y254.639 F1000
G3 X94.813 Y251.181 I-5.221 J-1.729
X105.32 Y254.427 I5.221 J1.729
G1 X105.315 Y254.425 Z-4 F333.3
G3 X94.746 Y251.394 I-5.285 J-1.516 F1000
X105.367 Y254.23 I5.285 J1.516
G1 X105.315 Y254.425
Z-6 F333.3
G3 X94.746 Y251.394 I-5.285 J-1.516 F1000
X105.367 Y254.23 I5.285 J1.516
G1 X105.315 Y254.425
Z-8 F333.3
G3 X94.746 Y251.394 I-5.285 J-1.516 F1000
X105.367 Y254.23 I5.285 J1.516
G1 X105.315 Y254.425
Z-10 F333.3
G3 X94.746 Y251.394 I-5.285 J-1.516 F1000
X105.367 Y254.23 I5.285 J1.516
G1 X105.315 Y254.425
Z10
X66.534 Y272.098
Z5
Z-2 F333.3
X66.726 Y272.158 F1000
X67.002 Y272.265
X67.272 Y272.387
X67.535 Y272.522
X67.79 Y272.672
X68.037 Y272.836
X68.275 Y273.012
X68.503 Y273.201
X68.721 Y273.402
X68.927 Y273.614
X69.122 Y273.837
X69.304 Y274.071
X69.474 Y274.313
X69.63 Y274.565
X69.772 Y274.824
X69.901 Y275.091
X70.014 Y275.365
X70.113 Y275.644
X70.197 Y275.928
X70.265 Y276.216
X70.318 Y276.507
X70.355 Y276.801
X70.376 Y277.096
X70.381 Y277.393
X70.37 Y277.688
X70.343 Y277.983
X70.301 Y278.276
X70.242 Y278.567
X70.168 Y278.853
X70.079 Y279.136
X69.975 Y279.413
X69.856 Y279.684
X69.723 Y279.948
X69.575 Y280.205
X69.414 Y280.454
X69.24 Y280.693
X69.053 Y280.923
X68.854 Y281.142
X68.644 Y281.35
X68.423 Y281.547
X68.191 Y281.732
X67.95 Y281.903
X67.7 Y282.062
X67.441 Y282.207
X67.176 Y282.337
X66.903 Y282.453
X66.625 Y282.555
X66.342 Y282.641
X66.054 Y282.712
X65.764 Y282.767
X65.47 Y282.807
X65.175 Y282.831
X64.879 Y282.839
X64.583 Y282.83
X64.288 Y282.806
X63.995 Y282.766
X63.704 Y282.711
X63.416 Y282.64
X63.133 Y282.553
X62.855 Y282.451
X62.583 Y282.335
X62.317 Y282.204
X62.059 Y282.059
X61.809 Y281.9
X61.568 Y281.728
X61.337 Y281.543
X61.116 Y281.346
X60.906 Y281.138
X60.707 Y280.918
X60.52 Y280.689
X60.346 Y280.449
X60.186 Y280.2
X60.039 Y279.943
X59.905 Y279.679
X59.787 Y279.408
X59.683 Y279.13
X59.594 Y278.848
X59.52 Y278.561
X59.462 Y278.271
X59.42 Y277.978
X59.394 Y277.683
X59.383 Y277.387
X59.389 Y277.091
X59.41 Y276.796
X59.447 Y276.502
X59.5 Y276.211
X59.569 Y275.923
X59.653 Y275.639
X59.752 Y275.36
X59.866 Y275.087
X59.994 Y274.82
X60.137 Y274.56
X60.294 Y274.309
X60.463 Y274.067
X60.646 Y273.833
X60.841 Y273.611
X61.047 Y273.398
X61.265 Y273.198
X61.493 Y273.009
X61.731 Y272.833
X61.978 Y272.67
X62.234 Y272.52
X62.497 Y272.385
X62.767 Y272.264
X63.043 Y272.157
X63.325 Y272.066
X63.611 Y271.99
X63.901 Y271.929
X64.194 Y271.884
X64.488 Y271.855
X64.784 Y271.842
X65.08 Y271.845
X65.375 Y271.863
X65.67 Y271.898
X65.961 Y271.948
X66.25 Y272.014
X66.535 Y272.095
X66.534 Y272.098 Z-4 F333.3
X66.814 Y272.194 F1000
X67.088 Y272.306
X67.356 Y272.432
X67.616 Y272.572
X67.869 Y272.727
X68.113 Y272.894
X68.348 Y273.074
X68.573 Y273.267
X68.787 Y273.472
X68.989 Y273.688
X69.18 Y273.914
X69.358 Y274.15
X69.523 Y274.396
X69.675 Y274.65
X69.813 Y274.912
X69.937 Y275.181
X70.046 Y275.456
X70.14 Y275.737
X70.218 Y276.023
X70.282 Y276.312
X70.329 Y276.604
X70.361 Y276.898
X70.377 Y277.194
Y277.49
X70.361 Y277.786
X70.329 Y278.08
X70.282 Y278.372
X70.218 Y278.661
X70.14 Y278.947
X70.046 Y279.227
X69.937 Y279.503
X69.813 Y279.771
X69.675 Y280.033
X69.523 Y280.288
X69.358 Y280.533
X69.18 Y280.769
X68.989 Y280.996
X68.786 Y281.212
X68.572 Y281.416
X68.348 Y281.609
X68.113 Y281.789
X67.869 Y281.957
X67.616 Y282.111
X67.355 Y282.251
X67.088 Y282.377
X66.813 Y282.489
X66.533 Y282.585
X66.249 Y282.667
X65.96 Y282.733
X65.668 Y282.783
X65.374 Y282.817
X65.079 Y282.836
X64.783 Y282.839
X64.487 Y282.825
X64.193 Y282.796
X63.9 Y282.751
X63.61 Y282.691
X63.324 Y282.614
X63.043 Y282.523
X62.767 Y282.417
X62.496 Y282.295
X62.233 Y282.16
X61.978 Y282.01
X61.731 Y281.847
X61.493 Y281.671
X61.265 Y281.483
X61.047 Y281.282
X60.841 Y281.07
X60.646 Y280.847
X60.463 Y280.614
X60.294 Y280.371
X60.137 Y280.12
X59.994 Y279.861
X59.866 Y279.594
X59.752 Y279.321
X59.653 Y279.042
X59.569 Y278.758
X59.501 Y278.47
X59.448 Y278.179
X59.41 Y277.885
X59.389 Y277.59
X59.384 Y277.294
X59.394 Y276.998
X59.421 Y276.703
X59.463 Y276.41
X59.521 Y276.12
X59.595 Y275.833
X59.684 Y275.551
X59.787 Y275.274
X59.906 Y275.003
X60.039 Y274.738
X60.186 Y274.481
X60.347 Y274.233
X60.521 Y273.993
X60.708 Y273.763
X60.906 Y273.544
X61.117 Y273.336
X61.338 Y273.139
X61.569 Y272.954
X61.81 Y272.782
X62.06 Y272.624
X62.318 Y272.479
X62.583 Y272.348
X62.856 Y272.231
X63.134 Y272.13
X63.417 Y272.043
X63.704 Y271.972
X63.995 Y271.916
X64.288 Y271.877
X64.583 Y271.853
X64.879 Y271.845
X65.175 Y271.852
X65.47 Y271.876
X65.763 Y271.916
X66.054 Y271.971
X66.341 Y272.042
X66.534 Y272.098
Z-6 F333.3
X66.814 Y272.194 F1000
X67.088 Y272.306
X67.356 Y272.432
X67.616 Y272.572
X67.869 Y272.727
X68.113 Y272.894
X68.348 Y273.074
X68.573 Y273.267
X68.787 Y273.472
X68.989 Y273.688
X69.18 Y273.914
X69.358 Y274.15
X69.523 Y274.396
X69.675 Y274.65
X69.813 Y274.912
X69.937 Y275.181
X70.046 Y275.456
X70.14 Y275.737
X70.218 Y276.023
X70.282 Y276.312
X70.329 Y276.604
X70.361 Y276.898
X70.377 Y277.194
Y277.49
X70.361 Y277.786
X70.329 Y278.08
X70.282 Y278.372
X70.218 Y278.661
X70.14 Y278.947
X70.046 Y279.227
X69.937 Y279.503
X69.813 Y279.771
X69.675 Y280.033
X69.523 Y280.288
X69.358 Y280.533
X69.18 Y280.769
X68.989 Y280.996
X68.786 Y281.212
X68.572 Y281.416
X68.348 Y281.609
X68.113 Y281.789
X67.869 Y281.957
X67.616 Y282.111
X67.355 Y282.251
X67.088 Y282.377
X66.813 Y282.489
X66.533 Y282.585
X66.249 Y282.667
X65.96 Y282.733
X65.668 Y282.783
X65.374 Y282.817
X65.079 Y282.836
X64.783 Y282.839
X64.487 Y282.825
X64.193 Y282.796
X63.9 Y282.751
X63.61 Y282.691
X63.324 Y282.614
X63.043 Y282.523
X62.767 Y282.417
X62.496 Y282.295
X62.233 Y282.16
X61.978 Y282.01
X61.731 Y281.847
X61.493 Y281.671
X61.265 Y281.483
X61.047 Y281.282
X60.841 Y281.07
X60.646 Y280.847
X60.463 Y280.614
X60.294 Y280.371
X60.137 Y280.12
X59.994 Y279.861
X59.866 Y279.594
X59.752 Y279.321
X59.653 Y279.042
X59.569 Y278.758
X59.501 Y278.47
X59.448 Y278.179
X59.41 Y277.885
X59.389 Y277.59
X59.384 Y277.294
X59.394 Y276.998
X59.421 Y276.703
X59.463 Y276.41
X59.521 Y276.12
X59.595 Y275.833
X59.684 Y275.551
X59.787 Y275.274
X59.906 Y275.003
X60.039 Y274.738
X60.186 Y274.481
X60.347 Y274.233
X60.521 Y273.993
X60.708 Y273.763
X60.906 Y273.544
X61.117 Y273.336
X61.338 Y273.139
X61.569 Y272.954
X61.81 Y272.782
X62.06 Y272.624
X62.318 Y272.479
X62.583 Y272.348
X62.856 Y272.231
X63.134 Y272.13
X63.417 Y272.043
X63.704 Y271.972
X63.995 Y271.916
X64.288 Y271.877
X64.583 Y271.853
X64.879 Y271.845
X65.175 Y271.852
X65.47 Y271.876
X65.763 Y271.916
X66.054 Y271.971
X66.341 Y272.042
X66.534 Y272.098
Z-8 F333.3
X66.814 Y272.194 F1000
X67.088 Y272.306
X67.356 Y272.432
X67.616 Y272.572
X67.869 Y272.727
X68.113 Y272.894
X68.348 Y273.074
X68.573 Y273.267
X68.787 Y273.472
X68.989 Y273.688
X69.18 Y273.914
X69.358 Y274.15
X69.523 Y274.396
X69.675 Y274.65
X69.813 Y274.912
X69.937 Y275.181
X70.046 Y275.456
X70.14 Y275.737
X70.218 Y276.023
X70.282 Y276.312
X70.329 Y276.604
X70.361 Y276.898
X70.377 Y277.194
Y277.49
X70.361 Y277.786
X70.329 Y278.08
X70.282 Y278.372
X70.218 Y278.661
X70.14 Y278.947
X70.046 Y279.227
X69.937 Y279.503
X69.813 Y279.771
X69.675 Y280.033
X69.523 Y280.288
X69.358 Y280.533
X69.18 Y280.769
X68.989 Y280.996
X68.786 Y281.212
X68.572 Y281.416
X68.348 Y281.609
X68.113 Y281.789
X67.869 Y281.957
X67.616 Y282.111
X67.355 Y282.251
X67.088 Y282.377
X66.813 Y282.489
X66.533 Y282.585
X66.249 Y282.667
X65.96 Y282.733
X65.668 Y282.783
X65.374 Y282.817
X65.079 Y282.836
X64.783 Y282.839
X64.487 Y282.825
X64.193 Y282.796
X63.9 Y282.751
X63.61 Y282.691
X63.324 Y282.614
X63.043 Y282.523
X62.767 Y282.417
X62.496 Y282.295
X62.233 Y282.16
X61.978 Y282.01
X61.731 Y281.847
X61.493 Y281.671
X61.265 Y281.483
X61.047 Y281.282
X60.841 Y281.07
X60.646 Y280.847
X60.463 Y280.614
X60.294 Y280.371
X60.137 Y280.12
X59.994 Y279.861
X59.866 Y279.594
X59.752 Y279.321
X59.653 Y279.042
X59.569 Y278.758
X59.501 Y278.47
X59.448 Y278.179
X59.41 Y277.885
X59.389 Y277.59
X59.384 Y277.294
X59.394 Y276.998
X59.421 Y276.703
X59.463 Y276.41
X59.521 Y276.12
X59.595 Y275.833
X59.684 Y275.551
X59.787 Y275.274
X59.906 Y275.003
X60.039 Y274.738
X60.186 Y274.481
X60.347 Y274.233
X60.521 Y273.993
X60.708 Y273.763
X60.906 Y273.544
X61.117 Y273.336
X61.338 Y273.139
X61.569 Y272.954
X61.81 Y272.782
X62.06 Y272.624
X62.318 Y272.479
X62.583 Y272.348
X62.856 Y272.231
X63.134 Y272.13
X63.417 Y272.043
X63.704 Y271.972
X63.995 Y271.916
X64.288 Y271.877
X64.583 Y271.853
X64.879 Y271.845
X65.175 Y271.852
X65.47 Y271.876
X65.763 Y271.916
X66.054 Y271.971
X66.341 Y272.042
X66.534 Y272.098
Z-10 F333.3
X66.814 Y272.194 F1000
X67.088 Y272.306
X67.356 Y272.432
X67.616 Y272.572
X67.869 Y272.727
X68.113 Y272.894
X68.348 Y273.074
X68.573 Y273.267
X68.787 Y273.472
X68.989 Y273.688
X69.18 Y273.914
X69.358 Y274.15
X69.523 Y274.396
X69.675 Y274.65
X69.813 Y274.912
X69.937 Y275.181
X70.046 Y275.456
X70.14 Y275.737
X70.218 Y276.023
X70.282 Y276.312
X70.329 Y276.604
X70.361 Y276.898
X70.377 Y277.194
Y277.49
X70.361 Y277.786
X70.329 Y278.08
X70.282 Y278.372
X70.218 Y278.661
X70.14 Y278.947
X70.046 Y279.227
X69.937 Y279.503
X69.813 Y279.771
X69.675 Y280.033
X69.523 Y280.288
X69.358 Y280.533
X69.18 Y280.769
X68.989 Y280.996
X68.786 Y281.212
X68.572 Y281.416
X68.348 Y281.609
X68.113 Y281.789
X67.869 Y281.957
X67.616 Y282.111
X67.355 Y282.251
X67.088 Y282.377
X66.813 Y282.489
X66.533 Y282.585
X66.249 Y282.667
X65.96 Y282.733
X65.668 Y282.783
X65.374 Y282.817
X65.079 Y282.836
X64.783 Y282.839
X64.487 Y282.825
X64.193 Y282.796
X63.9 Y282.751
X63.61 Y282.691
X63.324 Y282.614
X63.043 Y282.523
X62.767 Y282.417
X62.496 Y282.295
X62.233 Y282.16
X61.978 Y282.01
X61.731 Y281.847
X61.493 Y281.671
X61.265 Y281.483
X61.047 Y281.282
X60.841 Y281.07
X60.646 Y280.847
X60.463 Y280.614
X60.294 Y280.371
X60.137 Y280.12
X59.994 Y279.861
X59.866 Y279.594
X59.752 Y279.321
X59.653 Y279.042
X59.569 Y278.758
X59.501 Y278.47
X59.448 Y278.179
X59.41 Y277.885
X59.389 Y277.59
X59.384 Y277.294
X59.394 Y276.998
X59.421 Y276.703
X59.463 Y276.41
X59.521 Y276.12
X59.595 Y275.833
X59.684 Y275.551
X59.787 Y275.274
X59.906 Y275.003
X60.039 Y274.738
X60.186 Y274.481
X60.347 Y274.233
X60.521 Y273.993
X60.708 Y273.763
X60.906 Y273.544
X61.117 Y273.336
X61.338 Y273.139
X61.569 Y272.954
X61.81 Y272.782
X62.06 Y272.624
X62.318 Y272.479
X62.583 Y272.348
X62.856 Y272.231
X63.134 Y272.13
X63.417 Y272.043
X63.704 Y271.972
X63.995 Y271.916
X64.288 Y271.877
X64.583 Y271.853
X64.879 Y271.845
X65.175 Y271.852
X65.47 Y271.876
X65.763 Y271.916
X66.054 Y271.971
X66.341 Y272.042
X66.534 Y272.098
Z10
X47.649 Y290.044
Z5
Z-2 F333.3
X47.646 Y290.095 F1000
G3 X45.659 Y289.896 I-0.994 J-0.1
X47.65 Y290.044 I0.994 J0.1
G1 X47.649 Z-4 F333.3
G3 X45.654 Y289.946 I-0.997 J-0.049 F1000
X47.649 Y289.987 I0.997 J0.049
G1 Y290.044
Z-6 F333.3
G3 X45.654 Y289.946 I-0.997 J-0.049 F1000
X47.649 Y289.987 I0.997 J0.049
G1 Y290.044
Z-8 F333.3
G3 X45.654 Y289.946 I-0.997 J-0.049 F1000
X47.649 Y289.987 I0.997 J0.049
G1 Y290.044
Z-10 F333.3
G3 X45.654 Y289.946 I-0.997 J-0.049 F1000
X47.649 Y289.987 I0.997 J0.049
G1 Y290.044
Z10
X6.31 Y326.613
Z5
Z-2 F333.3
X6.326 Y326.625 F1000
G3 X5.673 Y327.38 I-0.326 J0.377
X6.31 Y326.612 I0.326 J-0.377
G1 Y326.613 Z-4 F333.3
G3 X5.689 Y327.393 I-0.311 J0.39 F1000
X6.293 Y326.6 I0.311 J-0.39
G1 X6.31 Y326.613
Z-6 F333.3
G3 X5.689 Y327.393 I-0.311 J0.39 F1000
X6.293 Y326.6 I0.311 J-0.39
G1 X6.31 Y326.613
Z-8 F333.3
G3 X5.689 Y327.393 I-0.311 J0.39 F1000
X6.293 Y326.6 I0.311 J-0.39
G1 X6.31 Y326.613
Z-10 F333.3
G3 X5.689 Y327.393 I-0.311 J0.39 F1000
X6.293 Y326.6 I0.311 J-0.39
G1 X6.31 Y326.613
Z10
X46.692 Y355.48
Z5
Z-2 F333.3
G2 X45.267 Y357.051 I0.073 J1.498 F1000
X46.838 Y358.476 I1.498 J-0.073
G1 X47.085 Y358.464
Z10
X47.232 Y358.45
Z5
Z-2 F333.3
X47.475 Y358.414 F1000
Z10
X47.623 Y358.384
Z5
Z-2 F333.3
X47.86 Y358.324 F1000
X47.997 Y358.283
Z10
X48.226 Y358.201
Z5
Z-2 F333.3
X48.362 Y358.145 F1000
X48.582 Y358.041
Z10
X48.715 Y357.97
Z5
Z-2 F333.3
X48.924 Y357.844 F1000
Z10
X49.044 Y357.764
Z5
Z-2 F333.3
X49.241 Y357.618 F1000
X49.356 Y357.524
X49.54 Y357.358
G2 X47.526 Y355.134 I-1.007 J-1.112
G1 X47.148 Y355.4
X47.055 Y355.433
Z10
X47.148 Y355.4
Z5
Z-4 F333.3
X47.055 Y355.433 F1000
X46.692 Y355.48
G2 X45.267 Y357.051 I0.073 J1.498
X46.838 Y358.476 I1.498 J-0.073
G1 X47.085 Y358.464
Z10
X47.232 Y358.45
Z5
Z-4 F333.3
X47.475 Y358.414 F1000
Z10
X47.623 Y358.384
Z5
Z-4 F333.3
X47.86 Y358.324 F1000
X47.997 Y358.283
Z10
X48.226 Y358.201
Z5
Z-4 F333.3
X48.362 Y358.145 F1000
X48.582 Y358.041
Z10
X48.715 Y357.97
Z5
Z-4 F333.3
X48.924 Y357.844 F1000
Z10
X49.044 Y357.764
Z5
Z-4 F333.3
X49.241 Y357.618 F1000
X49.356 Y357.524
X49.54 Y357.358
G2 X47.526 Y355.134 I-1.007 J-1.112
G1 X47.148 Y355.4
Z-6 F333.3
X47.055 Y355.433 F1000
X46.692 Y355.48
G2 X45.267 Y357.051 I0.073 J1.498
X46.838 Y358.476 I1.498 J-0.073
G1 X47.085 Y358.464
Z10
X47.232 Y358.45
Z5
Z-6 F333.3
X47.475 Y358.414 F1000
Z10
X47.623 Y358.384
Z5
Z-6 F333.3
X47.86 Y358.324 F1000
X47.997 Y358.283
Z10
X48.226 Y358.201
Z5
Z-6 F333.3
X48.362 Y358.145 F1000
X48.582 Y358.041
Z10
X48.715 Y357.97
Z5
Z-6 F333.3
X48.924 Y357.844 F1000
Z10
X49.044 Y357.764
Z5
Z-6 F333.3
X49.241 Y357.618 F1000
X49.356 Y357.524
X49.54 Y357.358
G2 X47.526 Y355.134 I-1.007 J-1.112
G1 X47.148 Y355.4
Z-8 F333.3
X47.055 Y355.433 F1000
X46.692 Y355.48
G2 X45.267 Y357.051 I0.073 J1.498
X46.838 Y358.476 I1.498 J-0.073
G1 X47.085 Y358.464
Z10
X47.232 Y358.45
Z5
Z-8 F333.3
X47.475 Y358.414 F1000
Z10
X47.623 Y358.384
Z5
Z-8 F333.3
X47.86 Y358.324 F1000
X47.997 Y358.283
Z10
X48.226 Y358.201
Z5
Z-8 F333.3
X48.362 Y358.145 F1000
X48.582 Y358.041
Z10
X48.715 Y357.97
Z5
Z-8 F333.3
X48.924 Y357.844 F1000
Z10
X49.044 Y357.764
Z5
Z-8 F333.3
X49.241 Y357.618 F1000
X49.356 Y357.524
X49.54 Y357.358
G2 X47.526 Y355.134 I-1.007 J-1.112
G1 X47.148 Y355.4
Z-10 F333.3
X47.055 Y355.433 F1000
X46.692 Y355.48
G2 X45.267 Y357.051 I0.073 J1.498
X46.838 Y358.476 I1.498 J-0.073
G1 X47.085 Y358.464
Z10
X47.232 Y358.45
Z5
Z-10 F333.3
X47.475 Y358.414 F1000
Z10
X47.623 Y358.384
Z5
Z-10 F333.3
X47.86 Y358.324 F1000
X47.997 Y358.283
Z10
X48.226 Y358.201
Z5
Z-10 F333.3
X48.362 Y358.145 F1000
X48.582 Y358.041
Z10
X48.715 Y357.97
Z5
Z-10 F333.3
X48.924 Y357.844 F1000
Z10
X49.044 Y357.764
Z5
Z-10 F333.3
X49.241 Y357.618 F1000
X49.356 Y357.524
X49.54 Y357.358
G2 X47.526 Y355.134 I-1.007 J-1.112
G1 Z10
X96.778 Y328.865
Z5
Z-2 F333.3
X96.825 Y328.885 F1000
G3 X95.953 Y330.682 I-0.436 J0.898
X96.779 Y328.865 I0.436 J-0.898
G1 X96.778 Z-4 F333.3
G3 X96 Y330.703 I-0.389 J0.919 F1000
X96.726 Y328.846 I0.389 J-0.919
G1 X96.778 Y328.865
Z-6 F333.3
G3 X96 Y330.703 I-0.389 J0.919 F1000
X96.726 Y328.846 I0.389 J-0.919
G1 X96.778 Y328.865
Z-8 F333.3
G3 X96 Y330.703 I-0.389 J0.919 F1000
X96.726 Y328.846 I0.389 J-0.919
G1 X96.778 Y328.865
Z-10 F333.3
G3 X96 Y330.703 I-0.389 J0.919 F1000
X96.726 Y328.846 I0.389 J-0.919
G1 X96.778 Y328.865
Z10
X122.137 Y343.865
Z5
Z-2 F333.3
X126.63 Y346.039 F1000
G3 X125.941 Y352.609 I-1.583 J3.155
X123.607 Y352.342 I-0.791 J-3.421
G1 X119.042 Y350.144
G3 X117.414 Y345.44 I1.512 J-3.157
X122.137 Y343.865 I3.14 J1.547
G1 Z-4 F333.3
X126.63 Y346.039 F1000
G3 X125.941 Y352.609 I-1.583 J3.155
X123.607 Y352.342 I-0.791 J-3.421
G1 X119.042 Y350.144
G3 X117.414 Y345.44 I1.512 J-3.157
X122.137 Y343.865 I3.14 J1.547
G1 Z-6 F333.3
X126.63 Y346.039 F1000
G3 X125.941 Y352.609 I-1.583 J3.155
X123.607 Y352.342 I-0.791 J-3.421
G1 X119.042 Y350.144
G3 X117.414 Y345.44 I1.512 J-3.157
X122.137 Y343.865 I3.14 J1.547
G1 Z-8 F333.3
X126.63 Y346.039 F1000
G3 X125.941 Y352.609 I-1.583 J3.155
X123.607 Y352.342 I-0.791 J-3.421
G1 X119.042 Y350.144
G3 X117.414 Y345.44 I1.512 J-3.157
X122.137 Y343.865 I3.14 J1.547
G1 Z-10 F333.3
X126.63 Y346.039 F1000
G3 X125.941 Y352.609 I-1.583 J3.155
X123.607 Y352.342 I-0.791 J-3.421
G1 X119.042 Y350.144
G3 X117.414 Y345.44 I1.512 J-3.157
X122.137 Y343.865 I3.14 J1.547
G1 Z10
X136.533 Y321
Z5
Z-2 F333.3
X141.03 Y323.176 F1000
G3 X140.336 Y329.747 I-1.584 J3.155
X138.007 Y329.478 I-0.787 J-3.42
G1 X133.442 Y327.28
G3 X131.813 Y322.578 I1.511 J-3.157
X136.533 Y321 I3.14 J1.545
G1 Z-4 F333.3
X141.03 Y323.176 F1000
G3 X140.336 Y329.747 I-1.584 J3.155
X138.007 Y329.478 I-0.787 J-3.42
G1 X133.442 Y327.28
G3 X131.813 Y322.578 I1.511 J-3.157
X136.533 Y321 I3.14 J1.545
G1 Z-6 F333.3
X141.03 Y323.176 F1000
G3 X140.336 Y329.747 I-1.584 J3.155
X138.007 Y329.478 I-0.787 J-3.42
G1 X133.442 Y327.28
G3 X131.813 Y322.578 I1.511 J-3.157
X136.533 Y321 I3.14 J1.545
G1 Z-8 F333.3
X141.03 Y323.176 F1000
G3 X140.336 Y329.747 I-1.584 J3.155
X138.007 Y329.478 I-0.787 J-3.42
G1 X133.442 Y327.28
G3 X131.813 Y322.578 I1.511 J-3.157
X136.533 Y321 I3.14 J1.545
G1 Z-10 F333.3
X141.03 Y323.176 F1000
G3 X140.336 Y329.747 I-1.584 J3.155
X138.007 Y329.478 I-0.787 J-3.42
G1 X133.442 Y327.28
G3 X131.813 Y322.578 I1.511 J-3.157
X136.533 Y321 I3.14 J1.545
G1 Z10
X113.524 Y368.762
Z5
Z-2 F333.3
X118.017 Y370.937 F1000
G3 X117.327 Y377.506 I-1.583 J3.155
X114.996 Y377.24 I-0.791 J-3.417
G1 X110.429 Y375.041
G3 X108.801 Y370.337 I1.511 J-3.157
X113.524 Y368.762 I3.14 J1.547
G1 Z-4 F333.3
X118.017 Y370.937 F1000
G3 X117.327 Y377.506 I-1.583 J3.155
X114.996 Y377.24 I-0.791 J-3.417
G1 X110.429 Y375.041
G3 X108.801 Y370.337 I1.511 J-3.157
X113.524 Y368.762 I3.14 J1.547
G1 Z-6 F333.3
X118.017 Y370.937 F1000
G3 X117.327 Y377.506 I-1.583 J3.155
X114.996 Y377.24 I-0.791 J-3.417
G1 X110.429 Y375.041
G3 X108.801 Y370.337 I1.511 J-3.157
X113.524 Y368.762 I3.14 J1.547
G1 Z-8 F333.3
X118.017 Y370.937 F1000
G3 X117.327 Y377.506 I-1.583 J3.155
X114.996 Y377.24 I-0.791 J-3.417
G1 X110.429 Y375.041
G3 X108.801 Y370.337 I1.511 J-3.157
X113.524 Y368.762 I3.14 J1.547
G1 Z-10 F333.3
X118.017 Y370.937 F1000
G3 X117.327 Y377.506 I-1.583 J3.155
X114.996 Y377.24 I-0.791 J-3.417
G1 X110.429 Y375.041
G3 X108.801 Y370.337 I1.511 J-3.157
X113.524 Y368.762 I3.14 J1.547
G1 Z10
X46.478 Y479.675
Z5
Z-2 F333.3
X46.505 Y479.704 F1000
G3 X44.989 Y481.005 I-0.758 J0.65
X46.478 Y479.675 I0.758 J-0.65
G1 Z-4 F333.3
G3 X45.015 Y481.034 I-0.732 J0.679 F1000
X46.451 Y479.648 I0.732 J-0.679
G1 X46.478 Y479.675
Z-6 F333.3
G3 X45.015 Y481.034 I-0.732 J0.679 F1000
X46.451 Y479.648 I0.732 J-0.679
G1 X46.478 Y479.675
Z-8 F333.3
G3 X45.015 Y481.034 I-0.732 J0.679 F1000
X46.451 Y479.648 I0.732 J-0.679
G1 X46.478 Y479.675
Z-10 F333.3
G3 X45.015 Y481.034 I-0.732 J0.679 F1000
X46.451 Y479.648 I0.732 J-0.679
G1 X46.478 Y479.675
Z10
X41.632 Y499.139
Z5
Z-2 F333.3
X41.778 Y499.28 F1000
G3 X26.221 Y514.835 I-7.778 J7.778
X41.633 Y499.138 I7.778 J-7.778
G1 X41.632 Y499.139 Z-4 F333.3
X41.927 Y499.435 F1000
X42.211 Y499.741
X42.482 Y500.058
X42.742 Y500.385
X42.989 Y500.722
X43.223 Y501.067
X43.444 Y501.422
X43.651 Y501.784
X43.844 Y502.154
X44.023 Y502.532
X44.188 Y502.915
X44.338 Y503.305
X44.473 Y503.7
X44.593 Y504.1
X44.697 Y504.504
X44.787 Y504.912
X44.86 Y505.323
X44.918 Y505.737
X44.961 Y506.152
X44.987 Y506.569
X44.998 Y506.986
X44.993 Y507.404
X44.972 Y507.821
X44.935 Y508.236
X44.882 Y508.651
X44.814 Y509.063
X44.73 Y509.472
X44.631 Y509.877
X44.516 Y510.279
X44.386 Y510.675
X44.242 Y511.067
X44.082 Y511.453
X43.908 Y511.832
X43.72 Y512.205
X43.517 Y512.57
X43.301 Y512.928
X43.072 Y513.276
X42.829 Y513.616
X42.574 Y513.947
X42.306 Y514.267
X42.027 Y514.577
X41.736 Y514.877
X41.433 Y515.165
X41.12 Y515.441
X40.797 Y515.705
X40.464 Y515.957
X40.122 Y516.196
X39.771 Y516.422
X39.411 Y516.634
X39.044 Y516.833
X38.669 Y517.017
X38.288 Y517.187
X37.9 Y517.343
X37.507 Y517.483
X37.109 Y517.609
X36.706 Y517.719
X36.3 Y517.814
X35.89 Y517.894
X35.477 Y517.958
X35.063 Y518.006
X34.646 Y518.039
X34.229 Y518.055
X33.812 Y518.056
X33.394 Y518.041
X32.978 Y518.01
X32.563 Y517.964
X32.15 Y517.901
X31.74 Y517.823
X31.333 Y517.73
X30.93 Y517.621
X30.531 Y517.497
X30.138 Y517.358
X29.75 Y517.204
X29.368 Y517.035
X28.992 Y516.852
X28.624 Y516.655
X28.264 Y516.444
X27.912 Y516.22
X27.569 Y515.982
X27.234 Y515.732
X26.91 Y515.469
X26.596 Y515.194
X26.293 Y514.907
X26 Y514.609
X25.72 Y514.3
X25.451 Y513.98
X25.194 Y513.651
X24.95 Y513.312
X24.72 Y512.964
X24.502 Y512.608
X24.298 Y512.243
X24.109 Y511.871
X23.933 Y511.493
X23.772 Y511.107
X23.626 Y510.716
X23.494 Y510.32
X23.378 Y509.919
X23.277 Y509.514
X23.192 Y509.105
X23.122 Y508.693
X23.068 Y508.279
X23.029 Y507.864
X23.007 Y507.447
X23 Y507.029
X23.009 Y506.612
X23.034 Y506.195
X23.074 Y505.78
X23.131 Y505.366
X23.203 Y504.955
X23.291 Y504.546
X23.394 Y504.142
X23.512 Y503.741
X23.645 Y503.346
X23.794 Y502.956
X23.957 Y502.571
X24.134 Y502.193
X24.326 Y501.822
X24.532 Y501.459
X24.751 Y501.104
X24.984 Y500.757
X25.23 Y500.42
X25.488 Y500.092
X25.758 Y499.774
X26.041 Y499.466
X26.335 Y499.169
X26.64 Y498.884
X26.955 Y498.611
X27.281 Y498.35
X27.616 Y498.101
X27.961 Y497.865
X28.314 Y497.643
X28.676 Y497.434
X29.045 Y497.239
X29.421 Y497.058
X29.804 Y496.891
X30.193 Y496.739
X30.587 Y496.602
X30.986 Y496.48
X31.39 Y496.374
X31.798 Y496.282
X32.208 Y496.207
X32.621 Y496.146
X33.036 Y496.102
X33.453 Y496.073
X33.87 Y496.061
X34.288 Y496.064
X34.705 Y496.082
X35.121 Y496.117
X35.535 Y496.168
X35.948 Y496.234
X36.357 Y496.316
X36.763 Y496.413
X37.165 Y496.525
X37.563 Y496.653
X37.955 Y496.796
X38.342 Y496.954
X38.722 Y497.126
X39.096 Y497.312
X39.462 Y497.513
X39.82 Y497.727
X40.17 Y497.954
X40.511 Y498.195
X40.843 Y498.449
X41.165 Y498.715
X41.476 Y498.993
X41.632 Y499.139
Z-6 F333.3
X41.927 Y499.435 F1000
X42.211 Y499.741
X42.482 Y500.058
X42.742 Y500.385
X42.989 Y500.722
X43.223 Y501.067
X43.444 Y501.422
X43.651 Y501.784
X43.844 Y502.154
X44.023 Y502.532
X44.188 Y502.915
X44.338 Y503.305
X44.473 Y503.7
X44.593 Y504.1
X44.697 Y504.504
X44.787 Y504.912
X44.86 Y505.323
X44.918 Y505.737
X44.961 Y506.152
X44.987 Y506.569
X44.998 Y506.986
X44.993 Y507.404
X44.972 Y507.821
X44.935 Y508.236
X44.882 Y508.651
X44.814 Y509.063
X44.73 Y509.472
X44.631 Y509.877
X44.516 Y510.279
X44.386 Y510.675
X44.242 Y511.067
X44.082 Y511.453
X43.908 Y511.832
X43.72 Y512.205
X43.517 Y512.57
X43.301 Y512.928
X43.072 Y513.276
X42.829 Y513.616
X42.574 Y513.947
X42.306 Y514.267
X42.027 Y514.577
X41.736 Y514.877
X41.433 Y515.165
X41.12 Y515.441
X40.797 Y515.705
X40.464 Y515.957
X40.122 Y516.196
X39.771 Y516.422
X39.411 Y516.634
X39.044 Y516.833
X38.669 Y517.017
X38.288 Y517.187
X37.9 Y517.343
X37.507 Y517.483
X37.109 Y517.609
X36.706 Y517.719
X36.3 Y517.814
X35.89 Y517.894
X35.477 Y517.958
X35.063 Y518.006
X34.646 Y518.039
X34.229 Y518.055
X33.812 Y518.056
X33.394 Y518.041
X32.978 Y518.01
X32.563 Y517.964
X32.15 Y517.901
X31.74 Y517.823
X31.333 Y517.73
X30.93 Y517.621
X30.531 Y517.497
X30.138 Y517.358
X29.75 Y517.204
X29.368 Y517.035
X28.992 Y516.852
X28.624 Y516.655
X28.264 Y516.444
X27.912 Y516.22
X27.569 Y515.982
X27.234 Y515.732
X26.91 Y515.469
X26.596 Y515.194
X26.293 Y514.907
X26 Y514.609
X25.72 Y514.3
X25.451 Y513.98
X25.194 Y513.651
X24.95 Y513.312
X24.72 Y512.964
X24.502 Y512.608
X24.298 Y512.243
X24.109 Y511.871
X23.933 Y511.493
X23.772 Y511.107
X23.626 Y510.716
X23.494 Y510.32
X23.378 Y509.919
X23.277 Y509.514
X23.192 Y509.105
X23.122 Y508.693
X23.068 Y508.279
X23.029 Y507.864
X23.007 Y507.447
X23 Y507.029
X23.009 Y506.612
X23.034 Y506.195
X23.074 Y505.78
X23.131 Y505.366
X23.203 Y504.955
X23.291 Y504.546
X23.394 Y504.142
X23.512 Y503.741
X23.645 Y503.346
X23.794 Y502.956
X23.957 Y502.571
X24.134 Y502.193
X24.326 Y501.822
X24.532 Y501.459
X24.751 Y501.104
X24.984 Y500.757
X25.23 Y500.42
X25.488 Y500.092
X25.758 Y499.774
X26.041 Y499.466
X26.335 Y499.169
X26.64 Y498.884
X26.955 Y498.611
X27.281 Y498.35
X27.616 Y498.101
X27.961 Y497.865
X28.314 Y497.643
X28.676 Y497.434
X29.045 Y497.239
X29.421 Y497.058
X29.804 Y496.891
X30.193 Y496.739
X30.587 Y496.602
X30.986 Y496.48
X31.39 Y496.374
X31.798 Y496.282
X32.208 Y496.207
X32.621 Y496.146
X33.036 Y496.102
X33.453 Y496.073
X33.87 Y496.061
X34.288 Y496.064
X34.705 Y496.082
X35.121 Y496.117
X35.535 Y496.168
X35.948 Y496.234
X36.357 Y496.316
X36.763 Y496.413
X37.165 Y496.525
X37.563 Y496.653
X37.955 Y496.796
X38.342 Y496.954
X38.722 Y497.126
X39.096 Y497.312
X39.462 Y497.513
X39.82 Y497.727
X40.17 Y497.954
X40.511 Y498.195
X40.843 Y498.449
X41.165 Y498.715
X41.476 Y498.993
X41.632 Y499.139
Z-8 F333.3
X41.927 Y499.435 F1000
X42.211 Y499.741
X42.482 Y500.058
X42.742 Y500.385
X42.989 Y500.722
X43.223 Y501.067
X43.444 Y501.422
X43.651 Y501.784
X43.844 Y502.154
X44.023 Y502.532
X44.188 Y502.915
X44.338 Y503.305
X44.473 Y503.7
X44.593 Y504.1
X44.697 Y504.504
X44.787 Y504.912
X44.86 Y505.323
X44.918 Y505.737
X44.961 Y506.152
X44.987 Y506.569
X44.998 Y506.986
X44.993 Y507.404
X44.972 Y507.821
X44.935 Y508.236
X44.882 Y508.651
X44.814 Y509.063
X44.73 Y509.472
X44.631 Y509.877
X44.516 Y510.279
X44.386 Y510.675
X44.242 Y511.067
X44.082 Y511.453
X43.908 Y511.832
X43.72 Y512.205
X43.517 Y512.57
X43.301 Y512.928
X43.072 Y513.276
X42.829 Y513.616
X42.574 Y513.947
X42.306 Y514.267
X42.027 Y514.577
X41.736 Y514.877
X41.433 Y515.165
X41.12 Y515.441
X40.797 Y515.705
X40.464 Y515.957
X40.122 Y516.196
X39.771 Y516.422
X39.411 Y516.634
X39.044 Y516.833
X38.669 Y517.017
X38.288 Y517.187
X37.9 Y517.343
X37.507 Y517.483
X37.109 Y517.609
X36.706 Y517.719
X36.3 Y517.814
X35.89 Y517.894
X35.477 Y517.958
X35.063 Y518.006
X34.646 Y518.039
X34.229 Y518.055
X33.812 Y518.056
X33.394 Y518.041
X32.978 Y518.01
X32.563 Y517.964
X32.15 Y517.901
X31.74 Y517.823
X31.333 Y517.73
X30.93 Y517.621
X30.531 Y517.497
X30.138 Y517.358
X29.75 Y517.204
X29.368 Y517.035
X28.992 Y516.852
X28.624 Y516.655
X28.264 Y516.444
X27.912 Y516.22
X27.569 Y515.982
X27.234 Y515.732
X26.91 Y515.469
X26.596 Y515.194
X26.293 Y514.907
X26 Y514.609
X25.72 Y514.3
X25.451 Y513.98
X25.194 Y513.651
X24.95 Y513.312
X24.72 Y512.964
X24.502 Y512.608
X24.298 Y512.243
X24.109 Y511.871
X23.933 Y511.493
X23.772 Y511.107
X23.626 Y510.716
X23.494 Y510.32
X23.378 Y509.919
X23.277 Y509.514
X23.192 Y509.105
X23.122 Y508.693
X23.068 Y508.279
X23.029 Y507.864
X23.007 Y507.447
X23 Y507.029
X23.009 Y506.612
X23.034 Y506.195
X23.074 Y505.78
X23.131 Y505.366
X23.203 Y504.955
X23.291 Y504.546
X23.394 Y504.142
X23.512 Y503.741
X23.645 Y503.346
X23.794 Y502.956
X23.957 Y502.571
X24.134 Y502.193
X24.326 Y501.822
X24.532 Y501.459
X24.751 Y501.104
X24.984 Y500.757
X25.23 Y500.42
X25.488 Y500.092
X25.758 Y499.774
X26.041 Y499.466
X26.335 Y499.169
X26.64 Y498.884
X26.955 Y498.611
X27.281 Y498.35
X27.616 Y498.101
X27.961 Y497.865
X28.314 Y497.643
X28.676 Y497.434
X29.045 Y497.239
X29.421 Y497.058
X29.804 Y496.891
X30.193 Y496.739
X30.587 Y496.602
X30.986 Y496.48
X31.39 Y496.374
X31.798 Y496.282
X32.208 Y496.207
X32.621 Y496.146
X33.036 Y496.102
X33.453 Y496.073
X33.87 Y496.061
X34.288 Y496.064
X34.705 Y496.082
X35.121 Y496.117
X35.535 Y496.168
X35.948 Y496.234
X36.357 Y496.316
X36.763 Y496.413
X37.165 Y496.525
X37.563 Y496.653
X37.955 Y496.796
X38.342 Y496.954
X38.722 Y497.126
X39.096 Y497.312
X39.462 Y497.513
X39.82 Y497.727
X40.17 Y497.954
X40.511 Y498.195
X40.843 Y498.449
X41.165 Y498.715
X41.476 Y498.993
X41.632 Y499.139
Z-10 F333.3
X41.927 Y499.435 F1000
X42.211 Y499.741
X42.482 Y500.058
X42.742 Y500.385
X42.989 Y500.722
X43.223 Y501.067
X43.444 Y501.422
X43.651 Y501.784
X43.844 Y502.154
X44.023 Y502.532
X44.188 Y502.915
X44.338 Y503.305
X44.473 Y503.7
X44.593 Y504.1
X44.697 Y504.504
X44.787 Y504.912
X44.86 Y505.323
X44.918 Y505.737
X44.961 Y506.152
X44.987 Y506.569
X44.998 Y506.986
X44.993 Y507.404
X44.972 Y507.821
X44.935 Y508.236
X44.882 Y508.651
X44.814 Y509.063
X44.73 Y509.472
X44.631 Y509.877
X44.516 Y510.279
X44.386 Y510.675
X44.242 Y511.067
X44.082 Y511.453
X43.908 Y511.832
X43.72 Y512.205
X43.517 Y512.57
X43.301 Y512.928
X43.072 Y513.276
X42.829 Y513.616
X42.574 Y513.947
X42.306 Y514.267
X42.027 Y514.577
X41.736 Y514.877
X41.433 Y515.165
X41.12 Y515.441
X40.797 Y515.705
X40.464 Y515.957
X40.122 Y516.196
X39.771 Y516.422
X39.411 Y516.634
X39.044 Y516.833
X38.669 Y517.017
X38.288 Y517.187
X37.9 Y517.343
X37.507 Y517.483
X37.109 Y517.609
X36.706 Y517.719
X36.3 Y517.814
X35.89 Y517.894
X35.477 Y517.958
X35.063 Y518.006
X34.646 Y518.039
X34.229 Y518.055
X33.812 Y518.056
X33.394 Y518.041
X32.978 Y518.01
X32.563 Y517.964
X32.15 Y517.901
X31.74 Y517.823
X31.333 Y517.73
X30.93 Y517.621
X30.531 Y517.497
X30.138 Y517.358
X29.75 Y517.204
X29.368 Y517.035
X28.992 Y516.852
X28.624 Y516.655
X28.264 Y516.444
X27.912 Y516.22
X27.569 Y515.982
X27.234 Y515.732
X26.91 Y515.469
X26.596 Y515.194
X26.293 Y514.907
X26 Y514.609
X25.72 Y514.3
X25.451 Y513.98
X25.194 Y513.651
X24.95 Y513.312
X24.72 Y512.964
X24.502 Y512.608
X24.298 Y512.243
X24.109 Y511.871
X23.933 Y511.493
X23.772 Y511.107
X23.626 Y510.716
X23.494 Y510.32
X23.378 Y509.919
X23.277 Y509.514
X23.192 Y509.105
X23.122 Y508.693
X23.068 Y508.279
X23.029 Y507.864
X23.007 Y507.447
X23 Y507.029
X23.009 Y506.612
X23.034 Y506.195
X23.074 Y505.78
X23.131 Y505.366
X23.203 Y504.955
X23.291 Y504.546
X23.394 Y504.142
X23.512 Y503.741
X23.645 Y503.346
X23.794 Y502.956
X23.957 Y502.571
X24.134 Y502.193
X24.326 Y501.822
X24.532 Y501.459
X24.751 Y501.104
X24.984 Y500.757
X25.23 Y500.42
X25.488 Y500.092
X25.758 Y499.774
X26.041 Y499.466
X26.335 Y499.169
X26.64 Y498.884
X26.955 Y498.611
X27.281 Y498.35
X27.616 Y498.101
X27.961 Y497.865
X28.314 Y497.643
X28.676 Y497.434
X29.045 Y497.239
X29.421 Y497.058
X29.804 Y496.891
X30.193 Y496.739
X30.587 Y496.602
X30.986 Y496.48
X31.39 Y496.374
X31.798 Y496.282
X32.208 Y496.207
X32.621 Y496.146
X33.036 Y496.102
X33.453 Y496.073
X33.87 Y496.061
X34.288 Y496.064
X34.705 Y496.082
X35.121 Y496.117
X35.535 Y496.168
X35.948 Y496.234
X36.357 Y496.316
X36.763 Y496.413
X37.165 Y496.525
X37.563 Y496.653
X37.955 Y496.796
X38.342 Y496.954
X38.722 Y497.126
X39.096 Y497.312
X39.462 Y497.513
X39.82 Y497.727
X40.17 Y497.954
X40.511 Y498.195
X40.843 Y498.449
X41.165 Y498.715
X41.476 Y498.993
X41.632 Y499.139
Z10
X46.246 Y531.719
Z5
Z-2 F333.3
X46.279 Y531.738 F1000
G3 X45.215 Y533.428 I-0.532 J0.845
X46.247 Y531.719 I0.532 J-0.845
G1 X46.246 Z-4 F333.3
G3 X45.247 Y533.448 I-0.5 J0.864 F1000
X46.214 Y531.701 I0.5 J-0.864
G1 X46.246 Y531.719
Z-6 F333.3
G3 X45.247 Y533.448 I-0.5 J0.864 F1000
X46.214 Y531.701 I0.5 J-0.864
G1 X46.246 Y531.719
Z-8 F333.3
G3 X45.247 Y533.448 I-0.5 J0.864 F1000
X46.214 Y531.701 I0.5 J-0.864
G1 X46.246 Y531.719
Z-10 F333.3
G3 X45.247 Y533.448 I-0.5 J0.864 F1000
X46.214 Y531.701 I0.5 J-0.864
G1 X46.246 Y531.719
Z10
X6.39 Y512.588
Z5
Z-2 F333.3
X6.402 Y512.603 F1000
G3 X5.598 Y513.194 I-0.402 J0.295
X6.39 Y512.588 I0.402 J-0.295
G1 Z-4 F333.3
G3 X5.609 Y513.209 I-0.39 J0.31 F1000
X6.376 Y512.572 I0.39 J-0.31
G1 X6.39 Y512.588
Z-6 F333.3
G3 X5.609 Y513.209 I-0.39 J0.31 F1000
X6.376 Y512.572 I0.39 J-0.31
G1 X6.39 Y512.588
Z-8 F333.3
G3 X5.609 Y513.209 I-0.39 J0.31 F1000
X6.376 Y512.572 I0.39 J-0.31
G1 X6.39 Y512.588
Z-10 F333.3
G3 X5.609 Y513.209 I-0.39 J0.31 F1000
X6.376 Y512.572 I0.39 J-0.31
G1 X6.39 Y512.588
Z10
X29.904 Y662.243
Z5
Z-2 F333.3
X29.833 Y662.398 F1000
X29.705 Y662.633
X29.564 Y662.861
X29.409 Y663.079
X29.241 Y663.287
X29.062 Y663.486
X28.871 Y663.673
X28.669 Y663.849
X28.457 Y664.012
X28.236 Y664.162
X28.006 Y664.299
X27.768 Y664.423
X27.524 Y664.531
X27.273 Y664.625
X27.018 Y664.704
X26.758 Y664.768
X26.494 Y664.816
X26.229 Y664.848
X25.962 Y664.865
X25.694
X25.427 Y664.85
X25.161 Y664.819
X24.898 Y664.772
X24.638 Y664.71
X24.382 Y664.632
X24.131 Y664.539
X23.886 Y664.431
X23.648 Y664.309
X23.417 Y664.173
X23.195 Y664.024
X22.983 Y663.861
X22.78 Y663.687
X22.588 Y663.5
X22.408 Y663.303
X22.239 Y663.095
X22.083 Y662.877
X21.941 Y662.651
X21.812 Y662.416
X21.697 Y662.174
X21.597 Y661.926
X21.512 Y661.673
X21.442 Y661.414
X21.388 Y661.153
X21.349 Y660.888
X21.326 Y660.621
X21.319 Y660.354
X21.328 Y660.086
X21.352 Y659.82
X21.393 Y659.555
X21.449 Y659.294
X21.52 Y659.036
X21.607 Y658.783
X21.709 Y658.535
X21.825 Y658.294
X21.955 Y658.061
X22.099 Y657.835
X22.256 Y657.619
X22.426 Y657.412
X22.608 Y657.215
X22.801 Y657.03
X23.005 Y656.857
X23.218 Y656.696
X23.441 Y656.548
X23.673 Y656.413
X23.911 Y656.293
X24.157 Y656.187
X24.408 Y656.095
X24.665 Y656.019
X24.925 Y655.958
X25.189 Y655.913
X25.455 Y655.884
X25.722 Y655.87
X25.99 Y655.872
X26.257 Y655.89
X26.522 Y655.924
X26.785 Y655.974
X27.044 Y656.039
X27.3 Y656.12
X27.549 Y656.216
X27.793 Y656.326
X28.03 Y656.45
X28.259 Y656.589
X28.479 Y656.741
X28.69 Y656.905
X28.891 Y657.082
X29.081 Y657.271
X29.259 Y657.47
X29.425 Y657.68
X29.579 Y657.899
X29.719 Y658.127
X29.845 Y658.363
X29.957 Y658.606
X30.055 Y658.855
X30.137 Y659.109
X30.204 Y659.368
X30.256 Y659.631
X30.292 Y659.896
X30.312 Y660.163
X30.316 Y660.43
X30.304 Y660.697
X30.277 Y660.963
X30.234 Y661.228
X30.175 Y661.488
X30.1 Y661.745
X30.011 Y661.998
X29.907 Y662.244
X29.904 Y662.243 Z-4 F333.3
X29.786 Y662.483 F1000
X29.653 Y662.715
X29.506 Y662.939
X29.347 Y663.154
X29.175 Y663.359
X28.991 Y663.553
X28.796 Y663.736
X28.591 Y663.907
X28.375 Y664.066
X28.151 Y664.212
X27.918 Y664.344
X27.678 Y664.462
X27.431 Y664.565
X27.179 Y664.654
X26.922 Y664.727
X26.661 Y664.785
X26.396 Y664.828
X26.13 Y664.854
X25.863 Y664.865
X25.595 Y664.86
X25.329 Y664.839
X25.064 Y664.802
X24.801 Y664.749
X24.543 Y664.681
X24.288 Y664.598
X24.04 Y664.5
X23.797 Y664.387
X23.562 Y664.26
X23.334 Y664.119
X23.116 Y663.964
X22.907 Y663.798
X22.708 Y663.619
X22.52 Y663.428
X22.344 Y663.227
X22.18 Y663.015
X22.029 Y662.794
X21.891 Y662.565
X21.768 Y662.328
X21.658 Y662.084
X21.564 Y661.833
X21.484 Y661.578
X21.42 Y661.318
X21.371 Y661.055
X21.338 Y660.79
X21.321 Y660.523
X21.319 Y660.255
X21.334 Y659.988
X21.364 Y659.723
X21.41 Y659.459
X21.472 Y659.199
X21.549 Y658.943
X21.642 Y658.691
X21.749 Y658.446
X21.87 Y658.208
X22.005 Y657.977
X22.154 Y657.755
X22.316 Y657.542
X22.49 Y657.339
X22.676 Y657.146
X22.873 Y656.965
X23.08 Y656.796
X23.297 Y656.64
X23.523 Y656.497
X23.758 Y656.368
X23.999 Y656.252
X24.247 Y656.152
X24.5 Y656.066
X24.758 Y655.995
X25.02 Y655.94
X25.284 Y655.901
X25.551 Y655.877
X25.818 Y655.869
X26.086 Y655.877
X26.352 Y655.901
X26.617 Y655.941
X26.878 Y655.996
X27.136 Y656.067
X27.39 Y656.153
X27.637 Y656.254
X27.879 Y656.37
X28.112 Y656.5
X28.338 Y656.643
X28.555 Y656.8
X28.762 Y656.969
X28.959 Y657.15
X29.145 Y657.343
X29.319 Y657.546
X29.48 Y657.759
X29.629 Y657.981
X29.764 Y658.212
X29.885 Y658.451
X29.992 Y658.696
X30.084 Y658.947
X30.161 Y659.204
X30.222 Y659.464
X30.268 Y659.727
X30.298 Y659.993
X30.312 Y660.26
X30.311 Y660.528
X30.293 Y660.795
X30.26 Y661.06
X30.211 Y661.323
X30.146 Y661.583
X30.066 Y661.838
X29.971 Y662.088
X29.904 Y662.243
Z-6 F333.3
X29.786 Y662.483 F1000
X29.653 Y662.715
X29.506 Y662.939
X29.347 Y663.154
X29.175 Y663.359
X28.991 Y663.553
X28.796 Y663.736
X28.591 Y663.907
X28.375 Y664.066
X28.151 Y664.212
X27.918 Y664.344
X27.678 Y664.462
X27.431 Y664.565
X27.179 Y664.654
X26.922 Y664.727
X26.661 Y664.785
X26.396 Y664.828
X26.13 Y664.854
X25.863 Y664.865
X25.595 Y664.86
X25.329 Y664.839
X25.064 Y664.802
X24.801 Y664.749
X24.543 Y664.681
X24.288 Y664.598
X24.04 Y664.5
X23.797 Y664.387
X23.562 Y664.26
X23.334 Y664.119
X23.116 Y663.964
X22.907 Y663.798
X22.708 Y663.619
X22.52 Y663.428
X22.344 Y663.227
X22.18 Y663.015
X22.029 Y662.794
X21.891 Y662.565
X21.768 Y662.328
X21.658 Y662.084
X21.564 Y661.833
X21.484 Y661.578
X21.42 Y661.318
X21.371 Y661.055
X21.338 Y660.79
X21.321 Y660.523
X21.319 Y660.255
X21.334 Y659.988
X21.364 Y659.723
X21.41 Y659.459
X21.472 Y659.199
X21.549 Y658.943
X21.642 Y658.691
X21.749 Y658.446
X21.87 Y658.208
X22.005 Y657.977
X22.154 Y657.755
X22.316 Y657.542
X22.49 Y657.339
X22.676 Y657.146
X22.873 Y656.965
X23.08 Y656.796
X23.297 Y656.64
X23.523 Y656.497
X23.758 Y656.368
X23.999 Y656.252
X24.247 Y656.152
X24.5 Y656.066
X24.758 Y655.995
X25.02 Y655.94
X25.284 Y655.901
X25.551 Y655.877
X25.818 Y655.869
X26.086 Y655.877
X26.352 Y655.901
X26.617 Y655.941
X26.878 Y655.996
X27.136 Y656.067
X27.39 Y656.153
X27.637 Y656.254
X27.879 Y656.37
X28.112 Y656.5
X28.338 Y656.643
X28.555 Y656.8
X28.762 Y656.969
X28.959 Y657.15
X29.145 Y657.343
X29.319 Y657.546
X29.48 Y657.759
X29.629 Y657.981
X29.764 Y658.212
X29.885 Y658.451
X29.992 Y658.696
X30.084 Y658.947
X30.161 Y659.204
X30.222 Y659.464
X30.268 Y659.727
X30.298 Y659.993
X30.312 Y660.26
X30.311 Y660.528
X30.293 Y660.795
X30.26 Y661.06
X30.211 Y661.323
X30.146 Y661.583
X30.066 Y661.838
X29.971 Y662.088
X29.904 Y662.243
Z-8 F333.3
X29.786 Y662.483 F1000
X29.653 Y662.715
X29.506 Y662.939
X29.347 Y663.154
X29.175 Y663.359
X28.991 Y663.553
X28.796 Y663.736
X28.591 Y663.907
X28.375 Y664.066
X28.151 Y664.212
X27.918 Y664.344
X27.678 Y664.462
X27.431 Y664.565
X27.179 Y664.654
X26.922 Y664.727
X26.661 Y664.785
X26.396 Y664.828
X26.13 Y664.854
X25.863 Y664.865
X25.595 Y664.86
X25.329 Y664.839
X25.064 Y664.802
X24.801 Y664.749
X24.543 Y664.681
X24.288 Y664.598
X24.04 Y664.5
X23.797 Y664.387
X23.562 Y664.26
X23.334 Y664.119
X23.116 Y663.964
X22.907 Y663.798
X22.708 Y663.619
X22.52 Y663.428
X22.344 Y663.227
X22.18 Y663.015
X22.029 Y662.794
X21.891 Y662.565
X21.768 Y662.328
X21.658 Y662.084
X21.564 Y661.833
X21.484 Y661.578
X21.42 Y661.318
X21.371 Y661.055
X21.338 Y660.79
X21.321 Y660.523
X21.319 Y660.255
X21.334 Y659.988
X21.364 Y659.723
X21.41 Y659.459
X21.472 Y659.199
X21.549 Y658.943
X21.642 Y658.691
X21.749 Y658.446
X21.87 Y658.208
X22.005 Y657.977
X22.154 Y657.755
X22.316 Y657.542
X22.49 Y657.339
X22.676 Y657.146
X22.873 Y656.965
X23.08 Y656.796
X23.297 Y656.64
X23.523 Y656.497
X23.758 Y656.368
X23.999 Y656.252
X24.247 Y656.152
X24.5 Y656.066
X24.758 Y655.995
X25.02 Y655.94
X25.284 Y655.901
X25.551 Y655.877
X25.818 Y655.869
X26.086 Y655.877
X26.352 Y655.901
X26.617 Y655.941
X26.878 Y655.996
X27.136 Y656.067
X27.39 Y656.153
X27.637 Y656.254
X27.879 Y656.37
X28.112 Y656.5
X28.338 Y656.643
X28.555 Y656.8
X28.762 Y656.969
X28.959 Y657.15
X29.145 Y657.343
X29.319 Y657.546
X29.48 Y657.759
X29.629 Y657.981
X29.764 Y658.212
X29.885 Y658.451
X29.992 Y658.696
X30.084 Y658.947
X30.161 Y659.204
X30.222 Y659.464
X30.268 Y659.727
X30.298 Y659.993
X30.312 Y660.26
X30.311 Y660.528
X30.293 Y660.795
X30.26 Y661.06
X30.211 Y661.323
X30.146 Y661.583
X30.066 Y661.838
X29.971 Y662.088
X29.904 Y662.243
Z-10 F333.3
X29.786 Y662.483 F1000
X29.653 Y662.715
X29.506 Y662.939
X29.347 Y663.154
X29.175 Y663.359
X28.991 Y663.553
X28.796 Y663.736
X28.591 Y663.907
X28.375 Y664.066
X28.151 Y664.212
X27.918 Y664.344
X27.678 Y664.462
X27.431 Y664.565
X27.179 Y664.654
X26.922 Y664.727
X26.661 Y664.785
X26.396 Y664.828
X26.13 Y664.854
X25.863 Y664.865
X25.595 Y664.86
X25.329 Y664.839
X25.064 Y664.802
X24.801 Y664.749
X24.543 Y664.681
X24.288 Y664.598
X24.04 Y664.5
X23.797 Y664.387
X23.562 Y664.26
X23.334 Y664.119
X23.116 Y663.964
X22.907 Y663.798
X22.708 Y663.619
X22.52 Y663.428
X22.344 Y663.227
X22.18 Y663.015
X22.029 Y662.794
X21.891 Y662.565
X21.768 Y662.328
X21.658 Y662.084
X21.564 Y661.833
X21.484 Y661.578
X21.42 Y661.318
X21.371 Y661.055
X21.338 Y660.79
X21.321 Y660.523
X21.319 Y660.255
X21.334 Y659.988
X21.364 Y659.723
X21.41 Y659.459
X21.472 Y659.199
X21.549 Y658.943
X21.642 Y658.691
X21.749 Y658.446
X21.87 Y658.208
X22.005 Y657.977
X22.154 Y657.755
X22.316 Y657.542
X22.49 Y657.339
X22.676 Y657.146
X22.873 Y656.965
X23.08 Y656.796
X23.297 Y656.64
X23.523 Y656.497
X23.758 Y656.368
X23.999 Y656.252
X24.247 Y656.152
X24.5 Y656.066
X24.758 Y655.995
X25.02 Y655.94
X25.284 Y655.901
X25.551 Y655.877
X25.818 Y655.869
X26.086 Y655.877
X26.352 Y655.901
X26.617 Y655.941
X26.878 Y655.996
X27.136 Y656.067
X27.39 Y656.153
X27.637 Y656.254
X27.879 Y656.37
X28.112 Y656.5
X28.338 Y656.643
X28.555 Y656.8
X28.762 Y656.969
X28.959 Y657.15
X29.145 Y657.343
X29.319 Y657.546
X29.48 Y657.759
X29.629 Y657.981
X29.764 Y658.212
X29.885 Y658.451
X29.992 Y658.696
X30.084 Y658.947
X30.161 Y659.204
X30.222 Y659.464
X30.268 Y659.727
X30.298 Y659.993
X30.312 Y660.26
X30.311 Y660.528
X30.293 Y660.795
X30.26 Y661.06
X30.211 Y661.323
X30.146 Y661.583
X30.066 Y661.838
X29.971 Y662.088
X29.904 Y662.243
Z10
X52.162 Y680.181
Z5
Z-2 F333.3
X52.159 Y680.231 F1000
G3 X50.172 Y680.032 I-0.994 J-0.1
X52.163 Y680.181 I0.994 J0.1
G1 X52.162 Z-4 F333.3
G3 X50.168 Y680.082 I-0.997 J-0.049 F1000
X52.163 Y680.123 I0.997 J0.049
G1 X52.162 Y680.181
Z-6 F333.3
G3 X50.168 Y680.082 I-0.997 J-0.049 F1000
X52.163 Y680.123 I0.997 J0.049
G1 X52.162 Y680.181
Z-8 F333.3
G3 X50.168 Y680.082 I-0.997 J-0.049 F1000
X52.163 Y680.123 I0.997 J0.049
G1 X52.162 Y680.181
Z-10 F333.3
G3 X50.168 Y680.082 I-0.997 J-0.049 F1000
X52.163 Y680.123 I0.997 J0.049
G1 X52.162 Y680.181
Z10
X50.853 Y696.029
Z5
Z-2 F333.3
X50.975 Y696.143 F1000
X51.159 Y696.337
X51.33 Y696.543
X51.489 Y696.758
X51.635 Y696.982
X51.768 Y697.215
X51.886 Y697.455
X51.99 Y697.701
X52.079 Y697.954
X52.153 Y698.211
X52.211 Y698.472
X52.254 Y698.736
X52.281 Y699.003
X52.292 Y699.27
X52.288 Y699.537
X52.267 Y699.804
X52.23 Y700.069
X52.178 Y700.332
X52.111 Y700.591
X52.028 Y700.845
X51.93 Y701.094
X51.817 Y701.337
X51.69 Y701.573
X51.55 Y701.8
X51.396 Y702.019
X51.229 Y702.229
X51.05 Y702.428
X50.86 Y702.616
X50.659 Y702.792
X50.448 Y702.957
X50.227 Y703.108
X49.998 Y703.246
X49.76 Y703.37
X49.516 Y703.48
X49.266 Y703.575
X49.011 Y703.655
X48.751 Y703.72
X48.488 Y703.769
X48.223 Y703.802
X47.956 Y703.82
X47.688 Y703.822
X47.421 Y703.807
X47.155 Y703.777
X46.891 Y703.732
X46.631 Y703.67
X46.375 Y703.593
X46.123 Y703.501
X45.878 Y703.395
X45.639 Y703.274
X45.408 Y703.139
X45.186 Y702.99
X44.972 Y702.828
X44.769 Y702.655
X44.576 Y702.469
X44.395 Y702.272
X44.226 Y702.065
X44.069 Y701.848
X43.926 Y701.622
X43.796 Y701.388
X43.68 Y701.147
X43.579 Y700.899
X43.493 Y700.645
X43.422 Y700.387
X43.366 Y700.126
X43.327 Y699.861
X43.303 Y699.595
X43.294 Y699.327
X43.302 Y699.06
X43.326 Y698.793
X43.365 Y698.528
X43.42 Y698.267
X43.491 Y698.008
X43.577 Y697.755
X43.678 Y697.507
X43.793 Y697.266
X43.922 Y697.031
X44.066 Y696.805
X44.222 Y696.588
X44.391 Y696.381
X44.572 Y696.184
X44.764 Y695.998
X44.967 Y695.823
X45.18 Y695.662
X45.403 Y695.513
X45.634 Y695.377
X45.872 Y695.256
X46.117 Y695.149
X46.368 Y695.057
X46.625 Y694.979
X46.885 Y694.918
X47.149 Y694.872
X47.414 Y694.841
X47.682 Y694.826
X47.949 Y694.828
X48.216 Y694.845
X48.482 Y694.878
X48.745 Y694.927
X49.005 Y694.991
X49.26 Y695.071
X49.51 Y695.166
X49.754 Y695.275
X49.992 Y695.399
X50.221 Y695.536
X50.442 Y695.687
X50.653 Y695.851
X50.855 Y696.028
X50.853 Y696.029 Z-4 F333.3
X51.044 Y696.217 F1000
X51.223 Y696.416
X51.39 Y696.625
X51.544 Y696.844
X51.685 Y697.071
X51.812 Y697.306
X51.925 Y697.549
X52.023 Y697.797
X52.106 Y698.052
X52.174 Y698.31
X52.227 Y698.573
X52.264 Y698.837
X52.285 Y699.104
X52.29 Y699.372
X52.279 Y699.639
X52.253 Y699.905
X52.21 Y700.169
X52.152 Y700.43
X52.079 Y700.687
X51.99 Y700.94
X51.887 Y701.186
X51.769 Y701.426
X51.637 Y701.659
X51.492 Y701.884
X51.333 Y702.099
X51.162 Y702.304
X50.979 Y702.5
X50.785 Y702.683
X50.58 Y702.855
X50.365 Y703.015
X50.141 Y703.161
X49.909 Y703.294
X49.669 Y703.413
X49.423 Y703.517
X49.171 Y703.607
X48.914 Y703.681
X48.653 Y703.74
X48.389 Y703.783
X48.123 Y703.811
X47.856 Y703.823
X47.589 Y703.819
X47.322 Y703.798
X47.057 Y703.763
X46.794 Y703.711
X46.536 Y703.644
X46.281 Y703.562
X46.032 Y703.464
X45.789 Y703.352
X45.553 Y703.226
X45.325 Y703.086
X45.106 Y702.933
X44.896 Y702.767
X44.697 Y702.589
X44.509 Y702.399
X44.332 Y702.199
X44.167 Y701.988
X44.015 Y701.768
X43.877 Y701.539
X43.752 Y701.302
X43.642 Y701.059
X43.546 Y700.809
X43.465 Y700.554
X43.4 Y700.294
X43.35 Y700.032
X43.316 Y699.766
X43.298 Y699.5
X43.295 Y699.232
X43.309 Y698.965
X43.338 Y698.699
X43.383 Y698.436
X43.444 Y698.175
X43.52 Y697.919
X43.611 Y697.667
X43.717 Y697.422
X43.837 Y697.183
X43.972 Y696.952
X44.119 Y696.729
X44.28 Y696.515
X44.454 Y696.311
X44.639 Y696.118
X44.835 Y695.937
X45.041 Y695.767
X45.258 Y695.61
X45.483 Y695.466
X45.717 Y695.335
X45.957 Y695.219
X46.205 Y695.117
X46.458 Y695.03
X46.715 Y694.958
X46.977 Y694.902
X47.241 Y694.862
X47.507 Y694.837
X47.775 Y694.828
X48.042 Y694.835
X48.308 Y694.857
X48.573 Y694.896
X48.835 Y694.95
X49.093 Y695.02
X49.347 Y695.105
X49.595 Y695.205
X49.836 Y695.319
X50.071 Y695.448
X50.297 Y695.59
X50.515 Y695.746
X50.723 Y695.914
X50.853 Y696.029
Z-6 F333.3
X51.044 Y696.217 F1000
X51.223 Y696.416
X51.39 Y696.625
X51.544 Y696.844
X51.685 Y697.071
X51.812 Y697.306
X51.925 Y697.549
X52.023 Y697.797
X52.106 Y698.052
X52.174 Y698.31
X52.227 Y698.573
X52.264 Y698.837
X52.285 Y699.104
X52.29 Y699.372
X52.279 Y699.639
X52.253 Y699.905
X52.21 Y700.169
X52.152 Y700.43
X52.079 Y700.687
X51.99 Y700.94
X51.887 Y701.186
X51.769 Y701.426
X51.637 Y701.659
X51.492 Y701.884
X51.333 Y702.099
X51.162 Y702.304
X50.979 Y702.5
X50.785 Y702.683
X50.58 Y702.855
X50.365 Y703.015
X50.141 Y703.161
X49.909 Y703.294
X49.669 Y703.413
X49.423 Y703.517
X49.171 Y703.607
X48.914 Y703.681
X48.653 Y703.74
X48.389 Y703.783
X48.123 Y703.811
X47.856 Y703.823
X47.589 Y703.819
X47.322 Y703.798
X47.057 Y703.763
X46.794 Y703.711
X46.536 Y703.644
X46.281 Y703.562
X46.032 Y703.464
X45.789 Y703.352
X45.553 Y703.226
X45.325 Y703.086
X45.106 Y702.933
X44.896 Y702.767
X44.697 Y702.589
X44.509 Y702.399
X44.332 Y702.199
X44.167 Y701.988
X44.015 Y701.768
X43.877 Y701.539
X43.752 Y701.302
X43.642 Y701.059
X43.546 Y700.809
X43.465 Y700.554
X43.4 Y700.294
X43.35 Y700.032
X43.316 Y699.766
X43.298 Y699.5
X43.295 Y699.232
X43.309 Y698.965
X43.338 Y698.699
X43.383 Y698.436
X43.444 Y698.175
X43.52 Y697.919
X43.611 Y697.667
X43.717 Y697.422
X43.837 Y697.183
X43.972 Y696.952
X44.119 Y696.729
X44.28 Y696.515
X44.454 Y696.311
X44.639 Y696.118
X44.835 Y695.937
X45.041 Y695.767
X45.258 Y695.61
X45.483 Y695.466
X45.717 Y695.335
X45.957 Y695.219
X46.205 Y695.117
X46.458 Y695.03
X46.715 Y694.958
X46.977 Y694.902
X47.241 Y694.862
X47.507 Y694.837
X47.775 Y694.828
X48.042 Y694.835
X48.308 Y694.857
X48.573 Y694.896
X48.835 Y694.95
X49.093 Y695.02
X49.347 Y695.105
X49.595 Y695.205
X49.836 Y695.319
X50.071 Y695.448
X50.297 Y695.59
X50.515 Y695.746
X50.723 Y695.914
X50.853 Y696.029
Z-8 F333.3
X51.044 Y696.217 F1000
X51.223 Y696.416
X51.39 Y696.625
X51.544 Y696.844
X51.685 Y697.071
X51.812 Y697.306
X51.925 Y697.549
X52.023 Y697.797
X52.106 Y698.052
X52.174 Y698.31
X52.227 Y698.573
X52.264 Y698.837
X52.285 Y699.104
X52.29 Y699.372
X52.279 Y699.639
X52.253 Y699.905
X52.21 Y700.169
X52.152 Y700.43
X52.079 Y700.687
X51.99 Y700.94
X51.887 Y701.186
X51.769 Y701.426
X51.637 Y701.659
X51.492 Y701.884
X51.333 Y702.099
X51.162 Y702.304
X50.979 Y702.5
X50.785 Y702.683
X50.58 Y702.855
X50.365 Y703.015
X50.141 Y703.161
X49.909 Y703.294
X49.669 Y703.413
X49.423 Y703.517
X49.171 Y703.607
X48.914 Y703.681
X48.653 Y703.74
X48.389 Y703.783
X48.123 Y703.811
X47.856 Y703.823
X47.589 Y703.819
X47.322 Y703.798
X47.057 Y703.763
X46.794 Y703.711
X46.536 Y703.644
X46.281 Y703.562
X46.032 Y703.464
X45.789 Y703.352
X45.553 Y703.226
X45.325 Y703.086
X45.106 Y702.933
X44.896 Y702.767
X44.697 Y702.589
X44.509 Y702.399
X44.332 Y702.199
X44.167 Y701.988
X44.015 Y701.768
X43.877 Y701.539
X43.752 Y701.302
X43.642 Y701.059
X43.546 Y700.809
X43.465 Y700.554
X43.4 Y700.294
X43.35 Y700.032
X43.316 Y699.766
X43.298 Y699.5
X43.295 Y699.232
X43.309 Y698.965
X43.338 Y698.699
X43.383 Y698.436
X43.444 Y698.175
X43.52 Y697.919
X43.611 Y697.667
X43.717 Y697.422
X43.837 Y697.183
X43.972 Y696.952
X44.119 Y696.729
X44.28 Y696.515
X44.454 Y696.311
X44.639 Y696.118
X44.835 Y695.937
X45.041 Y695.767
X45.258 Y695.61
X45.483 Y695.466
X45.717 Y695.335
X45.957 Y695.219
X46.205 Y695.117
X46.458 Y695.03
X46.715 Y694.958
X46.977 Y694.902
X47.241 Y694.862
X47.507 Y694.837
X47.775 Y694.828
X48.042 Y694.835
X48.308 Y694.857
X48.573 Y694.896
X48.835 Y694.95
X49.093 Y695.02
X49.347 Y695.105
X49.595 Y695.205
X49.836 Y695.319
X50.071 Y695.448
X50.297 Y695.59
X50.515 Y695.746
X50.723 Y695.914
X50.853 Y696.029
Z-10 F333.3
X51.044 Y696.217 F1000
X51.223 Y696.416
X51.39 Y696.625
X51.544 Y696.844
X51.685 Y697.071
X51.812 Y697.306
X51.925 Y697.549
X52.023 Y697.797
X52.106 Y698.052
X52.174 Y698.31
X52.227 Y698.573
X52.264 Y698.837
X52.285 Y699.104
X52.29 Y699.372
X52.279 Y699.639
X52.253 Y699.905
X52.21 Y700.169
X52.152 Y700.43
X52.079 Y700.687
X51.99 Y700.94
X51.887 Y701.186
X51.769 Y701.426
X51.637 Y701.659
X51.492 Y701.884
X51.333 Y702.099
X51.162 Y702.304
X50.979 Y702.5
X50.785 Y702.683
X50.58 Y702.855
X50.365 Y703.015
X50.141 Y703.161
X49.909 Y703.294
X49.669 Y703.413
X49.423 Y703.517
X49.171 Y703.607
X48.914 Y703.681
X48.653 Y703.74
X48.389 Y703.783
X48.123 Y703.811
X47.856 Y703.823
X47.589 Y703.819
X47.322 Y703.798
X47.057 Y703.763
X46.794 Y703.711
X46.536 Y703.644
X46.281 Y703.562
X46.032 Y703.464
X45.789 Y703.352
X45.553 Y703.226
X45.325 Y703.086
X45.106 Y702.933
X44.896 Y702.767
X44.697 Y702.589
X44.509 Y702.399
X44.332 Y702.199
X44.167 Y701.988
X44.015 Y701.768
X43.877 Y701.539
X43.752 Y701.302
X43.642 Y701.059
X43.546 Y700.809
X43.465 Y700.554
X43.4 Y700.294
X43.35 Y700.032
X43.316 Y699.766
X43.298 Y699.5
X43.295 Y699.232
X43.309 Y698.965
X43.338 Y698.699
X43.383 Y698.436
X43.444 Y698.175
X43.52 Y697.919
X43.611 Y697.667
X43.717 Y697.422
X43.837 Y697.183
X43.972 Y696.952
X44.119 Y696.729
X44.28 Y696.515
X44.454 Y696.311
X44.639 Y696.118
X44.835 Y695.937
X45.041 Y695.767
X45.258 Y695.61
X45.483 Y695.466
X45.717 Y695.335
X45.957 Y695.219
X46.205 Y695.117
X46.458 Y695.03
X46.715 Y694.958
X46.977 Y694.902
X47.241 Y694.862
X47.507 Y694.837
X47.775 Y694.828
X48.042 Y694.835
X48.308 Y694.857
X48.573 Y694.896
X48.835 Y694.95
X49.093 Y695.02
X49.347 Y695.105
X49.595 Y695.205
X49.836 Y695.319
X50.071 Y695.448
X50.297 Y695.59
X50.515 Y695.746
X50.723 Y695.914
X50.853 Y696.029
Z10
X45.712 Y718.091
Z5
Z-2 F333.3
X45.71 Y718.142 F1000
G3 X43.722 Y717.943 I-0.994 J-0.099
X45.713 Y718.091 I0.994 J0.099
G1 X45.712 Z-4 F333.3
G3 X43.718 Y717.993 I-0.997 J-0.049 F1000
X45.713 Y718.033 I0.997 J0.049
G1 X45.712 Y718.091
Z-6 F333.3
G3 X43.718 Y717.993 I-0.997 J-0.049 F1000
X45.713 Y718.033 I0.997 J0.049
G1 X45.712 Y718.091
Z-8 F333.3
G3 X43.718 Y717.993 I-0.997 J-0.049 F1000
X45.713 Y718.033 I0.997 J0.049
G1 X45.712 Y718.091
Z-10 F333.3
G3 X43.718 Y717.993 I-0.997 J-0.049 F1000
X45.713 Y718.033 I0.997 J0.049
G1 X45.712 Y718.091
Z10
X88.731 Y698.529
Z5
Z-2 F333.3
X80.075 Y724.382 F1000
G3 X76.171 Y723.656 I-1.907 J-0.604
G1 X77.58 Y692.035
G3 X79.969 Y690.142 I2.002 J0.072
G1 X88.577 Y691.76
G3 X90.118 Y694.384 I-0.353 J1.971
G1 X88.731 Y698.529
Z-4 F333.3
X80.075 Y724.382 F1000
G3 X76.171 Y723.656 I-1.907 J-0.604
G1 X77.58 Y692.035
G3 X79.969 Y690.142 I2.002 J0.072
G1 X88.577 Y691.76
G3 X90.118 Y694.384 I-0.353 J1.971
G1 X88.731 Y698.529
Z-6 F333.3
X80.075 Y724.382 F1000
G3 X76.171 Y723.656 I-1.907 J-0.604
G1 X77.58 Y692.035
G3 X79.969 Y690.142 I2.002 J0.072
G1 X88.577 Y691.76
G3 X90.118 Y694.384 I-0.353 J1.971
G1 X88.731 Y698.529
Z-8 F333.3
X80.075 Y724.382 F1000
G3 X76.171 Y723.656 I-1.907 J-0.604
G1 X77.58 Y692.035
G3 X79.969 Y690.142 I2.002 J0.072
G1 X88.577 Y691.76
G3 X90.118 Y694.384 I-0.353 J1.971
G1 X88.731 Y698.529
Z-10 F333.3
X80.075 Y724.382 F1000
G3 X76.171 Y723.656 I-1.907 J-0.604
G1 X77.58 Y692.035
G3 X79.969 Y690.142 I2.002 J0.072
G1 X88.577 Y691.76
G3 X90.118 Y694.384 I-0.353 J1.971
G1 X88.731 Y698.529
Z10
X119.768 Y706.556
Z5
Z-2 F333.3
X119.885 Y706.682 F1000
X120.053 Y706.89
X120.209 Y707.108
X120.351 Y707.334
X120.48 Y707.569
X120.594 Y707.811
X120.694 Y708.059
X120.779 Y708.313
X120.849 Y708.571
X120.903 Y708.833
X120.942 Y709.098
X120.965 Y709.364
X120.971 Y709.632
X120.962 Y709.899
X120.938 Y710.166
X120.897 Y710.43
X120.841 Y710.692
X120.769 Y710.949
X120.682 Y711.202
X120.58 Y711.45
X120.463 Y711.691
X120.333 Y711.924
X120.189 Y712.15
X120.031 Y712.366
X119.862 Y712.573
X119.68 Y712.769
X119.486 Y712.954
X119.283 Y713.127
X119.069 Y713.288
X118.846 Y713.436
X118.614 Y713.57
X118.375 Y713.691
X118.13 Y713.797
X117.878 Y713.888
X117.622 Y713.964
X117.361 Y714.024
X117.097 Y714.069
X116.831 Y714.099
X116.564 Y714.112
X116.297 Y714.11
X116.03 Y714.091
X115.764 Y714.057
X115.501 Y714.007
X115.242 Y713.942
X114.987 Y713.861
X114.737 Y713.765
X114.494 Y713.654
X114.257 Y713.53
X114.028 Y713.391
X113.808 Y713.239
X113.597 Y713.074
X113.396 Y712.897
X113.207 Y712.709
X113.029 Y712.509
X112.863 Y712.299
X112.709 Y712.08
X112.569 Y711.852
X112.443 Y711.616
X112.331 Y711.373
X112.234 Y711.124
X112.152 Y710.869
X112.085 Y710.61
X112.034 Y710.347
X111.998 Y710.082
X111.978 Y709.816
X111.974 Y709.548
X111.986 Y709.281
X112.013 Y709.015
X112.057 Y708.751
X112.116 Y708.49
X112.191 Y708.233
X112.28 Y707.981
X112.385 Y707.734
X112.504 Y707.495
X112.637 Y707.263
X112.783 Y707.039
X112.943 Y706.824
X113.115 Y706.619
X113.299 Y706.425
X113.494 Y706.242
X113.7 Y706.071
X113.915 Y705.912
X114.14 Y705.767
X114.373 Y705.635
X114.613 Y705.517
X114.86 Y705.414
X115.112 Y705.326
X115.369 Y705.253
X115.631 Y705.195
X115.895 Y705.152
X116.161 Y705.126
X116.428 Y705.116
X116.696 Y705.121
X116.963 Y705.142
X117.227 Y705.179
X117.49 Y705.232
X117.748 Y705.3
X118.003 Y705.384
X118.251 Y705.482
X118.494 Y705.595
X118.729 Y705.722
X118.956 Y705.864
X119.175 Y706.018
X119.384 Y706.185
X119.583 Y706.364
X119.77 Y706.555
X119.768 Y706.556 Z-4 F333.3
X119.945 Y706.758 F1000
X120.108 Y706.969
X120.259 Y707.19
X120.397 Y707.42
X120.52 Y707.657
X120.629 Y707.901
X120.724 Y708.151
X120.803 Y708.407
X120.868 Y708.666
X120.916 Y708.93
X120.949 Y709.195
X120.966 Y709.462
X120.967 Y709.729
X120.953 Y709.997
X120.922 Y710.262
X120.876 Y710.526
X120.814 Y710.786
X120.736 Y711.042
X120.644 Y711.293
X120.537 Y711.538
X120.415 Y711.777
X120.28 Y712.007
X120.131 Y712.229
X119.969 Y712.442
X119.795 Y712.645
X119.609 Y712.838
X119.412 Y713.018
X119.204 Y713.187
X118.987 Y713.343
X118.761 Y713.486
X118.527 Y713.616
X118.285 Y713.731
X118.038 Y713.832
X117.784 Y713.917
X117.526 Y713.988
X117.264 Y714.043
X117 Y714.082
X116.733 Y714.106
X116.466 Y714.113
X116.199 Y714.105
X115.932 Y714.081
X115.668 Y714.041
X115.406 Y713.985
X115.148 Y713.914
X114.895 Y713.828
X114.647 Y713.727
X114.406 Y713.611
X114.172 Y713.482
X113.946 Y713.338
X113.73 Y713.181
X113.523 Y713.012
X113.326 Y712.831
X113.14 Y712.638
X112.966 Y712.435
X112.805 Y712.222
X112.657 Y711.999
X112.522 Y711.768
X112.401 Y711.53
X112.294 Y711.284
X112.202 Y711.033
X112.126 Y710.777
X112.064 Y710.516
X112.018 Y710.253
X111.988 Y709.987
X111.974 Y709.72
X111.976 Y709.453
X111.994 Y709.186
X112.027 Y708.92
