(BowlTest2)
(T1 D=8 CR=4 - ZMIN=-19.999 - ball end mill)
G90 G94
G17
G21
(-Attention- Property Safe Retracts is set to Clearance Height.)
(Ensure the clearance height will clear the part and or fixtures.)
(Raise the Z-axis to a safe height before starting the program.)
(When using Fusion for Personal Use, the feedrate of rapid)
(moves is reduced to match the feedrate of cutting moves,)
(which can increase machining time. Unrestricted rapid moves)
(are available with a Fusion Subscription.)

(Pocket2 3)
T1
S5000 M3
G17 G90 G94
G54
M8
G0 X1.128 Y0.278
Z15
G1 Z4.5 F1000
Z4.45 F333.3
X1.139 Y0.291 Z4.288
X1.169 Y0.329 Z4.133
X1.213 Y0.395 Z3.991
X1.263 Y0.489 Z3.868
X1.289 Y0.548 Z3.819
X1.311 Y0.608 Z3.769
X1.331 Y0.679 Z3.734
X1.346 Y0.75 Z3.698
G3 X-0.626 Y1.085 Z2.555 I-0.986 J0.167
X1.346 Y0.75 Z1.411 I0.986 J-0.167
X-0.626 Y1.085 Z0.268 I-0.986 J0.167
X1.346 Y0.75 Z-0.876 I0.986 J-0.167
X-0.626 Y1.085 Z-2.019 I-0.986 J0.167
X-0.163 Y0.065 Z-2.452 I0.986 J-0.167
G1 X-0.104 Y0.032 Z-2.47
X-0.043 Y0.003 Z-2.488
X0.021 Y-0.023 Z-2.494
X0.087 Y-0.044 Z-2.5
X0.123 Y-0.055 F1000
G3 X0.464 Y0.047 I0.09 J0.319
G1 X0.483 Y0.069
X0.524 Y0.123
X0.56 Y0.188
X0.587 Y0.256
X0.589 Y0.263
G3 X0.603 Y0.564 I-0.56 J0.178
G1 X0.584 Y0.655
X0.561 Y0.736
X0.53 Y0.813
X0.489 Y0.885
X0.485 Y0.892
X0.436 Y0.961
X0.431 Y0.967
X0.353 Y1.056
X0.266 Y1.135
X0.169 Y1.206
X0.06 Y1.269
X-0.061 Y1.322
X-0.188 Y1.361
X-0.325 Y1.389
X-0.469 Y1.402
X-0.525 Y1.403
X-0.617 Y1.4
X-0.767 Y1.383
X-0.773 Y1.382
G3 X-1.234 Y1.226 I0.242 J-1.47
G1 X-1.266 Y1.209
G3 X-1.779 Y0.791 I0.822 J-1.535
X-1.999 Y0.47 I1.52 J-1.276
G1 X-2.045 Y0.382
X-2.086 Y0.291
X-2.123 Y0.197
X-2.156 Y0.101
X-2.185 Y0.001
X-2.208 Y-0.101
X-2.227 Y-0.206
X-2.241 Y-0.311
X-2.25 Y-0.42
X-2.253 Y-0.529
Y-0.546
X-2.251 Y-0.648
X-2.244 Y-0.749
X-2.231 Y-0.864
X-2.212 Y-0.978
X-2.189 Y-1.088
X-2.16 Y-1.197
G3 X-1.867 Y-1.836 I2.278 J0.658
G1 X-1.843 Y-1.872
G3 X-0.921 Y-2.737 I2.242 J1.464
G1 X-0.914 Y-2.741
G3 X-0.677 Y-2.862 I1.42 J2.507
X-0.141 Y-3.043 I1.199 J2.659
X0.141 Y-3.095 I0.682 J2.906
X0.435 Y-3.121 I0.409 J3.01
X0.732 Y-3.118 I0.117 J3.062
G1 X0.738 Y-3.117
G3 X1.03 Y-3.086 I-0.186 J3.171
X1.34 Y-3.023 I-0.48 J3.159
X1.627 Y-2.936 I-0.803 J3.156
G1 X1.696 Y-2.912
X1.78 Y-2.879
X1.863 Y-2.843
X1.903 Y-2.824
G3 X2.469 Y-2.49 I-1.47 J3.135
G1 X2.524 Y-2.45
G3 X3.594 Y-1.195 I-2.067 J2.845
X3.938 Y-0.185 I-3.391 J1.718
G1 X3.939 Y-0.178
G3 X3.99 Y0.936 I-3.873 J0.735
G1 X3.989 Y0.942
G3 X3.842 Y1.703 I-4.102 J-0.396
G1 X3.822 Y1.772
X3.784 Y1.891
X3.741 Y2.007
X3.704 Y2.1
G3 X3.573 Y2.39 I-3.114 J-1.239
G1 X3.565 Y2.405
G3 X3.12 Y3.104 I-3.974 J-2.038
G1 X3.103 Y3.127
G3 X2.522 Y3.749 I-3.711 J-2.878
X2.228 Y3.987 I-2.463 J-2.754
G1 X2.177 Y4.023
G3 X1.914 Y4.197 I-2.124 J-2.929
X-1.162 Y4.85 I-2.489 J-4.15
G1 X-1.296 Y4.834
X-1.455 Y4.807
X-1.584 Y4.779
G3 X-2.503 Y4.49 I1.088 J-5.058
X-2.901 Y4.299 I1.77 J-4.213
X-3.74 Y3.741 I2.563 J-4.754
G1 X-3.753 Y3.73
G3 X-4.48 Y3.021 I3.524 J-4.347
X-4.767 Y2.65 I3.549 J-3.037
G1 X-4.798 Y2.606
G3 X-5.006 Y2.277 I3.692 J-2.567
X-5.712 Y-1.367 I4.977 J-2.855
G1 X-5.703 Y-1.429
G3 X-5.634 Y-1.802 I4.176 J0.58
G1 X-5.629 Y-1.823
G3 X-5.446 Y-2.472 I6.866 J1.593
X-5.288 Y-2.882 I4.704 J1.578
G1 X-5.268 Y-2.926
G3 X-5.033 Y-3.399 I4.987 J2.181
X-4.363 Y-4.373 I5.513 J3.08
G1 X-4.356 Y-4.382
G3 X-3.522 Y-5.211 I4.967 J4.157
X-3.073 Y-5.548 I3.566 J4.297
G1 X-3.036 Y-5.572
G3 X-2.635 Y-5.817 I3.047 J4.531
G1 X-2.631 Y-5.82
G3 X-0.262 Y-6.6 I3.233 J5.834
X0.264 Y-6.644 I0.763 J5.839
X0.542 Y-6.65 I0.278 J6.833
X2.791 Y-6.27 I0 J6.838
G1 X2.828 Y-6.257
G3 X3.311 Y-6.065 I-1.965 J5.643
G1 X3.347 Y-6.048
G3 X3.899 Y-5.767 I-2.582 J5.746
X5.001 Y-4.99 I-3.589 J6.261
G1 X5.012 Y-4.98
G3 X5.947 Y-4.022 I-4.837 J5.654
X6.334 Y-3.493 I-4.976 J4.049
G1 X6.352 Y-3.467
G3 X6.633 Y-2.995 I-5.387 J3.536
G1 X6.636 Y-2.99
G3 X7.49 Y-0.303 I-6.642 J3.592
X7.536 Y0.306 I-6.725 J0.811
G1 X7.54 Y0.541
G3 X7.086 Y3.145 I-7.706 J0
G1 X7.072 Y3.186
G3 X6.844 Y3.743 I-6.52 J-2.341
G1 X6.831 Y3.77
G3 X6.503 Y4.4 I-6.556 J-3.019
X5.616 Y5.634 I-7.032 J-4.12
G1 X5.61 Y5.64
G3 X4.525 Y6.678 I-6.229 J-5.427
G1 X4.521 Y6.681
G3 X3.919 Y7.113 I-4.597 J-5.778
G1 X3.895 Y7.128
G3 X3.353 Y7.445 I-4.003 J-6.221
X0.345 Y8.375 I-3.954 J-7.459
X-0.348 Y8.422 I-0.861 J-7.634
G1 X-0.539 Y8.424
G3 X-3.507 Y7.896 I0 J-8.615
G1 X-3.543 Y7.883
G3 X-4.171 Y7.621 I2.716 J-7.399
G1 X-4.196 Y7.61
G3 X-4.898 Y7.237 I3.414 J-7.287
X-6.265 Y6.24 I4.623 J-7.773
G1 X-6.269 Y6.236
G3 X-7.41 Y5.026 I6.054 J-6.849
G1 X-7.414 Y5.021
G3 X-7.893 Y4.343 I6.521 J-5.111
G1 X-7.905 Y4.324
G3 X-8.257 Y3.711 I7.046 J-4.462
X-9.26 Y0.386 I8.283 J-4.314
X-9.308 Y-0.389 I8.517 J-0.907
X-8.707 Y-3.868 I9.518 J-0.148
G1 X-8.695 Y-3.9
G3 X-8.398 Y-4.6 I8.264 J3.088
G1 X-8.387 Y-4.623
G3 X-7.972 Y-5.396 I8.007 J3.806
G1 X-7.969 Y-5.401
G3 X-6.866 Y-6.895 I8.505 J5.129
G1 X-6.862 Y-6.899
G3 X-5.528 Y-8.141 I7.469 J6.682
G1 X-5.518 Y-8.149
G3 X-4.772 Y-8.669 I5.581 J7.209
G1 X-4.752 Y-8.681
G3 X-4.069 Y-9.07 I4.91 J7.851
X-3.123 Y-9.499 I4.976 J9.702
G1 X-3.089 Y-9.513
G3 X-2.39 Y-9.755 I3.023 J7.599
G1 X-2.32 Y-9.775
G3 X-0.453 Y-10.144 I2.893 J9.759
G1 X-0.427 Y-10.146
G3 X0.429 Y-10.194 I0.95 J9.375
G1 X0.443
G3 X2.382 Y-10.031 I0.103 J10.421
G1 X2.447 Y-10.02
G3 X3.21 Y-9.847 I-1.507 J8.421
G1 X3.24 Y-9.838
G3 X4.258 Y-9.506 I-3.029 J11.005
X5.028 Y-9.176 I-3.461 J9.128
G1 X5.052 Y-9.164
G3 X5.895 Y-8.706 I-4.198 J8.729
G1 X5.903 Y-8.701
G3 X7.522 Y-7.494 I-5.627 J9.232
G1 X7.528 Y-7.488
G3 X8.876 Y-6.028 I-7.335 J8.124
G1 X8.885 Y-6.016
G3 X9.449 Y-5.2 I-7.844 J6.02
G1 X9.46 Y-5.182
G3 X9.884 Y-4.428 I-8.668 J5.366
X10.342 Y-3.406 I-10.524 J5.338
G1 X10.356 Y-3.372
G3 X10.621 Y-2.594 I-8.454 J3.321
G1 X10.642 Y-2.524
G3 X11.033 Y-0.494 I-10.612 J3.096
G1 X11.035 Y-0.467
G3 X11.083 Y0.469 I-10.246 J0.992
G1 Y0.483
G3 X10.897 Y2.586 I-11.301 J0.061
G1 X10.885 Y2.651
G3 X10.691 Y3.492 I-9.297 J-1.708
G1 X10.682 Y3.524
G3 X10.32 Y4.616 I-11.845 J-3.317
X9.954 Y5.46 I-9.956 J-3.823
G1 X9.942 Y5.484
G3 X9.443 Y6.393 I-9.447 J-4.598
G1 X9.435 Y6.406
G3 X8.12 Y8.153 I-9.973 J-6.137
G1 X8.116 Y8.157
G3 X6.531 Y9.608 I-8.727 J-7.946
G1 X6.515 Y9.619
G3 X5.633 Y10.223 I-6.502 J-8.555
G1 X5.612 Y10.236
G3 X4.786 Y10.696 I-5.807 J-9.464
X3.688 Y11.183 I-5.69 J-11.337
G1 X3.654 Y11.196
G3 X2.797 Y11.485 I-3.611 J-9.296
G1 X2.728 Y11.505
G3 X-2.766 Y11.765 I-3.297 J-11.474
G1 X-2.853 Y11.749
G3 X-3.775 Y11.532 I1.902 J-10.158
G1 X-3.807 Y11.523
G3 X-4.974 Y11.132 I3.602 J-12.683
X-5.89 Y10.73 I4.185 J-10.785
G1 X-5.916 Y10.717
G3 X-6.892 Y10.177 I4.998 J-10.174
G1 X-6.908 Y10.167
G3 X-8.782 Y8.746 I6.632 J-10.694
G1 X-8.787 Y8.742
G3 X-10.34 Y7.032 I8.574 J-9.349
G1 X-10.353 Y7.014
G3 X-10.997 Y6.066 I9.24 J-6.971
G1 X-11.012 Y6.043
G3 X-11.508 Y5.144 I10.248 J-6.244
X-12.024 Y3.971 I12.15 J-6.044
G1 X-12.037 Y3.936
G3 X-12.349 Y2.999 I10.139 J-3.899
G1 X-12.368 Y2.932
G3 X-12.805 Y0.574 I12.389 J-3.512
G1 X-12.807 Y0.547
G3 X-12.855 Y-0.548 I11.94 J-1.074
G1 Y-0.565
G3 X-12.624 Y-2.994 I13.114 J0.023
G1 X-12.612 Y-3.056
G3 X-12.374 Y-4.057 I11.019 J2.097
G1 X-12.364 Y-4.089
G3 X-11.944 Y-5.332 I13.522 J3.887
X-11.506 Y-6.321 I11.603 J4.542
G1 X-11.492 Y-6.35
G3 X-10.91 Y-7.392 I10.906 J5.403
G1 X-10.898 Y-7.411
G3 X-9.374 Y-9.41 I11.411 J7.124
G1 X-9.368 Y-9.416
G3 X-7.533 Y-11.072 I9.972 J9.202
G1 X-7.514 Y-11.087
G3 X-6.501 Y-11.771 I7.453 J9.944
G1 X-6.474 Y-11.787
G3 X-5.501 Y-12.321 I6.673 J11.014
X-4.255 Y-12.865 I6.394 J12.955
G1 X-4.219 Y-12.878
G3 X-3.201 Y-13.214 I4.183 J10.969
G1 X-3.136 Y-13.232
G3 X3.175 Y-13.492 I3.706 J13.234
G1 X3.259 Y-13.476
G3 X4.34 Y-13.215 I-2.293 J11.88
G1 X4.372 Y-13.206
G3 X5.689 Y-12.756 I-4.171 J14.363
X6.753 Y-12.282 I-4.899 J12.418
G1 X6.785 Y-12.266
G3 X7.893 Y-11.643 I-5.814 J11.647
G1 X7.914 Y-11.63
G3 X10.036 Y-10.003 I-7.611 J12.121
G1 X10.045 Y-9.994
G3 X11.806 Y-8.034 I-9.845 J10.615
G1 X11.821 Y-8.015
G3 X12.546 Y-6.935 I-10.612 J7.914
G1 X12.563 Y-6.907
G3 X13.134 Y-5.859 I-11.791 J7.109
X13.707 Y-4.537 I-13.783 J6.758
G1 X13.72 Y-4.502
G3 X14.079 Y-3.405 I-11.823 J4.477
G1 X14.097 Y-3.341
G3 X14.58 Y-0.653 I-14.16 J3.929
G1 X14.582 Y-0.625
G3 X14.63 Y0.627 I-13.604 J1.152
G1 Y0.644
G3 X14.353 Y3.403 I-14.928 J-0.108
G1 X14.341 Y3.462
G3 X14.058 Y4.622 I-12.753 J-2.496
X4.861 Y14.533 I-14.528 J-4.259
G1 X4.785 Y14.561
G3 X3.607 Y14.944 I-4.764 J-12.664
G1 X3.546 Y14.96
G3 X0.692 Y15.466 I-4.139 J-15.057
G1 X0.663 Y15.468
G3 X-0.665 Y15.517 I-1.191 J-14.431
G1 X-0.684
G3 X-3.608 Y15.216 I0.151 J-15.846
G1 X-3.664 Y15.205
G3 X-4.905 Y14.9 I2.693 J-13.613
X-15.374 Y5.144 I4.542 J-15.369
G1 X-15.402 Y5.068
G3 X-15.808 Y3.81 I13.503 J-5.049
G1 X-15.824 Y3.751
G3 X-16.353 Y0.731 I15.958 J-4.35
G1 X-16.355 Y0.702
G3 X-16.403 Y-0.704 I15.263 J-1.23
G1 Y-0.723
G3 X-16.08 Y-3.814 I16.767 J0.193
G1 X-16.069 Y-3.867
G3 X-15.741 Y-5.187 I14.474 J2.89
X-5.427 Y-16.215 I16.211 J4.825
G1 X-5.351 Y-16.243
G3 X-4.012 Y-16.672 I5.332 J14.335
G1 X-3.957 Y-16.687
G3 X3.996 Y-16.948 I4.528 J16.743
G1 X4.07 Y-16.933
G3 X5.47 Y-16.583 I-3.089 J15.334
X17.057 Y-5.71 I-5.109 J17.055
G1 X17.085 Y-5.634
G3 X17.538 Y-4.215 I-15.185 J5.623
G1 X17.552 Y-4.163
G3 X18.127 Y-0.808 I-17.753 J4.773
G1 X18.129 Y-0.781
G3 X18.178 Y0.783 I-16.94 J1.31
G1 Y0.8
G3 X17.807 Y4.225 I-18.609 J-0.279
G1 X17.798 Y4.273
G3 X17.425 Y5.752 I-16.204 J-3.291
X5.994 Y17.898 I-17.898 J-5.393
G1 X5.917 Y17.926
G3 X4.417 Y18.402 I-5.908 J-16.024
G1 X4.369 Y18.415
G3 X0.846 Y19.014 I-4.985 J-18.657
G1 X0.821 Y19.016
G3 X-0.823 Y19.064 I-1.35 J-17.783
G1 X-0.839
G3 X-4.431 Y18.671 I0.322 J-19.534
G1 X-4.475 Y18.662
G3 X-6.035 Y18.267 I3.489 J-17.064
X-18.739 Y6.277 I5.676 J-18.74
G1 X-18.767 Y6.2
G3 X-19.266 Y4.62 I16.859 J-6.191
G1 X-19.278 Y4.574
G3 X-19.901 Y0.884 I19.573 J-5.199
G1 X-19.903 Y0.86
G3 X-19.952 Y-0.862 I18.627 J-1.392
G1 X-19.95 Y-0.925
G3 X-19.833 Y-2.767 I20.032 J0.355
G1 X-19.725 Y-3.666
G3 X-19.681 Y-3.93 I3.43 J0.434
G1 X-19.579 Y-4.423
G3 X-6.483 Y-19.609 I20.174 J4.159
X-4.822 Y-20.131 I6.474 J17.693
G1 X-4.78 Y-20.142
G3 X4.82 Y-20.402 I5.353 J20.259
G1 X4.881 Y-20.39
G3 X6.6 Y-19.95 I-3.887 J18.784
G1 X6.637 Y-19.939
G3 X10.314 Y-18.432 I-6.296 J20.6
X11.927 Y-17.492 I-9.341 J17.882
G1 X11.974 Y-17.461
G3 X13.53 Y-16.351 I-11.31 J17.493
G1 X13.582 Y-16.31
G3 X14.984 Y-15.097 I-12.009 J15.291
G1 X15.81 Y-14.31
X17.027 Y-12.842
X18.032 Y-11.374
X18.46 Y-10.64
X18.869 Y-9.907
X19.239 Y-9.173
X19.887 Y-7.705
X20.379 Y-6.237
X20.592 Y-5.504
X20.937 Y-4.036
X21.05 Y-3.302
X21.153 Y-2.568
X21.243 Y-1.835
X21.311 Y-0.367
Y0.367
X21.243 Y1.835
X21.153 Y2.568
X21.05 Y3.302
X20.937 Y4.036
X20.592 Y5.504
X20.379 Y6.237
X19.887 Y7.705
X19.239 Y9.173
X18.869 Y9.907
X18.46 Y10.64
X18.032 Y11.374
X17.027 Y12.842
X15.777 Y14.349
X14.31 Y15.81
X12.842 Y17.027
X11.374 Y18.032
X10.64 Y18.46
X9.907 Y18.869
X9.173 Y19.239
X7.705 Y19.887
X6.237 Y20.379
X5.504 Y20.592
X4.036 Y20.937
X3.302 Y21.05
X2.568 Y21.153
X1.835 Y21.243
X0.367 Y21.311
X-0.367
X-1.835 Y21.243
X-2.568 Y21.153
X-3.302 Y21.05
X-4.036 Y20.937
X-5.504 Y20.592
X-6.237 Y20.379
X-7.705 Y19.887
X-9.173 Y19.239
X-9.907 Y18.869
X-10.64 Y18.46
X-11.374 Y18.032
X-12.842 Y17.027
X-14.349 Y15.777
X-15.81 Y14.31
X-17.027 Y12.842
X-18.032 Y11.374
X-18.46 Y10.64
X-18.869 Y9.907
X-19.239 Y9.173
X-19.887 Y7.705
X-20.379 Y6.237
X-20.592 Y5.504
X-20.937 Y4.036
X-21.05 Y3.302
X-21.153 Y2.568
X-21.243 Y1.835
X-21.311 Y0.367
Y-0.367
X-21.243 Y-1.835
X-21.153 Y-2.568
X-21.05 Y-3.302
X-20.937 Y-4.036
X-20.914 Y-4.133
X-20.592 Y-5.504
X-20.379 Y-6.237
X-19.887 Y-7.705
X-19.239 Y-9.173
X-18.869 Y-9.907
X-18.46 Y-10.64
X-18.032 Y-11.374
X-17.027 Y-12.842
X-15.777 Y-14.349
X-14.31 Y-15.81
X-12.842 Y-17.027
X-11.374 Y-18.032
X-10.64 Y-18.46
X-9.907 Y-18.869
X-9.173 Y-19.239
X-7.705 Y-19.887
X-6.237 Y-20.379
X-5.504 Y-20.592
X-4.036 Y-20.937
X-3.302 Y-21.05
X-2.568 Y-21.153
X-1.835 Y-21.243
X-0.367 Y-21.311
X0.367
X1.835 Y-21.243
X2.568 Y-21.153
X3.302 Y-21.05
X4.036 Y-20.937
X5.504 Y-20.592
X6.237 Y-20.379
X7.705 Y-19.887
X9.173 Y-19.239
X9.907 Y-18.869
X10.64 Y-18.46
X11.374 Y-18.032
X12.842 Y-17.027
X14.349 Y-15.777
X15.81 Y-14.31
Z-1.7
Z5
X-0.123 Y-0.184
Z1.986
X-0.113 Y-0.175 Z1.838 F333.3
X-0.083 Y-0.147 Z1.696
X-0.037 Y-0.099 Z1.564
X0.02 Y-0.03 Z1.446
X0.081 Y0.061 Z1.346
X0.127 Y0.148 Z1.282
X0.167 Y0.248 Z1.234
G3 X-1.725 Y0.896 Z0.091 I-0.946 J0.324
X0.167 Y0.248 Z-1.053 I0.946 J-0.324
X-1.725 Y0.896 Z-2.196 I-0.946 J0.324
X0.167 Y0.248 Z-3.34 I0.946 J-0.324
X-1.725 Y0.896 Z-4.483 I-0.946 J0.324
X-0.089 Y-0.153 Z-5.452 I0.946 J-0.324
G1 X-0.042 Y-0.104 Z-5.47
X0.002 Y-0.053 Z-5.488
X0.043 Y0.002 Z-5.494
X0.081 Y0.061 Z-5.5
X0.129 Y0.142 F1000
G3 X0.105 Y0.475 I-0.25 J0.148
G1 X0.05 Y0.541
G3 X-0.346 Y0.769 I-0.499 J-0.408
G1 X-0.363 Y0.772
G3 X-0.822 Y0.718 I-0.134 J-0.825
X-1.094 Y0.551 I0.409 J-0.972
G1 X-1.147 Y0.506
G3 X-1.398 Y0.208 I0.757 J-0.895
X-1.557 Y-0.212 I1.111 J-0.659
G1 X-1.561 Y-0.234
G3 X-1.577 Y-0.683 I1.499 J-0.281
G1 X-1.572 Y-0.734
G3 X-1.512 Y-1.019 I1.495 J0.167
G1 X-1.508 Y-1.029
G3 X-0.861 Y-1.954 I1.789 J0.563
G1 X-0.834 Y-1.975
G3 X0.342 Y-2.424 I1.341 J1.747
X1.026 Y-2.38 I0.186 J2.479
G1 X1.066 Y-2.372
G3 X1.513 Y-2.235 I-0.489 J2.388
X2.753 Y-1.215 I-1.062 J2.555
G1 X2.761 Y-1.203
G3 X3.143 Y-0.419 I-2.709 J1.806
X3.219 Y-0.142 I-2.601 J0.863
X3.29 Y0.449 I-2.978 J0.656
X3.183 Y1.376 I-3.449 J0.073
G1 X3.166 Y1.443
G3 X2.956 Y2.026 I-3.133 J-0.801
X1.582 Y3.553 I-3.245 J-1.537
G1 X1.558 Y3.568
G3 X0.543 Y4.016 I-2.18 J-3.569
G1 X0.533 Y4.019
G3 X0.175 Y4.102 I-0.978 J-3.373
X-0.568 Y4.164 I-0.692 J-3.86
X-1.737 Y3.989 I0.054 J-4.374
G1 X-1.759 Y3.983
G3 X-2.499 Y3.69 I1.185 J-4.066
X-4.366 Y1.917 I2.058 J-4.037
G1 X-4.372 Y1.906
G3 X-4.882 Y0.665 I4.37 J-2.521
G1 X-4.887 Y0.647
G3 X-4.977 Y0.216 I4.191 J-1.1
X-5.031 Y-0.688 I4.735 J-0.74
X-4.793 Y-2.086 I5.272 J0.18
G1 X-4.787 Y-2.104
G3 X-4.415 Y-2.99 I4.912 J1.541
G1 X-4.356 Y-3.102
G3 X-4.201 Y-3.362 I3.015 J1.611
G1 X-4.173 Y-3.406
G3 X-3.87 Y-3.821 I4.189 J2.741
G1 X-3.849 Y-3.847
G3 X-2.277 Y-5.163 I4.183 J3.398
G1 X-2.253 Y-5.177
G3 X-0.787 Y-5.749 I2.861 J5.165
G1 X-0.764 Y-5.754
G3 X-0.257 Y-5.851 I1.225 J5.035
X0.807 Y-5.899 I0.785 J5.605
X2.434 Y-5.597 I-0.303 J6.151
G1 X2.45 Y-5.591
G3 X3.48 Y-5.142 I-1.901 J5.76
G1 X3.581 Y-5.086
G3 X3.921 Y-4.878 I-2.144 J3.884
G1 X3.959 Y-4.852
G3 X4.439 Y-4.491 I-3.282 J4.857
G1 X4.467 Y-4.468
G3 X5.967 Y-2.626 I-4.028 J4.815
G1 X5.981 Y-2.601
G3 X6.617 Y-0.908 I-5.951 J3.2
G1 X6.622 Y-0.883
G3 X6.726 Y-0.298 I-5.902 J1.35
G1 X6.727 Y-0.292
G3 X6.767 Y0.927 I-6.483 J0.825
X6.401 Y2.78 I-7.019 J-0.424
G1 X6.394 Y2.802
G3 X5.092 Y5.084 I-6.625 J-2.267
X2.974 Y6.775 I-5.443 J-4.647
G1 X2.95 Y6.787
G3 X1.033 Y7.486 I-3.554 J-6.774
G1 X1.002 Y7.492
G3 X0.334 Y7.604 I-1.463 J-6.684
G1 X0.329 Y7.605
G3 X-1.05 Y7.637 I-0.863 J-7.375
X-3.133 Y7.206 I0.55 J-7.901
G1 X-3.147 Y7.201
G3 X-4.463 Y6.596 I2.613 J-7.411
G1 X-4.573 Y6.532
G3 X-5.026 Y6.242 I2.942 J-5.096
G1 X-5.081 Y6.204
G3 X-5.667 Y5.743 I4.267 J-6.041
G1 X-5.707 Y5.709
G3 X-7.579 Y3.322 I5.277 J-6.067
G1 X-7.591 Y3.298
G3 X-8.353 Y1.155 I7.572 J-3.898
G1 X-8.36 Y1.123
G3 X-8.479 Y0.376 I7.539 J-1.587
G1 X-8.48 Y0.368
G3 X-8.505 Y-1.172 I8.259 J-0.906
X-8.01 Y-3.48 I8.76 J0.671
G1 X-8.005 Y-3.495
G3 X-7.321 Y-4.955 I8.228 J2.966
G1 X-7.253 Y-5.071
G3 X-6.921 Y-5.581 I5.717 J3.355
G1 X-6.877 Y-5.642
G3 X-6.367 Y-6.283 I6.643 J4.768
G1 X-6.328 Y-6.326
G3 X-3.671 Y-8.383 I6.693 J5.902
G1 X-3.646 Y-8.396
G3 X-1.275 Y-9.221 I4.243 J8.369
G1 X-1.246 Y-9.227
G3 X-0.419 Y-9.354 I1.713 J8.417
G1 X-0.409 Y-9.355
G3 X1.296 Y-9.373 I0.95 J9.148
X3.827 Y-8.815 I-0.792 J9.613
G1 X3.842 Y-8.809
G3 X5.448 Y-8.046 I-3.319 J9.045
G1 X5.566 Y-7.975
G3 X6.137 Y-7.599 I-3.79 J6.373
G1 X6.204 Y-7.55
G3 X6.901 Y-6.989 I-5.283 J7.265
G1 X6.946 Y-6.948
G3 X9.187 Y-4.021 I-6.528 J7.318
G1 X9.2 Y-3.995
G3 X10.089 Y-1.397 I-9.161 J4.587
G1 X10.094 Y-1.369
G3 X10.228 Y-0.464 I-9.305 J1.841
G1 X10.23 Y-0.452
G3 X10.241 Y1.418 I-10.04 J0.995
X9.621 Y4.172 I-10.461 J-0.91
G1 X9.613 Y4.192
G3 X7.569 Y7.566 I-9.873 J-3.675
X4.369 Y9.993 I-7.941 J-7.148
G1 X4.344 Y10.005
G3 X1.52 Y10.957 I-4.939 J-9.977
G1 X1.492 Y10.963
G3 X0.506 Y11.105 I-1.962 J-10.14
G1 X0.494 Y11.106
G3 X-1.543 Y11.11 I-1.039 J-10.934
X-4.522 Y10.425 I1.033 J-11.324
G1 X-4.54 Y10.418
G3 X-6.432 Y9.497 I4.023 J-10.668
G1 X-6.556 Y9.422
G3 X-7.255 Y8.952 I4.675 J-7.704
G1 X-7.331 Y8.895
G3 X-8.139 Y8.231 I6.371 J-8.574
G1 X-8.186 Y8.188
G3 X-10.796 Y4.718 I7.773 J-8.564
G1 X-10.808 Y4.693
G3 X-11.825 Y1.641 I10.776 J-5.286
G1 X-11.83 Y1.616
G3 X-11.98 Y0.551 I11.032 J-2.09
G1 X-11.981 Y0.537
G3 X-11.977 Y-1.666 I11.822 J-1.083
X-11.23 Y-4.869 I12.175 J1.153
G1 X-11.223 Y-4.888
G3 X-10.222 Y-6.924 I11.481 J4.376
G1 X-10.146 Y-7.049
G3 X-9.627 Y-7.814 I8.374 J5.123
G1 X-9.566 Y-7.896
G3 X-8.85 Y-8.76 I9.244 J6.93
G1 X-8.808 Y-8.806
G3 X-5.067 Y-11.6 I9.187 J8.397
G1 X-5.041 Y-11.613
G3 X-1.764 Y-12.693 I5.626 J11.56
G1 X-1.74 Y-12.697
G3 X-0.595 Y-12.854 I2.218 J11.928
G1 X-0.579 Y-12.856
G3 X1.789 Y-12.845 I1.128 J12.71
X5.215 Y-12.035 I-1.273 J13.028
G1 X5.236 Y-12.027
G3 X7.416 Y-10.948 I-4.728 J12.294
G1 X7.543 Y-10.87
G3 X8.374 Y-10.301 I-5.569 J9.04
G1 X8.462 Y-10.235
G3 X9.383 Y-9.467 I-7.501 J9.927
G1 X9.425 Y-9.428
G3 X12.404 Y-5.417 I-9.021 J9.811
G1 X12.418 Y-5.389
G3 X13.561 Y-1.888 I-12.345 J5.968
G1 X13.565 Y-1.864
G3 X13.729 Y-0.639 I-12.825 J2.345
X12.846 Y5.546 I-13.778 J1.188
G1 X12.83 Y5.587
G3 X10.048 Y10.045 I-13.099 J-5.077
X5.766 Y13.209 I-10.432 J-9.641
G1 X5.737 Y13.223
G3 X2.011 Y14.429 I-6.315 J-13.15
G1 X1.988 Y14.433
G3 X0.682 Y14.605 I-2.469 J-13.687
X-5.898 Y13.649 I-1.23 J-14.66
G1 X-5.934 Y13.636
G3 X-8.4 Y12.399 I5.431 J-13.913
G1 X-8.529 Y12.319
G3 X-9.496 Y11.649 I6.446 J-10.346
G1 X-9.597 Y11.572
G3 X-10.63 Y10.7 I8.694 J-11.348
G1 X-10.665 Y10.667
G3 X-14.012 Y6.116 I10.262 J-11.053
G1 X-14.027 Y6.084
G3 X-15.296 Y2.134 I13.937 J-6.657
G1 X-15.3 Y2.113
G3 X-15.48 Y0.726 I14.587 J-2.597
X-14.453 Y-6.249 I15.542 J-1.273
G1 X-14.44 Y-6.282
G3 X-13.124 Y-8.893 I14.723 J5.783
G1 X-13.043 Y-9.022
G3 X-12.323 Y-10.057 I10.994 J6.883
G1 X-12.238 Y-10.166
G3 X-11.314 Y-11.256 I12.069 J9.302
G1 X-11.256 Y-11.319
G3 X-10.242 Y-12.309 I11.095 J10.345
X-6.445 Y-14.825 I10.726 J12.059
G1 X-6.432 Y-14.832
G3 X-2.257 Y-16.164 I6.999 J14.724
G1 X-2.237 Y-16.168
G3 X-0.77 Y-16.355 I2.725 J15.488
X6.6 Y-15.256 I1.317 J16.425
G1 X6.631 Y-15.244
G3 X9.385 Y-13.849 I-6.135 J15.534
G1 X9.515 Y-13.768
G3 X10.618 Y-12.996 I-7.32 J11.643
G1 X10.736 Y-12.905
G3 X11.882 Y-11.928 I-9.915 J12.797
G1 X11.933 Y-11.88
G3 X12.977 Y-10.808 I-11.011 J11.766
X15.631 Y-6.792 I-12.742 J11.303
G1 X15.635 Y-6.783
G3 X17.185 Y2.404 I-15.511 J7.342
G1 X17.182 Y2.434
G3 X16.567 Y5.49 I-17.078 J-1.848
G1 X16.546 Y5.558
G3 X16.095 Y6.861 I-14.966 J-4.457
G1 X15.76 Y7.705
X15.365 Y8.439
X14.956 Y9.173
X14.31 Y10.129
X13.949 Y10.64
X13.34 Y11.374
X12.842 Y11.948
X11.948 Y12.842
X11.374 Y13.34
X10.64 Y13.949
X9.907 Y14.462
X9.173 Y14.956
X8.439 Y15.365
X7.666 Y15.777
X6.237 Y16.397
X4.77 Y16.886
X3.243 Y17.245
X1.835 Y17.443
X1.101 Y17.497
X0.367 Y17.531
X-0.367
X-1.101 Y17.497
X-1.835 Y17.443
X-3.243 Y17.245
X-4.77 Y16.886
X-6.237 Y16.397
X-7.705 Y15.76
X-8.439 Y15.365
X-9.173 Y14.956
X-10.129 Y14.31
X-10.64 Y13.949
X-11.374 Y13.34
X-11.948 Y12.842
X-12.842 Y11.948
X-13.34 Y11.374
X-13.949 Y10.64
X-14.462 Y9.907
X-14.956 Y9.173
X-15.365 Y8.439
X-15.777 Y7.666
X-16.397 Y6.237
X-16.886 Y4.77
X-17.245 Y3.243
X-17.443 Y1.835
X-17.497 Y1.101
X-17.531 Y0.367
Y-0.367
X-17.497 Y-1.101
X-17.443 Y-1.835
X-17.245 Y-3.243
X-16.886 Y-4.77
X-16.397 Y-6.237
X-15.76 Y-7.705
X-15.365 Y-8.439
X-14.956 Y-9.173
X-14.31 Y-10.129
X-13.949 Y-10.64
X-13.34 Y-11.374
X-12.842 Y-11.948
X-11.948 Y-12.842
X-11.374 Y-13.34
X-10.64 Y-13.949
X-9.907 Y-14.462
X-9.173 Y-14.956
X-8.439 Y-15.365
X-7.666 Y-15.777
X-6.237 Y-16.397
X-4.77 Y-16.886
X-3.243 Y-17.245
X-1.835 Y-17.443
X-1.101 Y-17.497
X-0.367 Y-17.531
X0.367
X1.101 Y-17.497
X1.835 Y-17.443
X3.243 Y-17.245
X4.77 Y-16.886
X6.237 Y-16.397
X7.705 Y-15.76
X8.439 Y-15.365
X9.173 Y-14.956
X10.129 Y-14.31
X10.64 Y-13.949
X11.374 Y-13.34
X11.948 Y-12.842
X12.842 Y-11.948
X13.34 Y-11.374
X13.949 Y-10.64
X14.462 Y-9.907
X14.956 Y-9.173
X15.365 Y-8.439
X15.777 Y-7.666
X16.397 Y-6.237
X16.886 Y-4.77
X17.245 Y-3.243
X17.443 Y-1.835
X17.497 Y-1.101
X17.531 Y-0.367
Y0.367
X17.497 Y1.101
X17.443 Y1.835
X17.245 Y3.243
X16.886 Y4.77
X16.397 Y6.237
X15.76 Y7.705
Z-4.7
Z5
X-0.26 Y0.019
Z4.5
Z-1.014 F333.3
X-0.247 Y0.015 Z-1.162
X-0.207 Y0.005 Z-1.304
X-0.142 Y-0.009 Z-1.436
X-0.054 Y-0.02 Z-1.554
X0.056 Y-0.023 Z-1.654
X0.155 Y-0.016 Z-1.718
X0.26 Y0.003 Z-1.766
G3 X-0.202 Y1.949 Z-2.909 I-0.231 J0.973
X0.26 Y0.003 Z-4.053 I0.231 J-0.973
X-0.202 Y1.949 Z-5.196 I-0.231 J0.973
X0.26 Y0.003 Z-6.34 I0.231 J-0.973
X-0.202 Y1.949 Z-7.483 I-0.231 J0.973
X-0.215 Y0.007 Z-8.452 I0.231 J-0.973
G1 X-0.149 Y-0.008 Z-8.47
X-0.083 Y-0.017 Z-8.488
X-0.014 Y-0.023 Z-8.494
X0.056 Z-8.5
X0.127 Y-0.021 F1000
G3 X0.441 Y0.335 I-0.009 J0.324
G1 X0.433 Y0.417
G3 X0.163 Y0.909 I-0.716 J-0.072
G1 X0.151 Y0.919
G3 X-0.555 Y1.094 I-0.546 J-0.691
G1 X-0.755 Y1.057
G3 X-1.112 Y0.918 I0.185 J-1.004
X-1.592 Y0.424 I0.763 J-1.219
G1 X-1.616 Y0.381
G3 X-1.792 Y-0.069 I1.332 J-0.778
G1 X-1.795 Y-0.086
G3 X-1.827 Y-0.588 I1.638 J-0.356
G1 X-1.82 Y-0.673
G3 X-1.66 Y-1.219 I1.454 J0.127
G1 X-1.561 Y-1.41
G3 X-1.09 Y-2.01 I1.83 J0.952
X-0.457 Y-2.399 I1.453 J1.656
G1 X-0.426 Y-2.411
X-0.269 Y-2.467
G3 X0.477 Y-2.575 I0.722 J2.355
G1 X0.496
X0.589 Y-2.571
X0.629 Y-2.569
G3 X2.006 Y-2.09 I-0.163 J2.691
G1 X2.067 Y-2.048
G3 X2.415 Y-1.748 I-1.29 J1.852
G1 X2.533 Y-1.624
G3 X2.996 Y-0.962 I-1.991 J1.886
G1 X3.019 Y-0.917
G3 X3.276 Y-0.161 I-2.663 J1.328
G1 X3.278 Y-0.153
G3 X3.216 Y1.352 I-3.177 J0.623
G1 X3.199 Y1.412
G3 X2.122 Y3.12 I-3.434 J-0.972
G1 X2.108 Y3.132
G3 X1.639 Y3.477 I-2.217 J-2.521
G1 X1.6 Y3.501
G3 X0.341 Y4.006 I-2.137 J-3.505
X-0.367 Y4.09 I-0.782 J-3.567
G1 X-0.377
G3 X-1.759 Y3.888 I-0.085 J-4.229
G1 X-1.796 Y3.876
G3 X-2.388 Y3.624 I1.098 J-3.41
G1 X-2.395 Y3.621
G3 X-4.835 Y-0.211 I2.185 J-4.084
G1 Y-0.217
G3 X-4.723 Y-1.534 I4.743 J-0.259
G1 X-4.717 Y-1.561
G3 X-3.715 Y-3.617 I4.917 J1.123
G1 X-3.664 Y-3.68
G3 X-2.989 Y-4.364 I3.874 J3.145
G1 X-2.983 Y-4.369
G3 X-2.683 Y-4.596 I2.534 J3.034
X2.842 Y-5.085 I3.197 J4.668
G1 X2.916 Y-5.052
G3 X3.291 Y-4.859 I-1.702 J3.771
G1 X3.334 Y-4.834
G3 X4.128 Y-4.282 I-2.976 J5.127
G1 X4.182 Y-4.238
G3 X4.93 Y-3.483 I-3.354 J4.071
G1 X5.005 Y-3.389
G3 X5.876 Y-1.928 I-4.657 J3.765
G1 X5.88 Y-1.917
G3 X6.004 Y2.58 I-5.779 J2.409
G1 X5.991 Y2.616
G3 X2.839 Y6.28 I-6.295 J-2.228
X0.686 Y7.022 I-3.4 J-6.368
X-0.705 Y7.118 I-1.149 J-6.548
G1 X-0.717
G3 X-2.994 Y6.665 I0.266 J-7.287
G1 X-3.053 Y6.643
G3 X-4.083 Y6.151 I2.238 J-6.016
X-7.615 Y-2.481 I3.933 J-6.648
G1 X-7.607 Y-2.514
G3 X-5.883 Y-5.754 I7.814 J2.077
G1 X-5.819 Y-5.828
G3 X-4.727 Y-6.861 I5.949 J5.195
G1 X-4.686 Y-6.893
G3 X-4.194 Y-7.24 I3.895 J4.994
X4.352 Y-7.73 I4.711 J7.393
G1 X4.419 Y-7.697
G3 X5.004 Y-7.375 I-2.906 J5.973
G1 X5.079 Y-7.329
G3 X6.237 Y-6.476 I-4.643 J7.518
G1 X6.304 Y-6.418
G3 X7.438 Y-5.21 I-5.424 J6.231
G1 X7.509 Y-5.117
G3 X8.759 Y-2.895 I-7.184 J5.502
G1 X8.763 Y-2.884
G3 X9.29 Y1.919 I-8.706 J3.386
X8.797 Y3.784 I-8.982 J-1.375
G1 X8.771 Y3.852
G3 X4.067 Y9.064 I-9.08 J-3.466
X-4.217 Y9.448 I-4.571 J-9.066
G1 X-4.295 Y9.417
G3 X-5.791 Y8.67 I3.438 J-8.75
X-10.504 Y-3.437 I5.655 J-9.173
G1 X-10.496 Y-3.466
G3 X-8.048 Y-7.893 I10.704 J3.029
G1 X-7.975 Y-7.974
G3 X-6.461 Y-9.36 I8.069 J7.288
G1 X-6.413 Y-9.397
G3 X-5.684 Y-9.894 I5.555 J7.351
X5.846 Y-10.379 I6.199 J10.082
G1 X5.911 Y-10.347
G3 X6.735 Y-9.878 I-4.29 J8.503
G1 X6.817 Y-9.826
G3 X8.35 Y-8.665 I-6.343 J9.966
G1 X8.423 Y-8.599
G3 X9.947 Y-6.933 I-7.516 J8.402
G1 X10.015 Y-6.841
G3 X11.644 Y-3.855 I-9.713 J7.237
G1 X11.648 Y-3.846
G3 X12.268 Y2.529 I-11.593 J4.346
G1 X12.267 Y2.54
G3 X11.575 Y5.027 I-11.969 J-1.988
G1 X11.549 Y5.093
G3 X5.293 Y11.848 I-11.856 J-4.706
X-5.457 Y12.226 I-5.798 J-11.864
G1 X-5.536 Y12.194
G3 X-7.501 Y11.186 I4.654 J-11.504
X-13.394 Y-4.39 I7.373 J-11.692
G1 X-13.386 Y-4.418
G3 X-10.21 Y-10.033 I13.592 J3.98
G1 X-10.132 Y-10.119
G3 X-8.195 Y-11.86 I10.204 J9.4
G1 X-8.144 Y-11.898
G3 X-7.167 Y-12.552 I7.256 J9.779
G1 X-7.042 Y-12.627
G3 X0.001 Y-14.708 I7.521 J12.497
X3.1 Y-14.477 I0.476 J14.522
X7.324 Y-13.037 I-2.746 J14.964
G1 X7.399 Y-12.998
G3 X8.47 Y-12.378 I-5.734 J11.126
G1 X8.553 Y-12.324
G3 X10.464 Y-10.852 I-8.052 J12.431
G1 X10.542 Y-10.781
G3 X12.455 Y-8.655 I-9.613 J10.574
G1 X12.991 Y-7.923
X13.576 Y-6.873
X13.868 Y-6.237
X14.185 Y-5.504
X14.671 Y-4.036
X14.844 Y-3.302
X14.994 Y-2.568
X15.097 Y-1.835
X15.167 Y-1.101
X15.201 Y-0.367
X15.205 Y0.367
X15.172 Y1.101
X15.095 Y1.835
X14.993 Y2.568
X14.842 Y3.302
X14.669 Y4.036
X14.439 Y4.77
X14.31 Y5.156
X14.182 Y5.504
X13.576 Y6.874
X13.113 Y7.705
X12.842 Y8.16
X12.108 Y9.212
X11.374 Y10.096
X10.864 Y10.64
X10.64 Y10.864
X10.103 Y11.374
X9.173 Y12.144
X8.154 Y12.842
X7.705 Y13.114
X6.871 Y13.576
X5.415 Y14.221
X4.036 Y14.672
X3.302 Y14.844
X2.568 Y14.987
X1.835 Y15.09
X1.101 Y15.171
X0.367 Y15.205
X-0.367
X-1.101 Y15.171
X-1.835 Y15.093
X-2.568 Y14.99
X-3.302 Y14.844
X-4.036 Y14.672
X-5.15 Y14.31
X-5.504 Y14.189
X-6.877 Y13.576
X-7.705 Y13.114
X-8.143 Y12.842
X-9.219 Y12.108
X-10.103 Y11.374
X-10.64 Y10.864
X-10.864 Y10.64
X-11.374 Y10.095
X-12.14 Y9.173
X-12.842 Y8.16
X-13.113 Y7.705
X-13.576 Y6.874
X-14.186 Y5.504
X-14.439 Y4.77
X-14.659 Y4.036
X-14.832 Y3.302
X-14.993 Y2.568
X-15.095 Y1.835
X-15.172 Y1.101
X-15.205 Y0.367
X-15.197 Y-0.367
X-15.163 Y-1.101
X-15.097 Y-1.835
X-15.043 Y-2.217
X-14.994 Y-2.568
X-14.844 Y-3.302
X-14.671 Y-4.036
X-14.187 Y-5.504
X-13.868 Y-6.237
X-13.576 Y-6.873
X-13.112 Y-7.705
X-12.842 Y-8.155
X-12.108 Y-9.22
X-11.374 Y-10.105
X-10.64 Y-10.85
X-10.103 Y-11.374
X-9.173 Y-12.142
X-8.16 Y-12.842
X-7.705 Y-13.106
X-6.863 Y-13.576
X-6.237 Y-13.868
X-5.504 Y-14.187
X-4.77 Y-14.438
X-4.036 Y-14.668
X-3.302 Y-14.84
X-2.568 Y-14.995
X-1.835 Y-15.098
X-1.101 Y-15.169
X-0.367 Y-15.203
X0.367
X1.101 Y-15.169
X1.835 Y-15.098
X2.568 Y-14.995
X3.302 Y-14.835
X4.219 Y-14.622
X5.504 Y-14.187
X6.237 Y-13.868
X6.865 Y-13.576
X7.705 Y-13.108
X8.16 Y-12.842
X9.217 Y-12.108
X10.103 Y-11.374
X10.86 Y-10.64
X11.374 Y-10.105
X12.135 Y-9.173
X12.991 Y-7.923
Z-7.7
Z5
X-0.108 Y-0.206
Z-4.014
X-0.1 Y-0.195 Z-4.162 F333.3
X-0.079 Y-0.16 Z-4.304
X-0.047 Y-0.102 Z-4.436
X-0.01 Y-0.021 Z-4.554
X0.025 Y0.083 Z-4.654
X0.046 Y0.18 Z-4.718
X0.058 Y0.287 Z-4.766
G3 X-1.938 Y0.41 Z-5.909 I-0.998 J0.062
X0.058 Y0.287 Z-7.053 I0.998 J-0.062
X-1.938 Y0.41 Z-8.196 I-0.998 J0.062
X0.058 Y0.287 Z-9.34 I0.998 J-0.062
X-1.938 Y0.41 Z-10.483 I-0.998 J0.062
X-0.083 Y-0.167 Z-11.452 I0.998 J-0.062
G1 X-0.05 Y-0.109 Z-11.47
X-0.021 Y-0.048 Z-11.488
X0.004 Y0.017 Z-11.494
X0.025 Y0.083 Z-11.5
X0.034 Y0.129 F1000
X0.037 Y0.176
G3 X-0.3 Y0.528 I-0.352 J0
G1 X-0.394 Y0.532
G3 X-0.772 Y0.448 I-0.032 J-0.752
G1 X-0.802 Y0.433
G3 X-1.161 Y0.049 I0.362 J-0.699
G1 X-1.179 Y0.007
G3 X-1.196 Y-0.78 I0.946 J-0.413
G1 X-1.106 Y-1.011
G3 X0.161 Y-2.062 I1.576 J0.612
X1.382 Y-1.924 I0.385 J2.069
G1 X1.4 Y-1.916
G3 X1.746 Y-1.729 I-0.897 J2.073
G1 X1.766 Y-1.716
G3 X2.28 Y-1.26 I-1.32 J2.005
G1 X2.338 Y-1.191
X2.396 Y-1.118
X2.451 Y-1.042
G3 X2.716 Y-0.533 I-2.008 J1.368
G1 X2.734 Y-0.486
G3 X2.915 Y0.341 I-2.724 J1.029
G1 X2.917 Y0.382
G3 X2.913 Y0.723 I-2.033 J0.142
X0.56 Y3.59 I-3.32 J-0.325
G1 X0.478 Y3.615
G3 X-1.049 Y3.73 I-1.023 J-3.375
G1 X-1.108 Y3.722
G3 X-1.751 Y3.568 I0.516 J-3.57
G1 X-1.769 Y3.562
G3 X-2.144 Y3.41 I1.161 J-3.424
G1 X-2.153 Y3.406
G3 X-3.23 Y2.678 I1.785 J-3.803
G1 X-3.27 Y2.641
G3 X-3.692 Y2.173 I2.447 J-2.628
G1 X-3.703 Y2.157
G3 X-4.575 Y-0.159 I3.514 J-2.645
G1 X-4.576 Y-0.171
G3 X-4.283 Y-2.188 I4.678 J-0.35
X-3.075 Y-4.001 I4.58 J1.742
X-2.526 Y-4.453 I3.425 J3.608
G1 X-2.511 Y-4.463
G3 X-1.872 Y-4.851 I3.016 J4.258
G1 X-1.715 Y-4.931
G3 X-1.231 Y-5.134 I1.583 J3.095
X2.855 Y-4.924 I1.775 J5.326
G1 X2.938 Y-4.886
G3 X3.308 Y-4.691 I-1.409 J3.118
G1 X3.374 Y-4.651
G3 X6.06 Y-1.059 I-3.125 J5.138
G1 X6.099 Y-0.912
G3 X6.204 Y-0.385 I-4.156 J1.105
G1 X6.21 Y-0.341
G3 X6.267 Y0.671 I-6.345 J0.86
G1 X6.264 Y0.795
G3 X6.181 Y1.57 I-4.731 J-0.112
G1 X6.173 Y1.613
G3 X1.913 Y6.677 I-6.647 J-1.269
G1 X1.847 Y6.702
G3 X1.195 Y6.898 I-1.782 J-4.725
X-6.671 Y3.766 I-1.666 J-7.259
G1 X-6.718 Y3.696
G3 X-7.099 Y3.039 I5.122 J-3.41
G1 X-7.103 Y3.031
G3 X-7.945 Y-0.344 I7.154 J-3.579
G1 X-7.95 Y-0.545
G3 X-7.92 Y-1.274 I5.432 J-0.138
G1 X-7.91 Y-1.368
G3 X-7.874 Y-1.653 I8.381 J0.916
G1 X-7.841 Y-1.882
G3 X-7.717 Y-2.46 I4.354 J0.627
X4.459 Y-7.883 I8.356 J2.381
G1 X4.565 Y-7.831
G3 X5.364 Y-7.373 I-3.103 J6.337
G1 X5.418 Y-7.337
G3 X9.38 Y-1.645 I-5.21 J7.851
G1 X9.42 Y-1.477
G3 X9.575 Y-0.543 I-6.978 J1.642
G1 X9.584 Y-0.449
G3 X9.619 Y1.027 I-9.732 J0.966
G1 X9.612 Y1.164
G3 X9.438 Y2.453 I-7.905 J-0.413
G1 X9.424 Y2.516
G3 X6.675 Y7.525 I-9.914 J-2.182
G1 X6.549 Y7.651
G3 X5.697 Y8.383 I-5.412 J-5.431
G1 X5.512 Y8.521
G3 X4.38 Y9.236 I-5.431 J-7.338
G1 X4.306 Y9.275
G3 X2.915 Y9.887 I-4.707 J-8.818
G1 X2.674 Y9.972
G3 X1.83 Y10.206 I-2.14 J-6.089
G1 X1.446 Y10.284
G3 X0.026 Y10.464 I-1.891 J-9.224
G1 X-0.174 Y10.474
G3 X-1.104 Y10.466 I-0.392 J-7.841
X-9.61 Y5.417 I0.753 J-10.958
G1 X-9.642 Y5.366
G3 X-10.194 Y4.372 I7.763 J-4.954
X-11.313 Y-0.524 I10.402 J-4.954
G1 X-11.314 Y-0.717
G3 X-11.24 Y-1.869 I8.333 J-0.042
G1 X-11.222 Y-2.004
G3 X-11.174 Y-2.328 I11.462 J1.54
G1 X-11.158 Y-2.425
G3 X-10.859 Y-3.713 I9.943 J1.624
X-5.794 Y-10.353 I11.396 J3.441
G1 X-5.51 Y-10.532
G3 X-4.663 Y-10.981 I3.501 J5.575
X12.713 Y-2.17 I5.076 J11.527
G1 X12.737 Y-2.063
G3 X12.946 Y-0.672 I-10.109 J2.232
G1 X12.955 Y-0.564
G3 X11.316 Y6.936 I-13.093 J1.069
G1 X11.074 Y7.367
G3 X10.536 Y8.182 I-5.916 J-3.322
G1 X10.203 Y8.615
G3 X9.051 Y9.91 I-9.659 J-7.43
G1 X8.302 Y10.64
X7.705 Y11.05
X6.696 Y11.719
X5.908 Y12.108
X4.953 Y12.556
X4.036 Y12.856
X3.027 Y13.154
X2.568 Y13.235
X1.192 Y13.445
X0.367 Y13.477
X-0.734
X-1.101 Y13.443
X-1.835 Y13.354
X-2.66 Y13.233
X-3.302 Y13.076
X-4.105 Y12.842
X-4.77 Y12.619
X-5.504 Y12.309
X-6.237 Y11.965
X-6.971 Y11.55
X-7.705 Y11.067
X-8.439 Y10.524
X-9.173 Y9.883
X-9.907 Y9.16
X-10.64 Y8.29
X-11.075 Y7.705
X-11.374 Y7.242
X-11.539 Y6.971
X-11.96 Y6.237
X-12.108 Y5.958
X-12.309 Y5.504
X-12.617 Y4.77
X-12.878 Y4.036
X-13.07 Y3.302
X-13.299 Y2.293
X-13.318 Y2.201
X-13.439 Y1.101
X-13.496 Y0.275
X-13.438 Y-1.101
X-13.398 Y-1.651
X-13.229 Y-2.568
X-13.015 Y-3.577
X-12.842 Y-4.084
X-12.471 Y-5.137
X-12.364 Y-5.412
X-11.552 Y-6.971
X-11.473 Y-7.109
X-10.392 Y-8.61
X-10.236 Y-8.781
X-9.062 Y-9.999
X-8.973 Y-10.08
X-7.474 Y-11.241
X-5.836 Y-12.17
X-5.504 Y-12.31
X-4.036 Y-12.88
X-3.302 Y-13.067
X-2.11 Y-13.333
X-1.101 Y-13.432
X-0.183 Y-13.498
X0.367 Y-13.479
X1.743 Y-13.386
X2.568 Y-13.238
X3.302 Y-13.074
X4.121 Y-12.842
X4.77 Y-12.609
X5.504 Y-12.322
X6.237 Y-11.959
X6.971 Y-11.547
X7.259 Y-11.374
X7.705 Y-11.073
X8.439 Y-10.517
X9.173 Y-9.892
X9.907 Y-9.149
X10.527 Y-8.439
X10.64 Y-8.297
X11.064 Y-7.705
X11.374 Y-7.251
X11.549 Y-6.971
X11.952 Y-6.237
X12.108 Y-5.933
X12.314 Y-5.504
X12.616 Y-4.77
X12.866 Y-4.036
X13.131 Y-3.119
X13.359 Y-1.835
X13.437 Y-1.284
X13.473 Y-0.367
X13.483 Y0.642
X13.355 Y1.835
X13.252 Y2.568
X13.063 Y3.302
X12.747 Y4.44
X12.299 Y5.504
X11.972 Y6.237
X10.982 Y7.845
X10.873 Y7.985
X9.728 Y9.357
X8.302 Y10.64
Z-10.7
Z5
X-0.03 Y-0.239
Z-7.014
X-0.026 Y-0.226 Z-7.162 F333.3
X-0.016 Y-0.187 Z-7.304
X-0.003 Y-0.122 Z-7.436
X0.008 Y-0.033 Z-7.554
X0.01 Y0.077 Z-7.654
X0.001 Y0.175 Z-7.718
X-0.019 Y0.281 Z-7.766
G3 X-1.96 Y-0.202 Z-8.909 I-0.97 J-0.241
X-0.019 Y0.281 Z-10.053 I0.97 J0.241
X-1.96 Y-0.202 Z-11.196 I-0.97 J-0.241
X-0.019 Y0.281 Z-12.34 I0.97 J0.241
X-1.96 Y-0.202 Z-13.483 I-0.97 J-0.241
X-0.018 Y-0.195 Z-14.452 I0.97 J0.241
G1 X-0.004 Y-0.129 Z-14.47
X0.005 Y-0.062 Z-14.488
X0.01 Y0.007 Z-14.494
Y0.077 Z-14.5
X0.008 Y0.112 F1000
G3 X-0.614 Y0.469 I-0.422 J-0.016
G1 X-0.769 Y0.385
G3 X-1.205 Y-0.248 I0.397 J-0.74
G1 X-1.216 Y-0.333
G3 X-1.04 Y-1.237 I1.45 J-0.186
G1 X-0.963 Y-1.372
G3 X-0.191 Y-2.045 I1.337 J0.754
X0.392 Y-2.183 I0.762 J1.924
G1 X0.402 Y-2.184
G3 X1.019 Y-2.146 I0.181 J2.086
G1 X1.06 Y-2.137
G3 X1.708 Y-1.894 I-0.487 J2.284
G1 X1.725 Y-1.884
G3 X2.303 Y-1.443 I-1.236 J2.221
X2.569 Y-1.128 I-1.943 J1.906
G1 X2.574 Y-1.12
G3 X2.934 Y-0.435 I-2.238 J1.612
X3.046 Y-0.026 I-2.633 J0.939
G1 X3.053 Y0.013
G3 X3.024 Y1.331 I-3.061 J0.591
X2.873 Y1.799 I-3.173 J-0.762
G1 X2.868 Y1.813
G3 X2.394 Y2.623 I-3.063 J-1.246
G1 X2.377 Y2.646
G3 X1.642 Y3.338 I-2.754 J-2.186
G1 X1.62 Y3.353
G3 X-0.402 Y4.041 I-2.188 J-3.121
G1 X-0.418
G3 X-2.138 Y3.746 I-0.18 J-4.107
G1 X-2.154 Y3.739
G3 X-3.226 Y3.113 I1.614 J-3.993
G1 X-3.241 Y3.101
G3 X-4.109 Y2.18 I2.802 J-3.513
G1 X-4.114 Y2.173
G3 X-4.718 Y0.992 I3.818 J-2.696
G1 X-4.721 Y0.985
G3 X-4.963 Y-1.032 I4.598 J-1.575
G1 X-4.96 Y-1.061
G3 X-4.635 Y-2.434 I4.979 J0.454
G1 X-4.629 Y-2.45
G3 X-3.893 Y-3.749 I4.935 J1.937
X-2.774 Y-4.836 I4.315 J3.321
G1 X-2.767 Y-4.841
G3 X-1.399 Y-5.568 I3.279 J4.523
X-0.602 Y-5.794 I1.96 J5.381
G1 X-0.589 Y-5.797
G3 X1.046 Y-5.902 I1.189 J5.731
G1 X1.052
G3 X2.664 Y-5.548 I-0.45 J5.891
G1 X2.702 Y-5.534
G3 X4.238 Y-4.698 I-2.159 J5.8
G1 X4.246 Y-4.692
G3 X5.505 Y-3.448 I-3.791 J5.094
X6.022 Y-2.657 I-5.218 J3.979
X6.675 Y-0.971 I-5.722 J3.183
X6.826 Y-0.027 I-6.468 J1.523
G1 X6.829 Y0.006
G3 X6.478 Y2.863 I-6.89 J0.602
X6.076 Y3.802 I-6.704 J-2.312
G1 X6.071 Y3.813
G3 X4.925 Y5.43 I-6.316 J-3.257
G1 X4.907 Y5.45
G3 X3.298 Y6.735 I-5.328 J-5.023
G1 X3.279 Y6.746
G3 X-0.784 Y7.804 I-3.885 J-6.588
G1 X-1.057 Y7.798
G3 X-1.706 Y7.734 I0.101 J-4.372
X-8.657 Y-1.815 I1.455 J-8.364
G1 X-8.655 Y-1.831
G3 X-7.974 Y-4.198 I8.748 J1.233
G1 X-7.968 Y-4.211
G3 X-6.624 Y-6.355 I8.251 J3.682
G1 X-6.617 Y-6.362
G3 X-4.658 Y-8.108 I7.076 J5.968
G1 X-4.651 Y-8.113
G3 X-2.318 Y-9.233 I5.195 J7.832
G1 X-2.023 Y-9.327
G3 X-1.286 Y-9.505 I1.583 J4.952
G1 X-1.267 Y-9.508
G3 X10.605 Y0.004 I1.664 J10.088
X9.929 Y4.395 I-10.68 J0.604
X9.278 Y5.802 I-10.182 J-3.855
G1 X9.272 Y5.813
G3 X7.453 Y8.237 I-9.535 J-5.263
G1 X7.402 Y8.287
G3 X6.263 Y9.281 I-7.645 J-7.617
G1 X6.21 Y9.321
G3 X5.05 Y10.076 I-5.943 J-7.867
G1 X4.219 Y10.536
X2.752 Y11.013
X1.192 Y11.289
X-0.367 Y11.344
X-1.926 Y11.184
X-2.201 Y11.122
X-3.524 Y10.79
X-4.95 Y10.214
X-6.341 Y9.415
X-7.592 Y8.439
X-8.718 Y7.267
X-9.599 Y6.054
X-9.704 Y5.871
X-10.382 Y4.586
X-10.914 Y3.119
X-11.243 Y1.559
X-11.352 Y0
X-11.243 Y-1.559
X-10.914 Y-3.119
X-10.64 Y-3.876
X-10.382 Y-4.586
X-9.655 Y-5.962
X-9.599 Y-6.054
X-8.718 Y-7.267
X-7.592 Y-8.439
X-6.341 Y-9.415
X-4.95 Y-10.214
X-3.524 Y-10.79
X-2.018 Y-11.168
X-1.835 Y-11.194
X-0.367 Y-11.344
X1.192 Y-11.289
X2.752 Y-11.013
X4.219 Y-10.536
X5.7 Y-9.815
X6.971 Y-8.957
X8.183 Y-7.865
X9.173 Y-6.686
X10.027 Y-5.32
X10.673 Y-3.863
X11.097 Y-2.385
X11.32 Y-0.826
Y0.826
X11.097 Y2.385
X10.673 Y3.863
X10.027 Y5.32
X9.173 Y6.686
X8.184 Y7.865
X6.971 Y8.957
X5.7 Y9.815
X4.219 Y10.536
Z-13.7
Z5
X-0.14 Y0.202
Z-10.014
X-0.133 Y0.19 Z-10.162 F333.3
X-0.113 Y0.154 Z-10.304
X-0.077 Y0.099 Z-10.436
X-0.023 Y0.027 Z-10.554
X0.051 Y-0.053 Z-10.654
X0.126 Y-0.118 Z-10.718
X0.214 Y-0.18 Z-10.766
G3 X1.278 Y1.513 Z-11.909 I0.532 J0.846
X0.214 Y-0.18 Z-13.053 I-0.532 J-0.846
X1.278 Y1.513 Z-14.196 I0.532 J0.846
X0.214 Y-0.18 Z-15.34 I-0.532 J-0.846
X1.278 Y1.513 Z-16.483 I0.532 J0.846
X-0.117 Y0.161 Z-17.452 I-0.532 J-0.846
G1 X-0.081 Y0.105 Z-17.47
X-0.042 Y0.05 Z-17.488
X0.003 Y-0.003 Z-17.494
X0.051 Y-0.053 Z-17.5
G3 X0.29 Y-0.149 I0.238 J0.247 F1000
G1 X0.348 Y-0.144
X0.406 Y-0.129
X0.459 Y-0.104
X0.508 Y-0.071
X0.527 Y-0.055
X0.535 Y-0.049
X0.541 Y-0.043
G3 X0.662 Y0.892 I-0.465 J0.535
G1 X0.567 Y1.032
G3 X-0.589 Y1.633 I-1.135 J-0.773
X-1.177 Y1.524 I0.024 J-1.776
G1 X-1.275 Y1.488
X-1.332 Y1.464
X-1.386 Y1.436
X-1.517 Y1.361
X-1.579 Y1.322
X-1.638 Y1.279
X-1.68 Y1.247
G3 X-1.885 Y1.063 I1.22 J-1.572
G1 X-1.905 Y1.043
G3 X-2.157 Y0.723 I1.397 J-1.361
G1 X-2.19 Y0.671
G3 X-2.474 Y-0.008 I1.884 J-1.188
G1 X-2.477 Y-0.019
G3 X-2.527 Y-0.798 I2.29 J-0.537
G1 X-2.524 Y-0.827
G3 X-2.292 Y-1.698 I2.865 J0.296
G1 X-2.284 Y-1.717
G3 X-2.117 Y-2.026 I2.098 J0.93
G1 X-2.087 Y-2.073
G3 X-1.867 Y-2.362 I1.943 J1.247
X0.367 Y-3.446 I2.429 J2.165
G1 X0.401 Y-3.448
G3 X1.125 Y-3.414 I0.205 J3.419
X1.691 Y-3.272 I-0.471 J3.074
G1 X1.744 Y-3.254
G3 X2.289 Y-3.02 I-1.515 J4.285
G1 X2.321 Y-3.004
G3 X2.707 Y-2.771 I-1.426 J2.805
G1 X2.724 Y-2.759
G3 X3.108 Y-2.439 I-1.784 J2.533
X4.371 Y0.878 I-2.968 J3.029
G1 X4.369 Y0.915
G3 X4.057 Y2.256 I-4.301 J-0.293
X3.745 Y2.894 I-4.88 J-1.997
G1 X3.719 Y2.938
G3 X3.384 Y3.43 I-3.477 J-2.006
G1 X3.358 Y3.463
G3 X2.961 Y3.891 I-3.014 J-2.396
G1 X2.916 Y3.933
G3 X2.39 Y4.362 I-3.648 J-3.938
G1 X2.314 Y4.416
G3 X1.592 Y4.836 I-2.595 J-3.63
G1 X1.577 Y4.843
G3 X0.56 Y5.184 I-2.049 J-4.43
G1 X0.528 Y5.191
G3 X-1.618 Y5.21 I-1.12 J-5.18
G1 X-1.643 Y5.205
G3 X-3.471 Y4.488 I1.065 J-5.402
G1 X-3.526 Y4.454
G3 X-4.105 Y4.035 I2.554 J-4.136
G1 X-4.186 Y3.967
G3 X-4.687 Y3.481 I3.209 J-3.808
G1 X-4.716 Y3.449
G3 X-5.175 Y2.864 I4.331 J-3.879
G1 X-5.19 Y2.843
G3 X-5.478 Y2.383 I5.121 J-3.522
G1 X-5.482 Y2.375
G3 X-5.707 Y1.92 I3.974 J-2.249
G1 X-5.721 Y1.888
G3 X-6.086 Y-1.976 I5.864 J-2.504
G1 X-6.073 Y-2.039
G3 X-5.924 Y-2.577 I5.075 J1.108
X-5.712 Y-3.131 I6.465 J2.16
G1 X-5.705 Y-3.148
G3 X-5.322 Y-3.895 I6.011 J2.609
G1 X-5.303 Y-3.926
G3 X-4.833 Y-4.601 I4.989 J2.974
G1 X-4.771 Y-4.678
G3 X-4.182 Y-5.308 I4.617 J3.729
X0.684 Y-7.172 I4.767 J5.159
G1 X0.749 Y-7.171
G3 X2.275 Y-6.981 I-0.099 J7.032
G1 X2.355 Y-6.962
G3 X3.457 Y-6.583 I-1.37 J5.766
G1 X4.036 Y-6.317
X4.77 Y-5.789
X5.087 Y-5.504
X5.504 Y-5.1
X5.78 Y-4.77
X6.237 Y-4.16
X6.315 Y-4.036
X6.733 Y-3.302
X7.06 Y-2.568
X7.27 Y-1.835
X7.413 Y-1.101
X7.494 Y-0.367
Y0.367
X7.413 Y1.101
X7.27 Y1.835
X7.06 Y2.568
X6.733 Y3.302
X6.315 Y4.036
X6.237 Y4.16
X5.781 Y4.77
X5.504 Y5.1
X5.087 Y5.504
X4.77 Y5.789
X4.036 Y6.317
X3.302 Y6.727
X2.796 Y6.971
X1.835 Y7.284
X1.101 Y7.416
X0.367 Y7.486
X-0.367 Y7.497
X-1.101 Y7.42
X-1.835 Y7.266
X-2.568 Y7.045
X-3.302 Y6.747
X-4.184 Y6.237
X-4.77 Y5.783
X-5.103 Y5.504
X-5.504 Y5.089
X-5.798 Y4.77
X-6.331 Y4.036
X-6.732 Y3.302
X-6.971 Y2.758
X-7.04 Y2.568
X-7.272 Y1.835
X-7.428 Y1.101
X-7.487 Y0.367
Y-0.367
X-7.428 Y-1.101
X-7.272 Y-1.835
X-7.04 Y-2.568
X-6.971 Y-2.758
X-6.732 Y-3.302
X-6.331 Y-4.036
X-5.798 Y-4.77
X-5.504 Y-5.089
X-5.103 Y-5.504
X-4.77 Y-5.783
X-4.184 Y-6.237
X-3.302 Y-6.747
X-2.568 Y-7.045
X-1.835 Y-7.266
X-1.101 Y-7.42
X-0.367 Y-7.497
X0.367 Y-7.486
X1.101 Y-7.416
X1.835 Y-7.284
X2.796 Y-6.971
X3.302 Y-6.727
X4.036 Y-6.317
Z-16.7
Z15
(When using Fusion for Personal Use, the feedrate of rapid)
(moves is reduced to match the feedrate of cutting moves,)
(which can increase machining time. Unrestricted rapid moves)
(are available with a Fusion Subscription.)

(Pocket2 2)
G0 X-63.875 Y-10.259
G1 Z15 F1000
Z4.5
Z4.45 F333.3
X-63.891 Y-10.254 Z4.288
X-63.939 Y-10.244 Z4.133
X-64.017 Y-10.231 Z3.991
X-64.123 Y-10.224 Z3.868
X-64.188 Y-10.226 Z3.819
X-64.252 Y-10.231 Z3.769
X-64.324 Y-10.243 Z3.734
X-64.396 Y-10.259 Z3.698
G3 X-63.873 Y-12.19 Z2.555 I0.261 J-0.965
X-64.396 Y-10.259 Z1.411 I-0.261 J0.965
X-63.873 Y-12.19 Z0.268 I0.261 J-0.965
X-64.396 Y-10.259 Z-0.876 I-0.261 J0.965
X-63.873 Y-12.19 Z-2.019 I0.261 J-0.965
X-63.141 Y-11.342 Z-2.452 I-0.261 J0.965
G1 X-63.136 Y-11.274 Z-2.47
X-63.134 Y-11.207 Z-2.488
X-63.138 Y-11.138 Z-2.494
X-63.147 Y-11.069 Z-2.5
X-63.709 Y-7.495 F1000
X-64.099 Y-2.632
X-64.118 Y2.246
X-63.764 Y7.112
X-63.042 Y11.937
X-61.954 Y16.693
X-60.507 Y21.352
X-58.709 Y25.887
X-56.571 Y30.272
X-54.106 Y34.482
X-51.327 Y38.492
X-48.251 Y42.278
X-44.895 Y45.82
X-41.28 Y49.095
X-37.425 Y52.086
X-33.515 Y54.656
X-29.425 Y56.93
X-25.178 Y58.896
X-20.807 Y60.563
X-16.338 Y61.943
X-11.788 Y63.031
X-6.943 Y63.822
X-2.049 Y64.219
X2.861 Y64.221
X7.755 Y63.825
X12.601 Y63.036
X17.368 Y61.858
X22.024 Y60.299
X26.539 Y58.37
X30.878 Y56.109
X35.043 Y53.542
X39.013 Y50.682
X42.766 Y47.545
X46.285 Y44.145
X49.549 Y40.501
X52.544 Y36.632
X55.252 Y32.557
X57.471 Y28.609
X59.381 Y24.501
X60.969 Y20.26
X62.226 Y15.908
X63.145 Y11.473
X63.72 Y6.981
X63.978 Y2.471
X63.95 Y-2.045
X63.636 Y-6.551
X63.037 Y-11.028
X62.156 Y-15.458
X60.996 Y-19.823
X59.531 Y-24.093
X57.739 Y-28.235
X55.629 Y-32.225
X53.214 Y-36.039
X50.51 Y-39.653
X47.533 Y-43.045
X44.336 Y-46.21
X40.947 Y-49.17
X37.38 Y-51.913
X33.65 Y-54.428
X29.77 Y-56.705
X25.755 Y-58.736
X22.586 Y-60.098
X19.337 Y-61.256
X16.016 Y-62.191
X12.636 Y-62.881
X8.198 Y-63.491
X3.733 Y-63.851
X-0.745 Y-63.961
X-5.224 Y-63.791
X-9.681 Y-63.316
X-14.095 Y-62.537
X-18.595 Y-61.407
X-22.998 Y-59.944
X-27.28 Y-58.157
X-31.417 Y-56.055
X-35.386 Y-53.652
X-39.165 Y-50.959
X-42.732 Y-47.991
X-46.068 Y-44.766
X-49.157 Y-41.311
X-51.991 Y-37.645
X-54.556 Y-33.785
X-56.84 Y-29.753
X-58.831 Y-25.568
X-60.518 Y-21.252
X-61.894 Y-16.827
X-62.95 Y-12.315
X-63.147 Y-11.069
X-63.153 Y-11.024
G2 X-63.049 Y10.657 I70.683 J10.5
G1 X-62.994 Y11.004
G2 X-62.636 Y12.814 I23.622 J-3.726
G1 X-62.335 Y14.081
G2 X-59.236 Y23.754 I64.646 J-15.375
X-57.449 Y27.714 I53.713 J-21.859
G1 X-57.093 Y28.43
G2 X-55.304 Y31.703 I43.987 J-21.911
G1 X-54.249 Y33.471
G2 X-53.22 Y35.053 I21.11 J-12.598
G1 X-51.665 Y37.256
G2 X-50.184 Y39.193 I25.932 J-18.292
G1 X-50.127 Y39.263
G2 X-38.127 Y50.801 I56.46 J-46.711
X-35.976 Y52.312 I20.153 J-26.403
G1 X-34.902 Y53.005
G2 X-31.332 Y55.124 I30.079 J-46.591
G1 X-30.557 Y55.546
G2 X-27.599 Y57.021 I21.809 J-40.034
X-17.963 Y60.634 I31.5 J-69.356
G1 X-16.784 Y60.987
G2 X-15.43 Y61.344 I6.069 J-20.258
G1 X-14.28 Y61.607
G2 X1.015 Y63.278 I14.809 J-64.74
X4.49 Y63.111 I-0.313 J-42.783
G1 X5.365 Y63.033
G2 X9.883 Y62.444 I-4.961 J-55.711
G1 X11.154 Y62.226
G2 X13.713 Y61.679 I-5.39 J-31.481
G1 X14.212 Y61.551
G2 X32.477 Y53.704 I-16.099 J-62.654
G1 X33.835 Y52.853
G2 X34.884 Y52.141 I-9.433 J-15.045
G1 X36.267 Y51.128
G2 X40.253 Y47.973 I-41.277 J-56.232
X43.421 Y45.079 I-40.961 J-48.032
G1 X43.778 Y44.729
G2 X46.687 Y41.655 I-42.889 J-43.516
G1 X46.987 Y41.316
G2 X49.731 Y37.967 I-44.045 J-38.895
G1 X50.763 Y36.609
G2 X51.941 Y34.934 I-22.198 J-16.863
G1 X52.405 Y34.219
G2 X58.94 Y21.147 I-54.508 J-35.416
G1 X59.239 Y20.324
G2 X59.609 Y19.172 I-14.939 J-5.433
G1 X60.339 Y16.564
G2 X60.854 Y14.417 I-28.394 J-7.952
G1 X60.896 Y14.21
G2 X62.213 Y-0.04 I-66.315 J-13.314
G1 X62.197 Y-1.205
G2 X62.127 Y-2.768 I-25.355 J0.351
G1 X62.008 Y-4.293
G2 X59.728 Y-17.165 I-68.69 J5.528
G1 X59.557 Y-17.781
G2 X58.577 Y-20.873 I-42.642 J11.815
G1 X58.344 Y-21.525
G2 X56.89 Y-25.176 I-52.392 J18.745
G1 X56.722 Y-25.554
G2 X54.974 Y-29.1 I-50.965 J22.917
G1 X54.322 Y-30.31
G2 X53.296 Y-32.041 I-23.502 J12.769
X40.818 Y-46.363 I-55.718 J35.945
G1 X39.928 Y-47.129
G2 X39.139 Y-47.769 I-11.333 J13.175
G1 X37.458 Y-49.04
G2 X8.371 Y-60.932 I-37.23 J49.544
X7.484 Y-61.026 I-2.239 J16.893
G1 X5.496 Y-61.174
G2 X1.698 Y-61.348 I-5.463 J77.326
G1 X1.161 Y-61.357
G2 X-2.616 Y-61.292 I-0.681 J69.583
G1 X-3.575 Y-61.249
G2 X-6.212 Y-61.036 I1.632 J36.649
G1 X-7.149 Y-60.926
G2 X-19.871 Y-58.055 I7.217 J61.594
G1 X-20.398 Y-57.875
G2 X-23.464 Y-56.693 I14.44 J42.016
G1 X-24.837 Y-56.105
G2 X-27.4 Y-54.888 I14.375 J33.597
X-39.634 Y-46.674 I31.304 J59.845
G1 X-40.055 Y-46.319
G2 X-41.313 Y-45.174 I14.408 J17.086
G1 X-41.794 Y-44.701
G2 X-50.982 Y-33.509 I48.174 J48.918
G1 X-51.129 Y-33.286
G2 X-52.449 Y-31.104 I28.262 J18.587
G1 X-52.931 Y-30.235
G2 X-59.897 Y9.172 I53.786 J29.827
G1 X-59.69 Y10.483
G2 X-59.348 Y12.191 I22.633 J-3.64
G1 X-59.287 Y12.444
G2 X-51.575 Y31.428 I66.473 J-15.947
G1 X-51.475 Y31.597
G2 X-50.422 Y33.217 I20.899 J-12.423
G1 X-48.875 Y35.405
G2 X-47.462 Y37.246 I23.579 J-16.642
G1 X-47.357 Y37.372
G2 X-36.281 Y48.011 I53.503 J-44.615
G1 X-35.863 Y48.33
G2 X-34.368 Y49.373 I15.158 J-20.12
G1 X-33.403 Y49.997
G2 X-29.137 Y52.524 I34.915 J-54.08
G1 X-28.766 Y52.725
G2 X-26.293 Y53.964 I20.676 J-38.188
X-17.372 Y57.341 I28.317 J-61.331
G1 X-15.926 Y57.774
G2 X-14.566 Y58.129 I5.66 J-18.884
G1 X-13.263 Y58.421
G2 X30.668 Y50.923 I12.818 J-57.344
G1 X32.03 Y50.073
G2 X33.011 Y49.411 I-8.952 J-14.342
G1 X34.501 Y48.322
G2 X41.004 Y42.829 I-38.076 J-51.677
G1 X41.455 Y42.388
G2 X44.053 Y39.641 I-42.369 J-42.68
G1 X44.443 Y39.202
G2 X46.908 Y36.199 I-37.304 J-33.128
G1 X48.004 Y34.751
G2 X49.262 Y32.951 I-22.756 J-17.238
G1 X49.967 Y31.855
G2 X56.861 Y16.512 I-47.641 J-30.629
G1 X57.111 Y15.621
G2 X57.581 Y13.685 I-27.274 J-7.645
G1 X57.594 Y13.621
G2 X58.897 Y-0.029 I-62.421 J-12.843
G1 X58.889 Y-0.658
G2 X58.741 Y-3.682 I-41.794 J0.529
G1 X58.658 Y-4.652
G2 X58.358 Y-7.407 I-58.917 J5.027
G1 X58.277 Y-7.986
G2 X51.662 Y-28.149 I-60.756 J8.767
G1 X51.172 Y-29.047
G2 X50.64 Y-29.939 I-13.123 J7.232
X38.176 Y-44.261 I-55.933 J36.091
G1 X37.806 Y-44.58
G2 X37.057 Y-45.193 I-12.155 J14.097
G1 X36.6 Y-45.547
G2 X36.177 Y-45.869 I-16.554 J21.347
G1 X35.55 Y-46.335
G2 X7.908 Y-57.642 I-35.811 J48.108
X7.218 Y-57.72 I-2.037 J14.815
G1 X6.756 Y-57.762
G2 X6.128 Y-57.812 I-2.574 J28.459
G1 X4.772 Y-57.905
G2 X-18.906 Y-54.846 I-4.162 J60.973
X-22.114 Y-53.618 I13.429 J39.851
G1 X-23.484 Y-53.029
G2 X-26.036 Y-51.809 I13.688 J31.923
X-37.389 Y-44.165 I30.222 J57.138
G1 X-37.645 Y-43.95
G2 X-39.184 Y-42.551 I17.151 J20.418
G1 X-39.479 Y-42.261
G2 X-48.135 Y-31.747 I46.466 J47.075
G1 X-48.241 Y-31.587
G2 X-49.546 Y-29.437 I26.159 J17.35
G1 X-50.067 Y-28.497
G2 X-55.9 Y-13.231 I50.291 J27.963
G1 X-56.124 Y-12.241
G2 X-56.621 Y-9.538 I33.058 J7.479
G1 X-56.752 Y-8.62
G2 X-57.339 Y-0.822 I58.547 J8.333
G1 X-57.34 Y-0.134
G2 X-57.193 Y3.493 I55.861 J-0.45
G1 X-57.128 Y4.388
G2 X-56.761 Y7.58 I38.729 J-2.834
G1 X-56.432 Y9.673
G2 X-56.028 Y11.699 I24.933 J-3.917
G1 X-55.947 Y12.033
G2 X-48.877 Y29.422 I61.672 J-14.942
X-47.412 Y31.68 I28.182 J-16.687
G1 X-46.888 Y32.419
G2 X-35.081 Y44.72 I47.138 J-33.426
G1 X-34.412 Y45.238
G2 X-32.289 Y46.74 I18.934 J-24.504
G1 X-31.355 Y47.343
G2 X-27.503 Y49.618 I30.025 J-46.448
G1 X-27.049 Y49.862
G2 X-24.86 Y50.964 I21.693 J-40.383
G1 X-24.65 Y51.062
G2 X-23.713 Y51.486 I15.235 J-32.405
X-16.437 Y54.15 I25.889 J-59.439
G1 X-15.087 Y54.555
G2 X-13.698 Y54.914 I5.408 J-18.043
G1 X-12.997 Y55.067
G2 X48.785 Y-26.385 I12.02 J-55.04
G1 X48.606 Y-26.722
G2 X48.392 Y-27.115 I-16.834 J8.935
G1 X48.156 Y-27.535
G2 X47.832 Y-28.073 I-8.893 J4.991
X35.773 Y-41.955 I-54.531 J35.194
G1 X35.726 Y-41.995
G2 X34.925 Y-42.658 I-15.178 J17.537
G1 X34.683 Y-42.848
G2 X34.058 Y-43.325 I-14.496 J18.353
G1 X33.56 Y-43.692
G2 X7.535 Y-54.339 I-34.157 J46.364
X6.776 Y-54.432 I-2.732 J19.149
G1 X6.579 Y-54.452
G2 X5.753 Y-54.521 I-2.302 J22.461
G1 X4.586 Y-54.598
G2 X-17.7 Y-51.719 I-3.814 J58.184
X-20.668 Y-50.584 I11.714 J35.07
G1 X-22.021 Y-50
G2 X-24.766 Y-48.678 I14.096 J32.771
X-45.125 Y-30.226 I26.776 J50.001
G1 X-45.298 Y-29.968
G2 X-46.698 Y-27.671 I26.339 J17.63
G1 X-47.082 Y-26.977
G2 X-53.288 Y8.123 I48.14 J26.611
G1 X-53.122 Y9.187
G2 X-52.768 Y10.954 I20.83 J-3.253
G1 X-52.46 Y12.21
G2 X-29.41 Y44.624 I52.374 J-12.841
G1 X-29.371 Y44.649
G2 X-25.824 Y46.736 I25.96 J-40.066
X-15.685 Y50.905 I26.137 J-49.155
G1 X-14.293 Y51.322
G2 X-12.8 Y51.705 I5.438 J-18.128
G1 X-12.025 Y51.87
G2 X9.336 Y52.272 I11.719 J-54.987
G1 X9.377 Y52.265
G2 X12.274 Y51.626 I-5.744 J-32.961
G1 X12.726 Y51.506
G2 X41.857 Y31.876 I-13.926 J-52.097
G1 X42.395 Y31.163
G2 X43.921 Y28.947 I-25.124 J-18.945
X33.745 Y-39.323 I-44.92 J-28.198
G1 X33.554 Y-39.489
G2 X31.841 Y-40.851 I-16.912 J19.506
G1 X31.287 Y-41.255
G2 X7.494 Y-50.985 I-31.663 J43.472
G1 X7.169 Y-51.033
G2 X5.172 Y-51.243 I-3.481 J23.533
G1 X3.853 Y-51.325
G2 X-20.187 Y-47.132 I-3.267 J52.273
G1 X-20.326 Y-47.072
G2 X-23.696 Y-45.433 I16.643 J38.52
X-49.98 Y7.621 I24.518 J45.184
G1 X-49.809 Y8.721
G2 X-49.736 Y9.156 I15.933 J-2.469
G1 X-49.727 Y9.204
G2 X-49.522 Y10.156 I15.377 J-2.816
G1 X-49.168 Y11.58
G2 X-27.576 Y41.832 I49.062 J-12.185
G1 X-27.489 Y41.889
G2 X-24.015 Y43.921 I24.235 J-37.44
X8.426 Y49.007 I23.677 J-45.014
G1 X8.431 Y49.006
G2 X12.065 Y48.197 I-6.972 J-39.851
G1 X12.494 Y48.08
G2 X21.427 Y44.681 I-12.767 J-46.996
X45.887 Y17.661 I-22.268 J-44.739
G1 X46.077 Y17.16
G2 X46.964 Y14.452 I-29.019 J-11.004
G1 X47.168 Y13.715
G2 X48.949 Y0.04 I-47.304 J-13.112
G1 X48.948 Y0.011
G2 X47.969 Y-9.232 I-49.476 J0.567
G1 X47.668 Y-10.721
G2 X47.577 Y-11.129 I-10.874 J2.2
G1 X47.512 Y-11.401
G2 X47.325 Y-12.094 I-13.08 J3.164
G1 X46.882 Y-13.574
G2 X43.416 Y-22.108 I-46.473 J13.902
G1 X43.218 Y-22.487
G2 X41.417 Y-25.579 I-34.069 J17.773
G1 X41.139 Y-26.01
G2 X38.602 Y-29.563 I-39.729 J25.69
G1 X38.084 Y-30.217
G2 X35.853 Y-32.765 I-29.193 J23.308
G1 X35.594 Y-33.035
G2 X3.093 Y-48.051 I-35.406 J33.953
X-0.883 Y-48.099 I-2.498 J42.111
G1 X-1.176 Y-48.089
G2 X-5.568 Y-47.732 I1.676 J47.813
G1 X-5.656 Y-47.721
G2 X-9.9 Y-46.98 I5.991 J46.858
X-22.633 Y-42.178 I10.4 J46.857
G1 X-23.263 Y-41.831
G2 X-25.781 Y-40.29 I15.322 J27.855
G1 X-26.24 Y-39.978
G2 X-43.421 Y-19.289 I27.114 J39.993
G1 X-43.59 Y-18.901
G2 X-44.734 Y-15.9 I31.447 J13.705
G1 X-44.88 Y-15.456
G2 X-46.155 Y-10.85 I48.511 J15.908
G1 X-46.55 Y-9.106
X-46.558 Y-9.069
X-46.664 Y-8.425
X-47.183 Y-4.762
X-47.248 Y-4.029
X-47.28 Y-3.336
X-47.42 Y-0.366
Y0.366
X-47.248 Y4.029
X-47.183 Y4.762
X-46.664 Y8.425
X-46.53 Y9.158
X-45.655 Y12.821
X-45.441 Y13.554
X-44.194 Y17.217
X-43.883 Y17.949
X-42.567 Y20.88
X-42.217 Y21.613
X-40.138 Y25.276
X-37.751 Y28.703
X-37.583 Y28.939
X-34.819 Y32.204
X-34.436 Y32.602
X-31.887 Y35.092
X-31.418 Y35.533
X-28.222 Y38.117
X-27.735 Y38.463
X-24.424 Y40.661
X-23.075 Y41.394
X-20.891 Y42.565
X-20.317 Y42.859
X-16.493 Y44.469
X-15.76 Y44.716
X-12.095 Y45.865
X-8.43 Y46.654
X-7.697 Y46.804
X-3.299 Y47.318
X1.1 Y47.42
X5.498 Y47.113
X8.43 Y46.634
X9.896 Y46.389
X13.561 Y45.428
X14.294 Y45.228
X17.959 Y43.884
X18.692 Y43.584
X22.357 Y41.833
X24.331 Y40.661
X26.022 Y39.649
X26.755 Y39.14
X29.688 Y36.989
X30.525 Y36.265
X32.997 Y34.067
X33.353 Y33.713
X35.754 Y31.137
X36.285 Y30.544
X38.65 Y27.474
X39.217 Y26.645
X41.005 Y23.81
X41.427 Y23.078
X43.278 Y19.415
X44.723 Y15.752
X44.983 Y15.019
X46.042 Y11.356
X46.214 Y10.623
X46.91 Y6.96
X47.008 Y6.227
X47.353 Y2.564
X47.385 Y1.832
Y-1.832
X47.353 Y-2.564
X47.008 Y-6.227
X46.91 Y-6.96
X46.214 Y-10.623
X46.042 Y-11.356
X44.983 Y-15.019
X44.723 Y-15.752
X43.278 Y-19.415
X41.416 Y-23.1
X41.005 Y-23.81
X39.156 Y-26.741
X38.65 Y-27.474
X36.285 Y-30.544
X35.552 Y-31.354
X33.353 Y-33.713
X32.997 Y-34.067
X30.421 Y-36.358
X29.675 Y-36.998
X26.68 Y-39.196
X26.022 Y-39.649
X23.09 Y-41.403
X22.357 Y-41.833
X18.676 Y-43.591
X17.959 Y-43.884
X14.294 Y-45.228
X12.095 Y-45.815
X9.896 Y-46.389
X6.231 Y-46.998
X5.498 Y-47.113
X1.1 Y-47.42
X-3.299 Y-47.318
X-7.697 Y-46.804
X-10.629 Y-46.183
X-12.095 Y-45.865
X-15.76 Y-44.716
X-16.493 Y-44.469
X-20.317 Y-42.859
X-20.891 Y-42.565
X-23.823 Y-40.992
X-24.424 Y-40.661
X-27.735 Y-38.463
X-28.222 Y-38.117
X-31.418 Y-35.533
X-32.186 Y-34.8
X-34.436 Y-32.602
X-34.819 Y-32.204
X-37.583 Y-28.939
X-39.95 Y-25.554
X-40.138 Y-25.276
X-42.217 Y-21.613
X-42.567 Y-20.88
X-43.883 Y-17.949
X-44.194 Y-17.217
X-45.441 Y-13.554
X-45.655 Y-12.821
X-46.547 Y-9.086
X-46.664 Y-8.425
G3 X-46.799 Y-8.19 I-0.394 J-0.07
G1 X-64.811 Y7.144
G3 X-65.469 Y6.871 I-0.259 J-0.305
G1 X-65.69 Y4.057
G3 X-65.843 Y0.147 I49.439 J-3.893
G1 Y-0.005
G3 X-65.116 Y-10.053 I70.075 J0.024
G1 X-65.069 Y-10.372
G3 X-64.429 Y-13.89 I49.242 J7.152
G1 X-64.281 Y-14.561
G3 X-63.123 Y-19.063 I63.514 J13.947
X-55.171 Y-36.557 I66.494 J19.669
X-52.848 Y-39.948 I49.59 J31.48
G1 X-52.715 Y-40.128
G3 X-49.909 Y-43.667 I52.013 J38.372
G1 X-49.001 Y-44.732
G3 X-47.816 Y-46.029 I19.143 J16.305
G1 X-46.956 Y-46.906
G3 X-32.361 Y-58.137 I47.25 J46.307
G1 X-32.312 Y-58.165
G3 X-28.652 Y-60.077 I29.241 J51.521
G1 X-28.357 Y-60.217
G3 X-24.299 Y-61.977 I25.845 J54.042
G1 X-24.219 Y-62.008
G3 X-13.885 Y-65.154 I25.62 J65.617
G1 X-13.673 Y-65.201
G3 X-9.587 Y-65.948 I11.868 J53.386
G1 X-9.504 Y-65.96
G3 X54.856 Y-38.793 I9.631 J67.002
X57.295 Y-35.157 I-46.17 J33.608
G1 X57.344 Y-35.077
G3 X65.648 Y-15.239 I-58.848 J36.29
G1 X65.662 Y-15.184
G3 X66.558 Y-10.807 I-56.773 J13.909
G1 X66.589 Y-10.619
G3 X66.751 Y10.695 I-67.58 J11.17
G1 X66.734 Y10.804
G3 X65.881 Y15.363 I-63.003 J-9.435
G1 X65.848 Y15.509
G3 X64.739 Y19.734 I-60.469 J-13.614
G1 X64.73 Y19.764
G3 X56.93 Y36.716 I-64.34 J-19.336
G1 X56.147 Y37.924
G3 X54.794 Y39.868 I-35.504 J-23.248
G1 X54.393 Y40.413
G3 X50.865 Y44.844 I-61.9 J-45.663
X48.094 Y47.875 I-49.748 J-42.694
G1 X47.64 Y48.34
G3 X44.712 Y51.148 I-44.769 J-43.759
G1 X44.558 Y51.286
G3 X36.827 Y57.284 I-45.404 J-50.533
X33.026 Y59.619 I-33.344 J-50.035
G1 X32.848 Y59.719
G3 X28.612 Y61.905 I-31.557 J-55.963
G1 X27.564 Y62.397
G3 X25.196 Y63.404 I-14.65 J-31.18
G1 X24.714 Y63.588
G3 X-9.623 Y67.733 I-25.481 J-66.778
G1 X-9.665 Y67.728
G3 X-14.33 Y66.975 I8.194 J-65.618
G1 X-14.641 Y66.914
G3 X-19.01 Y65.874 I11.504 J-58.066
X-29.333 Y62.079 I18.258 J-65.595
G1 X-29.601 Y61.955
G3 X-32.345 Y60.581 I20.8 J-44.975
G1 X-32.829 Y60.319
G3 X-41.942 Y54.433 I34.896 J-64.027
X-45.444 Y51.584 I38.925 J-51.422
G1 X-45.554 Y51.488
G3 X-61.855 Y30.469 I45.57 J-52.172
G1 X-61.904 Y30.372
G3 X-63.901 Y26.006 I57.289 J-28.846
G1 X-63.914 Y25.973
G3 X-67.642 Y-14.923 I64.078 J-26.459
G1 X-67.321 Y-16.373
G3 X-66.656 Y-18.952 I48.7 J11.171
G1 X-66.598 Y-19.157
G3 X-52.05 Y-46.284 I69.855 J19.996
G1 X-51.585 Y-46.83
G3 X-50.249 Y-48.293 I21.919 J18.675
G1 X-49.288 Y-49.275
G3 X-45.928 Y-52.484 I48.269 J47.186
G1 X-45.601 Y-52.775
G3 X-42.558 Y-55.305 I38.295 J42.973
X-28.827 Y-63.675 I44.191 J57.042
G1 X-28.778 Y-63.698
G3 X-26.49 Y-64.691 I19.941 J42.824
G1 X-26.111 Y-64.844
G3 X-19.661 Y-67.106 I28.02 J69.55
X-14.946 Y-68.335 I19.055 J63.44
G1 X-14.389 Y-68.459
G3 X-10.094 Y-69.248 I12.847 J57.884
G1 X-10.047 Y-69.254
G3 X68.917 Y-15.958 I10.206 J70.024
X69.859 Y-11.352 I-61.912 J15.061
G1 X69.876 Y-11.252
G3 X70.04 Y11.315 I-70.946 J11.802
X69.136 Y16.128 I-68.437 J-10.361
G1 X69.114 Y16.228
G3 X67.965 Y20.621 I-63.798 J-14.335
X64.462 Y29.94 I-69.126 J-20.664
G1 X64.095 Y30.743
G3 X62.868 Y33.202 I-36.407 J-16.634
G1 X62.493 Y33.894
G3 X56.15 Y43.692 I-66.482 J-36.083
G1 X55.978 Y43.918
G3 X54.637 Y45.602 I-41.543 J-31.693
G1 X54.436 Y45.845
G3 X53.303 Y47.177 I-57.334 J-47.6
G1 X53.248 Y47.241
G3 X42.639 Y57.233 I-55.644 J-48.448
X38.767 Y59.999 I-39.987 J-51.89
G1 X38.616 Y60.099
G3 X34.552 Y62.581 I-36.455 J-55.125
G1 X34.535 Y62.59
G3 X30.003 Y64.929 I-34.962 J-62.178
G1 X29.233 Y65.293
G3 X26.329 Y66.535 I-18.524 J-39.274
G1 X25.993 Y66.665
G3 X-10.221 Y71.033 I-26.738 J-69.356
X-14.962 Y70.255 I8.757 J-68.129
G1 X-15.149 Y70.217
G3 X-19.923 Y69.079 I13.166 J-65.79
G1 X-20.3 Y68.974
G3 X-24.557 Y67.623 I16.314 J-58.792
G1 X-24.598 Y67.609
G3 X-43.963 Y57.096 I24.301 J-67.855
G1 X-43.992 Y57.074
G3 X-64.897 Y31.863 I43.954 J-57.72
X-67 Y27.263 I63.048 J-31.603
G1 X-67.454 Y26.168
G3 X-68.544 Y23.24 I39.66 J-16.437
G1 X-68.787 Y22.51
G3 X-72.347 Y4.75 I70.484 J-23.366
G1 X-72.357 Y4.611
G3 X-72.535 Y0.04 I62.316 J-4.718
X-54.864 Y-48.113 I73.967 J-0.175
G1 X-54.175 Y-48.922
G3 X-52.687 Y-50.552 I24.798 J21.135
G1 X-51.715 Y-51.548
G3 X-48.25 Y-54.862 I50.473 J49.293
G1 X-47.67 Y-55.381
G3 X-45.072 Y-57.554 I33.326 J37.224
G1 X-44.797 Y-57.768
G3 X-29.7 Y-66.932 I46.592 J59.736
X-28.208 Y-67.58 I17.93 J39.225
G1 X-27.751 Y-67.769
G3 X-15.371 Y-71.658 I28.584 J69.338
G1 X-15.167 Y-71.703
G3 X-10.562 Y-72.553 I14.197 J64.053
X72.171 Y-16.738 I10.817 J73.19
G1 X72.19 Y-16.657
G3 X73.147 Y-11.975 I-65.268 J15.769
G1 X73.154 Y-11.93
G3 X73.323 Y11.978 I-74.543 J12.48
G1 X73.029 Y13.9
G3 X72.844 Y14.878 I-14.213 J-2.174
G1 X72.495 Y16.43
G3 X58.523 Y46.133 I-73.807 J-16.581
G1 X58.392 Y46.302
G3 X57.482 Y47.445 I-40.865 J-31.611
X48.224 Y56.998 I-62.04 J-50.86
G1 X48.202 Y57.018
G3 X44.888 Y59.721 I-41.66 J-47.682
G1 X44.599 Y59.941
G3 X40.358 Y62.943 I-44.946 J-58.999
G1 X40.261 Y63.007
G3 X36.263 Y65.439 I-37.198 J-56.66
X31.409 Y67.946 I-38.31 J-68.189
G1 X30.893 Y68.191
G3 X27.503 Y69.651 I-22.333 J-47.191
G1 X27.247 Y69.75
G3 X-10.8 Y74.335 I-27.95 J-71.785
X-15.614 Y73.53 I9.352 J-70.737
G1 X-15.705 Y73.512
G3 X-20.824 Y72.287 I14.906 J-73.583
G1 X-21.325 Y72.148
G3 X-25.186 Y70.931 I15.315 J-55.336
X-42.337 Y62.368 I26.187 J-73.905
G1 X-42.868 Y62.016
G3 X-45.33 Y60.26 I24.623 J-37.124
G1 X-46.006 Y59.742
G3 X-50.267 Y56.25 I50.732 J-66.248
G1 X-50.311 Y56.212
G3 X-53.705 Y53.023 I44.35 J-50.61
G1 X-53.872 Y52.854
G3 X-70.113 Y28.489 I53.857 J-53.492
G1 X-70.548 Y27.441
G3 X-71.606 Y24.621 I39.681 J-16.489
G1 X-72.06 Y23.267
G3 X-72.952 Y20.416 I69.277 J-23.245
X-73.255 Y19.316 I39.318 J-11.427
G1 X-73.391 Y18.796
G3 X-75.685 Y4.981 I75.013 J-19.553
G1 X-75.705 Y4.709
G3 X-75.881 Y0.169 I64.394 J-4.779
G1 X-75.882 Y-0.015
G3 X-30.696 Y-70.126 I76.545 J-0.284
X-29.835 Y-70.501 I16.323 J36.347
G1 X-29.403 Y-70.682
G3 X-26.309 Y-71.907 I29.635 J70.381
G1 X-25.609 Y-72.166
G3 X-21.924 Y-73.39 I19.657 J53.033
G1 X-20.08 Y-73.933
G3 X-17.283 Y-74.652 I11.841 J40.227
G1 X-15.932 Y-74.951
G3 X-11.049 Y-75.855 I15.559 J70.344
X41.325 Y-64.995 I11.457 J76.464
G1 X41.569 Y-64.843
G3 X45.249 Y-62.366 I-33.774 J54.151
G1 X45.428 Y-62.236
G3 X75.472 Y-17.325 I-45.736 J63.1
X76.429 Y-12.635 I-67.857 J16.287
G1 X76.451 Y-12.503
G3 X76.622 Y12.53 I-77.41 J13.046
G1 X76.463 Y13.564
G3 X75.908 Y16.495 I-43.767 J-6.762
G1 X75.714 Y17.359
G3 X74.345 Y22.639 I-80.21 J-17.991
G1 X74.054 Y23.623
G3 X73.181 Y26.256 I-40.023 J-11.813
G1 X72.831 Y27.205
G3 X70.766 Y32.274 I-76.99 J-28.41
G1 X70.558 Y32.74
G3 X68.891 Y36.161 I-52.548 J-23.481
G1 X68.454 Y36.988
G3 X66.206 Y40.921 I-61.103 J-32.307
G1 X65.954 Y41.331
G3 X63.993 Y44.35 I-63.323 J-38.991
G1 X63.288 Y45.357
G3 X60.882 Y48.583 I-68.356 J-48.486
G1 X60.283 Y49.335
G3 X37.358 Y68.642 I-61.658 J-49.95
G1 X36.2 Y69.29
G3 X34.485 Y70.174 I-13.928 J-24.905
G1 X32.515 Y71.107
G3 X28.693 Y72.761 I-26.059 J-54.972
G1 X28.331 Y72.903
G3 X14.302 Y76.975 I-29.158 J-74.25
G1 X13.655 Y77.094
G3 X9.098 Y77.788 I-15.942 J-89.356
G1 X8.15 Y77.901
G3 X4.553 Y78.212 I-7.953 J-71.076
G1 X3.75 Y78.261
G3 X-0.403 Y78.378 I-3.851 J-63.107
G1 X-1.998 Y78.37
G3 X-5.105 Y78.253 I0.226 J-47.256
G1 X-6.175 Y78.178
G3 X-11.182 Y77.664 I5.356 J-76.803
G1 X-11.357 Y77.64
G3 X-16.317 Y76.796 I10.134 J-74.603
G1 X-16.398 Y76.78
G3 X-21.577 Y75.536 I15.778 J-77.109
G1 X-22.326 Y75.329
G3 X-25.798 Y74.242 I14.3 J-51.77
G1 X-25.924 Y74.198
G3 X-40.231 Y67.635 I28.085 J-80.093
G1 X-40.776 Y67.316
G3 X-43.76 Y65.433 I34.413 J-57.849
G1 X-45.468 Y64.289
G3 X-47.504 Y62.809 I26.322 J-38.351
G1 X-48.071 Y62.372
G3 X-52.649 Y58.609 I55.74 J-72.472
G1 X-52.67 Y58.591
G3 X-55.963 Y55.497 I44.247 J-50.4
G1 X-56.168 Y55.291
G3 X-73.197 Y29.784 I56.303 J-56.027
G1 X-73.663 Y28.664
G3 X-74.428 Y26.687 I38.608 J-16.069
G1 X-75.134 Y24.619
G3 X-76.262 Y20.983 I68.439 J-23.219
G1 X-76.549 Y19.92
G3 X-79.021 Y5.239 I76.487 J-20.427
G1 X-79.047 Y4.88
G3 X-79.228 Y0.228 I68.761 J-5.003
G1 X-79.238 Y-1.705
G3 X-79.208 Y-3.234 I30.432 J-0.167
G1 X-79.085 Y-5.305
G3 X-76.802 Y-19.983 I79.527 J4.85
G1 X-76.63 Y-20.646
G3 X-63.293 Y-48.248 I77.999 J20.665
G1 X-63.194 Y-48.38
G3 X-60.392 Y-51.891 I55.573 J41.482
G1 X-60.381 Y-51.904
G3 X-52.705 Y-59.789 I63.543 J54.179
G1 X-52.117 Y-60.319
G3 X-49.781 Y-62.289 I31.379 J34.827
G1 X-49.005 Y-62.902
G3 X-31.766 Y-73.283 I49.554 J62.786
G1 X-31.153 Y-73.549
G3 X-16.731 Y-78.191 I31.757 J73.924
G1 X-16.695 Y-78.199
G3 X-11.549 Y-79.157 I16.98 J76.957
X14.153 Y-78.902 I12.064 J79.433
G1 X14.746 Y-78.8
G3 X18.69 Y-77.985 I-10.328 J59.964
G1 X20.445 Y-77.562
G3 X23.285 Y-76.778 I-10.487 J43.509
G1 X24.005 Y-76.553
G3 X34.168 Y-72.674 I-26.054 J83.523
G1 X34.539 Y-72.504
G3 X38.127 Y-70.708 I-29.292 J62.99
G1 X39.633 Y-69.899
G3 X41.969 Y-68.541 I-19.233 J35.794
G1 X43.544 Y-67.555
G3 X47.05 Y-65.193 I-33.423 J53.401
G1 X48.548 Y-64.11
G3 X50.882 Y-62.302 I-26.338 J36.415
G1 X51.684 Y-61.638
G3 X68.745 Y-42.096 I-51.568 J62.241
G1 X69.378 Y-41.077
G3 X70.822 Y-38.578 I-37.126 J23.098
X77.649 Y-22.214 I-82.217 J43.91
G1 X77.672 Y-22.139
G3 X78.401 Y-19.475 I-39.889 J12.34
G1 X78.756 Y-17.983
G3 X79.709 Y-13.308 I-70.322 J16.767
G1 X79.98 Y-11.713
G3 X80.364 Y-8.883 I-42.612 J7.234
G1 X80.443 Y-8.111
G3 X79.877 Y13.376 I-83.488 J8.55
X79.005 Y17.971 I-70.537 J-11.005
G1 X78.938 Y18.269
G3 X77.639 Y23.296 I-77.564 J-17.368
G1 X77.232 Y24.68
G3 X76.453 Y27.045 I-36.626 J-10.754
G1 X75.604 Y29.365
G3 X74.631 Y31.817 I-45.762 J-16.748
G1 X74.017 Y33.21
G3 X63.273 Y50.984 I-74.658 J-32.995
G1 X63.083 Y51.222
G3 X59.885 Y54.975 I-63.692 J-51.036
G1 X59.825 Y55.042
G3 X56.268 Y58.722 I-58.501 J-52.983
G1 X55.904 Y59.074
G3 X52.6 Y62.077 I-47.864 J-49.362
G1 X51.639 Y62.894
G3 X48.942 Y65.043 I-34.491 J-40.531
G1 X48.623 Y65.28
G3 X38.676 Y71.719 I-53.89 J-72.341
G1 X37.841 Y72.186
G3 X35.921 Y73.176 I-16.111 J-28.884
G1 X34.168 Y74.008
G3 X29.891 Y75.868 I-30.139 J-63.454
G1 X28.567 Y76.393
G3 X25.608 Y77.454 I-17.742 J-44.809
G1 X23.869 Y78.014
G3 X20.137 Y79.086 I-18.522 J-57.472
G1 X19.325 Y79.291
G3 X14.721 Y80.305 I-18.736 J-74.162
G1 X14.57 Y80.333
G3 X9.152 Y81.163 I-16.114 J-87.059
G1 X8.888 Y81.195
G3 X4.339 Y81.593 I-8.692 J-73.106
G1 X3.387 Y81.647
G3 X-0.568 Y81.74 I-3.412 J-60.536
G1 X-2.409 Y81.724
G3 X-5.459 Y81.598 I0.421 J-47.027
G1 X-6.768 Y81.501
G3 X-11.633 Y80.984 I5.527 J-75.111
G1 X-11.84 Y80.955
G3 X-22.285 Y78.798 I11.295 J-81.076
G1 X-23.315 Y78.514
G3 X-26.362 Y77.567 I13.01 J-47.209
G1 X-26.867 Y77.392
G3 X-42.184 Y70.352 I28.624 J-82.468
G1 X-42.252 Y70.313
G3 X-45.857 Y68.049 I34.144 J-58.369
G1 X-47.129 Y67.193
G3 X-49.714 Y65.329 I27.33 J-40.622
G1 X-50.149 Y64.993
G3 X-55.009 Y60.987 I60.123 J-77.895
G1 X-55.476 Y60.576
G3 X-57.796 Y58.397 I32.071 J-36.466
G1 X-59.115 Y57.074
G3 X-61.568 Y54.453 I40.573 J-40.434
X-71.879 Y40.102 I67.85 J-59.629
G1 X-72.134 Y39.662
G3 X-73.418 Y37.27 I36.246 J-20.997
G1 X-73.934 Y36.23
G3 X-76.284 Y31.073 I78.09 J-38.71
G1 X-76.617 Y30.274
G3 X-77.791 Y27.182 I47.131 J-19.653
X-81.951 Y9.671 I87.868 J-30.125
G1 X-82.122 Y8.425
X-82.196 Y7.693
X-82.481 Y3.297
X-82.522 Y2.564
Y-2.564
X-82.466 Y-3.541
X-82.196 Y-7.693
X-82.122 Y-8.425
X-81.549 Y-12.821
X-81.437 Y-13.554
X-80.572 Y-17.949
X-80.42 Y-18.682
X-79.054 Y-23.81
X-77.579 Y-28.206
X-77.322 Y-28.939
X-75.522 Y-33.335
X-75.135 Y-34.195
X-73.055 Y-38.463
X-72.645 Y-39.196
X-70.556 Y-42.859
X-70.004 Y-43.742
X-67.688 Y-47.255
X-67.072 Y-48.121
X-64.14 Y-51.987
X-61.208 Y-55.381
X-60.624 Y-56.046
X-57.02 Y-59.709
X-56.209 Y-60.442
X-52.922 Y-63.372
X-48.746 Y-66.639
X-44.348 Y-69.643
X-39.95 Y-72.247
X-39.217 Y-72.638
X-35.552 Y-74.498
X-34.819 Y-74.859
X-30.421 Y-76.744
X-29.688 Y-77.031
X-25.289 Y-78.587
X-24.757 Y-78.758
X-20.158 Y-80.057
X-19.425 Y-80.234
X-15.027 Y-81.174
X-14.294 Y-81.308
X-9.896 Y-81.954
X-9.163 Y-82.05
X-4.032 Y-82.466
X1.1 Y-82.55
X1.833 Y-82.53
X6.231 Y-82.316
X6.964 Y-82.262
X12 Y-81.688
X17.226 Y-80.747
X22.357 Y-79.478
X27.489 Y-77.853
X31.887 Y-76.138
X32.657 Y-75.827
X37.359 Y-73.629
X41.416 Y-71.403
X42.149 Y-70.992
X46.547 Y-68.193
X50.945 Y-64.97
X54.611 Y-61.906
X55.424 Y-61.175
X58.5 Y-58.244
X59.009 Y-57.739
X61.941 Y-54.559
X62.582 Y-53.848
X65.606 Y-50.11
X66.1 Y-49.452
X68.69 Y-45.789
X69.271 Y-44.894
X71.47 Y-41.312
X71.849 Y-40.661
X74.17 Y-36.265
X74.834 Y-34.8
X76.147 Y-31.869
X76.464 Y-31.137
X78.099 Y-26.741
X78.353 Y-26.008
X79.672 Y-21.613
X79.872 Y-20.88
X80.999 Y-15.994
X81.877 Y-10.623
X82.377 Y-5.495
X82.435 Y-4.029
X82.553 Y-0.366
Y0.366
X82.411 Y4.762
X82.377 Y5.495
X81.877 Y10.623
X80.999 Y15.994
X79.872 Y20.88
X79.672 Y21.613
X78.353 Y26.008
X78.067 Y26.827
X76.464 Y31.137
X75.868 Y32.491
X74.402 Y35.765
X74.17 Y36.265
X71.849 Y40.661
X71.42 Y41.394
X69.171 Y45.057
X68.69 Y45.789
X67.313 Y47.737
X66.1 Y49.452
X65.545 Y50.185
X62.582 Y53.848
X61.921 Y54.581
X59.009 Y57.739
X58.276 Y58.458
X55.344 Y61.251
X54.609 Y61.907
X50.945 Y64.97
X46.547 Y68.193
X42.149 Y70.992
X39.95 Y72.208
X37.359 Y73.629
X32.62 Y75.844
X30.421 Y76.711
X27.489 Y77.853
X22.357 Y79.478
X17.226 Y80.747
X12 Y81.688
X6.964 Y82.262
X6.231 Y82.316
X1.833 Y82.53
X1.1 Y82.55
X-4.032 Y82.466
X-9.163 Y82.05
X-9.896 Y81.954
X-14.294 Y81.308
X-15.027 Y81.174
X-19.477 Y80.223
X-20.158 Y80.057
X-24.757 Y78.758
X-25.289 Y78.587
X-29.688 Y77.031
X-30.421 Y76.744
X-34.819 Y74.859
X-35.82 Y74.362
X-39.217 Y72.638
X-39.95 Y72.247
X-44.348 Y69.643
X-48.746 Y66.639
X-52.922 Y63.372
X-56.81 Y59.906
X-57.02 Y59.709
X-60.624 Y56.046
X-62.674 Y53.684
X-64.14 Y51.987
X-67.173 Y47.987
X-67.688 Y47.255
X-70.103 Y43.591
X-70.556 Y42.859
X-72.936 Y38.685
X-73.055 Y38.463
X-75.197 Y34.067
X-75.522 Y33.335
X-77.334 Y28.909
X-77.825 Y27.474
X-79.054 Y23.81
X-80.42 Y18.682
X-80.716 Y17.217
X-81.437 Y13.554
X-81.549 Y12.821
X-82.122 Y8.425
Z-1.7
Z5
X-63.88 Y-1.089
Z1.986
X-63.875 Y-1.076 Z1.838 F333.3
X-63.863 Y-1.038 Z1.696
X-63.846 Y-0.974 Z1.564
X-63.829 Y-0.886 Z1.446
X-63.82 Y-0.777 Z1.346
X-63.822 Y-0.678 Z1.282
X-63.835 Y-0.571 Z1.234
G3 X-65.804 Y-0.922 Z0.091 I-0.985 J-0.175
X-63.835 Y-0.571 Z-1.053 I0.985 J0.175
X-65.804 Y-0.922 Z-2.196 I-0.985 J-0.175
X-63.835 Y-0.571 Z-3.34 I0.985 J0.175
X-65.804 Y-0.922 Z-4.483 I-0.985 J-0.175
X-63.865 Y-1.046 Z-5.452 I0.985 J0.175
G1 X-63.847 Y-0.981 Z-5.47
X-63.834 Y-0.915 Z-5.488
X-63.824 Y-0.846 Z-5.494
X-63.82 Y-0.777 Z-5.5
X-63.678 Y3.891 F1000
X-63.191 Y8.535
X-62.372 Y13.127
X-61.233 Y17.65
X-59.781 Y22.082
X-58.022 Y26.402
X-55.964 Y30.588
X-53.619 Y34.62
X-50.998 Y38.478
X-48.173 Y42.045
X-45.086 Y45.388
X-41.755 Y48.488
X-38.2 Y51.327
X-34.439 Y53.889
X-30.496 Y56.159
X-26.408 Y58.138
X-22.197 Y59.839
X-17.881 Y61.255
X-13.481 Y62.379
X-9.015 Y63.206
X-4.503 Y63.732
X-0.051 Y63.934
X4.404 Y63.805
X8.837 Y63.345
X13.224 Y62.556
X17.541 Y61.459
X21.774 Y60.072
X25.903 Y58.401
X29.91 Y56.455
X34.107 Y54.029
X38.107 Y51.291
X41.888 Y48.256
X45.426 Y44.942
X48.702 Y41.369
X51.696 Y37.556
X54.392 Y33.527
X56.773 Y29.304
X58.826 Y24.913
X60.539 Y20.377
X61.901 Y15.725
X62.906 Y10.982
X63.546 Y6.177
X63.756 Y4.022
X63.822 Y3.111
X63.845 Y2.198
X63.703 Y-2.64
X63.279 Y-7.462
X62.575 Y-12.25
X61.535 Y-16.983
X60.112 Y-21.615
X58.314 Y-26.114
X56.121 Y-30.537
X53.587 Y-34.775
X50.728 Y-38.8
X47.562 Y-42.588
X44.108 Y-46.115
X40.388 Y-49.361
X36.436 Y-52.311
X32.278 Y-54.962
X27.937 Y-57.3
X23.435 Y-59.313
X18.797 Y-60.989
X14.048 Y-62.32
X9.495 Y-63.233
X4.885 Y-63.792
X0.246 Y-63.994
X-4.395 Y-63.837
X-9.01 Y-63.332
X-13.575 Y-62.489
X-18.066 Y-61.313
X-22.458 Y-59.81
X-26.542 Y-58.082
X-30.5 Y-56.082
X-34.315 Y-53.819
X-37.967 Y-51.303
X-41.442 Y-48.547
X-44.722 Y-45.562
X-47.791 Y-42.357
X-50.627 Y-38.944
X-53.216 Y-35.341
X-55.547 Y-31.565
X-57.607 Y-27.635
X-59.386 Y-23.57
X-60.945 Y-19.168
X-62.174 Y-14.663
X-63.066 Y-10.079
X-63.615 Y-5.442
X-63.82 Y-0.777
X-63.773 Y0.421
G2 X-61.399 Y16.349 I74.598 J-2.978
G1 X-61.262 Y16.875
G2 X-60.822 Y18.346 I21.643 J-5.666
G1 X-60.641 Y18.882
G2 X-53.982 Y33.346 I71.711 J-24.247
X-52.598 Y35.498 I31.638 J-18.827
G1 X-51.962 Y36.415
G2 X-39.526 Y49.587 I49.84 J-34.601
G1 X-38.564 Y50.34
G2 X-37.07 Y51.421 I14.969 J-19.118
G1 X-36.474 Y51.819
G2 X-23.796 Y58.446 I37.302 J-55.917
G1 X-22.678 Y58.886
G2 X-21.136 Y59.434 I8.827 J-22.421
G1 X-20.847 Y59.525
G2 X-5.545 Y62.737 I23.609 J-74.436
G1 X-4.954 Y62.8
G2 X-3.866 Y62.877 I1.617 J-15.111
G1 X-2.471 Y62.925
G2 X6.71 Y62.576 I2.196 J-63.08
X10.483 Y62.011 I-5.593 J-50.23
G1 X11.509 Y61.817
G2 X14.54 Y61.131 I-7.987 J-42.305
X27.968 Y56.077 I-18.175 J-68.656
G1 X28.876 Y55.626
G2 X29.814 Y55.118 I-6.775 J-13.634
G1 X31.324 Y54.225
G2 X39.179 Y48.751 I-32.95 J-55.652
G1 X39.419 Y48.555
G2 X42.504 Y45.824 I-37.121 J-45.044
G1 X43.043 Y45.311
G2 X45.604 Y42.681 I-32.513 J-34.217
G1 X46.723 Y41.439
G2 X48.467 Y39.344 I-26.068 J-23.473
G1 X49.7 Y37.739
G2 X51.258 Y35.556 I-29.98 J-23.043
G1 X51.917 Y34.547
G2 X54.154 Y30.84 I-52.011 J-33.917
G1 X54.305 Y30.566
G2 X58.168 Y22.07 I-55.6 J-30.403
G1 X58.616 Y20.854
G2 X59.266 Y18.85 I-25.308 J-9.324
G1 X59.462 Y18.155
G2 X61.614 Y7.364 I-67.936 J-19.157
G1 X61.642 Y7.127
G2 X61.949 Y-0.183 I-47.29 J-5.645
G1 X61.888 Y-1.92
G2 X61.808 Y-3.166 I-21.255 J0.744
G1 X61.458 Y-6.754
G2 X61.337 Y-7.727 I-18.364 J1.8
G1 X61.089 Y-9.328
G2 X58.722 Y-19.302 I-69.595 J11.246
X57.645 Y-22.275 I-36.109 J11.397
G1 X57.421 Y-22.822
G2 X55.202 Y-27.659 I-60.425 J24.788
G1 X54.802 Y-28.445
G2 X53.471 Y-30.818 I-30.023 J15.272
G1 X52.807 Y-31.899
G2 X50.616 Y-35.2 I-48.72 J29.962
G1 X50.394 Y-35.506
G2 X44.122 Y-42.86 I-52.321 J38.28
G1 X43.402 Y-43.585
G2 X41.738 Y-45.134 I-19.984 J19.804
G1 X39.568 Y-46.997
G2 X38.138 Y-48.13 I-15.111 J17.594
G1 X37.924 Y-48.286
G2 X19.188 Y-58.146 I-42.787 J58.574
X16.959 Y-58.835 I-10.043 J28.575
G1 X14.294 Y-59.546
G2 X12.332 Y-59.989 I-6.661 J24.958
G1 X11.09 Y-60.218
G2 X-1.886 Y-61.138 I-10.571 J57.147
G1 X-3.048 Y-61.09
G2 X-5.395 Y-60.9 I1.238 J29.904
G1 X-7.187 Y-60.684
G2 X-9.991 Y-60.255 I5.383 J44.619
G1 X-10.397 Y-60.177
G2 X-19.791 Y-57.619 I13.78 J69.142
G1 X-20.343 Y-57.427
G2 X-22.272 Y-56.674 I9.116 J26.191
G1 X-23.121 Y-56.305
G2 X-30.863 Y-52.337 I27.075 J62.355
G1 X-31.82 Y-51.753
G2 X-33.45 Y-50.682 I18.172 J29.44
X-47.304 Y-37.844 I39.314 J56.321
G1 X-47.44 Y-37.678
G2 X-48.578 Y-36.176 I19.537 J15.978
G1 X-49.02 Y-35.544
G2 X-53.684 Y-27.854 I56.16 J39.323
G1 X-53.727 Y-27.773
G2 X-54.988 Y-25.11 I35.096 J18.252
G1 X-55.895 Y-22.995
G2 X-56.464 Y-21.514 I19.024 J8.157
G1 X-57.247 Y-19.215
G2 X-57.963 Y-16.862 I35.434 J12.073
G1 X-58.32 Y-15.489
G2 X-59.069 Y-12.138 I55.164 J14.089
G1 X-59.148 Y-11.724
G2 X-59.701 Y-8.107 I47.277 J9.079
G1 X-59.968 Y-5.744
G2 X-60.05 Y-4.539 I18.307 J1.85
G1 X-60.063 Y-4.151
G2 X-51.063 Y31.165 I64.869 J2.272
X-49.596 Y33.443 I30.614 J-18.106
G1 X-48.208 Y35.425
G2 X-47.013 Y37.001 I20.95 J-14.66
G1 X-45.931 Y38.316
G2 X-43.94 Y40.587 I36.503 J-30
G1 X-43.326 Y41.234
G2 X-37.374 Y46.605 I41.862 J-40.409
G1 X-36.255 Y47.483
G2 X-34.851 Y48.496 I13.405 J-17.089
G1 X-33.228 Y49.572
G2 X-30.871 Y51.031 I24.401 J-36.806
G1 X-30.224 Y51.398
G2 X-6.127 Y59.008 I30.873 J-55.802
G1 X-4.793 Y59.149
G2 X-3.382 Y59.242 I1.972 J-19.153
G1 X-1.993 Y59.283
G2 X10.165 Y58.34 I1.671 J-57.312
G1 X10.884 Y58.207
G2 X13.727 Y57.563 I-6.901 J-37.096
G1 X15.095 Y57.197
G2 X17.321 Y56.543 I-12.058 J-45.109
G1 X17.852 Y56.368
G2 X25.985 Y52.986 I-21.39 J-62.912
G1 X27.078 Y52.444
G2 X28.186 Y51.849 I-8.523 J-17.186
G1 X29.544 Y51.04
G2 X43.427 Y39.64 I-31.028 J-51.941
G1 X44.637 Y38.3
G2 X45.011 Y37.854 I-5.615 J-5.096
G1 X46.041 Y36.509
G2 X58.042 Y6.563 I-47.792 J-36.531
G1 X58.047 Y6.517
G2 X58.318 Y-0.106 I-47.921 J-5.277
X55.345 Y-17.921 I-65.897 J1.841
G1 X55.334 Y-17.954
G2 X54.322 Y-20.76 I-32.795 J10.244
G1 X54.041 Y-21.445
G2 X51.901 Y-26.097 I-56.95 J23.384
G1 X51.469 Y-26.94
G2 X50.17 Y-29.235 I-27.832 J14.24
G1 X50.161 Y-29.25
G2 X41.163 Y-40.69 I-56.675 J35.318
X39.165 Y-42.562 I-23.117 J22.672
G1 X37.275 Y-44.19
G2 X35.748 Y-45.401 I-15.341 J17.783
G1 X35.618 Y-45.495
G2 X18.146 Y-54.671 I-40.101 J55.138
X15.968 Y-55.338 I-9.168 J26.055
G1 X14.681 Y-55.675
G2 X-1.753 Y-57.464 I-14.225 J54.268
G1 X-2.86 Y-57.421
G2 X-5.119 Y-57.237 I1.071 J27.19
G1 X-5.754 Y-57.159
G2 X-28.656 Y-49.425 I7.335 J59.492
G1 X-28.916 Y-49.273
G2 X-29.727 Y-48.779 I13.354 J22.859
G1 X-30.039 Y-48.581
G2 X-31.302 Y-47.744 I19.507 J30.8
G1 X-31.359 Y-47.704
G2 X-44.275 Y-35.792 I36.165 J52.17
G1 X-44.419 Y-35.617
G2 X-45.805 Y-33.782 I22.236 J18.239
G1 X-46.28 Y-33.098
G2 X-55.507 Y-11.381 I47.557 J33.025
X-56.043 Y-8.009 I42.927 J8.549
G1 X-56.066 Y-7.818
G2 X-48.447 Y28.468 I57.567 J6.855
G1 X-47.729 Y29.681
G2 X-46.81 Y31.085 I20.068 J-12.132
G1 X-46.113 Y32.071
G2 X-21.449 Y51.55 I45.335 J-32.048
G1 X-20.572 Y51.902
G2 X-18.001 Y52.814 I12.489 J-31.132
X-5.266 Y55.436 I19.82 J-64.039
G1 X-4.908 Y55.474
G2 X-2.844 Y55.607 I2.634 J-24.779
G1 X-1.853 Y55.63
G2 X9.566 Y54.724 I1.286 J-56.233
G1 X10.165 Y54.614
G2 X13.022 Y53.967 I-6.342 J-34.629
G1 X13.489 Y53.841
G2 X40.795 Y37.107 I-14.86 J-54.892
G1 X41.947 Y35.834
G2 X42.159 Y35.582 I-3.153 J-2.878
G1 X42.512 Y35.121
G2 X49.99 Y-21.713 I-45.996 J-34.962
X49.461 Y-22.862 I-13.522 J5.531
G1 X48.692 Y-24.357
G2 X39.427 Y-37.269 I-48.064 J24.71
G1 X38.659 Y-38.061
G2 X36.828 Y-39.789 I-20.345 J19.728
X17.232 Y-51.151 I-39.91 J46.251
G1 X17.006 Y-51.231
G2 X15.11 Y-51.807 I-7.522 J21.333
G1 X13.87 Y-52.126
G2 X-1.605 Y-53.793 I-13.458 J52.271
G1 X-2.36 Y-53.765
G2 X-5.163 Y-53.535 I1.185 J31.697
G1 X-5.6 Y-53.48
G2 X-26.407 Y-46.528 I7.068 J55.769
G1 X-26.498 Y-46.476
G2 X-29.152 Y-44.808 I18.496 J32.391
G1 X-29.448 Y-44.605
G2 X-41.115 Y-33.899 I32.28 J46.89
G1 X-41.301 Y-33.674
G2 X-43.118 Y-31.261 I26.997 J22.227
X-45.222 Y26.801 I44.621 J30.686
G1 X-44.88 Y27.384
G2 X-43.861 Y28.958 I18.254 J-10.695
G1 X-43.124 Y29.994
G2 X8.79 Y51.14 I42.623 J-30.341
G1 X9.126 Y51.08
G2 X12.62 Y50.287 I-7.124 J-39.484
G1 X13.001 Y50.182
G2 X26.528 Y44.336 I-13.966 J-50.886
G1 X26.57 Y44.31
G2 X30.248 Y41.828 I-25.288 J-41.428
G1 X30.282 Y41.802
G2 X37.78 Y34.996 I-31.019 J-41.706
G1 X38.812 Y33.858
G2 X39.77 Y32.702 I-12.412 J-11.258
G1 X39.983 Y32.42
G2 X50.996 Y3.574 I-44.212 J-33.404
X51.075 Y1.202 I-24.168 J-1.995
G1 X51.057 Y0.013
G2 X48.778 Y-14.527 I-52.776 J0.822
G1 X48.601 Y-15.109
G2 X47.601 Y-17.919 I-30.671 J9.33
G1 X47.202 Y-18.896
G2 X45.472 Y-22.641 I-42.868 J17.52
G1 X45.451 Y-22.683
G2 X25.909 Y-43.296 I-45.392 J23.464
G1 X25.203 Y-43.707
G2 X22.424 Y-45.156 I-18.487 J32.058
G1 X22.37 Y-45.182
G2 X16.894 Y-47.427 I-25.511 J54.414
G1 X16.357 Y-47.617
G2 X13.775 Y-48.398 I-9.717 J27.481
G1 X13.041 Y-48.583
G2 X-10.807 Y-48.849 I-12.478 J49.425
G1 X-10.935 Y-48.82
G2 X-14.706 Y-47.77 I9.38 J40.993
X-31.568 Y-38.456 I16.236 J49.314
G1 X-31.629 Y-38.406
G2 X-34.386 Y-35.9 I25.552 J30.88
G1 X-35.156 Y-35.13
G2 X-37.538 Y-32.507 I26.879 J26.809
G1 X-37.89 Y-32.082
G2 X-49.215 Y-2.205 I38.184 J31.56
G1 X-49.277 Y-0.395
X-49.295 Y0
X-49.11 Y4.029
X-49.062 Y4.762
X-48.437 Y9.158
X-47.743 Y12.088
X-47.393 Y13.554
X-47.28 Y13.926
X-45.909 Y17.949
X-45.814 Y18.189
X-44.278 Y21.613
X-43.939 Y22.345
X-41.864 Y26.008
X-41.657 Y26.356
X-39.217 Y29.854
X-39.015 Y30.129
X-36.285 Y33.353
X-35.964 Y33.71
X-33.349 Y36.265
X-32.566 Y36.998
X-29.321 Y39.621
X-29.138 Y39.761
X-25.582 Y42.126
X-25.289 Y42.313
X-21.548 Y44.324
X-21.22 Y44.494
X-17.226 Y46.18
X-16.86 Y46.32
X-12.828 Y47.589
X-12.461 Y47.692
X-8.063 Y48.631
X-4.032 Y49.111
X-3.299 Y49.181
X1.1 Y49.282
X2.566 Y49.187
X5.498 Y48.98
X5.864 Y48.944
X10.262 Y48.214
X11.156 Y47.987
X14.661 Y47.062
X15.027 Y46.942
X19.059 Y45.461
X19.425 Y45.296
X23.09 Y43.546
X23.457 Y43.352
X27.122 Y41.159
X27.489 Y40.91
X30.989 Y38.336
X34.15 Y35.533
X34.484 Y35.225
X37.608 Y31.869
X39.95 Y28.835
X40.428 Y28.206
X42.882 Y24.313
X44.626 Y20.88
X44.989 Y20.147
X46.547 Y16.199
X46.708 Y15.752
X47.767 Y12.088
X47.968 Y11.356
X48.801 Y6.96
X49.015 Y4.762
X49.222 Y2.564
X49.245 Y2.198
Y-2.198
X49.222 Y-2.564
X48.877 Y-6.227
X48.801 Y-6.96
X47.968 Y-11.356
X47.767 Y-12.088
X46.708 Y-15.752
X46.547 Y-16.199
X44.989 Y-20.147
X43.884 Y-22.345
X42.882 Y-24.313
X40.428 Y-28.206
X37.751 Y-31.69
X37.608 Y-31.869
X34.484 Y-35.225
X34.086 Y-35.589
X30.989 Y-38.336
X27.489 Y-40.91
X27.122 Y-41.159
X23.457 Y-43.352
X22.995 Y-43.591
X19.425 Y-45.296
X19.059 Y-45.461
X15.027 Y-46.942
X14.661 Y-47.062
X10.629 Y-48.126
X10.262 Y-48.214
X5.864 Y-48.944
X5.498 Y-48.98
X1.833 Y-49.238
X1.1 Y-49.282
X-3.299 Y-49.181
X-4.032 Y-49.111
X-8.063 Y-48.631
X-12.461 Y-47.692
X-12.828 Y-47.589
X-16.86 Y-46.32
X-17.226 Y-46.18
X-21.22 Y-44.494
X-23.09 Y-43.497
X-25.289 Y-42.313
X-26.755 Y-41.347
X-29.138 Y-39.761
X-29.847 Y-39.196
X-32.62 Y-36.954
X-33.353 Y-36.261
X-35.964 Y-33.71
X-36.3 Y-33.335
X-39.015 Y-30.129
X-39.344 Y-29.671
X-41.657 Y-26.356
X-41.864 Y-26.008
X-43.939 Y-22.345
X-44.607 Y-20.88
X-45.814 Y-18.189
X-45.909 Y-17.949
X-47.28 Y-13.926
X-47.393 Y-13.554
X-48.268 Y-9.89
X-48.437 Y-9.158
X-48.746 Y-6.994
X-49.062 Y-4.762
X-49.11 Y-4.029
X-49.277 Y-0.395
G3 X-49.828 Y-0.043 I-0.4 J-0.018
G1 X-65.551 Y-6.487
G3 X-65.798 Y-6.883 I0.152 J-0.37
G1 X-65.776 Y-7.221
G3 X-65.712 Y-7.844 I8.604 J0.572
G1 X-65.382 Y-10.197
G3 X-64.642 Y-14.379 I57.958 J8.109
X-57.684 Y-32.939 I66.13 J14.206
G1 X-56.946 Y-34.273
G3 X-56.331 Y-35.293 I14.19 J7.857
G1 X-55.195 Y-37.03
G3 X-52.706 Y-40.548 I49.149 J32.136
X-45.916 Y-48.193 I55.152 J42.143
G1 X-45.489 Y-48.607
G3 X-43.155 Y-50.713 I30.629 J31.613
G1 X-42.99 Y-50.851
G3 X-34.136 Y-57.225 I47.291 J56.356
X-30.893 Y-59.053 I26.553 J43.334
G1 X-30.21 Y-59.405
G3 X-26.209 Y-61.285 I27.274 J52.836
G1 X-26.101 Y-61.331
G3 X-5.53 Y-66.577 I27.354 J64.313
G1 X-4.515 Y-66.676
G3 X-1.883 Y-66.833 I3.394 J34.804
G1 X-1.785 Y-66.835
G3 X67.672 Y-2.093 I1.484 J68.036
X67.719 Y2.198 I-57.268 J2.775
G1 X67.708 Y2.595
G3 X66.672 Y12.801 I-68.599 J-1.811
G1 X66.658 Y12.879
G3 X64.23 Y22.387 I-65.331 J-11.62
G1 X64.161 Y22.593
G3 X62.668 Y26.589 I-60.365 J-20.276
G1 X62.506 Y26.983
G3 X60.835 Y30.68 I-56.158 J-23.154
G1 X60.494 Y31.372
G3 X58.814 Y34.51 I-47.758 J-23.535
G1 X58.565 Y34.941
G3 X43.728 Y52.698 I-58.738 J-34.001
G1 X43.16 Y53.18
G3 X41.108 Y54.8 I-24.063 J-28.369
G1 X40.777 Y55.043
G3 X23.548 Y64.297 I-41.397 J-56.404
G1 X23.402 Y64.351
G3 X19.247 Y65.716 I-21.372 J-58.064
G1 X18.758 Y65.856
G3 X7.675 Y68.132 I-20.714 J-72.752
G1 X7.182 Y68.196
G3 X3.184 Y68.571 I-7.493 J-58.37
G1 X2.801 Y68.594
G3 X-1.149 Y68.7 I-3.6 J-60.494
G1 X-2.028 Y68.694
G3 X-5.082 Y68.576 I0.269 J-46.518
X-33.312 Y60.46 I5.069 J-70.779
G1 X-34.013 Y60.084
G3 X-35.619 Y59.161 I15.831 J-29.425
G1 X-35.88 Y59.002
G3 X-63.178 Y28.75 I37.477 J-61.259
G1 X-63.572 Y27.914
G3 X-64.546 Y25.63 I42.08 J-19.288
G1 X-64.745 Y25.124
G3 X-66.714 Y-20.912 I65.474 J-25.86
G1 X-66.695 Y-20.975
G3 X-65.289 Y-25.123 I58.15 J17.396
G1 X-65.154 Y-25.479
G3 X-63.265 Y-29.962 I63.277 J24.025
G1 X-62.907 Y-30.731
G3 X-61.293 Y-33.896 I45.311 J21.11
G1 X-60.991 Y-34.439
G3 X-58.382 Y-38.77 I62.724 J34.845
X-55.593 Y-42.732 I56.819 J37.028
G1 X-55.519 Y-42.829
G3 X-52.396 Y-46.653 I55.012 J41.736
G1 X-52.374 Y-46.679
G3 X-49.008 Y-50.249 I52.008 J45.665
G1 X-48.923 Y-50.333
G3 X-47.724 Y-51.495 I60.488 J61.224
X-45.799 Y-53.234 I35.627 J37.488
G1 X-45.731 Y-53.292
G3 X-36.092 Y-60.301 I47.905 J55.758
G1 X-35.623 Y-60.587
G3 X-32.706 Y-62.225 I24.472 J40.142
G1 X-31.905 Y-62.639
G3 X-27.573 Y-64.682 I30.55 J59.165
X-5.81 Y-70.235 I28.658 J66.892
G1 X-4.988 Y-70.313
G3 X-1.807 Y-70.499 I4.152 J43.629
X46.036 Y55.475 I1.584 J71.471
G1 X45.628 Y55.821
G3 X43.128 Y57.799 I-29.986 J-35.33
X8.102 Y71.792 I-44.366 J-60.22
G1 X7.909 Y71.816
G3 X3.236 Y72.245 I-8.724 J-69.319
G1 X3.195 Y72.248
G3 X-1.256 Y72.362 I-3.988 J-68.671
G1 X-1.655 Y72.359
G3 X-5.706 Y72.198 I0.413 J-61.499
G1 X-6.254 Y72.159
G3 X-10.393 Y71.723 I4.685 J-64.367
G1 X-10.688 Y71.682
G3 X-15.06 Y70.933 I9.301 J-67.395
G1 X-15.151 Y70.914
G3 X-19.7 Y69.821 I14.092 J-68.683
X-66.046 Y31.212 I19.427 J-70.442
G1 X-66.379 Y30.524
G3 X-67.797 Y27.321 I46.351 J-22.433
G1 X-68.04 Y26.718
G3 X-70.406 Y19.887 I68.162 J-27.439
G1 X-70.55 Y19.39
G3 X-71.571 Y15.357 I61.707 J-17.761
G1 X-71.609 Y15.181
G3 X-71.869 Y-15.301 I72.465 J-15.86
X-71.374 Y-17.563 I66.968 J13.465
G1 X-71.355 Y-17.647
G3 X-70.192 Y-21.941 I67.589 J15.99
G1 X-70.155 Y-22.063
G3 X-68.381 Y-27.182 I69.714 J21.288
G1 X-68.262 Y-27.489
G3 X-66.584 Y-31.414 I59.74 J23.22
G1 X-66.507 Y-31.579
G3 X-64.016 Y-36.447 I69.71 J32.592
G1 X-63.971 Y-36.529
G3 X-61.602 Y-40.457 I58.469 J32.583
G1 X-61.482 Y-40.641
G3 X-46.229 Y-57.61 I61.849 J40.253
G1 X-45.688 Y-58.051
G3 X-44.238 Y-59.186 I30.675 J37.671
G1 X-44.21 Y-59.208
G3 X-42.754 Y-60.268 I33.658 J44.691
G1 X-41.482 Y-61.163
G3 X-38.736 Y-62.959 I27.754 J39.432
G1 X-37.327 Y-63.814
G3 X-34.267 Y-65.529 I26.364 J43.463
G1 X-33.644 Y-65.85
G3 X-6.15 Y-73.886 I34.436 J66.762
G1 X-5.359 Y-73.96
G3 X-1.817 Y-74.164 I4.675 J50.374
X61.786 Y43.431 I1.683 J75.088
G1 X60.786 Y44.886
X60.656 Y45.067
G3 X59.499 Y46.583 I-62.755 J-46.705
G1 X58.705 Y47.593
G3 X55.933 Y50.882 I-50.96 J-40.134
G1 X55.815 Y51.014
G3 X48.429 Y58.179 I-56.998 J-51.362
G1 X48.016 Y58.529
G3 X45.209 Y60.753 I-34.615 J-40.806
G1 X44.995 Y60.911
G3 X8.556 Y75.448 I-45.88 J-62.067
G1 X8.412 Y75.466
G3 X-1.312 Y76.025 I-9.143 J-74.188
G1 X-1.629 Y76.022
G3 X-6.009 Y75.843 I0.516 J-66.317
G1 X-6.515 Y75.806
G3 X-10.947 Y75.335 I5.148 J-69.541
G1 X-11.131 Y75.309
G3 X-15.886 Y74.491 I10.195 J-73.505
G1 X-16.037 Y74.46
G3 X-20.592 Y73.366 I14.334 J-69.694
G1 X-22.181 Y72.929
G3 X-23.446 Y72.554 I9.092 J-33.022
G1 X-25.245 Y71.937
G3 X-61.244 Y45.963 I25.653 J-73.487
X-63.846 Y42.34 I52.238 J-40.257
G1 X-64.025 Y42.071
G3 X-76.232 Y10.039 I63.922 J-42.701
G1 X-76.318 Y9.423
G3 X-76.718 Y5.688 I56.913 J-7.976
G1 X-76.759 Y5.131
G3 X-75.539 Y-15.436 I77.42 J-5.729
X-74.746 Y-19.035 I73.13 J14.24
G1 X-74.742 Y-19.052
G3 X-71.603 Y-28.882 I74.549 J18.385
G1 X-71.427 Y-29.328
G3 X-69.854 Y-32.968 I58.278 J23.026
G1 X-69.773 Y-33.14
G3 X-67.078 Y-38.385 I76.151 J35.812
G1 X-66.539 Y-39.35
G3 X-65.3 Y-41.403 I31.655 J17.693
G1 X-64.583 Y-42.508
G3 X-61.526 Y-46.885 I66.176 J42.964
G1 X-60.992 Y-47.597
G3 X-58.843 Y-50.273 I40.684 J30.48
G1 X-58.775 Y-50.351
G3 X-47.587 Y-61.178 I64.679 J55.65
G1 X-47.101 Y-61.563
G3 X-44.51 Y-63.48 I35.368 J45.093
G1 X-43.113 Y-64.454
G3 X-40.495 Y-66.155 I27.204 J39.016
G1 X-39.114 Y-66.988
G3 X-35.747 Y-68.872 I29.936 J49.577
G1 X-35.273 Y-69.116
G3 X-6.308 Y-77.553 I36.052 J69.83
G1 X-5.698 Y-77.609
G3 X-1.849 Y-77.826 I5.128 J56.631
G1 X-0.031 Y-77.867
G3 X2.168 Y-77.867 I1.095 J48.699
X2.676 Y-77.85 I-0.569 J25.126
G1 X2.752 Y-77.847
G3 X46.937 Y-62.595 I-3.51 J81.798
G1 X47.04 Y-62.522
G3 X49.109 Y-60.932 I-22.859 J31.893
G1 X49.997 Y-60.201
G3 X69.411 Y-36.616 I-50.404 J61.275
G1 X70.063 Y-35.409
G3 X70.731 Y-34.093 I-25.914 J13.989
G1 X71.992 Y-31.356
G3 X73.377 Y-28.037 I-49.37 J22.558
G1 X73.999 Y-26.398
G3 X75.08 Y-23.232 I-47.082 J17.846
G1 X75.393 Y-22.204
G3 X76.43 Y-18.461 I-72.696 J22.158
G1 X76.646 Y-17.571
G3 X78.702 Y-2.502 I-78.493 J18.387
X78.742 Y2.499 I-75.028 J3.091
G1 X78.74 Y2.559
G3 X76.909 Y17.65 I-79.857 J-2.032
G1 X76.704 Y18.565
G3 X75.812 Y22.024 I-61.394 J-13.976
G1 X75.424 Y23.366
G3 X74.272 Y26.882 I-60.393 J-17.839
G1 X73.724 Y28.398
G3 X72.487 Y31.477 I-52.616 J-19.352
G1 X71.873 Y32.884
G3 X70.33 Y36.13 I-51.245 J-22.373
G1 X69.677 Y37.395
G3 X67.848 Y40.677 I-51.296 J-26.441
G1 X66.949 Y42.174
G3 X65.288 Y44.744 I-40.264 J-24.193
G1 X63.7 Y47.035
X63.599 Y47.174
G3 X62.259 Y48.934 I-56.725 J-41.841
G1 X60.44 Y51.226
G3 X60.096 Y51.638 I-10.277 J-8.222
X58.68 Y53.233 I-76.598 J-66.573
G1 X58.268 Y53.688
G3 X54.724 Y57.348 I-57.756 J-52.369
G1 X53.055 Y58.955
G3 X52.868 Y59.126 I-5.776 J-6.149
G1 X52.721 Y59.255
G3 X51.775 Y60.073 I-42.9 J-48.662
G1 X50.385 Y61.252
G3 X47.329 Y63.677 I-38.754 J-45.704
G1 X47.024 Y63.903
G3 X42.466 Y67.061 I-51.056 J-68.835
G1 X42.258 Y67.195
G3 X38.52 Y69.438 I-35.928 J-55.626
X18.901 Y77.263 I-40.175 J-72.226
G1 X18.286 Y77.42
G3 X14.819 Y78.181 I-14.211 J-56.441
G1 X12.598 Y78.598
G3 X10.444 Y78.93 I-6.128 J-32.625
G1 X8.883 Y79.118
G3 X-1.302 Y79.687 I-9.497 J-78.634
G1 X-1.585 Y79.684
G3 X-6.325 Y79.486 I0.623 J-71.589
G1 X-6.808 Y79.45
G3 X-11.452 Y78.953 I5.526 J-73.569
G1 X-11.635 Y78.927
G3 X-16.63 Y78.066 I10.78 J-77.45
G1 X-17.94 Y77.796
G3 X-19.072 Y77.549 I9.634 J-46.776
G1 X-19.096 Y77.543
X-19.333 Y77.486
G3 X-20.554 Y77.165 I13.722 J-54.717
G1 X-21.544 Y76.893
G3 X-49.28 Y63.117 I21.399 J-77.894
G1 X-49.618 Y62.858
G3 X-52.631 Y60.4 I38.643 J-50.427
G1 X-53.876 Y59.308
G3 X-56.425 Y56.921 I35.846 J-40.834
G1 X-58.013 Y55.335
G3 X-59.671 Y53.568 I26.279 J-26.315
G1 X-60.445 Y52.687
G3 X-64.02 Y48.34 I64.693 J-56.848
G1 X-64.644 Y47.529
G3 X-66.448 Y45.015 I37.069 J-28.507
G1 X-67.015 Y44.167
G3 X-69.852 Y39.611 I68.556 J-45.841
G1 X-70.27 Y38.887
G3 X-71.882 Y35.878 I45.563 J-26.341
X-79.994 Y9.394 I76.931 J-38.05
G1 X-80.083 Y8.742
G3 X-80.246 Y7.297 I31.527 J-4.288
G1 X-80.496 Y3.922
G3 X-80.568 Y2.685 I45.376 J-3.28
G1 X-80.578 Y2.427
G3 X-80.6 Y1.196 I55.877 J-1.641
G1 X-80.619 Y-1.375
G3 X-80.615 Y-2.287 I38.602 J-0.283
G1 X-80.601 Y-2.876
G3 X-80.565 Y-3.689 I30.384 J0.93
G1 X-80.397 Y-6.608
G3 X-80.351 Y-7.31 I37.973 J2.18
G1 X-80.338 Y-7.471
G3 X-80.3 Y-7.914 I22.008 J1.673
G1 X-80.266 Y-8.264
X-79.775 Y-12.088
X-79.669 Y-12.821
X-79.533 Y-13.609
X-78.8 Y-17.349
X-78.674 Y-17.949
X-78.496 Y-18.682
X-77.53 Y-22.345
X-77.326 Y-23.078
X-76.851 Y-24.543
X-75.867 Y-27.474
X-75.604 Y-28.206
X-75.016 Y-29.671
X-73.816 Y-32.602
X-73.669 Y-32.94
X-72.774 Y-34.8
X-71.47 Y-37.475
X-70.922 Y-38.463
X-68.834 Y-42.126
X-65.942 Y-46.522
X-62.674 Y-50.839
X-59.436 Y-54.581
X-59.009 Y-55.039
X-55.846 Y-58.244
X-55.344 Y-58.725
X-52.411 Y-61.342
X-51.678 Y-61.981
X-48.746 Y-64.283
X-48.013 Y-64.848
X-47.28 Y-65.394
X-43.795 Y-67.768
X-42.882 Y-68.357
X-39.95 Y-70.092
X-38.896 Y-70.699
X-38.484 Y-70.93
X-34.819 Y-72.791
X-34.086 Y-73.14
X-32.981 Y-73.629
X-30.421 Y-74.726
X-29.528 Y-75.094
X-28.955 Y-75.321
X-25.289 Y-76.621
X-24.556 Y-76.864
X-23.823 Y-77.095
X-20.158 Y-78.13
X-19.425 Y-78.319
X-18.692 Y-78.495
X-15.027 Y-79.278
X-13.864 Y-79.49
X-12.828 Y-79.649
X-9.896 Y-80.079
X-9.163 Y-80.171
X-8.43 Y-80.247
X-4.765 Y-80.546
X-4.032 Y-80.595
X-2.566 Y-80.636
X1.1 Y-80.692
X2.566 Y-80.636
X6.231 Y-80.458
X7.697 Y-80.31
X11.362 Y-79.892
X12.095 Y-79.778
X16.493 Y-78.991
X17.523 Y-78.758
X21.624 Y-77.743
X22.357 Y-77.529
X26.755 Y-76.132
X27.571 Y-75.827
X31.887 Y-74.135
X36.285 Y-72.074
X37.018 Y-71.698
X40.683 Y-69.681
X41.455 Y-69.233
X45.081 Y-66.919
X45.814 Y-66.432
X48.995 Y-64.105
X49.963 Y-63.372
X53.144 Y-60.714
X53.877 Y-60.075
X54.611 Y-59.388
X56.81 Y-57.293
X57.543 Y-56.57
X58.048 Y-56.046
X60.744 Y-53.116
X61.382 Y-52.383
X63.753 Y-49.452
X64.323 Y-48.72
X64.873 Y-47.977
X67.072 Y-44.866
X67.895 Y-43.591
X69.694 Y-40.661
X70.121 Y-39.928
X70.526 Y-39.196
X72.203 Y-36.02
X72.451 Y-35.532
X72.936 Y-34.501
X74.443 Y-31.137
X74.744 Y-30.404
X75.135 Y-29.387
X76.393 Y-26.008
X76.855 Y-24.543
X77.953 Y-20.88
X78.474 Y-18.682
X79.15 Y-15.752
X79.533 Y-13.466
X79.998 Y-10.623
X80.223 Y-8.425
X80.509 Y-5.495
X80.547 Y-4.762
X80.691 Y-0.366
Y0.366
X80.547 Y4.762
X80.509 Y5.495
X80.078 Y9.89
X79.998 Y10.623
X79.276 Y15.019
X79.15 Y15.752
X78.131 Y20.147
X77.953 Y20.88
X76.855 Y24.543
X76.393 Y26.008
X75.029 Y29.671
X74.744 Y30.404
X74.402 Y31.228
X72.799 Y34.8
X72.451 Y35.532
X72.074 Y36.265
X70.526 Y39.196
X70.004 Y40.135
X69.694 Y40.661
X67.805 Y43.738
X67.072 Y44.866
X64.866 Y47.987
X64.14 Y48.962
X63.161 Y50.185
X61.382 Y52.383
X60.475 Y53.414
X58.048 Y56.046
X57.334 Y56.779
X56.581 Y57.511
X54.273 Y59.709
X53.877 Y60.075
X53.144 Y60.714
X49.963 Y63.372
X48.746 Y64.287
X45.814 Y66.432
X44.904 Y67.036
X41.416 Y69.258
X40.174 Y69.966
X37.018 Y71.698
X36.096 Y72.164
X31.887 Y74.135
X27.489 Y75.859
X26.755 Y76.132
X22.357 Y77.529
X21.624 Y77.743
X17.226 Y78.83
X16.493 Y78.991
X12.095 Y79.778
X11.362 Y79.892
X6.964 Y80.387
X6.231 Y80.458
X1.833 Y80.667
X1.1 Y80.692
X-3.299 Y80.62
X-4.032 Y80.595
X-4.765 Y80.546
X-8.663 Y80.223
X-9.163 Y80.171
X-9.896 Y80.079
X-13.561 Y79.541
X-14.294 Y79.416
X-15.027 Y79.278
X-18.692 Y78.495
X-19.425 Y78.319
X-20.158 Y78.13
X-23.823 Y77.095
X-24.556 Y76.864
X-25.461 Y76.56
X-28.955 Y75.321
X-29.688 Y75.032
X-31.272 Y74.362
X-33.353 Y73.47
X-34.086 Y73.14
X-34.819 Y72.791
X-38.484 Y70.93
X-39.217 Y70.518
X-41.416 Y69.225
X-42.882 Y68.357
X-43.795 Y67.768
X-47.28 Y65.394
X-48.027 Y64.838
X-50.945 Y62.562
X-51.763 Y61.907
X-53.144 Y60.688
X-55.344 Y58.725
X-56.077 Y58.014
X-59.009 Y55.039
X-59.436 Y54.581
X-62.674 Y50.839
X-65.942 Y46.522
X-68.834 Y42.126
X-71.334 Y37.73
X-71.47 Y37.475
X-73.482 Y33.335
X-73.669 Y32.94
X-73.816 Y32.602
X-75.315 Y28.939
X-75.604 Y28.206
X-75.868 Y27.471
X-77.094 Y23.81
X-77.334 Y23.052
X-77.724 Y21.613
X-78.496 Y18.682
X-78.674 Y17.949
X-78.971 Y16.484
X-79.543 Y13.554
X-79.669 Y12.821
X-79.87 Y11.356
X-80.266 Y8.264
X-80.325 Y7.693
X-80.386 Y6.96
X-80.624 Y3.297
X-80.651 Y2.564
X-80.668 Y1.832
Y-1.832
X-80.651 Y-2.564
X-80.624 Y-3.297
X-80.386 Y-6.96
X-80.325 Y-7.693
X-80.266 Y-8.264
X-80.263 Y-8.283 Z-5.498
X-80.256 Y-8.3 Z-5.493
X-80.247 Y-8.314 Z-5.484
X-80.237 Y-8.325 Z-5.472
X-80.228 Y-8.332 Z-5.457
X-80.22 Y-8.337 Z-5.44
X-80.215 Y-8.34 Z-5.422
X-80.214 Y-8.341 Z-5.403
Z5
X-63.222 Y-8.367
Z4.5
Z-1.014 F333.3
X-63.22 Y-8.354 Z-1.162
X-63.215 Y-8.313 Z-1.304
X-63.209 Y-8.248 Z-1.436
X-63.208 Y-8.158 Z-1.554
X-63.218 Y-8.049 Z-1.654
X-63.238 Y-7.952 Z-1.718
X-63.27 Y-7.849 Z-1.766
G3 X-65.146 Y-8.542 Z-2.909 I-0.938 J-0.346
X-63.27 Y-7.849 Z-4.053 I0.938 J0.346
X-65.146 Y-8.542 Z-5.196 I-0.938 J-0.346
X-63.27 Y-7.849 Z-6.34 I0.938 J0.346
X-65.146 Y-8.542 Z-7.483 I-0.938 J-0.346
X-63.216 Y-8.322 Z-8.452 I0.938 J0.346
G1 X-63.209 Y-8.255 Z-8.47
X-63.208 Y-8.187 Z-8.488
X-63.211 Y-8.118 Z-8.494
X-63.218 Y-8.049 Z-8.5
X-63.391 Y-6.888 F1000
X-63.831 Y-1.898
X-63.914 Y1.867
X-63.721 Y5.628
X-63.255 Y9.364
X-62.516 Y13.057
X-61.198 Y17.885
X-59.566 Y22.616
X-57.628 Y27.23
X-55.392 Y31.707
X-53.358 Y35.166
X-51.081 Y38.471
X-48.574 Y41.605
X-45.849 Y44.552
X-42.92 Y47.296
X-39.285 Y50.257
X-35.461 Y52.97
X-31.465 Y55.422
X-27.313 Y57.602
X-23.026 Y59.5
X-18.622 Y61.108
X-14.098 Y62.391
X-9.484 Y63.305
X-4.812 Y63.843
X-0.112 Y64.002
X4.586 Y63.782
X9.25 Y63.183
X13.206 Y62.401
X17.114 Y61.408
X20.963 Y60.206
X24.737 Y58.785
X28.418 Y57.136
X31.991 Y55.266
X36.164 Y52.693
X40.118 Y49.797
X43.83 Y46.596
X47.276 Y43.11
X50.434 Y39.361
X53.283 Y35.373
X55.807 Y31.171
X57.989 Y26.782
X59.823 Y22.248
X61.317 Y17.592
X62.463 Y12.837
X63.253 Y8.011
X63.685 Y3.14
X63.755 Y-1.751
X63.463 Y-6.632
X62.811 Y-11.479
X61.91 Y-15.773
X60.701 Y-19.99
X59.191 Y-24.109
X57.387 Y-28.108
X55.299 Y-31.966
X52.938 Y-35.664
X50.334 Y-39.186
X47.509 Y-42.533
X44.474 Y-45.691
X41.242 Y-48.648
X37.827 Y-51.39
X34.242 Y-53.907
X30.41 Y-56.222
X26.419 Y-58.25
X22.291 Y-59.982
X18.047 Y-61.407
X13.711 Y-62.519
X9.305 Y-63.311
X4.853 Y-63.779
X0.378 Y-63.921
X-4.095 Y-63.735
X-9.083 Y-63.156
X-14.013 Y-62.202
X-18.857 Y-60.881
X-23.588 Y-59.199
X-28.18 Y-57.165
X-32.605 Y-54.792
X-36.839 Y-52.092
X-40.858 Y-49.081
X-41.05 Y-48.923
X-41.239 Y-48.761
X-44.762 Y-45.479
X-48.06 Y-41.971
X-51.119 Y-38.253
X-53.926 Y-34.341
X-55.957 Y-31.058
X-57.751 Y-27.64
X-59.3 Y-24.104
X-60.594 Y-20.467
X-61.629 Y-16.748
X-62.656 Y-11.844
X-63.218 Y-8.049
X-63.238 Y-7.908
G2 X-63.463 Y-5.859 I34.39 J4.814
G1 X-63.52 Y-5.142
G2 X-60.208 Y20.019 I60.67 J4.812
G1 X-59.922 Y20.826
G2 X-58.606 Y24.184 I52.486 J-18.621
G1 X-58.168 Y25.204
G2 X-56.374 Y29.017 I59.266 J-25.547
G1 X-56.162 Y29.431
G2 X-51.592 Y37.01 I56.47 J-28.884
G1 X-51.516 Y37.118
G2 X-49.88 Y39.28 I31.391 J-22.055
X-40.632 Y48.464 I47.888 J-38.974
G1 X-40.57 Y48.514
G2 X-37.301 Y50.963 I38.437 J-47.905
G1 X-36.578 Y51.466
G2 X-33.652 Y53.365 I30.528 J-43.85
G1 X-32.813 Y53.871
G2 X-29.503 Y55.718 I28.887 J-47.878
G1 X-29.303 Y55.821
G2 X-24.639 Y58.022 I34.596 J-67.26
G1 X-23.867 Y58.355
G2 X-21.619 Y59.239 I14.878 J-34.525
G1 X-20.684 Y59.57
G2 X-6.542 Y62.764 I20.627 J-58.431
G1 X-6.294 Y62.79
G2 X-3.082 Y62.997 I4.175 J-39.682
X14.908 Y60.891 I1.559 J-64.57
G1 X16.419 Y60.494
G2 X17.229 Y60.258 I-4.143 J-15.73
G1 X18.453 Y59.865
G2 X22.815 Y58.317 I-24.338 J-75.469
G1 X23.361 Y58.105
G2 X25.341 Y57.265 I-12.703 J-32.718
G1 X25.816 Y57.046
G2 X37.789 Y49.918 I-27.714 J-60.17
X40.803 Y47.47 I-29.291 J-39.147
G1 X41.166 Y47.15
G2 X50.628 Y36.609 I-39.904 J-45.332
G1 X51.261 Y35.707
G2 X52.776 Y33.352 I-30.921 J-21.555
G1 X53.607 Y31.944
G2 X55.27 Y28.849 I-39.166 J-23.027
G1 X55.933 Y27.487
G2 X57.113 Y24.82 I-36.377 J-17.695
G1 X57.192 Y24.622
G2 X59.348 Y18.485 I-81.751 J-32.175
G1 X59.379 Y18.386
G2 X60.055 Y15.908 I-35.5 J-11.016
G1 X60.482 Y14.067
G2 X61.088 Y10.937 I-42.469 J-9.839
G1 X61.179 Y10.353
G2 X61.768 Y5.367 I-67.357 J-10.491
G1 X61.842 Y4.451
G2 X61.96 Y1.788 I-36.278 J-2.94
G1 X61.969 Y0.147
G2 X61.851 Y-3.566 I-51.516 J-0.227
G1 X61.701 Y-5.673
G2 X61.536 Y-7.219 I-23.344 J1.699
G1 X61.096 Y-10.267
G2 X60.775 Y-12.031 I-26.688 J3.947
G1 X60.339 Y-14.016
G2 X59.652 Y-16.665 I-38.484 J8.572
G1 X59.409 Y-17.483
G2 X58.086 Y-21.398 I-53.122 J15.771
G1 X57.909 Y-21.862
G2 X56.681 Y-24.807 I-46.601 J17.71
G1 X56.499 Y-25.202
G2 X52.187 Y-32.981 I-56.689 J26.338
G1 X51.999 Y-33.27
G2 X50.364 Y-35.618 I-38.799 J25.273
G1 X50.195 Y-35.843
G2 X46.718 Y-40.146 I-68.441 J51.757
G1 X46.641 Y-40.234
G2 X45.072 Y-41.946 I-29.267 J25.256
G1 X44.179 Y-42.861
G2 X41.442 Y-45.472 I-41.625 J40.905
G1 X40.932 Y-45.927
G2 X38.268 Y-48.155 I-34.987 J39.152
G1 X37.067 Y-49.092
G2 X35.81 Y-50.017 I-16.648 J21.312
G1 X33.637 Y-51.509
G2 X32.264 Y-52.382 I-14.174 J20.776
G1 X30.257 Y-53.564
G2 X28.036 Y-54.76 I-17.55 J29.945
G1 X28.027 Y-54.764
G2 X22.376 Y-57.294 I-37.415 J76.014
X20.458 Y-57.998 I-11.801 J29.179
G1 X19.494 Y-58.313
G2 X15.246 Y-59.529 I-18.757 J57.519
G1 X13.781 Y-59.889
G2 X12.566 Y-60.144 I-4.345 J17.71
G1 X10.995 Y-60.413
G2 X-1.769 Y-61.181 I-9.948 J58.844
X-6.033 Y-60.819 I2.701 J57.162
G1 X-7.636 Y-60.621
G2 X-9.753 Y-60.279 I3.732 J29.815
G1 X-12.669 Y-59.691
G2 X-14.115 Y-59.343 I4.532 J21.97
G1 X-15.082 Y-59.075
G2 X-20.307 Y-57.418 I19.542 J70.695
G1 X-22.096 Y-56.757
G2 X-22.989 Y-56.391 I5.12 J13.768
G1 X-25.054 Y-55.463
G2 X-28.975 Y-53.485 I24.808 J54.039
G1 X-30.281 Y-52.764
G2 X-32.094 Y-51.672 I13.543 J24.542
G1 X-34.362 Y-50.187
G2 X-36.014 Y-49.016 I14.978 J22.875
G1 X-36.391 Y-48.726
G2 X-44.209 Y-41.612 I38.087 J49.706
G1 X-45.095 Y-40.647
G2 X-46.369 Y-39.166 I25.892 J23.573
G1 X-47.564 Y-37.691
G2 X-49.744 Y-34.77 I46.16 J36.716
G1 X-50.526 Y-33.645
G2 X-52.107 Y-31.183 I35.2 J24.342
G1 X-52.374 Y-30.734
G2 X-53.828 Y-28.124 I45.195 J26.884
G1 X-54.005 Y-27.779
G2 X-56.834 Y-21.151 I50.149 J25.32
G1 X-57.154 Y-20.23
G2 X-57.638 Y-18.67 I25.937 J8.903
X-60.235 Y-3.59 I73.456 J20.415
G1 X-60.237 Y-3.572
G2 X-58.469 Y14.236 I53.073 J3.723
G1 X-58.402 Y14.478
G2 X-56.926 Y19.183 I65.811 J-18.067
G1 X-56.721 Y19.762
G2 X-55.609 Y22.623 I47.609 J-16.851
G1 X-54.813 Y24.46
G2 X-53.656 Y26.906 I43.44 J-19.042
G1 X-52.786 Y28.581
G2 X-51.044 Y31.647 I48.979 J-25.802
G1 X-50.763 Y32.105
G2 X-49.339 Y34.262 I35.435 J-21.852
G1 X-48.285 Y35.746
G2 X-47.664 Y36.564 I14.68 J-10.507
G1 X-47.368 Y36.931
G2 X-44.227 Y40.561 I53.087 J-42.759
G1 X-43.749 Y41.066
G2 X-42.267 Y42.526 I25.923 J-24.828
G1 X-41.898 Y42.87
G2 X-38.715 Y45.647 I42.156 J-45.114
G1 X-37.575 Y46.561
G2 X-36.164 Y47.624 I19.597 J-24.574
G1 X-35.321 Y48.221
G2 X-31.923 Y50.464 I34.889 J-49.184
G1 X-31.373 Y50.8
G2 X-28.113 Y52.637 I26.89 J-43.914
G1 X-27.805 Y52.796
G2 X-23.304 Y54.91 I30.282 J-58.63
G1 X-22.685 Y55.172
G2 X-19.713 Y56.309 I17.173 J-40.462
X-14.111 Y57.994 I25.653 J-75.145
G1 X-13.942 Y58.038
G2 X-12.224 Y58.427 I6.913 J-26.487
G1 X-9.652 Y58.902
G2 X-7.839 Y59.161 I4.462 J-24.777
G1 X-5.748 Y59.379
G2 X-2.895 Y59.554 I3.605 J-35.494
G1 X-1.989 Y59.573
G2 X1.919 Y59.522 I1.288 J-50.741
G1 X2.267 Y59.504
G2 X5.952 Y59.174 I-2.523 J-48.823
X14.238 Y57.566 I-8.344 J-65.177
G1 X15.487 Y57.238
G2 X16.294 Y57.005 I-4.928 J-18.573
G1 X16.361 Y56.984
G2 X22.063 Y54.974 I-25.145 J-80.415
G1 X22.143 Y54.942
G2 X24.186 Y54.064 I-12.982 J-32.998
G1 X24.895 Y53.732
G2 X42.228 Y41.394 I-25.035 J-53.516
G1 X43.004 Y40.589
G2 X44.42 Y39.003 I-25.103 J-23.849
G1 X44.834 Y38.507
G2 X47.837 Y34.615 I-49.946 J-41.636
G1 X48.096 Y34.251
G2 X48.385 Y33.838 I-21.676 J-15.452
G1 X48.498 Y33.673
G2 X49.843 Y31.575 I-34.122 J-23.361
G1 X50.691 Y30.151
G2 X52.218 Y27.316 I-38.397 J-22.505
G1 X52.99 Y25.73
G2 X53.88 Y23.735 I-35.622 J-17.086
G1 X53.893 Y23.704
G2 X54.101 Y23.186 I-26.824 J-11.087
G1 X54.208 Y22.914
G2 X57.196 Y13.255 I-64.882 J-25.366
X57.736 Y10.473 I-38.689 J-8.953
G1 X57.841 Y9.808
G2 X58.373 Y5.377 I-60.323 J-9.49
G1 X58.453 Y4.412
G2 X58.577 Y1.777 I-36.606 J-3.043
G1 X58.585 Y0.153
G2 X58.472 Y-3.367 I-51.471 J-0.1
G1 X58.311 Y-5.42
