(CamperSitzgruppeSchiene)
(T4  D=5 CR=0 - ZMIN=-12 - flat end mill)
G90 G94
G17
G21

(2D Contour1)
T4
S5000 M3
G54
M8
G0 X138.404 Y582.628
Z15
Z5
G1 Z-4.5 F333.3
X138.409 Y582.634 Z-4.587 F1000
X138.425 Y582.65 Z-4.671
X138.451 Y582.676 Z-4.75
X138.486 Y582.711 Z-4.821
X138.53 Y582.755 Z-4.883
X138.58 Y582.806 Z-4.933
X138.636 Y582.862 Z-4.97
X138.695 Y582.922 Z-4.992
X138.756 Y582.983 Z-5
X139.108 Y583.338
G3 X139.105 Y584.045 I-0.355 J0.352
G2 X136 Y591.5 I7.395 J7.455
G1 Y596.084
G3 X134.281 Y600.078 I-5.5 J0
G2 X131 Y607.703 I7.219 J7.625
G1 Y635.5
G3 X125.5 Y641 I-5.5 J0
G1 X91.5
G3 X86 Y635.5 I0 J-5.5
G1 Y607.703
G2 X82.719 Y600.078 I-10.5 J0
G3 X81 Y596.084 I3.781 J-3.994
G1 Y591.5
G2 X70.5 Y581 I-10.5 J0
G1 X66.5
G3 X61 Y575.5 I0 J-5.5
G1 Y526.5
G3 X66.5 Y521 I5.5 J0
G1 X75.5
G2 X86 Y510.5 I0 J-10.5
G1 Y191.5
G2 X75.5 Y181 I-10.5 J0
G1 X66.5
G3 X61 Y175.5 I0 J-5.5
G1 Y126.5
G3 X66.5 Y121 I5.5 J0
G1 X70.5
G2 X81 Y110.5 I0 J-10.5
G1 Y105.916
G3 X82.719 Y101.922 I5.5 J0
G2 X86 Y94.297 I-7.219 J-7.625
G1 Y66.5
G3 X91.5 Y61 I5.5 J0
G1 X125.5
G3 X131 Y66.5 I0 J5.5
G1 Y94.297
G2 X134.281 Y101.922 I10.5 J0
G3 X136 Y105.916 I-3.781 J3.994
G1 Y110.5
G2 X146.5 Y121 I10.5 J0
G1 X150.5
G3 X156 Y126.5 I0 J5.5
G1 Y175.5
G3 X150.5 Y181 I-5.5 J0
G1 X141.5
G2 X131 Y191.5 I0 J10.5
G1 Y510.5
G2 X141.5 Y521 I10.5 J0
G1 X150.5
G3 X156 Y526.5 I0 J5.5
G1 Y575.5
G3 X150.5 Y581 I-5.5 J0
G1 X146.5
G2 X139.105 Y584.045 I0 J10.5
G3 X138.398 Y584.043 I-0.352 J-0.355
G1 X138.046 Y583.688
X137.985 Y583.626 Z-4.992
X137.926 Y583.566 Z-4.97
X137.87 Y583.51 Z-4.933
X137.82 Y583.459 Z-4.883
X137.777 Y583.416 Z-4.821
X137.741 Y583.38 Z-4.75
X137.715 Y583.354 Z-4.671
X137.699 Y583.338 Z-4.587
X137.694 Y583.333 Z-4.5
G0 Z5
X134.571 Y590.103
G1 Z0 F333.3
Z-9.5
X134.579 Z-9.587 F1000
X134.601 Y590.105 Z-9.671
X134.638 Y590.108 Z-9.75
X134.688 Y590.111 Z-9.821
X134.749 Y590.116 Z-9.883
X134.82 Y590.121 Z-9.933
X134.899 Y590.127 Z-9.97
X134.983 Y590.134 Z-9.992
X135.07 Y590.14 Z-10
X135.568 Y590.178
G3 X136.029 Y590.714 I-0.037 J0.499
G2 X136 Y591.5 I10.471 J0.786
G1 Y596.084
G3 X134.281 Y600.078 I-5.5 J0
G2 X131 Y607.703 I7.219 J7.625
G1 Y635.5
G3 X125.5 Y641 I-5.5 J0
G1 X91.5
G3 X86 Y635.5 I0 J-5.5
G1 Y607.703
G2 X82.719 Y600.078 I-10.5 J0
G3 X81 Y596.084 I3.781 J-3.994
G1 Y591.5
G2 X70.5 Y581 I-10.5 J0
G1 X66.5
G3 X61 Y575.5 I0 J-5.5
G1 Y526.5
G3 X66.5 Y521 I5.5 J0
G1 X75.5
G2 X86 Y510.5 I0 J-10.5
G1 Y191.5
G2 X75.5 Y181 I-10.5 J0
G1 X66.5
G3 X61 Y175.5 I0 J-5.5
G1 Y126.5
G3 X66.5 Y121 I5.5 J0
G1 X70.5
G2 X81 Y110.5 I0 J-10.5
G1 Y105.916
G3 X82.719 Y101.922 I5.5 J0
G2 X86 Y94.297 I-7.219 J-7.625
G1 Y66.5
G3 X91.5 Y61 I5.5 J0
G1 X125.5
G3 X131 Y66.5 I0 J5.5
G1 Y94.297
G2 X134.281 Y101.922 I10.5 J0
G3 X136 Y105.916 I-3.781 J3.994
G1 Y110.5
G2 X146.5 Y121 I10.5 J0
G1 X150.5
G3 X156 Y126.5 I0 J5.5
G1 Y175.5
G3 X150.5 Y181 I-5.5 J0
G1 X141.5
G2 X131 Y191.5 I0 J10.5
G1 Y510.5
G2 X141.5 Y521 I10.5 J0
G1 X150.5
G3 X156 Y526.5 I0 J5.5
G1 Y575.5
G3 X150.5 Y581 I-5.5 J0
G1 X146.5
G2 X136.029 Y590.714 I0 J10.5
G3 X135.493 Y591.175 I-0.499 J-0.037
G1 X134.995 Y591.137
X134.908 Y591.131 Z-9.992
X134.824 Y591.125 Z-9.97
X134.746 Y591.119 Z-9.933
X134.674 Y591.113 Z-9.883
X134.613 Y591.109 Z-9.821
X134.563 Y591.105 Z-9.75
X134.526 Y591.102 Z-9.671
X134.504 Y591.1 Z-9.587
X134.496 Z-9.5
G0 Z5
X134.571 Y590.103
G1 Z-5 F333.3
Z-11.5
X134.579 Z-11.587 F1000
X134.601 Y590.105 Z-11.671
X134.638 Y590.108 Z-11.75
X134.688 Y590.111 Z-11.821
X134.749 Y590.116 Z-11.883
X134.82 Y590.121 Z-11.933
X134.899 Y590.127 Z-11.97
X134.983 Y590.134 Z-11.992
X135.07 Y590.14 Z-12
X135.568 Y590.178
G3 X136.029 Y590.714 I-0.037 J0.499
G2 X136 Y591.5 I10.471 J0.786
G1 Y596.084
G3 X134.281 Y600.078 I-5.5 J0
G2 X131 Y607.703 I7.219 J7.625
G1 Y635.5
G3 X125.5 Y641 I-5.5 J0
G1 X91.5
G3 X86 Y635.5 I0 J-5.5
G1 Y607.703
G2 X82.719 Y600.078 I-10.5 J0
G3 X81 Y596.084 I3.781 J-3.994
G1 Y591.5
G2 X70.5 Y581 I-10.5 J0
G1 X66.5
G3 X61 Y575.5 I0 J-5.5
G1 Y526.5
G3 X66.5 Y521 I5.5 J0
G1 X75.5
G2 X86 Y510.5 I0 J-10.5
G1 Y191.5
G2 X75.5 Y181 I-10.5 J0
G1 X66.5
G3 X61 Y175.5 I0 J-5.5
G1 Y126.5
G3 X66.5 Y121 I5.5 J0
G1 X70.5
G2 X81 Y110.5 I0 J-10.5
G1 Y105.916
G3 X82.719 Y101.922 I5.5 J0
G2 X86 Y94.297 I-7.219 J-7.625
G1 Y66.5
G3 X91.5 Y61 I5.5 J0
G1 X125.5
G3 X131 Y66.5 I0 J5.5
G1 Y94.297
G2 X134.281 Y101.922 I10.5 J0
G3 X136 Y105.916 I-3.781 J3.994
G1 Y110.5
G2 X146.5 Y121 I10.5 J0
G1 X150.5
G3 X156 Y126.5 I0 J5.5
G1 Y175.5
G3 X150.5 Y181 I-5.5 J0
G1 X141.5
G2 X131 Y191.5 I0 J10.5
G1 Y510.5
G2 X141.5 Y521 I10.5 J0
G1 X150.5
G3 X156 Y526.5 I0 J5.5
G1 Y575.5
G3 X150.5 Y581 I-5.5 J0
G1 X146.5
G2 X136.029 Y590.714 I0 J10.5
G3 X135.493 Y591.175 I-0.499 J-0.037
G1 X134.995 Y591.137
X134.908 Y591.131 Z-11.992
X134.824 Y591.125 Z-11.97
X134.746 Y591.119 Z-11.933
X134.674 Y591.113 Z-11.883
X134.613 Y591.109 Z-11.821
X134.563 Y591.105 Z-11.75
X134.526 Y591.102 Z-11.671
X134.504 Y591.1 Z-11.587
X134.496 Z-11.5
G0 Z5
X369.571 Y590.103
G1 Z-4.5 F333.3
X369.579 Z-4.587 F1000
X369.601 Y590.105 Z-4.671
X369.638 Y590.108 Z-4.75
X369.688 Y590.111 Z-4.821
X369.749 Y590.116 Z-4.883
X369.82 Y590.121 Z-4.933
X369.899 Y590.127 Z-4.97
X369.983 Y590.134 Z-4.992
X370.07 Y590.14 Z-5
X370.568 Y590.178
G3 X371.029 Y590.714 I-0.037 J0.499
G2 X371 Y591.5 I10.471 J0.786
G1 Y596.084
G3 X369.281 Y600.078 I-5.5 J0
G2 X366 Y607.703 I7.219 J7.625
G1 Y635.5
G3 X360.5 Y641 I-5.5 J0
G1 X326.5
G3 X321 Y635.5 I0 J-5.5
G1 Y607.703
G2 X317.719 Y600.078 I-10.5 J0
G3 X316 Y596.084 I3.781 J-3.994
G1 Y591.5
G2 X305.5 Y581 I-10.5 J0
G1 X301.5
G3 X296 Y575.5 I0 J-5.5
G1 Y526.5
G3 X301.5 Y521 I5.5 J0
G1 X310.5
G2 X321 Y510.5 I0 J-10.5
G1 Y191.5
G2 X310.5 Y181 I-10.5 J0
G1 X301.5
G3 X296 Y175.5 I0 J-5.5
G1 Y126.5
G3 X301.5 Y121 I5.5 J0
G1 X305.5
G2 X316 Y110.5 I0 J-10.5
G1 Y105.916
G3 X317.719 Y101.922 I5.5 J0
G2 X321 Y94.297 I-7.219 J-7.625
G1 Y66.5
G3 X326.5 Y61 I5.5 J0
G1 X360.5
G3 X366 Y66.5 I0 J5.5
G1 Y94.297
G2 X369.281 Y101.922 I10.5 J0
G3 X371 Y105.916 I-3.781 J3.994
G1 Y110.5
G2 X381.5 Y121 I10.5 J0
G1 X385.5
G3 X391 Y126.5 I0 J5.5
G1 Y175.5
G3 X385.5 Y181 I-5.5 J0
G1 X376.5
G2 X366 Y191.5 I0 J10.5
G1 Y510.5
G2 X376.5 Y521 I10.5 J0
G1 X385.5
G3 X391 Y526.5 I0 J5.5
G1 Y575.5
G3 X385.5 Y581 I-5.5 J0
G1 X381.5
G2 X371.029 Y590.714 I0 J10.5
G3 X370.493 Y591.175 I-0.499 J-0.037
G1 X369.995 Y591.137
X369.908 Y591.131 Z-4.992
X369.824 Y591.125 Z-4.97
X369.746 Y591.119 Z-4.933
X369.674 Y591.113 Z-4.883
X369.613 Y591.109 Z-4.821
X369.563 Y591.105 Z-4.75
X369.526 Y591.102 Z-4.671
X369.504 Y591.1 Z-4.587
X369.496 Z-4.5
G0 Z5
X369.571 Y590.103
G1 Z0 F333.3
Z-9.5
X369.579 Z-9.587 F1000
X369.601 Y590.105 Z-9.671
X369.638 Y590.108 Z-9.75
X369.688 Y590.111 Z-9.821
X369.749 Y590.116 Z-9.883
X369.82 Y590.121 Z-9.933
X369.899 Y590.127 Z-9.97
X369.983 Y590.134 Z-9.992
X370.07 Y590.14 Z-10
X370.568 Y590.178
G3 X371.029 Y590.714 I-0.037 J0.499
G2 X371 Y591.5 I10.471 J0.786
G1 Y596.084
G3 X369.281 Y600.078 I-5.5 J0
G2 X366 Y607.703 I7.219 J7.625
G1 Y635.5
G3 X360.5 Y641 I-5.5 J0
G1 X326.5
G3 X321 Y635.5 I0 J-5.5
G1 Y607.703
G2 X317.719 Y600.078 I-10.5 J0
G3 X316 Y596.084 I3.781 J-3.994
G1 Y591.5
G2 X305.5 Y581 I-10.5 J0
G1 X301.5
G3 X296 Y575.5 I0 J-5.5
G1 Y526.5
G3 X301.5 Y521 I5.5 J0
G1 X310.5
G2 X321 Y510.5 I0 J-10.5
G1 Y191.5
G2 X310.5 Y181 I-10.5 J0
G1 X301.5
G3 X296 Y175.5 I0 J-5.5
G1 Y126.5
G3 X301.5 Y121 I5.5 J0
G1 X305.5
G2 X316 Y110.5 I0 J-10.5
G1 Y105.916
G3 X317.719 Y101.922 I5.5 J0
G2 X321 Y94.297 I-7.219 J-7.625
G1 Y66.5
G3 X326.5 Y61 I5.5 J0
G1 X360.5
G3 X366 Y66.5 I0 J5.5
G1 Y94.297
G2 X369.281 Y101.922 I10.5 J0
G3 X371 Y105.916 I-3.781 J3.994
G1 Y110.5
G2 X381.5 Y121 I10.5 J0
G1 X385.5
G3 X391 Y126.5 I0 J5.5
G1 Y175.5
G3 X385.5 Y181 I-5.5 J0
G1 X376.5
G2 X366 Y191.5 I0 J10.5
G1 Y510.5
G2 X376.5 Y521 I10.5 J0
G1 X385.5
G3 X391 Y526.5 I0 J5.5
G1 Y575.5
G3 X385.5 Y581 I-5.5 J0
G1 X381.5
G2 X371.029 Y590.714 I0 J10.5
G3 X370.493 Y591.175 I-0.499 J-0.037
G1 X369.995 Y591.137
X369.908 Y591.131 Z-9.992
X369.824 Y591.125 Z-9.97
X369.746 Y591.119 Z-9.933
X369.674 Y591.113 Z-9.883
X369.613 Y591.109 Z-9.821
X369.563 Y591.105 Z-9.75
X369.526 Y591.102 Z-9.671
X369.504 Y591.1 Z-9.587
X369.496 Z-9.5
G0 Z5
X369.571 Y590.103
G1 Z-5 F333.3
Z-11.5
X369.579 Z-11.587 F1000
X369.601 Y590.105 Z-11.671
X369.638 Y590.108 Z-11.75
X369.688 Y590.111 Z-11.821
X369.749 Y590.116 Z-11.883
X369.82 Y590.121 Z-11.933
X369.899 Y590.127 Z-11.97
X369.983 Y590.134 Z-11.992
X370.07 Y590.14 Z-12
X370.568 Y590.178
G3 X371.029 Y590.714 I-0.037 J0.499
G2 X371 Y591.5 I10.471 J0.786
G1 Y596.084
G3 X369.281 Y600.078 I-5.5 J0
G2 X366 Y607.703 I7.219 J7.625
G1 Y635.5
G3 X360.5 Y641 I-5.5 J0
G1 X326.5
G3 X321 Y635.5 I0 J-5.5
G1 Y607.703
G2 X317.719 Y600.078 I-10.5 J0
G3 X316 Y596.084 I3.781 J-3.994
G1 Y591.5
G2 X305.5 Y581 I-10.5 J0
G1 X301.5
G3 X296 Y575.5 I0 J-5.5
G1 Y526.5
G3 X301.5 Y521 I5.5 J0
G1 X310.5
G2 X321 Y510.5 I0 J-10.5
G1 Y191.5
G2 X310.5 Y181 I-10.5 J0
G1 X301.5
G3 X296 Y175.5 I0 J-5.5
G1 Y126.5
G3 X301.5 Y121 I5.5 J0
G1 X305.5
G2 X316 Y110.5 I0 J-10.5
G1 Y105.916
G3 X317.719 Y101.922 I5.5 J0
G2 X321 Y94.297 I-7.219 J-7.625
G1 Y66.5
G3 X326.5 Y61 I5.5 J0
G1 X360.5
G3 X366 Y66.5 I0 J5.5
G1 Y94.297
G2 X369.281 Y101.922 I10.5 J0
G3 X371 Y105.916 I-3.781 J3.994
G1 Y110.5
G2 X381.5 Y121 I10.5 J0
G1 X385.5
G3 X391 Y126.5 I0 J5.5
G1 Y175.5
G3 X385.5 Y181 I-5.5 J0
G1 X376.5
G2 X366 Y191.5 I0 J10.5
G1 Y510.5
G2 X376.5 Y521 I10.5 J0
G1 X385.5
G3 X391 Y526.5 I0 J5.5
G1 Y575.5
G3 X385.5 Y581 I-5.5 J0
G1 X381.5
G2 X371.029 Y590.714 I0 J10.5
G3 X370.493 Y591.175 I-0.499 J-0.037
G1 X369.995 Y591.137
X369.908 Y591.131 Z-11.992
X369.824 Y591.125 Z-11.97
X369.746 Y591.119 Z-11.933
X369.674 Y591.113 Z-11.883
X369.613 Y591.109 Z-11.821
X369.563 Y591.105 Z-11.75
X369.526 Y591.102 Z-11.671
X369.504 Y591.1 Z-11.587
X369.496 Z-11.5
G0 Z15

(2D Contour2)
X455 Y701.5
Z15
Z5
G1 Z-4.5 F333.3
G18 G3 X454.5 Z-5 I-0.5 K0 F1000
G1 X454
G17 G3 X453.5 Y701 I0 J-0.5
G1 Y1
G2 X451 Y-1.5 I-2.5 J0
G1 X1
G2 X-1.5 Y1 I0 J2.5
G1 Y701
G2 X1 Y703.5 I2.5 J0
G1 X451
G2 X453.5 Y701 I0 J-2.5
G3 X454 Y700.5 I0.5 J0
G1 X454.5
G18 G2 X455 Z-4.5 I0 K0.5
G0 Z5
Y701.5
G1 Z0 F333.3
Z-9.5
G3 X454.5 Z-10 I-0.5 K0 F1000
G1 X454
G17 G3 X453.5 Y701 I0 J-0.5
G1 Y1
G2 X451 Y-1.5 I-2.5 J0
G1 X1
G2 X-1.5 Y1 I0 J2.5
G1 Y701
G2 X1 Y703.5 I2.5 J0
G1 X451
G2 X453.5 Y701 I0 J-2.5
G3 X454 Y700.5 I0.5 J0
G1 X454.5
G18 G2 X455 Z-9.5 I0 K0.5
G0 Z5
Y701.5
G1 Z-5 F333.3
Z-11.5
G3 X454.5 Z-12 I-0.5 K0 F1000
G1 X454
G17 G3 X453.5 Y701 I0 J-0.5
G1 Y1
G2 X451 Y-1.5 I-2.5 J0
G1 X1
G2 X-1.5 Y1 I0 J2.5
G1 Y701
G2 X1 Y703.5 I2.5 J0
G1 X451
G2 X453.5 Y701 I0 J-2.5
G3 X454 Y700.5 I0.5 J0
G1 X454.5
G18 G2 X455 Z-11.5 I0 K0.5
G0 Z15
G17
M9
M5
M30
