(CamperHaengeschrankHeck)
(T4 D=5 CR=0 - ZMIN=-18 - flat end mill)
G90 G94
G17
G21
(-Attention- Property Safe Retracts is set to Clearance Height.)
(Ensure the clearance height will clear the part and or fixtures.)
(Raise the Z-axis to a safe height before starting the program.)

(2D Contour1)
T4
S5000 M3
G17 G90 G94
G54
M8
G0 X97.5 Y-144.875
Z15
G0 Z5
G1 Z-4 F333.3
Y178.169 F1000
G3 X38.121 Y240.591 I-62.5 J0
G1 X-79.126 Y246.453
G3 X-97.5 Y228.975 I-0.874 J-17.478
G1 Y-228.975
G3 X-79.126 Y-246.453 I17.5 J0
G1 X38.121 Y-240.591
G3 X97.5 Y-178.169 I-3.121 J62.422
G1 Y-144.875
Z-8 F333.3
Y178.169 F1000
G3 X38.121 Y240.591 I-62.5 J0
G1 X-79.126 Y246.453
G3 X-97.5 Y228.975 I-0.874 J-17.478
G1 Y-228.975
G3 X-79.126 Y-246.453 I17.5 J0
G1 X38.121 Y-240.591
G3 X97.5 Y-178.169 I-3.121 J62.422
G1 Y-144.875
Z-12 F333.3
Y178.169 F1000
G3 X38.121 Y240.591 I-62.5 J0
G1 X-79.126 Y246.453
G3 X-97.5 Y228.975 I-0.874 J-17.478
G1 Y-228.975
G3 X-79.126 Y-246.453 I17.5 J0
G1 X38.121 Y-240.591
G3 X97.5 Y-178.169 I-3.121 J62.422
G1 Y-144.875
Z-16 F333.3
Y178.169 F1000
G3 X38.121 Y240.591 I-62.5 J0
G1 X-79.126 Y246.453
G3 X-97.5 Y228.975 I-0.874 J-17.478
G1 Y-228.975
G3 X-79.126 Y-246.453 I17.5 J0
G1 X38.121 Y-240.591
G3 X97.5 Y-178.169 I-3.121 J62.422
G1 Y-144.875
Z-18 F333.3
Y178.169 F1000
G3 X38.121 Y240.591 I-62.5 J0
G1 X-79.126 Y246.453
G3 X-97.5 Y228.975 I-0.874 J-17.478
G1 Y-228.975
G3 X-79.126 Y-246.453 I17.5 J0
G1 X38.121 Y-240.591
G3 X97.5 Y-178.169 I-3.121 J62.422
G1 Y-144.875
G0 Z15
M9
M5
M30
