(CamperSchubladeDosenhalter_schmal)
(T4 D=5 CR=0 - ZMIN=-13 - flat end mill)
G90 G94
G17
G21
(-Attention- Property Safe Retracts is set to Clearance Height.)
(Ensure the clearance height will clear the part and or fixtures.)
(Raise the Z-axis to a safe height before starting the program.)

(2D Contour1)
T4
S5000 M3
G17 G90 G94
G54
M8
G0 X397.333 Y12.5
Z15
G0 Z5
G1 Z-4 F333.3
X335.633 F1000
G2 X322.133 Y26 I0 J13.5
G1 Y127.8
G2 X335.633 Y141.3 I13.5 J0
G1 X397.333
G2 X410.833 Y127.8 I0 J-13.5
G1 Y26
G2 X397.333 Y12.5 I-13.5 J0
G1 Z-8 F333.3
X335.633 F1000
G2 X322.133 Y26 I0 J13.5
G1 Y127.8
G2 X335.633 Y141.3 I13.5 J0
G1 X397.333
G2 X410.833 Y127.8 I0 J-13.5
G1 Y26
G2 X397.333 Y12.5 I-13.5 J0
G1 Z-12 F333.3
X335.633 F1000
G2 X322.133 Y26 I0 J13.5
G1 Y127.8
G2 X335.633 Y141.3 I13.5 J0
G1 X397.333
G2 X410.833 Y127.8 I0 J-13.5
G1 Y26
G2 X397.333 Y12.5 I-13.5 J0
G1 Z-13 F333.3
X335.633 F1000
G2 X322.133 Y26 I0 J13.5
G1 Y127.8
G2 X335.633 Y141.3 I13.5 J0
G1 X397.333
G2 X410.833 Y127.8 I0 J-13.5
G1 Y26
G2 X397.333 Y12.5 I-13.5 J0
G0 Z5
X498
G1 Z-4 F333.3
X436.3 F1000
G2 X422.8 Y26 I0 J13.5
G1 Y127.8
G2 X436.3 Y141.3 I13.5 J0
G1 X498
G2 X511.5 Y127.8 I0 J-13.5
G1 Y26
G2 X498 Y12.5 I-13.5 J0
G1 Z-8 F333.3
X436.3 F1000
G2 X422.8 Y26 I0 J13.5
G1 Y127.8
G2 X436.3 Y141.3 I13.5 J0
G1 X498
G2 X511.5 Y127.8 I0 J-13.5
G1 Y26
G2 X498 Y12.5 I-13.5 J0
G1 Z-12 F333.3
X436.3 F1000
G2 X422.8 Y26 I0 J13.5
G1 Y127.8
G2 X436.3 Y141.3 I13.5 J0
G1 X498
G2 X511.5 Y127.8 I0 J-13.5
G1 Y26
G2 X498 Y12.5 I-13.5 J0
G1 Z-13 F333.3
X436.3 F1000
G2 X422.8 Y26 I0 J13.5
G1 Y127.8
G2 X436.3 Y141.3 I13.5 J0
G1 X498
G2 X511.5 Y127.8 I0 J-13.5
G1 Y26
G2 X498 Y12.5 I-13.5 J0
G0 Z5
X310.167 Y127.8
G1 Z-4 F333.3
Y26 F1000
G2 X296.667 Y12.5 I-13.5 J0
G1 X234.967
G2 X221.467 Y26 I0 J13.5
G1 Y127.8
G2 X234.967 Y141.3 I13.5 J0
G1 X296.667
G2 X310.167 Y127.8 I0 J-13.5
G1 Z-8 F333.3
Y26 F1000
G2 X296.667 Y12.5 I-13.5 J0
G1 X234.967
G2 X221.467 Y26 I0 J13.5
G1 Y127.8
G2 X234.967 Y141.3 I13.5 J0
G1 X296.667
G2 X310.167 Y127.8 I0 J-13.5
G1 Z-12 F333.3
Y26 F1000
G2 X296.667 Y12.5 I-13.5 J0
G1 X234.967
G2 X221.467 Y26 I0 J13.5
G1 Y127.8
G2 X234.967 Y141.3 I13.5 J0
G1 X296.667
G2 X310.167 Y127.8 I0 J-13.5
G1 Z-13 F333.3
Y26 F1000
G2 X296.667 Y12.5 I-13.5 J0
G1 X234.967
G2 X221.467 Y26 I0 J13.5
G1 Y127.8
G2 X234.967 Y141.3 I13.5 J0
G1 X296.667
G2 X310.167 Y127.8 I0 J-13.5
G0 Z5
X134.3 Y141.3
G1 Z-4 F333.3
X196 F1000
G2 X209.5 Y127.8 I0 J-13.5
G1 Y26
G2 X196 Y12.5 I-13.5 J0
G1 X134.3
G2 X120.8 Y26 I0 J13.5
G1 Y127.8
G2 X134.3 Y141.3 I13.5 J0
G1 Z-8 F333.3
X196 F1000
G2 X209.5 Y127.8 I0 J-13.5
G1 Y26
G2 X196 Y12.5 I-13.5 J0
G1 X134.3
G2 X120.8 Y26 I0 J13.5
G1 Y127.8
G2 X134.3 Y141.3 I13.5 J0
G1 Z-12 F333.3
X196 F1000
G2 X209.5 Y127.8 I0 J-13.5
G1 Y26
G2 X196 Y12.5 I-13.5 J0
G1 X134.3
G2 X120.8 Y26 I0 J13.5
G1 Y127.8
G2 X134.3 Y141.3 I13.5 J0
G1 Z-13 F333.3
X196 F1000
G2 X209.5 Y127.8 I0 J-13.5
G1 Y26
G2 X196 Y12.5 I-13.5 J0
G1 X134.3
G2 X120.8 Y26 I0 J13.5
G1 Y127.8
G2 X134.3 Y141.3 I13.5 J0
G0 Z15

(2D Contour3)
G0 X7 Y155.3
Z15
Z5
G1 Z-4 F333.3
X520 F1000
G2 X528.5 Y146.8 I0 J-8.5
G1 Y7
G2 X520 Y-1.5 I-8.5 J0
G1 X7
G2 X-1.5 Y7 I0 J8.5
G1 Y146.8
G2 X7 Y155.3 I8.5 J0
G1 Z-8 F333.3
X520 F1000
G2 X528.5 Y146.8 I0 J-8.5
G1 Y7
G2 X520 Y-1.5 I-8.5 J0
G1 X7
G2 X-1.5 Y7 I0 J8.5
G1 Y146.8
G2 X7 Y155.3 I8.5 J0
G1 Z-12 F333.3
X520 F1000
G2 X528.5 Y146.8 I0 J-8.5
G1 Y7
G2 X520 Y-1.5 I-8.5 J0
G1 X7
G2 X-1.5 Y7 I0 J8.5
G1 Y146.8
G2 X7 Y155.3 I8.5 J0
G1 Z-13 F333.3
X520 F1000
G2 X528.5 Y146.8 I0 J-8.5
G1 Y7
G2 X520 Y-1.5 I-8.5 J0
G1 X7
G2 X-1.5 Y7 I0 J8.5
G1 Y146.8
G2 X7 Y155.3 I8.5 J0
G0 Z15
M9
M5
M30
