(CamperFensterausschnittRuckwand)
(T4 D=5 CR=0 - ZMIN=-9 - flat end mill)
G90 G94
G17
G21
(-Attention- Property Safe Retracts is set to Clearance Height.)
(Ensure the clearance height will clear the part and or fixtures.)
(Raise the Z-axis to a safe height before starting the program.)

(2D Contour1)
T4
S5000 M3
G54
M8
G0 X-25 Y-217.5
Z15
G0 Z5
G1 Z3 F333.3
Z-2
X173 F1000
G3 X242.5 Y-148 I0 J69.5
G1 Y148
G3 X173 Y217.5 I-69.5 J0
G1 X-173
G3 X-242.5 Y148 I0 J-69.5
G1 Y-148
G3 X-173 Y-217.5 I69.5 J0
G1 X-25
Z-4 F333.3
X173 F1000
G3 X242.5 Y-148 I0 J69.5
G1 Y148
G3 X173 Y217.5 I-69.5 J0
G1 X-173
G3 X-242.5 Y148 I0 J-69.5
G1 Y-148
G3 X-173 Y-217.5 I69.5 J0
G1 X-25
Z-6 F333.3
X173 F1000
G3 X242.5 Y-148 I0 J69.5
G1 Y148
G3 X173 Y217.5 I-69.5 J0
G1 X-173
G3 X-242.5 Y148 I0 J-69.5
G1 Y-148
G3 X-173 Y-217.5 I69.5 J0
G1 X-25
Z-8 F333.3
X173 F1000
G3 X242.5 Y-148 I0 J69.5
G1 Y148
G3 X173 Y217.5 I-69.5 J0
G1 X-173
G3 X-242.5 Y148 I0 J-69.5
G1 Y-148
G3 X-173 Y-217.5 I69.5 J0
G1 X-25
Z-9 F333.3
X173 F1000
G3 X242.5 Y-148 I0 J69.5
G1 Y148
G3 X173 Y217.5 I-69.5 J0
G1 X-173
G3 X-242.5 Y148 I0 J-69.5
G1 Y-148
G3 X-173 Y-217.5 I69.5 J0
G1 X-25
G0 Z15
M9
M5
M30
