(CamperGaskastenTuer)
(T4  D=5 CR=0 - ZMIN=-13 - flat end mill)
G90 G94
G17
G21

(2D Pocket1)
T4
S5000 M3
G54
M8
G0 X520.913 Y29.356
Z15
Z5
G1 Z2.5 F333.3
G3 X525.399 Y30.916 Z-0.216 I2.243 J0.78
X521.256 Y31.561 Z-2.086 I-2.243 J-0.78
X523.156 Y27.761 Z-4 I1.9 J-1.425
G1 X524.515 F1000
G3 X524.834 Y28.08 I0 J0.319
G1 Y350.472
G3 X524.515 Y350.791 I-0.319 J0
G1 X26.486
G3 X26.166 Y350.472 I0 J-0.319
G1 Y28.08
G3 X26.486 Y27.761 I0.319 J0
G1 X523.156
G2 X524.416 Y26.921 I0 J-1.365
G3 X525.676 Y26.081 I1.26 J0.525
G1 X526.514
Y352.471
X24.486
Y26.081
X525.676
G0 Z5
X29.457 Y27.879
G1 Z2.5 F333.3
G3 X25.182 Y29.949 Z-0.216 I-2.138 J1.035
X29.457 Y27.879 Z-2.931 I2.138 J-1.035
X28.999 Y30.594 Z-4 I-2.138 J1.035
G2 X27.761 Y33.581 I2.988 J2.988 F1000
G1 Y344.971
G2 X31.986 Y349.196 I4.225 J0
G1 X519.014
G2 X523.239 Y344.971 I0 J-4.225
G1 Y33.581
G2 X519.014 Y29.356 I-4.225 J0
G1 X31.986
G2 X28.999 Y30.594 I0 J4.225
X28.883 Y32.448 I0.993 J0.993
G3 X29.486 Y34.205 I-2.259 J1.757
G1 Y344.971
G2 X31.986 Y347.471 I2.5 J0
G1 X519.014
G2 X521.514 Y344.971 I0 J-2.5
G1 Y33.581
G2 X519.014 Y31.081 I-2.5 J0
G1 X31.986
G2 X29.486 Y33.581 I0 J2.5
G1 Y34.205
G0 Z15

(2D Pocket2)
X273.446 Y25.99
Z15
Z5
G1 Z1 F333.3
Z-2 F1000
Y25.971
X273.45 Y1
Y-1.395
G2 X273.249 Y-1.595 I-0.2 J0
G1 X270.705 Y-1.593
G2 X270.505 Y-1.393 I0 J0.2
G1 Y25.972
G3 X270.305 Y26.172 I-0.2 J0
G1 X267.805 Y26.174
G3 X267.605 Y25.974 I0 J-0.2
G1 Y-1.392
G2 X267.405 Y-1.592 I-0.2 J0
G1 X264.905 Y-1.59
G2 X264.705 Y-1.39 I0 J0.2
G1 Y25.976
G3 X264.505 Y26.176 I-0.2 J0
G1 X262.005 Y26.177
G3 X261.805 Y25.977 I0 J-0.2
G1 Y-1.399
G2 X261.605 Y-1.599 I-0.2 J0
G1 X259.105 Y-1.598
G2 X258.905 Y-1.398 I0 J0.2
G1 Y25.979
G3 X258.705 Y26.179 I-0.2 J0
G1 X256.205 Y26.18
G3 X256.005 Y25.98 I0 J-0.2
G1 Y-1.396
G2 X255.805 Y-1.596 I-0.2 J0
G1 X253.305 Y-1.595
G2 X253.105 Y-1.395 I0 J0.2
G1 Y25.971
G3 X252.905 Y26.171 I-0.2 J0
G1 X250.405 Y26.172
G3 X250.205 Y25.972 I0 J-0.2
G1 Y-1.393
G2 X250.005 Y-1.593 I-0.2 J0
G1 X247.505 Y-1.592
G2 X247.305 Y-1.392 I0 J0.2
G1 Y25.974
G3 X247.105 Y26.174 I-0.2 J0
G1 X244.605 Y26.176
G3 X244.405 Y25.976 I0 J-0.2
G1 Y-1.39
G2 X244.206 Y-1.59 I-0.2 J0
G1 X241.706 Y-1.599
G2 X241.505 Y-1.399 I-0.001 J0.2
G1 Y25.977
G3 X241.305 Y26.177 I-0.2 J0
G1 X238.805 Y26.179
G3 X238.605 Y25.979 I0 J-0.2
G1 Y-1.398
G2 X238.405 Y-1.598 I-0.2 J0
G1 X235.905 Y-1.596
G2 X235.705 Y-1.396 I0 J0.2
G1 Y25.98
G3 X235.504 Y26.18 I-0.2 J0
G1 X233.004 Y26.171
G3 X232.805 Y25.971 I0.001 J-0.2
G1 Y-1.395
G2 X232.605 Y-1.595 I-0.2 J0
G1 X230.105 Y-1.593
G2 X229.905 Y-1.393 I0 J0.2
G1 Y25.972
G3 X229.705 Y26.172 I-0.2 J0
G1 X227.205 Y26.174
G3 X227.005 Y25.974 I0 J-0.2
G1 Y-1.392
G2 X226.805 Y-1.592 I-0.2 J0
G1 X224.305 Y-1.59
G2 X224.105 Y-1.39 I0 J0.2
G1 Y25.976
G3 X223.905 Y26.176 I-0.2 J0
G1 X221.446 Y26.177
G3 X221.246 Y25.977 I0 J-0.2
G1 X221.25 Y1
Y-1.395
G2 X221.05 Y-1.595 I-0.2 J0
G1 X218.505 Y-1.598
G2 X218.305 Y-1.398 I0 J0.2
G1 Y25.979
G3 X218.105 Y26.179 I-0.2 J0
G1 X215.605 Y26.18
G3 X215.405 Y25.98 I0 J-0.2
G1 Y-1.396
G2 X215.205 Y-1.596 I-0.2 J0
G1 X212.705 Y-1.595
G2 X212.505 Y-1.395 I0 J0.2
G1 Y25.971
G3 X212.305 Y26.171 I-0.2 J0
G1 X209.805 Y26.172
G3 X209.605 Y25.972 I0 J-0.2
G1 Y-1.393
G2 X209.405 Y-1.593 I-0.2 J0
G1 X206.905 Y-1.592
G2 X206.705 Y-1.392 I0 J0.2
G1 Y25.974
G3 X206.505 Y26.174 I-0.2 J0
G1 X204.005 Y26.176
G3 X203.805 Y25.976 I0 J-0.2
G1 Y-1.39
G2 X203.606 Y-1.59 I-0.2 J0
G1 X201.106 Y-1.599
G2 X200.905 Y-1.399 I-0.001 J0.2
G1 Y25.977
G3 X200.705 Y26.177 I-0.2 J0
G1 X198.205 Y26.179
G3 X198.005 Y25.979 I0 J-0.2
G1 Y-1.398
G2 X197.805 Y-1.598 I-0.2 J0
G1 X195.305 Y-1.596
G2 X195.105 Y-1.396 I0 J0.2
G1 Y25.98
G3 X194.904 Y26.18 I-0.2 J0
G1 X192.404 Y26.171
G3 X192.205 Y25.971 I0.001 J-0.2
G1 Y-1.395
G2 X192.005 Y-1.595 I-0.2 J0
G1 X189.505 Y-1.593
G2 X189.305 Y-1.393 I0 J0.2
G1 Y25.972
G3 X189.105 Y26.172 I-0.2 J0
G1 X186.605 Y26.174
G3 X186.405 Y25.974 I0 J-0.2
G1 Y-1.392
G2 X186.205 Y-1.592 I-0.2 J0
G1 X183.705 Y-1.59
G2 X183.505 Y-1.39 I0 J0.2
G1 Y25.976
G3 X183.305 Y26.176 I-0.2 J0
G1 X180.805 Y26.177
G3 X180.605 Y25.977 I0 J-0.2
G1 Y-1.399
G2 X180.405 Y-1.599 I-0.2 J0
G1 X177.905 Y-1.598
G2 X177.705 Y-1.398 I0 J0.2
G1 Y25.979
G3 X177.505 Y26.179 I-0.2 J0
G1 X175.047 Y26.18
G3 X174.847 Y25.98 I0 J-0.2
G1 X174.85 Y1
Y-1.395
G2 X174.65 Y-1.595 I-0.2 J0
G1 X172.105
G2 X171.905 Y-1.395 I0 J0.2
G1 Y25.971
G3 X171.705 Y26.171 I-0.2 J0
G1 X169.205 Y26.172
G3 X169.005 Y25.972 I0 J-0.2
G1 Y-1.393
G2 X168.805 Y-1.593 I-0.2 J0
G1 X166.305 Y-1.592
G2 X166.105 Y-1.392 I0 J0.2
G1 Y25.974
G3 X165.905 Y26.174 I-0.2 J0
G1 X163.405 Y26.176
G3 X163.205 Y25.976 I0 J-0.2
G1 Y-1.39
G2 X163.006 Y-1.59 I-0.2 J0
G1 X160.506 Y-1.599
G2 X160.305 Y-1.399 I-0.001 J0.2
G1 Y25.977
G3 X160.105 Y26.177 I-0.2 J0
G1 X157.605 Y26.179
G3 X157.405 Y25.979 I0 J-0.2
G1 Y-1.398
G2 X157.205 Y-1.598 I-0.2 J0
G1 X154.705 Y-1.596
G2 X154.505 Y-1.396 I0 J0.2
G1 Y25.98
G3 X154.304 Y26.18 I-0.2 J0
G1 X151.804 Y26.171
G3 X151.605 Y25.971 I0.001 J-0.2
G1 Y-1.395
G2 X151.405 Y-1.595 I-0.2 J0
G1 X148.905 Y-1.593
G2 X148.705 Y-1.393 I0 J0.2
G1 Y25.972
G3 X148.505 Y26.172 I-0.2 J0
G1 X146.005 Y26.174
G3 X145.805 Y25.974 I0 J-0.2
G1 Y-1.392
G2 X145.605 Y-1.592 I-0.2 J0
G1 X143.105 Y-1.59
G2 X142.905 Y-1.39 I0 J0.2
G1 Y25.976
G3 X142.705 Y26.176 I-0.2 J0
G1 X140.205 Y26.177
G3 X140.005 Y25.977 I0 J-0.2
G1 Y-1.399
G2 X139.805 Y-1.599 I-0.2 J0
G1 X137.305 Y-1.598
G2 X137.105 Y-1.398 I0 J0.2
G1 Y25.979
G3 X136.905 Y26.179 I-0.2 J0
G1 X134.405 Y26.18
G3 X134.205 Y25.98 I0 J-0.2
G1 Y-1.396
G2 X134.005 Y-1.596 I-0.2 J0
G1 X131.505 Y-1.595
G2 X131.305 Y-1.395 I0 J0.2
G1 Y25.971
G3 X131.105 Y26.171 I-0.2 J0
G1 X128.605 Y26.172
G3 X128.405 Y25.972 I0 J-0.2
G1 Y-1.393
G2 X128.205 Y-1.593 I-0.2 J0
G1 X125.705 Y-1.592
G2 X125.505 Y-1.392 I0 J0.2
G1 Y25.974
G3 X125.305 Y26.174 I-0.2 J0
G1 X122.805 Y26.176
G3 X122.605 Y25.976 I0 J-0.2
G1 Y-1.39
G2 X122.406 Y-1.59 I-0.2 J0
G1 X119.906 Y-1.599
G2 X119.705 Y-1.399 I-0.001 J0.2
G1 Y25.977
G3 X119.505 Y26.177 I-0.2 J0
G1 X117.005 Y26.179
G3 X116.805 Y25.979 I0 J-0.2
G1 Y-1.398
G2 X116.605 Y-1.598 I-0.2 J0
G1 X114.105 Y-1.596
G2 X113.905 Y-1.396 I0 J0.2
G1 Y25.98
G3 X113.704 Y26.18 I-0.2 J0
G1 X111.204 Y26.171
G3 X111.005 Y25.971 I0.001 J-0.2
G1 Y-1.395
G2 X110.805 Y-1.595 I-0.2 J0
G1 X108.305 Y-1.593
G2 X108.105 Y-1.393 I0 J0.2
G1 Y25.972
G3 X107.905 Y26.172 I-0.2 J0
G1 X105.405 Y26.174
G3 X105.205 Y25.974 I0 J-0.2
G1 Y-1.392
G2 X105.005 Y-1.592 I-0.2 J0
G1 X102.505 Y-1.59
G2 X102.305 Y-1.39 I0 J0.2
G1 Y25.976
G3 X102.105 Y26.176 I-0.2 J0
G1 X99.605 Y26.177
G3 X99.405 Y25.977 I0 J-0.2
G1 Y-1.399
G2 X99.205 Y-1.599 I-0.2 J0
G1 X96.705 Y-1.598
G2 X96.505 Y-1.398 I0 J0.2
G1 Y25.979
G3 X96.305 Y26.179 I-0.2 J0
G1 X93.805 Y26.18
G3 X93.605 Y25.98 I0 J-0.2
G1 Y-1.396
G2 X93.405 Y-1.596 I-0.2 J0
G1 X90.905 Y-1.595
G2 X90.705 Y-1.395 I0 J0.2
G1 Y25.971
G3 X90.505 Y26.171 I-0.2 J0
G1 X88.005 Y26.172
G3 X87.805 Y25.972 I0 J-0.2
G1 Y-1.393
G2 X87.605 Y-1.593 I-0.2 J0
G1 X85.105 Y-1.592
G2 X84.905 Y-1.392 I0 J0.2
G1 Y25.974
G3 X84.705 Y26.174 I-0.2 J0
G1 X82.205 Y26.176
G3 X82.005 Y25.976 I0 J-0.2
G1 Y-1.39
G2 X81.806 Y-1.59 I-0.2 J0
G1 X79.306 Y-1.599
G2 X79.105 Y-1.399 I-0.001 J0.2
G1 Y25.977
G3 X78.905 Y26.177 I-0.2 J0
G1 X76.405 Y26.179
G3 X76.205 Y25.979 I0 J-0.2
G1 Y-1.398
G2 X76.005 Y-1.598 I-0.2 J0
G1 X73.505 Y-1.596
G2 X73.305 Y-1.396 I0 J0.2
G1 Y25.98
G3 X73.104 Y26.18 I-0.2 J0
G1 X70.604 Y26.171
G3 X70.405 Y25.971 I0.001 J-0.2
G1 Y-1.395
G2 X70.205 Y-1.595 I-0.2 J0
G1 X67.705 Y-1.593
G2 X67.505 Y-1.393 I0 J0.2
G1 Y25.972
G3 X67.305 Y26.172 I-0.2 J0
G1 X64.805 Y26.174
G3 X64.605 Y25.974 I0 J-0.2
G1 Y-1.392
G2 X64.405 Y-1.592 I-0.2 J0
G1 X61.905 Y-1.59
G2 X61.705 Y-1.39 I0 J0.2
G1 Y25.976
G3 X61.505 Y26.176 I-0.2 J0
G1 X59.005 Y26.177
G3 X58.805 Y25.977 I0 J-0.2
G1 Y-1.399
G2 X58.605 Y-1.599 I-0.2 J0
G1 X56.105 Y-1.598
G2 X55.905 Y-1.398 I0 J0.2
G1 Y25.979
G3 X55.705 Y26.179 I-0.2 J0
G1 X53.2 Y26.176
G3 X53 Y25.976 I0 J-0.2
G1 Y1
Y-1.395
G0 Z5
X277.595 Y-1.409
G1 Z1 F333.3
Z-2 F1000
Y-1.39
Y25.976
G2 X277.795 Y26.176 I0.2 J0
G1 X280.295 Y26.174
G2 X280.495 Y25.974 I0 J-0.2
G1 Y-1.391
G3 X280.695 Y-1.591 I0.2 J0
G1 X283.195 Y-1.593
G3 X283.395 Y-1.393 I0 J0.2
G1 Y25.973
G2 X283.595 Y26.173 I0.2 J0
G1 X286.095 Y26.171
G2 X286.295 Y25.971 I0 J-0.2
G1 Y-1.395
G3 X286.495 Y-1.595 I0.2 J0
G1 X288.995 Y-1.596
G3 X289.195 Y-1.396 I0 J0.2
G1 Y25.98
G2 X289.395 Y26.18 I0.2 J0
G1 X291.851 Y26.176
G2 X292.05 Y25.976 I0 J-0.2
G1 Y23.581
X292.054 Y-1.398
G3 X292.254 Y-1.598 I0.2 J0
G1 X294.754 Y-1.599
G3 X294.954 Y-1.399 I0 J0.2
G1 X294.95 Y23.581
Y25.976
G2 X295.15 Y26.176 I0.2 J0
G1 X297.695
G2 X297.895 Y25.976 I0 J-0.2
G1 Y-1.39
G3 X298.095 Y-1.59 I0.2 J0
G1 X300.595 Y-1.591
G3 X300.795 Y-1.391 I0 J0.2
G1 Y25.974
G2 X300.995 Y26.174 I0.2 J0
G1 X303.495 Y26.173
G2 X303.695 Y25.973 I0 J-0.2
G1 Y-1.393
G3 X303.895 Y-1.593 I0.2 J0
G1 X306.395 Y-1.595
G3 X306.595 Y-1.395 I0 J0.2
G1 Y25.971
G2 X306.794 Y26.171 I0.2 J0
G1 X309.294 Y26.18
G2 X309.495 Y25.98 I0.001 J-0.2
G1 Y-1.396
G3 X309.695 Y-1.596 I0.2 J0
G1 X312.195 Y-1.598
G3 X312.395 Y-1.398 I0 J0.2
G1 Y25.979
G2 X312.595 Y26.179 I0.2 J0
G1 X315.095 Y26.177
G2 X315.295 Y25.977 I0 J-0.2
G1 Y-1.399
G3 X315.496 Y-1.599 I0.2 J0
G1 X317.955 Y-1.59
G3 X318.154 Y-1.39 I-0.001 J0.2
G1 X318.15 Y23.581
Y25.976
G2 X318.351 Y26.176 I0.2 J0
G1 X320.895 Y26.174
G2 X321.095 Y25.974 I0 J-0.2
G1 Y-1.391
G3 X321.295 Y-1.591 I0.2 J0
G1 X323.795 Y-1.593
G3 X323.995 Y-1.393 I0 J0.2
G1 Y25.973
G2 X324.195 Y26.173 I0.2 J0
G1 X326.695 Y26.171
G2 X326.895 Y25.971 I0 J-0.2
G1 Y-1.395
G3 X327.095 Y-1.595 I0.2 J0
G1 X329.595 Y-1.596
G3 X329.795 Y-1.396 I0 J0.2
G1 Y25.98
G2 X329.995 Y26.18 I0.2 J0
G1 X332.495 Y26.179
G2 X332.695 Y25.979 I0 J-0.2
G1 Y-1.398
G3 X332.895 Y-1.598 I0.2 J0
G1 X335.395 Y-1.599
G3 X335.595 Y-1.399 I0 J0.2
G1 Y25.977
G2 X335.795 Y26.177 I0.2 J0
G1 X338.295 Y26.176
G2 X338.495 Y25.976 I0 J-0.2
G1 Y-1.39
G3 X338.695 Y-1.59 I0.2 J0
G1 X341.195 Y-1.591
G3 X341.395 Y-1.391 I0 J0.2
G1 Y25.974
G2 X341.595 Y26.174 I0.2 J0
G1 X344.095 Y26.173
G2 X344.295 Y25.973 I0 J-0.2
G1 Y-1.393
G3 X344.495 Y-1.593 I0.2 J0
G1 X346.995 Y-1.595
G3 X347.195 Y-1.395 I0 J0.2
G1 Y25.971
G2 X347.394 Y26.171 I0.2 J0
G1 X349.894 Y26.18
G2 X350.095 Y25.98 I0.001 J-0.2
G1 Y-1.396
G3 X350.295 Y-1.596 I0.2 J0
G1 X352.795 Y-1.598
G3 X352.995 Y-1.398 I0 J0.2
G1 Y25.979
G2 X353.195 Y26.179 I0.2 J0
G1 X355.695 Y26.177
G2 X355.895 Y25.977 I0 J-0.2
G1 Y-1.399
G3 X356.096 Y-1.599 I0.2 J0
G1 X358.596 Y-1.59
G3 X358.795 Y-1.39 I-0.001 J0.2
G1 Y25.976
G2 X358.995 Y26.176 I0.2 J0
G1 X361.45
G2 X361.65 Y25.976 I0 J-0.2
G1 Y23.581
X361.653 Y-1.391
G3 X361.853 Y-1.591 I0.2 J0
G1 X364.353 Y-1.593
G3 X364.553 Y-1.393 I0 J0.2
G1 X364.55 Y23.581
Y25.976
G2 X364.751 Y26.176 I0.2 J0
G1 X367.295 Y26.171
G2 X367.495 Y25.971 I0 J-0.2
G1 Y-1.395
G3 X367.695 Y-1.595 I0.2 J0
G1 X370.195 Y-1.596
G3 X370.395 Y-1.396 I0 J0.2
G1 Y25.98
G2 X370.595 Y26.18 I0.2 J0
G1 X373.095 Y26.179
G2 X373.295 Y25.979 I0 J-0.2
G1 Y-1.398
G3 X373.495 Y-1.598 I0.2 J0
G1 X375.995 Y-1.599
G3 X376.195 Y-1.399 I0 J0.2
G1 Y25.977
G2 X376.395 Y26.177 I0.2 J0
G1 X378.895 Y26.176
G2 X379.095 Y25.976 I0 J-0.2
G1 Y-1.39
G3 X379.295 Y-1.59 I0.2 J0
G1 X381.795 Y-1.591
G3 X381.995 Y-1.391 I0 J0.2
G1 Y25.974
G2 X382.195 Y26.174 I0.2 J0
G1 X384.695 Y26.173
G2 X384.895 Y25.973 I0 J-0.2
G1 Y-1.393
G3 X385.095 Y-1.593 I0.2 J0
G1 X387.595 Y-1.595
G3 X387.795 Y-1.395 I0 J0.2
G1 Y25.971
G2 X387.994 Y26.171 I0.2 J0
G1 X390.494 Y26.18
G2 X390.695 Y25.98 I0.001 J-0.2
G1 Y-1.396
G3 X390.895 Y-1.596 I0.2 J0
G1 X393.395 Y-1.598
G3 X393.595 Y-1.398 I0 J0.2
G1 Y25.979
G2 X393.795 Y26.179 I0.2 J0
G1 X396.295 Y26.177
G2 X396.495 Y25.977 I0 J-0.2
G1 Y-1.399
G3 X396.696 Y-1.599 I0.2 J0
G1 X399.196 Y-1.59
G3 X399.395 Y-1.39 I-0.001 J0.2
G1 Y25.976
G2 X399.595 Y26.176 I0.2 J0
G1 X402.095 Y26.174
G2 X402.295 Y25.974 I0 J-0.2
G1 Y-1.391
G3 X402.495 Y-1.591 I0.2 J0
G1 X404.995 Y-1.593
G3 X405.195 Y-1.393 I0 J0.2
G1 Y25.973
G2 X405.395 Y26.173 I0.2 J0
G1 X407.895 Y26.171
G2 X408.095 Y25.971 I0 J-0.2
G1 Y-1.395
G3 X408.295 Y-1.595 I0.2 J0
G1 X410.795 Y-1.596
G3 X410.995 Y-1.396 I0 J0.2
G1 Y25.98
G2 X411.195 Y26.18 I0.2 J0
G1 X413.695 Y26.179
G2 X413.895 Y25.979 I0 J-0.2
G1 Y-1.398
G3 X414.095 Y-1.598 I0.2 J0
G1 X416.595 Y-1.599
G3 X416.795 Y-1.399 I0 J0.2
G1 Y25.977
G2 X416.995 Y26.177 I0.2 J0
G1 X419.495 Y26.176
G2 X419.695 Y25.976 I0 J-0.2
G1 Y-1.39
G3 X419.895 Y-1.59 I0.2 J0
G1 X422.395 Y-1.591
G3 X422.595 Y-1.391 I0 J0.2
G1 Y25.974
G2 X422.795 Y26.174 I0.2 J0
G1 X425.295 Y26.173
G2 X425.495 Y25.973 I0 J-0.2
G1 Y-1.393
G3 X425.695 Y-1.593 I0.2 J0
G1 X428.195 Y-1.595
G3 X428.395 Y-1.395 I0 J0.2
G1 Y25.971
G2 X428.594 Y26.171 I0.2 J0
G1 X431.094 Y26.18
G2 X431.295 Y25.98 I0.001 J-0.2
G1 Y-1.396
G3 X431.495 Y-1.596 I0.2 J0
G1 X433.995 Y-1.598
G3 X434.195 Y-1.398 I0 J0.2
G1 Y25.979
G2 X434.395 Y26.179 I0.2 J0
G1 X436.895 Y26.177
G2 X437.095 Y25.977 I0 J-0.2
G1 Y-1.399
G3 X437.296 Y-1.599 I0.2 J0
G1 X439.796 Y-1.59
G3 X439.995 Y-1.39 I-0.001 J0.2
G1 Y25.976
G2 X440.195 Y26.176 I0.2 J0
G1 X442.695 Y26.174
G2 X442.895 Y25.974 I0 J-0.2
G1 Y-1.391
G3 X443.095 Y-1.591 I0.2 J0
G1 X445.595 Y-1.593
G3 X445.795 Y-1.393 I0 J0.2
G1 Y25.973
G2 X445.995 Y26.173 I0.2 J0
G1 X448.495 Y26.171
G2 X448.695 Y25.971 I0 J-0.2
G1 Y-1.395
G3 X448.895 Y-1.595 I0.2 J0
G1 X451.395 Y-1.596
G3 X451.595 Y-1.396 I0 J0.2
G1 Y25.98
G2 X451.795 Y26.18 I0.2 J0
G1 X454.295 Y26.179
G2 X454.495 Y25.979 I0 J-0.2
G1 Y-1.398
G3 X454.695 Y-1.598 I0.2 J0
G1 X457.195 Y-1.599
G3 X457.395 Y-1.399 I0 J0.2
G1 Y25.977
G2 X457.595 Y26.177 I0.2 J0
G1 X460.095 Y26.176
G2 X460.295 Y25.976 I0 J-0.2
G1 Y-1.39
G3 X460.495 Y-1.59 I0.2 J0
G1 X462.995 Y-1.591
G3 X463.195 Y-1.391 I0 J0.2
G1 Y25.974
G2 X463.395 Y26.174 I0.2 J0
G1 X465.895 Y26.173
G2 X466.095 Y25.973 I0 J-0.2
G1 Y-1.393
G3 X466.295 Y-1.593 I0.2 J0
G1 X468.795 Y-1.595
G3 X468.995 Y-1.395 I0 J0.2
G1 Y25.971
G2 X469.194 Y26.171 I0.2 J0
G1 X471.694 Y26.18
G2 X471.895 Y25.98 I0.001 J-0.2
G1 Y-1.396
G3 X472.095 Y-1.596 I0.2 J0
G1 X474.595 Y-1.598
G3 X474.795 Y-1.398 I0 J0.2
G1 Y25.979
G2 X474.995 Y26.179 I0.2 J0
G1 X477.495 Y26.177
G2 X477.695 Y25.977 I0 J-0.2
G1 Y-1.399
G3 X477.896 Y-1.599 I0.2 J0
G1 X480.353 Y-1.59
G3 X480.552 Y-1.39 I-0.001 J0.2
G1 X480.55 Y23.581
Y25.976
G2 X480.75 Y26.176 I0.2 J0
G1 X483.295 Y26.174
G2 X483.495 Y25.974 I0 J-0.2
G1 Y-1.391
G3 X483.695 Y-1.591 I0.2 J0
G1 X486.195 Y-1.593
G3 X486.395 Y-1.393 I0 J0.2
G1 Y25.973
G2 X486.595 Y26.173 I0.2 J0
G1 X489.095 Y26.171
G2 X489.295 Y25.971 I0 J-0.2
G1 Y-1.395
G3 X489.495 Y-1.595 I0.2 J0
G1 X491.995 Y-1.596
G3 X492.195 Y-1.396 I0 J0.2
G1 Y25.98
G2 X492.395 Y26.18 I0.2 J0
G1 X494.895 Y26.179
G2 X495.095 Y25.979 I0 J-0.2
G1 Y-1.398
G3 X495.295 Y-1.598 I0.2 J0
G1 X497.8 Y-1.595
G3 X498 Y-1.395 I0 J0.2
G1 Y23.581
Y25.976
G0 Z15

(2D Adaptive1)
X275.791 Y28.845
Z15
Z5
Z1
G1 Z0.5 F1000
Z-1.5
G3 X275.399 Y26.123 I12.366 J-3.167
G1 Y25.973
X275.471 Y25.841
X275.561 Y25.721
X275.663 Y25.61
X275.797 Y25.486
X275.971 Y25.35
X276.193 Y25.203
X276.479 Y25.045
X276.85 Y24.877
X277.341 Y24.702
X278.02 Y24.519
X278.891 Y24.357
X279.771 Y24.256
X280.655 Y24.192
X281.54 Y24.152
X282.426 Y24.126
X283.312 Y24.11
X284.198 Y24.099
X285.084 Y24.093
X285.97 Y24.089
X287.743 Y24.084
X290.401 Y24.082
X307.237 Y24.081
X324.96
X375.469
X425.978
X476.487
X496.333
X496.593 Y24.11
X496.84 Y24.197
X497.061 Y24.336
X497.245 Y24.52
X497.384 Y24.742
X497.471 Y24.988
X497.5 Y25.248
G3 X496.983 Y25.73 I-0.5 J-0.017
G1 X496.896 Y25.727 Z-1.492
X496.812 Y25.724 Z-1.47
X496.733 Y25.721 Z-1.433
X496.662 Y25.719 Z-1.383
X496.6 Y25.717 Z-1.321
X496.55 Y25.715 Z-1.25
X496.513 Y25.714 Z-1.171
X496.491 Y25.713 Z-1.087
X496.483 Z-1
G0 Z5
X54.275 Y28.721
Z1
G1 Z0.5 F1000
Z-1.5
G3 X53.5 Y26.082 I4.763 J-2.832
G1 Y25.847
X53.502 Y25.81
X53.595 Y25.692
X53.705 Y25.578
X53.849 Y25.451
X54.035 Y25.312
X54.273 Y25.161
X54.579 Y25.001
X54.978 Y24.831
X55.51 Y24.653
X56.259 Y24.469
X57.133 Y24.326
X58.015 Y24.237
X58.899 Y24.18
X59.785 Y24.144
X60.671 Y24.121
X61.557 Y24.107
X62.443 Y24.097
X63.329 Y24.092
X64.215 Y24.088
X65.987 Y24.084
X69.532 Y24.082
X103.204 Y24.081
X153.713
X204.222
X254.731
X272.454
X273.325 Y23.92
X274.173 Y23.664
X275.013 Y23.38
X275.856 Y23.109
X276.709 Y22.869
X277.573 Y22.669
X278.445 Y22.512
X279.323 Y22.391
X280.204 Y22.301
X281.088 Y22.236
X281.973 Y22.189
X282.858 Y22.156
X283.744 Y22.133
X284.63 Y22.117
X285.516 Y22.105
X286.402 Y22.098
X287.288 Y22.092
X288.174 Y22.089
X289.947 Y22.084
X292.605 Y22.082
X303.239 Y22.081
X305.011
X355.52
X406.029
X456.538
X494.641
X495.301 Y22.103
X495.763 Y22.156
X496.174 Y22.237
X496.502 Y22.329
X496.818 Y22.446
X496.825 Y22.45
X497.051 Y22.588
X497.24 Y22.773
X497.382 Y22.996
X497.47 Y23.245
X497.5 Y23.508
G3 X496.983 Y23.99 I-0.5 J-0.017
G1 X496.896 Y23.987 Z-1.492
X496.812 Y23.984 Z-1.47
X496.733 Y23.981 Z-1.433
X496.662 Y23.979 Z-1.383
X496.6 Y23.977 Z-1.321
X496.55 Y23.975 Z-1.25
X496.513 Y23.974 Z-1.171
X496.491 Y23.973 Z-1.087
X496.483 Z-1
G0 Z5
X53.977 Y27.031
Z-0.5
G1 Z-1 F1000
X53.973 Y27.024 Z-1.087
X53.961 Y27.005 Z-1.171
X53.943 Y26.973 Z-1.25
X53.917 Y26.93 Z-1.321
X53.886 Y26.877 Z-1.383
X53.849 Y26.816 Z-1.433
X53.809 Y26.748 Z-1.47
X53.766 Y26.675 Z-1.492
X53.721 Y26.601 Z-1.5
G3 X53.5 Y25.847 I1.36 J-0.809
G1 Y25.166
X53.507 Y25.016
X53.563 Y24.876
X53.635 Y24.729
X53.736 Y24.559
X53.856 Y24.391
X54.009 Y24.208
X54.212 Y24.003
X54.436 Y23.809
X54.724 Y23.598
X55.077 Y23.381
X55.503 Y23.164
X56.038 Y22.943
X56.736 Y22.719
X57.598 Y22.517
X58.473 Y22.378
X59.354 Y22.283
X60.238 Y22.218
X61.123 Y22.174
X62.009 Y22.143
X62.895 Y22.123
X63.781 Y22.109
X64.667 Y22.1
X65.553 Y22.094
X66.439 Y22.089
X68.211 Y22.085
X70.87 Y22.082
X80.617 Y22.081
X102.77
X153.279
X203.788
X254.297
X270.247
X271.133 Y22.051
X272.012 Y21.941
X272.882 Y21.77
X273.743 Y21.563
X274.602 Y21.344
X275.462 Y21.131
X276.326 Y20.934
X277.195 Y20.76
X278.068 Y20.612
X278.946 Y20.489
X279.827 Y20.391
X280.709 Y20.313
X281.594 Y20.253
X282.478 Y20.207
X283.364 Y20.173
X284.25 Y20.148
X285.136 Y20.129
X286.022 Y20.115
X286.908 Y20.105
X287.794 Y20.098
X288.68 Y20.093
X289.566 Y20.089
X291.338 Y20.085
X293.997 Y20.082
X301.972 Y20.081
X304.63
X355.139
X405.648
X456.157
X492.488
X493.374 Y20.084
X494.26 Y20.107
X495.098 Y20.174
X495.716 Y20.273
X496.19 Y20.389
X496.556 Y20.51
X496.788 Y20.608
X497.025 Y20.743
X497.224 Y20.929
X497.374 Y21.156
X497.468 Y21.412
X497.5 Y21.683
Y23.508
G3 X496.983 Y23.99 I-0.5 J-0.017
G1 X496.896 Y23.987 Z-1.492
X496.812 Y23.984 Z-1.47
X496.733 Y23.981 Z-1.433
X496.662 Y23.979 Z-1.383
X496.6 Y23.977 Z-1.321
X496.55 Y23.975 Z-1.25
X496.513 Y23.974 Z-1.171
X496.491 Y23.973 Z-1.087
X496.483 Z-1
G0 Z5
X53.977 Y26.349
Z-0.5
G1 Z-1 F1000
X53.973 Y26.343 Z-1.087
X53.961 Y26.323 Z-1.171
X53.943 Y26.292 Z-1.25
X53.917 Y26.249 Z-1.321
X53.886 Y26.196 Z-1.383
X53.849 Y26.134 Z-1.433
X53.809 Y26.067 Z-1.47
X53.766 Y25.994 Z-1.492
X53.721 Y25.92 Z-1.5
G3 X53.5 Y25.166 I1.36 J-0.809
G1 Y24.069
X53.507 Y23.919
X53.537 Y23.77
X53.583 Y23.609
X53.647 Y23.436
X53.738 Y23.243
X53.848 Y23.05
X53.998 Y22.829
X54.171 Y22.614
X54.398 Y22.375
X54.666 Y22.134
X54.993 Y21.885
X55.398 Y21.625
X55.874 Y21.37
X56.461 Y21.115
X57.211 Y20.858
X58.069 Y20.639
X58.941 Y20.48
X59.82 Y20.365
X60.702 Y20.282
X61.586 Y20.223
X62.471 Y20.181
X63.357 Y20.151
X64.243 Y20.13
X65.129 Y20.115
X66.015 Y20.104
X66.901 Y20.097
X67.787 Y20.092
X68.673 Y20.089
X70.445 Y20.085
X73.104 Y20.082
X82.851 Y20.081
X102.346
X152.855
X203.364
X253.873
X268.051
X268.937 Y20.077
X269.823 Y20.05
X270.706 Y19.978
X271.584 Y19.859
X272.457 Y19.705
X273.325 Y19.529
X274.192 Y19.345
X275.059 Y19.163
X275.928 Y18.99
X276.8 Y18.833
X277.675 Y18.693
X278.553 Y18.572
X279.433 Y18.47
X280.315 Y18.385
X281.199 Y18.316
X282.083 Y18.261
X282.968 Y18.218
X283.854 Y18.184
X284.739 Y18.158
X285.625 Y18.138
X286.511 Y18.123
X287.397 Y18.112
X288.283 Y18.103
X289.17 Y18.097
X290.056 Y18.093
X291.828 Y18.087
X294.486 Y18.083
X299.803 Y18.081
X304.234
X354.743
X405.252
X455.761
X491.206
X492.092 Y18.085
X492.978 Y18.098
X493.863 Y18.134
X494.746 Y18.213
X495.511 Y18.335
X496.067 Y18.47
X496.469 Y18.603
X496.827 Y18.753
X496.871 Y18.776
X497.083 Y18.917
X497.259 Y19.101
X497.391 Y19.318
X497.472 Y19.559
X497.5 Y19.811
Y21.683
G3 X496.983 Y22.165 I-0.5 J-0.017
G1 X496.896 Y22.162 Z-1.492
X496.812 Y22.159 Z-1.47
X496.733 Y22.156 Z-1.433
X496.662 Y22.154 Z-1.383
X496.6 Y22.152 Z-1.321
X496.55 Y22.15 Z-1.25
X496.513 Y22.149 Z-1.171
X496.491 Y22.148 Z-1.087
X496.483 Z-1
G0 Z5
X53.977 Y25.252
Z-0.5
G1 Z-1 F1000
X53.973 Y25.246 Z-1.087
X53.961 Y25.226 Z-1.171
X53.943 Y25.194 Z-1.25
X53.917 Y25.152 Z-1.321
X53.886 Y25.099 Z-1.383
X53.849 Y25.037 Z-1.433
X53.809 Y24.969 Z-1.47
X53.766 Y24.897 Z-1.492
X53.721 Y24.822 Z-1.5
G3 X53.5 Y24.069 I1.36 J-0.809
G1 Y22.659
X53.508 Y22.502
X53.529 Y22.342
X53.564 Y22.178
X53.621 Y21.987
X53.698 Y21.79
X53.803 Y21.573
X53.938 Y21.343
X54.106 Y21.104
X54.322 Y20.844
X54.574 Y20.586
X54.903 Y20.299
X55.267 Y20.029
X55.741 Y19.735
X56.29 Y19.451
X56.968 Y19.168
X57.81 Y18.893
X58.672 Y18.684
X59.544 Y18.527
X60.422 Y18.409
X61.304 Y18.321
X62.187 Y18.255
X63.072 Y18.207
X63.957 Y18.172
X64.843 Y18.146
X65.729 Y18.128
X66.615 Y18.114
X67.501 Y18.105
X68.387 Y18.098
X69.273 Y18.093
X70.16 Y18.089
X71.932 Y18.085
X74.59 Y18.082
X82.565 Y18.081
X102.06
X152.569
X203.078
X253.587
X265.993
X266.879
X267.765 Y18.075
X268.651 Y18.051
X269.535 Y17.999
X270.417 Y17.912
X271.295 Y17.793
X272.17 Y17.652
X273.042 Y17.495
X273.913 Y17.333
X274.785 Y17.171
X275.657 Y17.017
X276.532 Y16.873
X277.408 Y16.742
X278.286 Y16.626
X279.167 Y16.525
X280.049 Y16.439
X280.932 Y16.366
X281.816 Y16.306
X282.701 Y16.257
X283.586 Y16.218
X284.472 Y16.186
X285.357 Y16.161
X286.243 Y16.142
X287.129 Y16.127
X288.015 Y16.115
X288.901 Y16.107
X289.788 Y16.1
X290.674 Y16.095
X292.446 Y16.089
X295.104 Y16.084
X299.535 Y16.082
X303.965 Y16.081
X354.474
X404.983
X455.492
X489.165
X490.051 Y16.082
X490.937 Y16.085
X491.823 Y16.095
X492.709 Y16.119
X493.594 Y16.167
X494.476 Y16.25
X495.352 Y16.388
X495.956 Y16.533
X496.413 Y16.682
X496.786 Y16.838
X496.868 Y16.88
X497.081 Y17.021
X497.257 Y17.205
X497.39 Y17.422
X497.472 Y17.664
X497.5 Y17.917
Y19.811
G3 X496.983 Y20.294 I-0.5 J-0.017
G1 X496.896 Y20.291 Z-1.492
X496.812 Y20.288 Z-1.47
X496.733 Y20.285 Z-1.433
X496.662 Y20.282 Z-1.383
X496.6 Y20.28 Z-1.321
X496.55 Y20.279 Z-1.25
X496.513 Y20.277 Z-1.171
X496.491 Z-1.087
X496.483 Y20.276 Z-1
G0 Z5
X53.977 Y23.843
Z-0.5
G1 Z-1 F1000
X53.973 Y23.836 Z-1.087
X53.961 Y23.817 Z-1.171
X53.943 Y23.785 Z-1.25
X53.917 Y23.742 Z-1.321
X53.886 Y23.689 Z-1.383
X53.849 Y23.628 Z-1.433
X53.809 Y23.56 Z-1.47
X53.766 Y23.488 Z-1.492
X53.721 Y23.413 Z-1.5
G3 X53.5 Y22.659 I1.36 J-0.809
G1 Y21.049
X53.51 Y20.847
X53.531 Y20.687
X53.571 Y20.499
X53.629 Y20.305
X53.714 Y20.088
X53.827 Y19.855
X53.97 Y19.612
X54.158 Y19.344
X54.38 Y19.077
X54.669 Y18.78
X54.997 Y18.495
X55.426 Y18.177
X55.908 Y17.877
X56.509 Y17.567
X57.254 Y17.255
X58.097 Y16.98
X58.957 Y16.766
X59.827 Y16.6
X60.704 Y16.472
X61.585 Y16.374
X62.467 Y16.3
X63.352 Y16.244
X64.237 Y16.201
X65.122 Y16.169
X66.008 Y16.146
X66.894 Y16.128
X67.78 Y16.115
X68.666 Y16.106
X69.552 Y16.099
X70.439 Y16.094
X71.325 Y16.09
X73.097 Y16.086
X75.755 Y16.083
X82.844 Y16.081
X102.339
X152.848
X203.357
X253.866
X265.386
X266.272 Y16.078
X267.158 Y16.065
X268.043 Y16.035
X268.928 Y15.98
X269.81 Y15.898
X270.69 Y15.793
X271.567 Y15.667
X272.442 Y15.529
X273.317 Y15.384
X274.19 Y15.237
X275.065 Y15.093
X275.94 Y14.956
X276.817 Y14.829
X277.696 Y14.712
X278.576 Y14.609
X279.457 Y14.517
X280.34 Y14.438
X281.223 Y14.371
X282.107 Y14.314
X282.992 Y14.266
X283.878 Y14.227
X284.763 Y14.196
X285.649 Y14.17
X286.535 Y14.15
X287.421 Y14.134
X288.307 Y14.122
X289.193 Y14.112
X290.079 Y14.104
X290.965 Y14.099
X291.851 Y14.094
X293.623 Y14.088
X296.282 Y14.084
X300.712 Y14.082
X304.257 Y14.081
X354.766
X405.275
X455.784
X488.571
X489.457 Y14.083
X490.343 Y14.088
X491.229 Y14.1
X492.115 Y14.125
X493 Y14.17
X493.883 Y14.244
X494.761 Y14.358
X495.575 Y14.515
X496.138 Y14.671
X496.546 Y14.82
X496.821 Y14.947
X497.048 Y15.084
X497.238 Y15.269
X497.381 Y15.493
X497.47 Y15.743
X497.5 Y16.006
Y17.917
G3 X496.983 Y18.399 I-0.5 J-0.017
G1 X496.896 Y18.396 Z-1.492
X496.812 Y18.393 Z-1.47
X496.733 Y18.39 Z-1.433
X496.662 Y18.388 Z-1.383
X496.6 Y18.386 Z-1.321
X496.55 Y18.384 Z-1.25
X496.513 Y18.383 Z-1.171
X496.491 Y18.382 Z-1.087
X496.483 Z-1
G0 Z5
X53.977 Y22.232
Z-0.5
G1 Z-1 F1000
X53.973 Y22.225 Z-1.087
X53.961 Y22.206 Z-1.171
X53.943 Y22.174 Z-1.25
X53.917 Y22.131 Z-1.321
X53.886 Y22.078 Z-1.383
X53.849 Y22.017 Z-1.433
X53.809 Y21.949 Z-1.47
X53.766 Y21.877 Z-1.492
X53.721 Y21.802 Z-1.5
G3 X53.5 Y21.049 I1.36 J-0.809
G1 Y19.237
X53.507 Y19.087
X53.533 Y18.914
X53.579 Y18.719
X53.648 Y18.502
X53.741 Y18.277
X53.871 Y18.023
X54.026 Y17.77
X54.238 Y17.48
X54.479 Y17.201
X54.804 Y16.88
X55.163 Y16.578
X55.638 Y16.24
X56.173 Y15.921
X56.841 Y15.592
X57.665 Y15.266
X58.512 Y15.006
X59.374 Y14.799
X60.245 Y14.636
X61.122 Y14.508
X62.002 Y14.407
X62.885 Y14.329
X63.769 Y14.269
X64.654 Y14.223
X65.539 Y14.187
X66.425 Y14.16
X67.311 Y14.14
X68.197 Y14.125
X69.083 Y14.113
X69.969 Y14.105
X70.855 Y14.098
X71.741 Y14.094
X73.513 Y14.088
X76.172 Y14.084
X81.488 Y14.081
X101.869
X152.378
X202.887
X253.396
X264.03
X264.916 Y14.078
X265.802 Y14.071
X266.688 Y14.051
X267.573 Y14.015
X268.458 Y13.958
X269.34 Y13.88
X270.221 Y13.782
X271.1 Y13.668
X271.977 Y13.542
X272.853 Y13.41
X273.729 Y13.274
X274.605 Y13.141
X275.481 Y13.011
X276.359 Y12.889
X277.238 Y12.776
X278.118 Y12.672
X278.999 Y12.579
X279.882 Y12.497
X280.765 Y12.426
X281.649 Y12.364
X282.533 Y12.311
X283.418 Y12.267
X284.304 Y12.23
X285.189 Y12.2
X286.075 Y12.175
X286.961 Y12.155
X287.847 Y12.138
X288.733 Y12.126
X289.619 Y12.115
X290.505 Y12.107
X291.391 Y12.101
X292.277 Y12.096
X294.049 Y12.09
X296.708 Y12.085
X300.252 Y12.082
X303.797 Y12.081
X354.306
X404.815
X455.324
X487.224
X488.11 Y12.082
X488.997 Y12.085
X489.883 Y12.093
X490.769 Y12.107
X491.654 Y12.133
X492.539 Y12.178
X493.423 Y12.247
X494.303 Y12.349
X495.177 Y12.496
X495.882 Y12.667
X496.365 Y12.826
X496.763 Y12.994
X496.871 Y13.05
X497.083 Y13.191
X497.259 Y13.375
X497.391 Y13.592
X497.472 Y13.833
X497.5 Y14.085
Y16.006
G3 X496.983 Y16.489 I-0.5 J-0.017
G1 X496.896 Y16.486 Z-1.492
X496.812 Y16.483 Z-1.47
X496.733 Y16.48 Z-1.433
X496.662 Y16.477 Z-1.383
X496.6 Y16.475 Z-1.321
X496.55 Y16.474 Z-1.25
X496.513 Y16.472 Z-1.171
X496.491 Y16.471 Z-1.087
X496.483 Z-1
G0 Z5
X53.977 Y20.42
Z-0.5
G1 Z-1 F1000
X53.973 Y20.413 Z-1.087
X53.961 Y20.394 Z-1.171
X53.943 Y20.362 Z-1.25
X53.917 Y20.319 Z-1.321
X53.886 Y20.266 Z-1.383
X53.849 Y20.205 Z-1.433
X53.809 Y20.137 Z-1.47
X53.766 Y20.065 Z-1.492
X53.721 Y19.99 Z-1.5
G3 X53.5 Y19.237 I1.36 J-0.809
G1 Y17.515
X53.508 Y17.346
X53.532 Y17.163
X53.573 Y16.972
X53.637 Y16.759
X53.73 Y16.52
X53.848 Y16.278
X54.011 Y16
X54.202 Y15.729
X54.462 Y15.415
X54.753 Y15.116
X55.148 Y14.772
X55.581 Y14.452
X56.139 Y14.104
X56.82 Y13.753
X57.637 Y13.412
X58.479 Y13.136
X59.337 Y12.914
X60.205 Y12.736
X61.08 Y12.594
X61.959 Y12.481
X62.841 Y12.391
X63.724 Y12.32
X64.608 Y12.265
X65.493 Y12.222
X66.379 Y12.188
X67.265 Y12.162
X68.15 Y12.142
X69.036 Y12.127
X69.922 Y12.115
X70.809 Y12.107
X71.695 Y12.1
X72.581 Y12.095
X74.353 Y12.089
X77.011 Y12.084
X81.442 Y12.082
X101.823 Y12.081
X152.332
X202.841
X253.35
X262.211
X263.097 Y12.08
X263.983 Y12.078
X264.869 Y12.07
X265.755 Y12.053
X266.641 Y12.023
X267.526 Y11.977
X268.41 Y11.912
X269.292 Y11.829
X270.173 Y11.731
X271.052 Y11.62
X271.93 Y11.5
X272.807 Y11.376
X273.684 Y11.249
X274.561 Y11.125
X275.439 Y11.004
X276.318 Y10.89
X277.198 Y10.783
X278.078 Y10.685
X278.96 Y10.596
X279.843 Y10.516
X280.726 Y10.446
X281.61 Y10.385
X282.494 Y10.332
X283.379 Y10.287
X284.265 Y10.248
X285.15 Y10.216
X286.036 Y10.19
X286.922 Y10.168
X287.808 Y10.15
X288.694 Y10.135
X289.58 Y10.123
X290.466 Y10.114
X291.352 Y10.107
X292.238 Y10.101
X293.124 Y10.096
X294.896 Y10.09
X297.555 Y10.085
X301.099 Y10.082
X303.758
X354.267 Y10.081
X404.776
X455.285
X486.299 Y10.082
X487.185 Y10.083
X488.071 Y10.085
X488.957 Y10.092
X489.843 Y10.104
X490.729 Y10.125
X491.615 Y10.16
X492.499 Y10.213
X493.382 Y10.29
X494.261 Y10.398
X495.135 Y10.55
X495.859 Y10.727
X496.37 Y10.897
X496.759 Y11.062
X496.874 Y11.122
X497.084 Y11.263
X497.26 Y11.447
X497.391 Y11.664
X497.472 Y11.904
X497.5 Y12.156
Y14.085
G3 X496.983 Y14.568 I-0.5 J-0.017
G1 X496.896 Y14.565 Z-1.492
X496.812 Y14.562 Z-1.47
X496.733 Y14.559 Z-1.433
X496.662 Y14.556 Z-1.383
X496.6 Y14.554 Z-1.321
X496.55 Y14.552 Z-1.25
X496.513 Y14.551 Z-1.171
X496.491 Y14.55 Z-1.087
X496.483 Z-1
G0 Z5
X53.977 Y18.699
Z-0.5
G1 Z-1 F1000
X53.973 Y18.692 Z-1.087
X53.961 Y18.673 Z-1.171
X53.943 Y18.641 Z-1.25
X53.917 Y18.598 Z-1.321
X53.886 Y18.545 Z-1.383
X53.849 Y18.484 Z-1.433
X53.809 Y18.416 Z-1.47
X53.766 Y18.343 Z-1.492
X53.721 Y18.269 Z-1.5
G3 X53.5 Y17.515 I1.36 J-0.809
G1 Y15.703
X53.509 Y15.533
X53.533 Y15.344
X53.575 Y15.151
X53.641 Y14.928
X53.732 Y14.694
X53.856 Y14.44
X54.02 Y14.161
X54.219 Y13.877
X54.486 Y13.556
X54.789 Y13.245
X55.194 Y12.893
X55.647 Y12.557
X56.216 Y12.203
X56.919 Y11.84
X57.736 Y11.499
X58.577 Y11.22
X59.434 Y10.992
X60.3 Y10.807
X61.173 Y10.657
X62.051 Y10.536
X62.932 Y10.439
X63.815 Y10.362
X64.699 Y10.3
X65.584 Y10.251
X66.469 Y10.212
X67.354 Y10.182
X68.24 Y10.158
X69.126 Y10.14
X70.012 Y10.126
X70.898 Y10.115
X71.784 Y10.107
X72.67 Y10.1
X73.557 Y10.095
X75.329 Y10.089
X77.987 Y10.084
X82.418 Y10.082
X101.912 Y10.081
X152.421
X202.93
X253.44
X261.415
X262.301 Y10.08
X263.187 Y10.077
X264.073 Y10.069
X264.959 Y10.053
X265.845 Y10.027
X266.73 Y9.986
X267.614 Y9.929
X268.497 Y9.857
X269.379 Y9.77
X270.26 Y9.671
X271.139 Y9.563
X272.018 Y9.448
X273.774 Y9.211
X274.653 Y9.095
X275.532 Y8.982
X276.411 Y8.875
X277.292 Y8.775
X278.173 Y8.682
X279.055 Y8.598
X279.938 Y8.522
X280.822 Y8.454
X281.706 Y8.395
X282.59 Y8.343
X283.475 Y8.298
X284.361 Y8.26
X285.246 Y8.227
X286.132 Y8.2
X287.018 Y8.177
X287.903 Y8.158
X288.789 Y8.143
X289.675 Y8.13
X290.562 Y8.12
X291.448 Y8.111
X292.334 Y8.105
X293.22 Y8.1
X294.992 Y8.092
X296.764 Y8.088
X299.423 Y8.084
X303.853 Y8.082
X345.501 Y8.081
X354.362
X404.871
X455.38
X484.622
X486.395 Y8.083
X487.281 Y8.086
X488.167 Y8.092
X489.053 Y8.103
X489.939 Y8.121
X490.824 Y8.15
X491.71 Y8.195
X492.593 Y8.258
X493.475 Y8.346
X494.353 Y8.465
X495.224 Y8.628
X495.918 Y8.806
X496.415 Y8.978
X496.803 Y9.148
X496.886 Y9.192
X497.093 Y9.334
X497.265 Y9.517
X497.393 Y9.733
X497.473 Y9.97
X497.5 Y10.22
Y12.156
G3 X496.983 Y12.638 I-0.5 J-0.017
G1 X496.896 Y12.635 Z-1.492
X496.812 Y12.632 Z-1.47
X496.733 Y12.63 Z-1.433
X496.662 Y12.627 Z-1.383
X496.6 Y12.625 Z-1.321
X496.55 Y12.623 Z-1.25
X496.513 Y12.622 Z-1.171
X496.491 Y12.621 Z-1.087
X496.483 Z-1
G0 Z5
X53.977 Y16.887
Z-0.5
G1 Z-1 F1000
X53.973 Y16.88 Z-1.087
X53.961 Y16.861 Z-1.171
X53.943 Y16.829 Z-1.25
X53.917 Y16.786 Z-1.321
X53.886 Y16.733 Z-1.383
X53.849 Y16.672 Z-1.433
X53.809 Y16.604 Z-1.47
X53.766 Y16.531 Z-1.492
X53.721 Y16.457 Z-1.5
G3 X53.5 Y15.703 I1.36 J-0.809
G1 Y13.801
X53.507 Y13.651
X53.538 Y13.453
X53.585 Y13.252
X53.661 Y13.019
X53.761 Y12.777
X53.897 Y12.512
X54.075 Y12.224
X54.292 Y11.928
X54.578 Y11.598
X54.909 Y11.273
X55.337 Y10.915
X55.843 Y10.558
X56.452 Y10.197
X57.216 Y9.823
X58.041 Y9.499
X58.885 Y9.232
X59.744 Y9.012
X60.611 Y8.831
X61.485 Y8.683
X62.363 Y8.562
X63.243 Y8.464
X64.126 Y8.384
X65.01 Y8.32
X65.894 Y8.269
X66.78 Y8.228
X67.665 Y8.195
X68.551 Y8.17
X69.437 Y8.15
X70.323 Y8.134
X71.209 Y8.121
X72.095 Y8.112
X72.981 Y8.104
X73.867 Y8.099
X74.753 Y8.094
X76.525 Y8.089
X79.184 Y8.084
X83.614 Y8.082
X101.337 Y8.081
X151.846
X202.355
X252.864
X259.953
X260.839 Y8.08
X261.725 Y8.079
X262.611 Y8.074
X263.497 Y8.065
X264.383 Y8.049
X265.269 Y8.022
X266.154 Y7.983
X267.039 Y7.93
X267.922 Y7.863
X268.805 Y7.784
X269.686 Y7.693
X270.567 Y7.593
X271.447 Y7.486
X272.326 Y7.375
X274.084 Y7.152
X274.963 Y7.043
X275.843 Y6.938
X276.724 Y6.838
X277.605 Y6.746
X278.487 Y6.66
X279.369 Y6.581
X280.253 Y6.51
X281.137 Y6.447
X282.021 Y6.391
X282.906 Y6.341
X283.791 Y6.299
X284.676 Y6.262
X285.562 Y6.23
X286.447 Y6.203
X287.333 Y6.181
X288.219 Y6.162
X289.105 Y6.146
X289.991 Y6.133
X290.877 Y6.123
X291.763 Y6.114
X292.649 Y6.107
X293.536 Y6.102
X295.308 Y6.094
X297.08 Y6.089
X299.738 Y6.085
X303.283 Y6.082
X316.575 Y6.081
X353.792
X404.301
X454.81
X484.052
X485.824 Y6.084
X486.71 Y6.087
X487.596 Y6.093
X488.482 Y6.104
X489.368 Y6.122
X490.254 Y6.149
X491.139 Y6.189
X492.024 Y6.246
X492.906 Y6.324
X493.786 Y6.429
X494.661 Y6.568
X495.528 Y6.753
X496.135 Y6.931
X496.564 Y7.095
X496.837 Y7.226
X497.059 Y7.365
X497.244 Y7.55
X497.384 Y7.771
X497.471 Y8.018
X497.5 Y8.278
Y10.22
G3 X496.983 Y10.702 I-0.5 J-0.017
G1 X496.896 Y10.699 Z-1.492
X496.812 Y10.696 Z-1.47
X496.733 Y10.693 Z-1.433
X496.662 Y10.691 Z-1.383
X496.6 Y10.689 Z-1.321
X496.55 Y10.687 Z-1.25
X496.513 Y10.686 Z-1.171
X496.491 Y10.685 Z-1.087
X496.483 Z-1
G0 Z5
X53.977 Y14.984
Z-0.5
G1 Z-1 F1000
X53.973 Y14.977 Z-1.087
X53.961 Y14.958 Z-1.171
X53.943 Y14.926 Z-1.25
X53.917 Y14.883 Z-1.321
X53.886 Y14.83 Z-1.383
X53.849 Y14.769 Z-1.433
X53.809 Y14.701 Z-1.47
X53.766 Y14.629 Z-1.492
X53.721 Y14.554 Z-1.5
G3 X53.5 Y13.801 I1.36 J-0.809
G1 Y11.989
X53.508 Y11.828
X53.532 Y11.646
X53.578 Y11.433
X53.642 Y11.217
X53.739 Y10.967
X53.866 Y10.707
X54.032 Y10.425
X54.246 Y10.12
X54.507 Y9.806
X54.844 Y9.46
X55.238 Y9.116
X55.73 Y8.752
X56.343 Y8.371
X57.082 Y7.99
X57.899 Y7.648
X58.739 Y7.365
X59.593 Y7.131
X60.458 Y6.936
X61.329 Y6.776
X62.206 Y6.643
X63.085 Y6.534
X63.967 Y6.445
X64.85 Y6.372
X65.734 Y6.312
X66.619 Y6.264
X67.504 Y6.226
X68.39 Y6.195
X69.275 Y6.17
X70.161 Y6.15
X71.047 Y6.135
X71.933 Y6.123
X72.819 Y6.113
X73.705 Y6.106
X74.592 Y6.1
X75.478 Y6.095
X77.25 Y6.089
X79.908 Y6.085
X84.339 Y6.082
X102.061 Y6.081
X152.57
X203.079
X253.588
X258.905
X260.677 Y6.079
X261.563 Y6.075
X262.45 Y6.068
X263.336 Y6.055
X264.221 Y6.034
X265.107 Y6.003
X265.992 Y5.96
X266.877 Y5.905
X267.76 Y5.838
X268.643 Y5.76
X269.524 Y5.671
X270.405 Y5.575
X271.286 Y5.473
X272.165 Y5.368
X273.925 Y5.155
X274.805 Y5.051
X275.685 Y4.95
X276.566 Y4.855
X277.448 Y4.765
X278.33 Y4.681
X279.213 Y4.604
X280.096 Y4.534
X280.98 Y4.47
X281.864 Y4.414
X282.749 Y4.364
X283.634 Y4.32
X284.519 Y4.281
X285.405 Y4.248
X286.29 Y4.219
X287.176 Y4.195
X288.062 Y4.175
X288.948 Y4.157
X289.834 Y4.143
X290.72 Y4.131
X291.606 Y4.121
X292.492 Y4.113
X293.378 Y4.107
X294.264 Y4.101
X296.037 Y4.094
X297.809 Y4.089
X300.467 Y4.085
X304.012 Y4.082
X316.417 Y4.081
X354.521
X405.03
X455.539
X483.009
X484.781 Y4.083
X485.667 Y4.086
X486.553 Y4.091
X487.439 Y4.099
X488.325 Y4.113
X489.211 Y4.134
X490.097 Y4.164
X490.982 Y4.208
X491.866 Y4.267
X492.748 Y4.346
X493.629 Y4.449
X494.504 Y4.583
X495.372 Y4.762
X496.053 Y4.954
X496.501 Y5.12
X496.886 Y5.3
X496.909 Y5.313
X497.109 Y5.456
X497.274 Y5.638
X497.398 Y5.85
X497.474 Y6.084
X497.5 Y6.328
Y8.278
G3 X496.983 Y8.761 I-0.5 J-0.017
G1 X496.896 Y8.758 Z-1.492
X496.812 Y8.755 Z-1.47
X496.733 Y8.752 Z-1.433
X496.662 Y8.75 Z-1.383
X496.6 Y8.747 Z-1.321
X496.55 Y8.746 Z-1.25
X496.513 Y8.744 Z-1.171
X496.491 Z-1.087
X496.483 Y8.743 Z-1
G0 Z5
X53.977 Y13.172
Z-0.5
G1 Z-1 F1000
X53.973 Y13.165 Z-1.087
X53.961 Y13.146 Z-1.171
X53.943 Y13.114 Z-1.25
X53.917 Y13.071 Z-1.321
X53.886 Y13.018 Z-1.383
X53.849 Y12.957 Z-1.433
X53.809 Y12.889 Z-1.47
X53.766 Y12.817 Z-1.492
X53.721 Y12.742 Z-1.5
G3 X53.5 Y11.989 I1.36 J-0.809
G1 Y10.177
X53.511 Y9.954
X53.536 Y9.763
X53.58 Y9.557
X53.647 Y9.335
X53.746 Y9.079
X53.87 Y8.825
X54.046 Y8.526
X54.252 Y8.232
X54.53 Y7.898
X54.856 Y7.563
X55.28 Y7.193
X55.761 Y6.837
X56.378 Y6.453
X57.137 Y6.062
X57.955 Y5.72
X58.793 Y5.435
X59.647 Y5.196
X60.51 Y4.997
X61.381 Y4.832
X62.256 Y4.694
X63.135 Y4.579
X64.016 Y4.485
X64.899 Y4.407
X65.783 Y4.343
X66.667 Y4.291
X67.552 Y4.249
X68.438 Y4.214
X69.323 Y4.186
X70.209 Y4.164
X71.095 Y4.146
X71.981 Y4.132
X72.867 Y4.121
X73.753 Y4.112
X74.639 Y4.105
X75.526 Y4.099
X77.298 Y4.092
X79.07 Y4.087
X81.728 Y4.084
X87.045 Y4.082
X101.223 Y4.081
X151.732
X202.241
X252.75
X253.636
X253.857 Y4.065
X254.128 Y4.047
X254.433 Y4.029
X254.782 Y4.011
X255.189 Y3.993
X255.678 Y3.975
X256.292 Y3.956
X257.122 Y3.938
X258.008 Y3.924
X258.895 Y3.915
X260.667 Y3.902
X261.553 Y3.893
X262.439 Y3.88
X263.325 Y3.862
X264.21 Y3.835
X265.096 Y3.799
X265.981 Y3.751
X266.865 Y3.693
X267.748 Y3.623
X268.631 Y3.544
X269.182 Y3.489
X270.063 Y3.398
X270.944 Y3.302
X271.825 Y3.202
X273.585 Y2.998
X274.466 Y2.898
X275.346 Y2.801
X276.228 Y2.708
X277.109 Y2.619
X277.992 Y2.537
X278.874 Y2.46
X279.758 Y2.389
X280.642 Y2.325
X281.526 Y2.267
X282.41 Y2.215
X283.295 Y2.169
X284.18 Y2.128
X285.066 Y2.092
X285.951 Y2.062
X286.837 Y2.035
X287.723 Y2.012
X288.609 Y1.993
X289.495 Y1.976
X290.381 Y1.963
X291.267 Y1.951
X292.153 Y1.942
X293.039 Y1.934
X293.925 Y1.927
X295.697 Y1.918
X297.47 Y1.911
X300.128 Y1.906
X302.786 Y1.903
X309.875 Y1.901
X353.295
X403.804
X454.313
X481.783
X483.555 Y1.903
X484.442 Y1.905
X485.328 Y1.908
X486.214 Y1.914
X487.1 Y1.924
X487.986 Y1.938
X488.872 Y1.96
X489.757 Y1.991
X490.642 Y2.034
X491.527 Y2.091
X492.41 Y2.165
X493.291 Y2.261
X494.168 Y2.387
X494.339 Y2.419
X494.486 Y2.447
X494.633 Y2.478
X494.78 Y2.509
X494.926 Y2.542
X495.072 Y2.576
X495.218 Y2.612
X495.363 Y2.649
X495.508 Y2.688
X495.652 Y2.729
X495.796 Y2.771
X495.939 Y2.816
X496.082 Y2.864
X496.223 Y2.914
X496.363 Y2.967
X496.502 Y3.024
X496.64 Y3.083
X496.776 Y3.147
X496.855 Y3.187
X497.072 Y3.327
X497.252 Y3.511
X497.388 Y3.73
X497.472 Y3.974
X497.5 Y4.23
Y6.328
G3 X496.983 Y6.81 I-0.5 J-0.017
G1 X496.896 Y6.807 Z-1.492
X496.812 Y6.804 Z-1.47
X496.733 Y6.801 Z-1.433
X496.662 Y6.799 Z-1.383
X496.6 Y6.797 Z-1.321
X496.55 Y6.795 Z-1.25
X496.513 Y6.794 Z-1.171
X496.491 Y6.793 Z-1.087
X496.483 Z-1
G0 Z5
X53.977 Y11.36
Z-0.5
G1 Z-1 F1000
X53.973 Y11.353 Z-1.087
X53.961 Y11.334 Z-1.171
X53.943 Y11.302 Z-1.25
X53.917 Y11.259 Z-1.321
X53.886 Y11.206 Z-1.383
X53.849 Y11.145 Z-1.433
X53.809 Y11.077 Z-1.47
X53.766 Y11.005 Z-1.492
X53.721 Y10.93 Z-1.5
G3 X53.5 Y10.177 I1.36 J-0.809
G1 Y8.254
X53.509 Y8.069
X53.518 Y7.919
X53.537 Y7.77
X53.564 Y7.623
X53.6 Y7.477
X53.645 Y7.334
X53.695 Y7.193
X53.753 Y7.054
X53.816 Y6.918
X53.885 Y6.785
X53.959 Y6.655
X54.038 Y6.527
X54.12 Y6.402
X54.207 Y6.28
X54.299 Y6.16
X54.393 Y6.044
X54.491 Y5.93
X54.592 Y5.819
X54.695 Y5.71
X54.801 Y5.604
X54.91 Y5.501
X55.022 Y5.401
X55.135 Y5.303
X55.251 Y5.207
X55.368 Y5.114
X55.487 Y5.023
X55.608 Y4.934
X55.731 Y4.848
X55.856 Y4.764
X55.981 Y4.683
X56.108 Y4.603
X56.237 Y4.525
X56.366 Y4.45
X56.497 Y4.376
X56.629 Y4.305
X56.762 Y4.235
X56.896 Y4.167
X57.03 Y4.101
X57.166 Y4.037
X57.302 Y3.975
X57.439 Y3.914
X57.577 Y3.855
X57.716 Y3.797
X57.855 Y3.741
X57.995 Y3.687
X58.135 Y3.634
X58.276 Y3.582
X58.417 Y3.532
X58.559 Y3.483
X58.701 Y3.436
X58.844 Y3.39
X58.987 Y3.345
X59.131 Y3.301
X59.275 Y3.259
X59.419 Y3.218
X59.569 Y3.176
X59.714 Y3.137
X59.859 Y3.099
X60.006 Y3.062
X60.163 Y3.024
X60.331 Y2.984
X60.509 Y2.943
X60.666 Y2.908
X60.834 Y2.872
X61.016 Y2.835
X61.213 Y2.796
X61.422 Y2.756
X61.611 Y2.721
X61.817 Y2.685
X62.042 Y2.647
X62.291 Y2.607
X62.515 Y2.573
X62.761 Y2.537
X63.035 Y2.499
X63.317 Y2.462
X63.598 Y2.428
X63.917 Y2.391
X64.25 Y2.355
X64.591 Y2.32
X64.989 Y2.283
X65.374 Y2.25
X65.829 Y2.214
X66.295 Y2.181
X66.841 Y2.146
X67.418 Y2.113
X68.087 Y2.08
X68.866 Y2.047
X69.752 Y2.017
X70.638 Y1.992
X71.524 Y1.973
X72.41 Y1.958
X73.296 Y1.945
X74.182 Y1.936
X75.068 Y1.928
X75.954 Y1.922
X76.84 Y1.917
X78.612 Y1.911
X81.271 Y1.905
X84.815 Y1.903
X94.563 Y1.901
X101.652
X152.161
X202.67
X251.406
X252.292 Y1.893
X253.178 Y1.87
X254.064 Y1.843
X254.95 Y1.817
X255.836 Y1.794
X256.721 Y1.775
X257.607 Y1.76
X258.493 Y1.748
X260.266 Y1.727
X261.152 Y1.715
X262.038 Y1.7
X262.923 Y1.678
X263.809 Y1.65
X264.695 Y1.613
X265.579 Y1.566
X266.464 Y1.509
X266.574 Y1.501
G0 Z5
X53.977 Y9.437
Z-0.5
G1 Z-1 F1000
X53.973 Y9.431 Z-1.087
X53.961 Y9.411 Z-1.171
X53.943 Y9.38 Z-1.25
X53.917 Y9.337 Z-1.321
X53.886 Y9.284 Z-1.383
X53.849 Y9.222 Z-1.433
X53.809 Y9.154 Z-1.47
X53.766 Y9.082 Z-1.492
X53.721 Y9.007 Z-1.5
G3 X53.5 Y8.254 I1.36 J-0.809
G1 Y6.24
X53.509 Y6.052
X53.534 Y5.863
X53.579 Y5.654
X53.647 Y5.426
X53.744 Y5.177
X53.875 Y4.908
X54.045 Y4.618
X54.263 Y4.308
X54.537 Y3.979
X54.878 Y3.629
X54.983 Y3.537
X55.094 Y3.444
X55.559 Y3.069
X56.134 Y2.678
X56.23 Y2.623
G3 X56.905 Y2.833 Z-1.3 I0.232 J0.443
X56.856 Y3.373 I-0.443 J0.233
G1 X54.394 Y6.53
G3 X54.017 Y6.723 I-0.394 J-0.307
X53.5 Y6.24 Z-1.5 I-0.017 J-0.5
G1 Y4.338
X53.509 Y4.154
X53.533 Y3.973
X53.577 Y3.765
X53.65 Y3.523
X53.73 Y3.316
X53.77 Y3.099
X53.768 Y2.877
X53.724 Y2.66
X53.612 Y2.386
X53.55 Y2.202
X53.513 Y2.011
X53.5 Y1.817
G3 X54.017 Y1.335 Z-1.3 I0.5 J0.017
X54.5 Y1.834 I-0.017 J0.5
G1 Y4.32
G3 X54.017 Y4.82 I-0.5 J0
X53.5 Y4.338 Z-1.5 I-0.017 J-0.5
G1 Y1.006
G3 X54.017 Y0.523 I0.5 J0.017
G1 X54.104 Y0.526 Z-1.492
X54.188 Y0.529 Z-1.47
X54.267 Y0.532 Z-1.433
X54.338 Y0.535 Z-1.383
X54.4 Y0.537 Z-1.321
X54.45 Y0.539 Z-1.25
X54.487 Y0.54 Z-1.171
X54.509 Y0.541 Z-1.087
X54.517 Z-1
G0 Z5
X497.023 Y-2.623
Z-0.5
G1 Z-1 F1000
X497.027 Y-2.617 Z-1.087
X497.039 Y-2.597 Z-1.171
X497.057 Y-2.566 Z-1.25
X497.083 Y-2.523 Z-1.321
X497.114 Y-2.47 Z-1.383
X497.151 Y-2.409 Z-1.433
X497.191 Y-2.341 Z-1.47
X497.234 Y-2.268 Z-1.492
X497.279 Y-2.194 Z-1.5
G3 X497.5 Y-1.44 I-1.36 J0.809
G1 Y4.23
G3 X496.983 Y4.712 I-0.5 J-0.017
G1 X496.896 Y4.709 Z-1.492
X496.812 Y4.706 Z-1.47
X496.733 Y4.703 Z-1.433
X496.662 Y4.701 Z-1.383
X496.6 Y4.699 Z-1.321
X496.55 Y4.697 Z-1.25
X496.513 Y4.696 Z-1.171
X496.491 Y4.695 Z-1.087
X496.483 Z-1
G0 Z15

(2D Pocket3)
X51.981 Y391.405
Z15
Z5
G1 Z2.974 F333.3
X51.962 Y391.39 Z2.821
X51.91 Y391.344 Z2.682
X51.83 Y391.269 Z2.572
X51.735 Y391.169 Z2.5
G3 X55.265 Y387.991 Z0 I1.765 J-1.589
X55.4 Y391.005 Z-1.095 I-1.765 J1.589
X51.6 Y391.005 Z-2.571 I-1.9 J-1.425
X53.5 Y387.205 Z-4.333 I1.9 J-1.425
G1 X114.476 F1000
G3 X114.795 Y387.524 I0 J0.319
G1 Y389.476
G3 X114.476 Y389.795 I-0.319 J0
G1 X52.524
G3 X52.205 Y389.476 I0 J-0.319
G1 Y387.524
G3 X52.524 Y387.205 I0.319 J0
G1 X53.5
G2 X55.675 Y385.755 I0 J-2.356
G3 X57.85 Y384.305 I2.175 J0.906
G1 X117.376
G3 X117.695 Y384.624 I0 J0.319
G1 Y392.376
G3 X117.376 Y392.695 I-0.319 J0
G1 X49.624
G3 X49.305 Y392.376 I0 J-0.319
G1 Y384.624
G3 X49.624 Y384.305 I0.319 J0
G1 X57.85
G2 X60.025 Y382.855 I0 J-2.356
G3 X62.2 Y381.405 I2.175 J0.906
G1 X120.276
G3 X120.595 Y381.724 I0 J0.319
G1 Y395.276
G3 X120.276 Y395.595 I-0.319 J0
G1 X46.724
G3 X46.405 Y395.276 I0 J-0.319
G1 Y381.724
G3 X46.724 Y381.405 I0.319 J0
G1 X62.2
G2 X64.379 Y379.953 I0 J-2.36
G3 X66.558 Y378.5 I2.179 J0.908
G1 X123.5
Y398.5
X43.5
Y378.5
X66.558
G3 X68.931 Y380.948 Z-4.922 I0 J2.375 F333.3
X66.412 Y383.246 Z-5.51 I-2.374 J-0.073
G1 X53.646 Y382.46 Z-7.49
G2 X51.126 Y384.757 Z-8.078 I-0.146 J2.37
X53.5 Y387.205 Z-8.667 I2.374 J0.073
G1 X114.476 F1000
G3 X114.795 Y387.524 I0 J0.319
G1 Y389.476
G3 X114.476 Y389.795 I-0.319 J0
G1 X52.524
G3 X52.205 Y389.476 I0 J-0.319
G1 Y387.524
G3 X52.524 Y387.205 I0.319 J0
G1 X53.5
G2 X55.675 Y385.755 I0 J-2.356
G3 X57.85 Y384.305 I2.175 J0.906
G1 X117.376
G3 X117.695 Y384.624 I0 J0.319
G1 Y392.376
G3 X117.376 Y392.695 I-0.319 J0
G1 X49.624
G3 X49.305 Y392.376 I0 J-0.319
G1 Y384.624
G3 X49.624 Y384.305 I0.319 J0
G1 X57.85
G2 X60.025 Y382.855 I0 J-2.356
G3 X62.2 Y381.405 I2.175 J0.906
G1 X120.276
G3 X120.595 Y381.724 I0 J0.319
G1 Y395.276
G3 X120.276 Y395.595 I-0.319 J0
G1 X46.724
G3 X46.405 Y395.276 I0 J-0.319
G1 Y381.724
G3 X46.724 Y381.405 I0.319 J0
G1 X62.2
G2 X64.379 Y379.953 I0 J-2.36
G3 X66.558 Y378.5 I2.179 J0.908
G1 X123.5
Y398.5
X43.5
Y378.5
X66.558
G3 X68.931 Y380.948 Z-9.255 I0 J2.375 F333.3
X66.412 Y383.246 Z-9.844 I-2.374 J-0.073
G1 X53.646 Y382.46 Z-11.823
G2 X51.126 Y384.757 Z-12.411 I-0.146 J2.37
X53.5 Y387.205 Z-13 I2.374 J0.073
G1 X114.476 F1000
G3 X114.795 Y387.524 I0 J0.319
G1 Y389.476
G3 X114.476 Y389.795 I-0.319 J0
G1 X52.524
G3 X52.205 Y389.476 I0 J-0.319
G1 Y387.524
G3 X52.524 Y387.205 I0.319 J0
G1 X53.5
G2 X55.675 Y385.755 I0 J-2.356
G3 X57.85 Y384.305 I2.175 J0.906
G1 X117.376
G3 X117.695 Y384.624 I0 J0.319
G1 Y392.376
G3 X117.376 Y392.695 I-0.319 J0
G1 X49.624
G3 X49.305 Y392.376 I0 J-0.319
G1 Y384.624
G3 X49.624 Y384.305 I0.319 J0
G1 X57.85
G2 X60.025 Y382.855 I0 J-2.356
G3 X62.2 Y381.405 I2.175 J0.906
G1 X120.276
G3 X120.595 Y381.724 I0 J0.319
G1 Y395.276
G3 X120.276 Y395.595 I-0.319 J0
G1 X46.724
G3 X46.405 Y395.276 I0 J-0.319
G1 Y381.724
G3 X46.724 Y381.405 I0.319 J0
G1 X62.2
G2 X64.379 Y379.953 I0 J-2.36
G3 X66.558 Y378.5 I2.179 J0.908
G1 X123.5
Y398.5
X43.5
Y378.5
X66.558
X66.621 Y378.504 Z-12.987
X66.684 Y378.516 Z-12.975
X66.744 Y378.536 Z-12.962
X66.817 Y378.572 Z-12.908
X66.882 Y378.62 Z-12.854
X66.922 Y378.657 Z-12.772
X66.956 Y378.699 Z-12.691
X66.978 Y378.73 Z-12.5
G0 Z15

(2D Contour3)
X509.514 Y183
Z15
Z5
G1 Z-4 F333.3
Y325.919 F1000
X41.486
Y40.081
X509.514
Y183
Z-8 F333.3
Y325.919 F1000
X41.486
Y40.081
X509.514
Y183
Z-12 F333.3
Y325.919 F1000
X41.486
Y40.081
X509.514
Y183
Z-13 F333.3
Y325.919 F1000
X41.486
Y40.081
X509.514
Y183
G0 Z15

(2D Contour4)
X-1.5 Y211
Z15
Z5
G1 Z-4 F333.3
Y401.5 F1000
G2 X20.5 Y423.5 I22 J0
G1 X148.251
G2 X194.867 Y395.15 I0 J-52.5
G3 X237.043 Y369.5 I42.176 J21.85
G1 X530.5
G2 X552.5 Y347.5 I0 J-22
G1 Y20.5
G2 X530.5 Y-1.5 I-22 J0
G1 X20.5
G2 X-1.5 Y20.5 I0 J22
G1 Y211
Z-8 F333.3
Y401.5 F1000
G2 X20.5 Y423.5 I22 J0
G1 X148.251
G2 X194.867 Y395.15 I0 J-52.5
G3 X237.043 Y369.5 I42.176 J21.85
G1 X530.5
G2 X552.5 Y347.5 I0 J-22
G1 Y20.5
G2 X530.5 Y-1.5 I-22 J0
G1 X20.5
G2 X-1.5 Y20.5 I0 J22
G1 Y211
Z-12 F333.3
Y401.5 F1000
G2 X20.5 Y423.5 I22 J0
G1 X148.251
G2 X194.867 Y395.15 I0 J-52.5
G3 X237.043 Y369.5 I42.176 J21.85
G1 X530.5
G2 X552.5 Y347.5 I0 J-22
G1 Y20.5
G2 X530.5 Y-1.5 I-22 J0
G1 X20.5
G2 X-1.5 Y20.5 I0 J22
G1 Y211
Z-13 F333.3
Y401.5 F1000
G2 X20.5 Y423.5 I22 J0
G1 X148.251
G2 X194.867 Y395.15 I0 J-52.5
G3 X237.043 Y369.5 I42.176 J21.85
G1 X530.5
G2 X552.5 Y347.5 I0 J-22
G1 Y20.5
G2 X530.5 Y-1.5 I-22 J0
G1 X20.5
G2 X-1.5 Y20.5 I0 J22
G1 Y211
G0 Z15
M9
M5
M30
