(CamperKuchenregaleSeitenwandLang)
(T4 D=5 CR=0 - ZMIN=-13 - flat end mill)
G90 G94
G17
G21
(-Attention- Property Safe Retracts is set to Clearance Height.)
(Ensure the clearance height will clear the part and or fixtures.)
(Raise the Z-axis to a safe height before starting the program.)

(Bore1 2)
T4
S5000 M3
G17 G90 G94
G54
M8
G0 X242.64 Y548.204
Z15
G0 Z2
G1 Z0.5 F1000
G18 G3 X242.14 Z0 I-0.5 K0
G1 X241.89
G17 G3 X241.39 Y547.704 I0 J-0.5
X244.19 Y547.704 Z-3.9 I1.4 J0
X242.621 Y549.094 Z-6 I-1.4 J0
X242.959 Y546.314 I0.169 J-1.39
X242.621 Y549.094 I-0.169 J1.39
X242.185 Y548.537 I0.06 J-0.496
G1 X242.215 Y548.289
X242.226 Y548.203 Z-5.992
X242.236 Y548.119 Z-5.97
X242.245 Y548.041 Z-5.933
X242.254 Y547.97 Z-5.883
X242.261 Y547.909 Z-5.821
X242.267 Y547.859 Z-5.75
X242.272 Y547.823 Z-5.671
X242.274 Y547.8 Z-5.587
X242.275 Y547.793 Z-5.5
G0 Z5
X192.64 Y548.204
Z2
G1 Z0.5 F1000
G18 G3 X192.14 Z0 I-0.5 K0
G1 X191.89
G17 G3 X191.39 Y547.704 I0 J-0.5
X194.19 Y547.704 Z-3.9 I1.4 J0
X192.621 Y549.094 Z-6 I-1.4 J0
X192.959 Y546.314 I0.169 J-1.39
X192.621 Y549.094 I-0.169 J1.39
X192.185 Y548.537 I0.06 J-0.496
G1 X192.215 Y548.289
X192.226 Y548.203 Z-5.992
X192.236 Y548.119 Z-5.97
X192.245 Y548.041 Z-5.933
X192.254 Y547.97 Z-5.883
X192.261 Y547.909 Z-5.821
X192.267 Y547.859 Z-5.75
X192.272 Y547.823 Z-5.671
X192.274 Y547.8 Z-5.587
X192.275 Y547.793 Z-5.5
G0 Z5
X142.64 Y548.204
Z2
G1 Z0.5 F1000
G18 G3 X142.14 Z0 I-0.5 K0
G1 X141.89
G17 G3 X141.39 Y547.704 I0 J-0.5
X144.19 Y547.704 Z-3.9 I1.4 J0
X142.621 Y549.094 Z-6 I-1.4 J0
X142.959 Y546.314 I0.169 J-1.39
X142.621 Y549.094 I-0.169 J1.39
X142.185 Y548.537 I0.06 J-0.496
G1 X142.215 Y548.289
X142.226 Y548.203 Z-5.992
X142.236 Y548.119 Z-5.97
X142.245 Y548.041 Z-5.933
X142.254 Y547.97 Z-5.883
X142.261 Y547.909 Z-5.821
X142.267 Y547.859 Z-5.75
X142.272 Y547.823 Z-5.671
X142.274 Y547.8 Z-5.587
X142.275 Y547.793 Z-5.5
G0 Z5
X92.64 Y548.204
Z2
G1 Z0.5 F1000
G18 G3 X92.14 Z0 I-0.5 K0
G1 X91.89
G17 G3 X91.39 Y547.704 I0 J-0.5
X94.19 Y547.704 Z-3.9 I1.4 J0
X92.621 Y549.094 Z-6 I-1.4 J0
X92.958 Y546.314 I0.169 J-1.39
X92.621 Y549.094 I-0.169 J1.39
X92.185 Y548.537 I0.06 J-0.496
G1 X92.215 Y548.289
X92.226 Y548.203 Z-5.992
X92.236 Y548.119 Z-5.97
X92.245 Y548.041 Z-5.933
X92.254 Y547.97 Z-5.883
X92.261 Y547.909 Z-5.821
X92.267 Y547.859 Z-5.75
X92.272 Y547.823 Z-5.671
X92.274 Y547.8 Z-5.587
X92.275 Y547.793 Z-5.5
G0 Z5
X42.64 Y548.204
Z2
G1 Z0.5 F1000
G18 G3 X42.14 Z0 I-0.5 K0
G1 X41.89
G17 G3 X41.39 Y547.704 I0 J-0.5
X44.19 Y547.704 Z-3.9 I1.4 J0
X42.621 Y549.094 Z-6 I-1.4 J0
X42.958 Y546.314 I0.169 J-1.39
X42.621 Y549.094 I-0.169 J1.39
X42.185 Y548.537 I0.06 J-0.496
G1 X42.215 Y548.289
X42.226 Y548.203 Z-5.992
X42.236 Y548.119 Z-5.97
X42.245 Y548.041 Z-5.933
X42.254 Y547.97 Z-5.883
X42.261 Y547.909 Z-5.821
X42.267 Y547.859 Z-5.75
X42.272 Y547.823 Z-5.671
X42.274 Y547.8 Z-5.587
X42.275 Y547.793 Z-5.5
G0 Z5
X42.006 Y181.827
Z2
G1 Z0.5 F1000
G18 G3 X41.506 Z0 I-0.5 K0
G1 X41.256
G17 G3 X40.756 Y181.327 I0 J-0.5
X43.556 Y181.327 Z-3.9 I1.4 J0
X41.987 Y182.717 Z-6 I-1.4 J0
X42.325 Y179.937 I0.169 J-1.39
X41.987 Y182.717 I-0.169 J1.39
X41.551 Y182.16 I0.06 J-0.496
G1 X41.581 Y181.912
X41.592 Y181.826 Z-5.992
X41.602 Y181.742 Z-5.97
X41.611 Y181.664 Z-5.933
X41.62 Y181.593 Z-5.883
X41.627 Y181.532 Z-5.821
X41.633 Y181.482 Z-5.75
X41.638 Y181.446 Z-5.671
X41.641 Y181.423 Z-5.587
Y181.416 Z-5.5
G0 Z5
X92.006 Y181.827
Z2
G1 Z0.5 F1000
G18 G3 X91.506 Z0 I-0.5 K0
G1 X91.256
G17 G3 X90.756 Y181.327 I0 J-0.5
X93.556 Y181.327 Z-3.9 I1.4 J0
X91.987 Y182.717 Z-6 I-1.4 J0
X92.325 Y179.937 I0.169 J-1.39
X91.987 Y182.717 I-0.169 J1.39
X91.551 Y182.16 I0.06 J-0.496
G1 X91.581 Y181.912
X91.592 Y181.826 Z-5.992
X91.602 Y181.742 Z-5.97
X91.611 Y181.664 Z-5.933
X91.62 Y181.593 Z-5.883
X91.627 Y181.532 Z-5.821
X91.633 Y181.482 Z-5.75
X91.638 Y181.446 Z-5.671
X91.641 Y181.423 Z-5.587
Y181.416 Z-5.5
G0 Z5
X142.006 Y181.827
Z2
G1 Z0.5 F1000
G18 G3 X141.506 Z0 I-0.5 K0
G1 X141.256
G17 G3 X140.756 Y181.327 I0 J-0.5
X143.556 Y181.327 Z-3.9 I1.4 J0
X141.987 Y182.717 Z-6 I-1.4 J0
X142.325 Y179.937 I0.169 J-1.39
X141.987 Y182.717 I-0.169 J1.39
X141.551 Y182.16 I0.06 J-0.496
G1 X141.581 Y181.912
X141.592 Y181.826 Z-5.992
X141.602 Y181.742 Z-5.97
X141.611 Y181.664 Z-5.933
X141.62 Y181.593 Z-5.883
X141.627 Y181.532 Z-5.821
X141.633 Y181.482 Z-5.75
X141.638 Y181.446 Z-5.671
X141.641 Y181.423 Z-5.587
Y181.416 Z-5.5
G0 Z5
X192.006 Y181.827
Z2
G1 Z0.5 F1000
G18 G3 X191.506 Z0 I-0.5 K0
G1 X191.256
G17 G3 X190.756 Y181.327 I0 J-0.5
X193.556 Y181.327 Z-3.9 I1.4 J0
X191.987 Y182.717 Z-6 I-1.4 J0
X192.325 Y179.937 I0.169 J-1.39
X191.987 Y182.717 I-0.169 J1.39
X191.551 Y182.16 I0.06 J-0.496
G1 X191.581 Y181.912
X191.592 Y181.826 Z-5.992
X191.602 Y181.742 Z-5.97
X191.611 Y181.664 Z-5.933
X191.62 Y181.593 Z-5.883
X191.627 Y181.532 Z-5.821
X191.633 Y181.482 Z-5.75
X191.638 Y181.446 Z-5.671
X191.641 Y181.423 Z-5.587
Y181.416 Z-5.5
G0 Z5
X242.006 Y181.827
Z2
G1 Z0.5 F1000
G18 G3 X241.506 Z0 I-0.5 K0
G1 X241.256
G17 G3 X240.756 Y181.327 I0 J-0.5
X243.556 Y181.327 Z-3.9 I1.4 J0
X241.987 Y182.717 Z-6 I-1.4 J0
X242.325 Y179.937 I0.169 J-1.39
X241.987 Y182.717 I-0.169 J1.39
X241.551 Y182.16 I0.06 J-0.496
G1 X241.581 Y181.912
X241.592 Y181.826 Z-5.992
X241.602 Y181.742 Z-5.97
X241.611 Y181.664 Z-5.933
X241.62 Y181.593 Z-5.883
X241.627 Y181.532 Z-5.821
X241.633 Y181.482 Z-5.75
X241.638 Y181.446 Z-5.671
X241.641 Y181.423 Z-5.587
Y181.416 Z-5.5
G0 Z15

(2D Contour1 2)
G0 X109.701 Y440.427
Z15
Z5
G1 Z-5 F333.3
X110.793 Y441.195 F1000
X110.81 Y441.207
X111.98 Y442.015
X111.998 Y442.027
X113.173 Y442.824
X113.188 Y442.835
X114.366 Y443.621
X114.384 Y443.632
X115.566 Y444.406
X115.584 Y444.418
X116.771 Y445.181
X116.787 Y445.191
X117.977 Y445.943
X117.995 Y445.954
X119.189 Y446.695
X119.206 Y446.706
X120.404 Y447.436
X120.422 Y447.446
X121.624 Y448.165
X121.641 Y448.176
X122.847 Y448.884
X122.863 Y448.893
X124.072 Y449.591
X124.089 Y449.601
X125.301 Y450.288
X125.319 Y450.298
X126.535 Y450.974
X126.552 Y450.983
X127.772 Y451.649
X127.788 Y451.658
X129.011 Y452.314
X129.028 Y452.323
X130.254 Y452.969
X130.271 Y452.978
X131.501 Y453.614
X131.516 Y453.621
X132.749 Y454.248
X132.767 Y454.258
X134.003 Y454.874
X134.018 Y454.881
X135.257 Y455.488
X135.281 Y455.499
X137.769 Y456.686
X137.8 Y456.701
X140.299 Y457.851
X140.33 Y457.865
X142.842 Y458.98
X142.871 Y458.993
X145.393 Y460.074
X145.421 Y460.086
X147.954 Y461.135
X147.982 Y461.146
X150.526 Y462.164
X150.553 Y462.174
X153.106 Y463.163
X153.131 Y463.172
X155.695 Y464.132
X155.719 Y464.141
X158.291 Y465.074
X158.315 Y465.083
X160.897 Y465.99
X160.919 Y465.997
X163.509 Y466.88
X163.531 Y466.887
X166.13 Y467.747
X166.151 Y467.754
X168.758 Y468.591
X168.776 Y468.597
X171.39 Y469.414
X171.408 Y469.42
X174.03 Y470.218
X174.048 Y470.223
X176.678 Y471.002
X176.694 Y471.007
X179.33 Y471.769
X179.346 Y471.773
X181.989 Y472.518
X182.003 Y472.522
X184.652 Y473.252
X184.665 Y473.256
X187.321 Y473.972
X187.335 Y473.976
X189.997 Y474.677
X190.009 Y474.68
X192.677 Y475.369
X192.688 Y475.372
X195.362 Y476.049
X195.374 Y476.051
X198.053 Y476.716
X198.062 Y476.719
X200.746 Y477.374
X200.757 Y477.376
X203.447 Y478.02
X203.456 Y478.023
X206.152 Y478.657
X206.16 Y478.659
X208.86 Y479.284
X208.869 Y479.286
X211.574 Y479.902
X211.586 Y479.904
X217.011 Y481.111
X217.026 Y481.115
X222.469 Y482.291
X222.483 Y482.294
X227.943 Y483.441
X227.956 Y483.444
X233.435 Y484.564
X233.447 Y484.567
X238.942 Y485.662
X238.954 Y485.664
X244.466 Y486.735
X244.478 Y486.737
X250.007 Y487.783
X250.018 Y487.786
X255.563 Y488.809
X255.575 Y488.811
X261.136 Y489.811
X261.147 Y489.813
X266.725 Y490.79
G2 X269.656 Y488.327 I0.431 J-2.463
G1 Y168.327
Y168.296
X269.641 Y167.091
X269.639 Y167.025
X269.593 Y165.839
X269.59 Y165.772
X269.513 Y164.604
X269.507 Y164.536
X269.4 Y163.387
X269.393 Y163.318
X269.256 Y162.188
X269.246 Y162.115
X269.078 Y161.004
X269.066 Y160.932
X268.868 Y159.839
X268.854 Y159.766
X268.625 Y158.692
X268.608 Y158.615
X268.349 Y157.559
X268.329 Y157.484
X268.04 Y156.447
X268.018 Y156.373
X267.701 Y155.354
X267.675 Y155.278
X267.327 Y154.277
X267.299 Y154.201
X266.921 Y153.218
X266.892 Y153.143
X266.484 Y152.178
X266.451 Y152.103
X266.014 Y151.156
X265.98 Y151.084
X265.515 Y150.155
X265.476 Y150.081
X264.981 Y149.169
X264.942 Y149.1
X264.419 Y148.206
X264.378 Y148.138
X263.827 Y147.261
X263.783 Y147.194
X263.203 Y146.333
X263.159 Y146.269
X262.552 Y145.426
X262.504 Y145.362
X261.868 Y144.536
X261.822 Y144.478
X261.159 Y143.668
X261.111 Y143.611
X260.421 Y142.817
X260.372 Y142.763
X259.656 Y141.986
X259.607 Y141.933
X258.863 Y141.171
X258.812 Y141.121
X258.042 Y140.376
X257.995 Y140.332
X257.199 Y139.601
X257.15 Y139.557
X256.329 Y138.842
X256.28 Y138.8
X255.433 Y138.1
X255.384 Y138.061
X254.512 Y137.376
X254.465 Y137.34
X253.568 Y136.669
X253.521 Y136.635
X252.6 Y135.979
X252.556 Y135.948
X251.611 Y135.305
X251.566 Y135.275
X250.598 Y134.647
X250.554 Y134.619
X249.562 Y134.004
X249.52 Y133.979
X248.505 Y133.377
X248.464 Y133.353
X247.426 Y132.764
X247.387 Y132.742
X246.328 Y132.166
X246.289 Y132.145
X245.207 Y131.581
X245.171 Y131.563
X244.069 Y131.011
X244.03 Y130.992
X242.906 Y130.453
X242.874 Y130.438
X241.729 Y129.909
X241.695 Y129.893
X240.531 Y129.376
X240.498 Y129.362
X239.314 Y128.856
X239.283 Y128.843
X238.079 Y128.348
X238.05 Y128.336
X236.828 Y127.851
X236.8 Y127.84
X235.559 Y127.365
X235.531 Y127.355
X234.272 Y126.89
X234.247 Y126.881
X232.971 Y126.425
X232.946 Y126.416
X231.652 Y125.969
X231.629 Y125.961
X230.319 Y125.523
X230.295 Y125.515
X228.968 Y125.086
X228.947 Y125.079
X227.604 Y124.658
X227.586 Y124.653
X226.229 Y124.239
X226.208 Y124.233
X224.835 Y123.827
X224.817 Y123.821
X223.43 Y123.422
X223.413 Y123.417
X222.012 Y123.025
X221.994 Y123.021
X220.579 Y122.636
X220.566 Y122.632
X219.139 Y122.252
X219.123 Y122.248
X217.683 Y121.875
X217.67 Y121.872
X216.218 Y121.504
X216.206 Y121.5
X214.742 Y121.137
X214.73 Y121.135
X213.255 Y120.777
X213.244 Y120.774
X211.758 Y120.42
X211.747 Y120.417
X210.251 Y120.068
X210.238 Y120.065
X207.218 Y119.378
X207.202 Y119.375
X204.146 Y118.7
X204.133 Y118.697
X201.046 Y118.032
X201.036 Y118.03
X197.922 Y117.373
X197.915 Y117.371
X194.777 Y116.718
X194.773 Y116.717
X191.615 Y116.066
X191.612
X188.437 Y115.415
X185.253 Y114.761
X182.061 Y114.103
X178.866 Y113.436
X175.671 Y112.76
X172.482 Y112.072
X169.299 Y111.369
X166.128 Y110.65
X162.971 Y109.911
X159.831 Y109.152
X156.712 Y108.369
X153.617 Y107.561
X150.544 Y106.726
X149.025 Y106.3
X147.51 Y105.864
X146.001 Y105.421
X144.502 Y104.972
X143.012 Y104.513
X141.531 Y104.047
X140.059 Y103.572
X138.597 Y103.089
X137.145 Y102.597
X135.703 Y102.096
X134.272 Y101.587
X132.852 Y101.068
X131.443 Y100.541
X130.045 Y100.003
X128.658 Y99.456
X127.284 Y98.901
X125.922 Y98.335
X124.571 Y97.759
X123.233 Y97.174
X121.908 Y96.578
X120.595 Y95.973
X119.295 Y95.358
X118.009 Y94.732
X116.735 Y94.097
X115.475 Y93.451
X114.228 Y92.795
X112.994 Y92.129
X111.774 Y91.453
X110.567 Y90.767
X109.375 Y90.07
X108.195 Y89.363
X107.03 Y88.646
X105.877 Y87.92
X104.739 Y87.183
X103.614 Y86.436
X102.503 Y85.679
X101.405 Y84.913
X100.32 Y84.137
X99.25 Y83.351
X98.192 Y82.556
X97.148 Y81.751
X96.116 Y80.937
X95.098 Y80.114
X94.093 Y79.282
X93.1 Y78.441
X92.121 Y77.591
X91.153 Y76.732
X90.198 Y75.866
X89.255 Y74.991
X88.325 Y74.108
X87.406 Y73.217
X86.498 Y72.318
X85.602 Y71.412
X84.718 Y70.498
X83.844 Y69.578
X82.981 Y68.651
X82.129 Y67.717
X81.287 Y66.777
X80.455 Y65.83
X79.633 Y64.878
X78.82 Y63.921
X78.017 Y62.958
X77.223 Y61.99
X76.44 Y61.021
X74.891 Y59.059
X73.376 Y57.086
X71.89 Y55.099
X70.431 Y53.103
X68.996 Y51.099
X67.582 Y49.091
X66.187 Y47.08
X64.807 Y45.071
X63.44 Y43.065
X62.083 Y41.065
X60.734 Y39.077
X60.732 Y39.074
X59.389 Y37.102
X59.385 Y37.095
X58.046 Y35.142
X58.038 Y35.131
X56.699 Y33.201
X56.689 Y33.186
X55.348 Y31.281
X55.335 Y31.263
X53.988 Y29.386
X53.971 Y29.364
X52.616 Y27.519
X52.596 Y27.493
X51.229 Y25.683
X51.212 Y25.661
X50.524 Y24.77
X50.511 Y24.753
X49.818 Y23.872
X49.805 Y23.855
X49.108 Y22.984
X49.093 Y22.966
X48.391 Y22.105
X48.376 Y22.086
X47.669 Y21.237
X47.652 Y21.217
X46.94 Y20.378
X46.922 Y20.358
X46.204 Y19.531
X46.184 Y19.509
X45.46 Y18.695
X45.44 Y18.672
X44.709 Y17.87
X44.687 Y17.847
X43.95 Y17.057
X43.927 Y17.033
X43.182 Y16.257
X43.158 Y16.232
X42.405 Y15.469
X42.38 Y15.443
X41.619 Y14.694
X41.592 Y14.668
X40.823 Y13.933
X40.795 Y13.907
X40.018 Y13.186
X39.988 Y13.159
X39.202 Y12.453
X39.171 Y12.426
X38.375 Y11.735
X38.343 Y11.707
X37.537 Y11.031
X37.503 Y11.003
X36.688 Y10.344
X36.653 Y10.316
X35.827 Y9.672
X35.791 Y9.644
X34.955 Y9.016
X34.917 Y8.988
X34.07 Y8.377
X34.03 Y8.35
X33.173 Y7.756
X33.132 Y7.728
X32.263 Y7.151
X32.22 Y7.124
X31.339 Y6.565
X31.296 Y6.538
X30.403 Y5.997
X30.358 Y5.97
X29.453 Y5.447
X29.407 Y5.421
X28.49 Y4.916
X28.443 Y4.891
X27.513 Y4.404
X27.465 Y4.38
X26.522 Y3.912
X26.473 Y3.889
X25.517 Y3.44
X25.467 Y3.417
X24.497 Y2.988
X24.447 Y2.967
X23.464 Y2.557
X23.413 Y2.536
X22.415 Y2.146
X22.364 Y2.127
X21.353 Y1.756
X21.301 Y1.738
X20.276 Y1.388
X20.224 Y1.371
X19.184 Y1.041
X19.132 Y1.025
X18.077 Y0.715
X18.025 Y0.701
X16.956 Y0.412
X16.904 Y0.398
X15.82 Y0.13
X15.768 Y0.118
X14.669 Y-0.129
X14.617 Y-0.14
X13.503 Y-0.367
X13.452 Y-0.376
X12.322 Y-0.581
X12.272 Y-0.59
X11.126 Y-0.774
X11.076 Y-0.781
X9.915 Y-0.944
X9.866 Y-0.95
X8.69 Y-1.091
X8.641 Y-1.096
X7.449 Y-1.216
X7.402 Y-1.22
X6.193 Y-1.318
X6.147 Y-1.321
X4.923 Y-1.397
X4.877 Y-1.4
X3.637 Y-1.454
X3.593 Y-1.456
X2.337 Y-1.488
X2.293 Y-1.489
X1.021 Y-1.5
G2 X-1.491 Y1.208 I-0.021 J2.5
G1 X22.12 Y284.549
X11.85 Y285.406
G2 X9.635 Y288.515 I0.208 J2.491
G1 X9.832 Y289.285
X9.836 Y289.301
X10.04 Y290.081
X10.044 Y290.097
X10.257 Y290.886
X10.261 Y290.902
X10.482 Y291.7
X10.486 Y291.715
X10.715 Y292.522
X10.719 Y292.537
X10.956 Y293.353
X10.96 Y293.368
X11.205 Y294.193
X11.209 Y294.207
X11.462 Y295.041
X11.466 Y295.054
X11.727 Y295.898
X11.731 Y295.912
X12 Y296.765
X12.004 Y296.779
X12.281 Y297.64
X12.285 Y297.652
X12.57 Y298.523
X12.574 Y298.535
X12.868 Y299.415
X12.872 Y299.427
X13.173 Y300.316
X13.177 Y300.328
X13.486 Y301.226
X13.49 Y301.237
X13.808 Y302.145
X13.812 Y302.157
X14.138 Y303.073
X14.142 Y303.085
X14.475 Y304.01
X14.479 Y304.019
X14.821 Y304.954
X14.825 Y304.965
X15.175 Y305.909
X15.179 Y305.92
X15.537 Y306.872
X15.541 Y306.881
X15.907 Y307.843
X15.911 Y307.854
X16.285 Y308.824
X16.289 Y308.833
X16.671 Y309.813
X16.675 Y309.823
X17.066 Y310.811
X17.069 Y310.82
X17.468 Y311.818
X17.472 Y311.828
X17.879 Y312.834
X17.883 Y312.843
X18.298 Y313.858
X18.302 Y313.866
X18.725 Y314.89
X18.729 Y314.899
X19.16 Y315.932
X19.164 Y315.941
X19.604 Y316.982
X19.607 Y316.99
X20.055 Y318.04
X20.059 Y318.048
X20.515 Y319.107
X20.519 Y319.116
X20.983 Y320.183
X20.987 Y320.191
X21.459 Y321.266
X21.463 Y321.273
X21.943 Y322.357
X21.946 Y322.365
X22.435 Y323.458
X22.439 Y323.467
X22.936 Y324.567
X22.94 Y324.574
X23.445 Y325.683
X23.449 Y325.691
X23.962 Y326.807
X23.965 Y326.814
X24.487 Y327.939
X24.491 Y327.947
X25.021 Y329.079
X25.024 Y329.086
X25.562 Y330.226
X25.566 Y330.233
X26.112 Y331.381
X26.115 Y331.389
X26.67 Y332.544
X26.673 Y332.551
X27.236 Y333.714
X27.239 Y333.721
X27.81 Y334.891
X27.814 Y334.898
X28.393 Y336.075
X28.397 Y336.083
X28.984 Y337.266
X28.987 Y337.273
X29.582 Y338.464
X29.586 Y338.471
X30.189 Y339.668
X30.192 Y339.675
X30.804 Y340.879
X30.808 Y340.887
X31.427 Y342.096
X31.431 Y342.103
X32.058 Y343.319
X32.064 Y343.33
X33.343 Y345.779
X33.351 Y345.793
X34.662 Y348.264
X34.67 Y348.279
X36.013 Y350.77
X36.022 Y350.785
X37.397 Y353.293
X37.405 Y353.308
X38.811 Y355.833
X38.82 Y355.848
X40.258 Y358.387
X40.267 Y358.402
X41.735 Y360.953
X41.745 Y360.97
X43.244 Y363.53
X43.254 Y363.546
X44.784 Y366.114
X44.794 Y366.13
X46.355 Y368.704
X46.365 Y368.721
X47.956 Y371.297
X47.967 Y371.315
X49.587 Y373.891
X49.598 Y373.909
X51.248 Y376.483
X51.259 Y376.501
X52.938 Y379.071
X52.95 Y379.09
X54.657 Y381.654
X54.67 Y381.673
X56.406 Y384.227
X56.42 Y384.247
X58.183 Y386.789
X58.197 Y386.809
X59.989 Y389.337
X60.004 Y389.358
X61.822 Y391.869
X61.837 Y391.89
X63.683 Y394.383
X63.699 Y394.405
X65.571 Y396.877
X65.588 Y396.9
X67.486 Y399.348
X67.504 Y399.371
X69.427 Y401.793
X69.446 Y401.816
X71.395 Y404.211
X71.414 Y404.235
X73.388 Y406.6
X73.403 Y406.618
X74.399 Y407.789
X74.41 Y407.802
X75.412 Y408.964
X75.422 Y408.976
X76.43 Y410.13
X76.441 Y410.142
X77.455 Y411.287
X77.466 Y411.299
X78.486 Y412.436
X78.498 Y412.45
X79.524 Y413.577
X79.535 Y413.589
X80.566 Y414.707
X80.579 Y414.72
X81.616 Y415.828
X81.627 Y415.841
X82.67 Y416.94
X82.683 Y416.953
X83.731 Y418.042
X83.744 Y418.055
X84.798 Y419.134
X84.811 Y419.148
X85.871 Y420.216
X85.884 Y420.229
X86.949 Y421.286
X86.962 Y421.299
X88.032 Y422.347
X88.046 Y422.361
X89.121 Y423.398
X89.135 Y423.411
X90.216 Y424.437
X90.231 Y424.451
X91.317 Y425.466
X91.331 Y425.479
X92.422 Y426.483
X92.437 Y426.496
X93.533 Y427.489
X93.549 Y427.503
X94.65 Y428.484
X94.664 Y428.496
X95.77 Y429.467
X95.787 Y429.482
X96.898 Y430.44
X96.912 Y430.452
X98.029 Y431.4
X98.045 Y431.413
X99.166 Y432.349
X99.182 Y432.363
X100.308 Y433.287
X100.323 Y433.299
X101.453 Y434.212
X101.47 Y434.225
X102.605 Y435.126
X102.622 Y435.139
X103.762 Y436.028
X103.777 Y436.04
X104.921 Y436.918
X104.938 Y436.931
X106.087 Y437.797
X106.103 Y437.809
X107.256 Y438.664
X107.274 Y438.677
X108.432 Y439.52
X108.449 Y439.533
X109.611 Y440.363
X109.627 Y440.375
X109.701 Y440.427
Z-10 F333.3
X110.793 Y441.195 F1000
X110.81 Y441.207
X111.98 Y442.015
X111.998 Y442.027
X113.173 Y442.824
X113.188 Y442.835
X114.366 Y443.621
X114.384 Y443.632
X115.566 Y444.406
X115.584 Y444.418
X116.771 Y445.181
X116.787 Y445.191
X117.977 Y445.943
X117.995 Y445.954
X119.189 Y446.695
X119.206 Y446.706
X120.404 Y447.436
X120.422 Y447.446
X121.624 Y448.165
X121.641 Y448.176
X122.847 Y448.884
X122.863 Y448.893
X124.072 Y449.591
X124.089 Y449.601
X125.301 Y450.288
X125.319 Y450.298
X126.535 Y450.974
X126.552 Y450.983
X127.772 Y451.649
X127.788 Y451.658
X129.011 Y452.314
X129.028 Y452.323
X130.254 Y452.969
X130.271 Y452.978
X131.501 Y453.614
X131.516 Y453.621
X132.749 Y454.248
X132.767 Y454.258
X134.003 Y454.874
X134.018 Y454.881
X135.257 Y455.488
X135.281 Y455.499
X137.769 Y456.686
X137.8 Y456.701
X140.299 Y457.851
X140.33 Y457.865
X142.842 Y458.98
X142.871 Y458.993
X145.393 Y460.074
X145.421 Y460.086
X147.954 Y461.135
X147.982 Y461.146
X150.526 Y462.164
X150.553 Y462.174
X153.106 Y463.163
X153.131 Y463.172
X155.695 Y464.132
X155.719 Y464.141
X158.291 Y465.074
X158.315 Y465.083
X160.897 Y465.99
X160.919 Y465.997
X163.509 Y466.88
X163.531 Y466.887
X166.13 Y467.747
X166.151 Y467.754
X168.758 Y468.591
X168.776 Y468.597
X171.39 Y469.414
X171.408 Y469.42
X174.03 Y470.218
X174.048 Y470.223
X176.678 Y471.002
X176.694 Y471.007
X179.33 Y471.769
X179.346 Y471.773
X181.989 Y472.518
X182.003 Y472.522
X184.652 Y473.252
X184.665 Y473.256
X187.321 Y473.972
X187.335 Y473.976
X189.997 Y474.677
X190.009 Y474.68
X192.677 Y475.369
X192.688 Y475.372
X195.362 Y476.049
X195.374 Y476.051
X198.053 Y476.716
X198.062 Y476.719
X200.746 Y477.374
X200.757 Y477.376
X203.447 Y478.02
X203.456 Y478.023
X206.152 Y478.657
X206.16 Y478.659
X208.86 Y479.284
X208.869 Y479.286
X211.574 Y479.902
X211.586 Y479.904
X217.011 Y481.111
X217.026 Y481.115
X222.469 Y482.291
X222.483 Y482.294
X227.943 Y483.441
X227.956 Y483.444
X233.435 Y484.564
X233.447 Y484.567
X238.942 Y485.662
X238.954 Y485.664
X244.466 Y486.735
X244.478 Y486.737
X250.007 Y487.783
X250.018 Y487.786
X255.563 Y488.809
X255.575 Y488.811
X261.136 Y489.811
X261.147 Y489.813
X266.725 Y490.79
G2 X269.656 Y488.327 I0.431 J-2.463
G1 Y168.327
Y168.296
X269.641 Y167.091
X269.639 Y167.025
X269.593 Y165.839
X269.59 Y165.772
X269.513 Y164.604
X269.507 Y164.536
X269.4 Y163.387
X269.393 Y163.318
X269.256 Y162.188
X269.246 Y162.115
X269.078 Y161.004
X269.066 Y160.932
X268.868 Y159.839
X268.854 Y159.766
X268.625 Y158.692
X268.608 Y158.615
X268.349 Y157.559
X268.329 Y157.484
X268.04 Y156.447
X268.018 Y156.373
X267.701 Y155.354
X267.675 Y155.278
X267.327 Y154.277
X267.299 Y154.201
X266.921 Y153.218
X266.892 Y153.143
X266.484 Y152.178
X266.451 Y152.103
X266.014 Y151.156
X265.98 Y151.084
X265.515 Y150.155
X265.476 Y150.081
X264.981 Y149.169
X264.942 Y149.1
X264.419 Y148.206
X264.378 Y148.138
X263.827 Y147.261
X263.783 Y147.194
X263.203 Y146.333
X263.159 Y146.269
X262.552 Y145.426
X262.504 Y145.362
X261.868 Y144.536
X261.822 Y144.478
X261.159 Y143.668
X261.111 Y143.611
X260.421 Y142.817
X260.372 Y142.763
X259.656 Y141.986
X259.607 Y141.933
X258.863 Y141.171
X258.812 Y141.121
X258.042 Y140.376
X257.995 Y140.332
X257.199 Y139.601
X257.15 Y139.557
X256.329 Y138.842
X256.28 Y138.8
X255.433 Y138.1
X255.384 Y138.061
X254.512 Y137.376
X254.465 Y137.34
X253.568 Y136.669
X253.521 Y136.635
X252.6 Y135.979
X252.556 Y135.948
X251.611 Y135.305
X251.566 Y135.275
X250.598 Y134.647
X250.554 Y134.619
X249.562 Y134.004
X249.52 Y133.979
X248.505 Y133.377
X248.464 Y133.353
X247.426 Y132.764
X247.387 Y132.742
X246.328 Y132.166
X246.289 Y132.145
X245.207 Y131.581
X245.171 Y131.563
X244.069 Y131.011
X244.03 Y130.992
X242.906 Y130.453
X242.874 Y130.438
X241.729 Y129.909
X241.695 Y129.893
X240.531 Y129.376
X240.498 Y129.362
X239.314 Y128.856
X239.283 Y128.843
X238.079 Y128.348
X238.05 Y128.336
X236.828 Y127.851
X236.8 Y127.84
X235.559 Y127.365
X235.531 Y127.355
X234.272 Y126.89
X234.247 Y126.881
X232.971 Y126.425
X232.946 Y126.416
X231.652 Y125.969
X231.629 Y125.961
X230.319 Y125.523
X230.295 Y125.515
X228.968 Y125.086
X228.947 Y125.079
X227.604 Y124.658
X227.586 Y124.653
X226.229 Y124.239
X226.208 Y124.233
X224.835 Y123.827
X224.817 Y123.821
X223.43 Y123.422
X223.413 Y123.417
X222.012 Y123.025
X221.994 Y123.021
X220.579 Y122.636
X220.566 Y122.632
X219.139 Y122.252
X219.123 Y122.248
X217.683 Y121.875
X217.67 Y121.872
X216.218 Y121.504
X216.206 Y121.5
X214.742 Y121.137
X214.73 Y121.135
X213.255 Y120.777
X213.244 Y120.774
X211.758 Y120.42
X211.747 Y120.417
X210.251 Y120.068
X210.238 Y120.065
X207.218 Y119.378
X207.202 Y119.375
X204.146 Y118.7
X204.133 Y118.697
X201.046 Y118.032
X201.036 Y118.03
X197.922 Y117.373
X197.915 Y117.371
X194.777 Y116.718
X194.773 Y116.717
X191.615 Y116.066
X191.612
X188.437 Y115.415
X185.253 Y114.761
X182.061 Y114.103
X178.866 Y113.436
X175.671 Y112.76
X172.482 Y112.072
X169.299 Y111.369
X166.128 Y110.65
X162.971 Y109.911
X159.831 Y109.152
X156.712 Y108.369
X153.617 Y107.561
X150.544 Y106.726
X149.025 Y106.3
X147.51 Y105.864
X146.001 Y105.421
X144.502 Y104.972
X143.012 Y104.513
X141.531 Y104.047
X140.059 Y103.572
X138.597 Y103.089
X137.145 Y102.597
X135.703 Y102.096
X134.272 Y101.587
X132.852 Y101.068
X131.443 Y100.541
X130.045 Y100.003
X128.658 Y99.456
X127.284 Y98.901
X125.922 Y98.335
X124.571 Y97.759
X123.233 Y97.174
X121.908 Y96.578
X120.595 Y95.973
X119.295 Y95.358
X118.009 Y94.732
X116.735 Y94.097
X115.475 Y93.451
X114.228 Y92.795
X112.994 Y92.129
X111.774 Y91.453
X110.567 Y90.767
X109.375 Y90.07
X108.195 Y89.363
X107.03 Y88.646
X105.877 Y87.92
X104.739 Y87.183
X103.614 Y86.436
X102.503 Y85.679
X101.405 Y84.913
X100.32 Y84.137
X99.25 Y83.351
X98.192 Y82.556
X97.148 Y81.751
X96.116 Y80.937
X95.098 Y80.114
X94.093 Y79.282
X93.1 Y78.441
X92.121 Y77.591
X91.153 Y76.732
X90.198 Y75.866
X89.255 Y74.991
X88.325 Y74.108
X87.406 Y73.217
X86.498 Y72.318
X85.602 Y71.412
X84.718 Y70.498
X83.844 Y69.578
X82.981 Y68.651
X82.129 Y67.717
X81.287 Y66.777
X80.455 Y65.83
X79.633 Y64.878
X78.82 Y63.921
X78.017 Y62.958
X77.223 Y61.99
X76.44 Y61.021
X74.891 Y59.059
X73.376 Y57.086
X71.89 Y55.099
X70.431 Y53.103
X68.996 Y51.099
X67.582 Y49.091
X66.187 Y47.08
X64.807 Y45.071
X63.44 Y43.065
X62.083 Y41.065
X60.734 Y39.077
X60.732 Y39.074
X59.389 Y37.102
X59.385 Y37.095
X58.046 Y35.142
X58.038 Y35.131
X56.699 Y33.201
X56.689 Y33.186
X55.348 Y31.281
X55.335 Y31.263
X53.988 Y29.386
X53.971 Y29.364
X52.616 Y27.519
X52.596 Y27.493
X51.229 Y25.683
X51.212 Y25.661
X50.524 Y24.77
X50.511 Y24.753
X49.818 Y23.872
X49.805 Y23.855
X49.108 Y22.984
X49.093 Y22.966
X48.391 Y22.105
X48.376 Y22.086
X47.669 Y21.237
X47.652 Y21.217
X46.94 Y20.378
X46.922 Y20.358
X46.204 Y19.531
X46.184 Y19.509
X45.46 Y18.695
X45.44 Y18.672
X44.709 Y17.87
X44.687 Y17.847
X43.95 Y17.057
X43.927 Y17.033
X43.182 Y16.257
X43.158 Y16.232
X42.405 Y15.469
X42.38 Y15.443
X41.619 Y14.694
X41.592 Y14.668
X40.823 Y13.933
X40.795 Y13.907
X40.018 Y13.186
X39.988 Y13.159
X39.202 Y12.453
X39.171 Y12.426
X38.375 Y11.735
X38.343 Y11.707
X37.537 Y11.031
X37.503 Y11.003
X36.688 Y10.344
X36.653 Y10.316
X35.827 Y9.672
X35.791 Y9.644
X34.955 Y9.016
X34.917 Y8.988
X34.07 Y8.377
X34.03 Y8.35
X33.173 Y7.756
X33.132 Y7.728
X32.263 Y7.151
X32.22 Y7.124
X31.339 Y6.565
X31.296 Y6.538
X30.403 Y5.997
X30.358 Y5.97
X29.453 Y5.447
X29.407 Y5.421
X28.49 Y4.916
X28.443 Y4.891
X27.513 Y4.404
X27.465 Y4.38
X26.522 Y3.912
X26.473 Y3.889
X25.517 Y3.44
X25.467 Y3.417
X24.497 Y2.988
X24.447 Y2.967
X23.464 Y2.557
X23.413 Y2.536
X22.415 Y2.146
X22.364 Y2.127
X21.353 Y1.756
X21.301 Y1.738
X20.276 Y1.388
X20.224 Y1.371
X19.184 Y1.041
X19.132 Y1.025
X18.077 Y0.715
X18.025 Y0.701
X16.956 Y0.412
X16.904 Y0.398
X15.82 Y0.13
X15.768 Y0.118
X14.669 Y-0.129
X14.617 Y-0.14
X13.503 Y-0.367
X13.452 Y-0.376
X12.322 Y-0.581
X12.272 Y-0.59
X11.126 Y-0.774
X11.076 Y-0.781
X9.915 Y-0.944
X9.866 Y-0.95
X8.69 Y-1.091
X8.641 Y-1.096
X7.449 Y-1.216
X7.402 Y-1.22
X6.193 Y-1.318
X6.147 Y-1.321
X4.923 Y-1.397
X4.877 Y-1.4
X3.637 Y-1.454
X3.593 Y-1.456
X2.337 Y-1.488
X2.293 Y-1.489
X1.021 Y-1.5
G2 X-1.491 Y1.208 I-0.021 J2.5
G1 X22.12 Y284.549
X11.85 Y285.406
G2 X9.635 Y288.515 I0.208 J2.491
G1 X9.832 Y289.285
X9.836 Y289.301
X10.04 Y290.081
X10.044 Y290.097
X10.257 Y290.886
X10.261 Y290.902
X10.482 Y291.7
X10.486 Y291.715
X10.715 Y292.522
X10.719 Y292.537
X10.956 Y293.353
X10.96 Y293.368
X11.205 Y294.193
X11.209 Y294.207
X11.462 Y295.041
X11.466 Y295.054
X11.727 Y295.898
X11.731 Y295.912
X12 Y296.765
X12.004 Y296.779
X12.281 Y297.64
X12.285 Y297.652
X12.57 Y298.523
X12.574 Y298.535
X12.868 Y299.415
X12.872 Y299.427
X13.173 Y300.316
X13.177 Y300.328
X13.486 Y301.226
X13.49 Y301.237
X13.808 Y302.145
X13.812 Y302.157
X14.138 Y303.073
X14.142 Y303.085
X14.475 Y304.01
X14.479 Y304.019
X14.821 Y304.954
X14.825 Y304.965
X15.175 Y305.909
X15.179 Y305.92
X15.537 Y306.872
X15.541 Y306.881
X15.907 Y307.843
X15.911 Y307.854
X16.285 Y308.824
X16.289 Y308.833
X16.671 Y309.813
X16.675 Y309.823
X17.066 Y310.811
X17.069 Y310.82
X17.468 Y311.818
X17.472 Y311.828
X17.879 Y312.834
X17.883 Y312.843
X18.298 Y313.858
X18.302 Y313.866
X18.725 Y314.89
X18.729 Y314.899
X19.16 Y315.932
X19.164 Y315.941
X19.604 Y316.982
X19.607 Y316.99
X20.055 Y318.04
X20.059 Y318.048
X20.515 Y319.107
X20.519 Y319.116
X20.983 Y320.183
X20.987 Y320.191
X21.459 Y321.266
X21.463 Y321.273
X21.943 Y322.357
X21.946 Y322.365
X22.435 Y323.458
X22.439 Y323.467
X22.936 Y324.567
X22.94 Y324.574
X23.445 Y325.683
X23.449 Y325.691
X23.962 Y326.807
X23.965 Y326.814
X24.487 Y327.939
X24.491 Y327.947
X25.021 Y329.079
X25.024 Y329.086
X25.562 Y330.226
X25.566 Y330.233
X26.112 Y331.381
X26.115 Y331.389
X26.67 Y332.544
X26.673 Y332.551
X27.236 Y333.714
X27.239 Y333.721
X27.81 Y334.891
X27.814 Y334.898
X28.393 Y336.075
X28.397 Y336.083
X28.984 Y337.266
X28.987 Y337.273
X29.582 Y338.464
X29.586 Y338.471
X30.189 Y339.668
X30.192 Y339.675
X30.804 Y340.879
X30.808 Y340.887
X31.427 Y342.096
X31.431 Y342.103
X32.058 Y343.319
X32.064 Y343.33
X33.343 Y345.779
X33.351 Y345.793
X34.662 Y348.264
X34.67 Y348.279
X36.013 Y350.77
X36.022 Y350.785
X37.397 Y353.293
X37.405 Y353.308
X38.811 Y355.833
X38.82 Y355.848
X40.258 Y358.387
X40.267 Y358.402
X41.735 Y360.953
X41.745 Y360.97
X43.244 Y363.53
X43.254 Y363.546
X44.784 Y366.114
X44.794 Y366.13
X46.355 Y368.704
X46.365 Y368.721
X47.956 Y371.297
X47.967 Y371.315
X49.587 Y373.891
X49.598 Y373.909
X51.248 Y376.483
X51.259 Y376.501
X52.938 Y379.071
X52.95 Y379.09
X54.657 Y381.654
X54.67 Y381.673
X56.406 Y384.227
X56.42 Y384.247
X58.183 Y386.789
X58.197 Y386.809
X59.989 Y389.337
X60.004 Y389.358
X61.822 Y391.869
X61.837 Y391.89
X63.683 Y394.383
X63.699 Y394.405
X65.571 Y396.877
X65.588 Y396.9
X67.486 Y399.348
X67.504 Y399.371
X69.427 Y401.793
X69.446 Y401.816
X71.395 Y404.211
X71.414 Y404.235
X73.388 Y406.6
X73.403 Y406.618
X74.399 Y407.789
X74.41 Y407.802
X75.412 Y408.964
X75.422 Y408.976
X76.43 Y410.13
X76.441 Y410.142
X77.455 Y411.287
X77.466 Y411.299
X78.486 Y412.436
X78.498 Y412.45
X79.524 Y413.577
X79.535 Y413.589
X80.566 Y414.707
X80.579 Y414.72
X81.616 Y415.828
X81.627 Y415.841
X82.67 Y416.94
X82.683 Y416.953
X83.731 Y418.042
X83.744 Y418.055
X84.798 Y419.134
X84.811 Y419.148
X85.871 Y420.216
X85.884 Y420.229
X86.949 Y421.286
X86.962 Y421.299
X88.032 Y422.347
X88.046 Y422.361
X89.121 Y423.398
X89.135 Y423.411
X90.216 Y424.437
X90.231 Y424.451
X91.317 Y425.466
X91.331 Y425.479
X92.422 Y426.483
X92.437 Y426.496
X93.533 Y427.489
X93.549 Y427.503
X94.65 Y428.484
X94.664 Y428.496
X95.77 Y429.467
X95.787 Y429.482
X96.898 Y430.44
X96.912 Y430.452
X98.029 Y431.4
X98.045 Y431.413
X99.166 Y432.349
X99.182 Y432.363
X100.308 Y433.287
X100.323 Y433.299
X101.453 Y434.212
X101.47 Y434.225
X102.605 Y435.126
X102.622 Y435.139
X103.762 Y436.028
X103.777 Y436.04
X104.921 Y436.918
X104.938 Y436.931
X106.087 Y437.797
X106.103 Y437.809
X107.256 Y438.664
X107.274 Y438.677
X108.432 Y439.52
X108.449 Y439.533
X109.611 Y440.363
X109.627 Y440.375
X109.701 Y440.427
Z-13 F333.3
X110.793 Y441.195 F1000
X110.81 Y441.207
X111.98 Y442.015
X111.998 Y442.027
X113.173 Y442.824
X113.188 Y442.835
X114.366 Y443.621
X114.384 Y443.632
X115.566 Y444.406
X115.584 Y444.418
X116.771 Y445.181
X116.787 Y445.191
X117.977 Y445.943
X117.995 Y445.954
X119.189 Y446.695
X119.206 Y446.706
X120.404 Y447.436
X120.422 Y447.446
X121.624 Y448.165
X121.641 Y448.176
X122.847 Y448.884
X122.863 Y448.893
X124.072 Y449.591
X124.089 Y449.601
X125.301 Y450.288
X125.319 Y450.298
X126.535 Y450.974
X126.552 Y450.983
X127.772 Y451.649
X127.788 Y451.658
X129.011 Y452.314
X129.028 Y452.323
X130.254 Y452.969
X130.271 Y452.978
X131.501 Y453.614
X131.516 Y453.621
X132.749 Y454.248
X132.767 Y454.258
X134.003 Y454.874
X134.018 Y454.881
X135.257 Y455.488
X135.281 Y455.499
X137.769 Y456.686
X137.8 Y456.701
X140.299 Y457.851
X140.33 Y457.865
X142.842 Y458.98
X142.871 Y458.993
X145.393 Y460.074
X145.421 Y460.086
X147.954 Y461.135
X147.982 Y461.146
X150.526 Y462.164
X150.553 Y462.174
X153.106 Y463.163
X153.131 Y463.172
X155.695 Y464.132
X155.719 Y464.141
X158.291 Y465.074
X158.315 Y465.083
X160.897 Y465.99
X160.919 Y465.997
X163.509 Y466.88
X163.531 Y466.887
X166.13 Y467.747
X166.151 Y467.754
X168.758 Y468.591
X168.776 Y468.597
X171.39 Y469.414
X171.408 Y469.42
X174.03 Y470.218
X174.048 Y470.223
X176.678 Y471.002
X176.694 Y471.007
X179.33 Y471.769
X179.346 Y471.773
X181.989 Y472.518
X182.003 Y472.522
X184.652 Y473.252
X184.665 Y473.256
X187.321 Y473.972
X187.335 Y473.976
X189.997 Y474.677
X190.009 Y474.68
X192.677 Y475.369
X192.688 Y475.372
X195.362 Y476.049
X195.374 Y476.051
X198.053 Y476.716
X198.062 Y476.719
X200.746 Y477.374
X200.757 Y477.376
X203.447 Y478.02
X203.456 Y478.023
X206.152 Y478.657
X206.16 Y478.659
X208.86 Y479.284
X208.869 Y479.286
X211.574 Y479.902
X211.586 Y479.904
X217.011 Y481.111
X217.026 Y481.115
X222.469 Y482.291
X222.483 Y482.294
X227.943 Y483.441
X227.956 Y483.444
X233.435 Y484.564
X233.447 Y484.567
X238.942 Y485.662
X238.954 Y485.664
X244.466 Y486.735
X244.478 Y486.737
X250.007 Y487.783
X250.018 Y487.786
X255.563 Y488.809
X255.575 Y488.811
X261.136 Y489.811
X261.147 Y489.813
X266.725 Y490.79
G2 X269.656 Y488.327 I0.431 J-2.463
G1 Y168.327
Y168.296
X269.641 Y167.091
X269.639 Y167.025
X269.593 Y165.839
X269.59 Y165.772
X269.513 Y164.604
X269.507 Y164.536
X269.4 Y163.387
X269.393 Y163.318
X269.256 Y162.188
X269.246 Y162.115
X269.078 Y161.004
X269.066 Y160.932
X268.868 Y159.839
X268.854 Y159.766
X268.625 Y158.692
X268.608 Y158.615
X268.349 Y157.559
X268.329 Y157.484
X268.04 Y156.447
X268.018 Y156.373
X267.701 Y155.354
X267.675 Y155.278
X267.327 Y154.277
X267.299 Y154.201
X266.921 Y153.218
X266.892 Y153.143
X266.484 Y152.178
X266.451 Y152.103
X266.014 Y151.156
X265.98 Y151.084
X265.515 Y150.155
X265.476 Y150.081
X264.981 Y149.169
X264.942 Y149.1
X264.419 Y148.206
X264.378 Y148.138
X263.827 Y147.261
X263.783 Y147.194
X263.203 Y146.333
X263.159 Y146.269
X262.552 Y145.426
X262.504 Y145.362
X261.868 Y144.536
X261.822 Y144.478
X261.159 Y143.668
X261.111 Y143.611
X260.421 Y142.817
X260.372 Y142.763
X259.656 Y141.986
X259.607 Y141.933
X258.863 Y141.171
X258.812 Y141.121
X258.042 Y140.376
X257.995 Y140.332
X257.199 Y139.601
X257.15 Y139.557
X256.329 Y138.842
X256.28 Y138.8
X255.433 Y138.1
X255.384 Y138.061
X254.512 Y137.376
X254.465 Y137.34
X253.568 Y136.669
X253.521 Y136.635
X252.6 Y135.979
X252.556 Y135.948
X251.611 Y135.305
X251.566 Y135.275
X250.598 Y134.647
X250.554 Y134.619
X249.562 Y134.004
X249.52 Y133.979
X248.505 Y133.377
X248.464 Y133.353
X247.426 Y132.764
X247.387 Y132.742
X246.328 Y132.166
X246.289 Y132.145
X245.207 Y131.581
X245.171 Y131.563
X244.069 Y131.011
X244.03 Y130.992
X242.906 Y130.453
X242.874 Y130.438
X241.729 Y129.909
X241.695 Y129.893
X240.531 Y129.376
X240.498 Y129.362
X239.314 Y128.856
X239.283 Y128.843
X238.079 Y128.348
X238.05 Y128.336
X236.828 Y127.851
X236.8 Y127.84
X235.559 Y127.365
X235.531 Y127.355
X234.272 Y126.89
X234.247 Y126.881
X232.971 Y126.425
X232.946 Y126.416
X231.652 Y125.969
X231.629 Y125.961
X230.319 Y125.523
X230.295 Y125.515
X228.968 Y125.086
X228.947 Y125.079
X227.604 Y124.658
X227.586 Y124.653
X226.229 Y124.239
X226.208 Y124.233
X224.835 Y123.827
X224.817 Y123.821
X223.43 Y123.422
X223.413 Y123.417
X222.012 Y123.025
X221.994 Y123.021
X220.579 Y122.636
X220.566 Y122.632
X219.139 Y122.252
X219.123 Y122.248
X217.683 Y121.875
X217.67 Y121.872
X216.218 Y121.504
X216.206 Y121.5
X214.742 Y121.137
X214.73 Y121.135
X213.255 Y120.777
X213.244 Y120.774
X211.758 Y120.42
X211.747 Y120.417
X210.251 Y120.068
X210.238 Y120.065
X207.218 Y119.378
X207.202 Y119.375
X204.146 Y118.7
X204.133 Y118.697
X201.046 Y118.032
X201.036 Y118.03
X197.922 Y117.373
X197.915 Y117.371
X194.777 Y116.718
X194.773 Y116.717
X191.615 Y116.066
X191.612
X188.437 Y115.415
X185.253 Y114.761
X182.061 Y114.103
X178.866 Y113.436
X175.671 Y112.76
X172.482 Y112.072
X169.299 Y111.369
X166.128 Y110.65
X162.971 Y109.911
X159.831 Y109.152
X156.712 Y108.369
X153.617 Y107.561
X150.544 Y106.726
X149.025 Y106.3
X147.51 Y105.864
X146.001 Y105.421
X144.502 Y104.972
X143.012 Y104.513
X141.531 Y104.047
X140.059 Y103.572
X138.597 Y103.089
X137.145 Y102.597
X135.703 Y102.096
X134.272 Y101.587
X132.852 Y101.068
X131.443 Y100.541
X130.045 Y100.003
X128.658 Y99.456
X127.284 Y98.901
X125.922 Y98.335
X124.571 Y97.759
X123.233 Y97.174
X121.908 Y96.578
X120.595 Y95.973
X119.295 Y95.358
X118.009 Y94.732
X116.735 Y94.097
X115.475 Y93.451
X114.228 Y92.795
X112.994 Y92.129
X111.774 Y91.453
X110.567 Y90.767
X109.375 Y90.07
X108.195 Y89.363
X107.03 Y88.646
X105.877 Y87.92
X104.739 Y87.183
X103.614 Y86.436
X102.503 Y85.679
X101.405 Y84.913
X100.32 Y84.137
X99.25 Y83.351
X98.192 Y82.556
X97.148 Y81.751
X96.116 Y80.937
X95.098 Y80.114
X94.093 Y79.282
X93.1 Y78.441
X92.121 Y77.591
X91.153 Y76.732
X90.198 Y75.866
X89.255 Y74.991
X88.325 Y74.108
X87.406 Y73.217
X86.498 Y72.318
X85.602 Y71.412
X84.718 Y70.498
X83.844 Y69.578
X82.981 Y68.651
X82.129 Y67.717
X81.287 Y66.777
X80.455 Y65.83
X79.633 Y64.878
X78.82 Y63.921
X78.017 Y62.958
X77.223 Y61.99
X76.44 Y61.021
X74.891 Y59.059
X73.376 Y57.086
X71.89 Y55.099
X70.431 Y53.103
X68.996 Y51.099
X67.582 Y49.091
X66.187 Y47.08
X64.807 Y45.071
X63.44 Y43.065
X62.083 Y41.065
X60.734 Y39.077
X60.732 Y39.074
X59.389 Y37.102
X59.385 Y37.095
X58.046 Y35.142
X58.038 Y35.131
X56.699 Y33.201
X56.689 Y33.186
X55.348 Y31.281
X55.335 Y31.263
X53.988 Y29.386
X53.971 Y29.364
X52.616 Y27.519
X52.596 Y27.493
X51.229 Y25.683
X51.212 Y25.661
X50.524 Y24.77
X50.511 Y24.753
X49.818 Y23.872
X49.805 Y23.855
X49.108 Y22.984
X49.093 Y22.966
X48.391 Y22.105
X48.376 Y22.086
X47.669 Y21.237
X47.652 Y21.217
X46.94 Y20.378
X46.922 Y20.358
X46.204 Y19.531
X46.184 Y19.509
X45.46 Y18.695
X45.44 Y18.672
X44.709 Y17.87
X44.687 Y17.847
X43.95 Y17.057
X43.927 Y17.033
X43.182 Y16.257
X43.158 Y16.232
X42.405 Y15.469
X42.38 Y15.443
X41.619 Y14.694
X41.592 Y14.668
X40.823 Y13.933
X40.795 Y13.907
X40.018 Y13.186
X39.988 Y13.159
X39.202 Y12.453
X39.171 Y12.426
X38.375 Y11.735
X38.343 Y11.707
X37.537 Y11.031
X37.503 Y11.003
X36.688 Y10.344
X36.653 Y10.316
X35.827 Y9.672
X35.791 Y9.644
X34.955 Y9.016
X34.917 Y8.988
X34.07 Y8.377
X34.03 Y8.35
X33.173 Y7.756
X33.132 Y7.728
X32.263 Y7.151
X32.22 Y7.124
X31.339 Y6.565
X31.296 Y6.538
X30.403 Y5.997
X30.358 Y5.97
X29.453 Y5.447
X29.407 Y5.421
X28.49 Y4.916
X28.443 Y4.891
X27.513 Y4.404
X27.465 Y4.38
X26.522 Y3.912
X26.473 Y3.889
X25.517 Y3.44
X25.467 Y3.417
X24.497 Y2.988
X24.447 Y2.967
X23.464 Y2.557
X23.413 Y2.536
X22.415 Y2.146
X22.364 Y2.127
X21.353 Y1.756
X21.301 Y1.738
X20.276 Y1.388
X20.224 Y1.371
X19.184 Y1.041
X19.132 Y1.025
X18.077 Y0.715
X18.025 Y0.701
X16.956 Y0.412
X16.904 Y0.398
X15.82 Y0.13
X15.768 Y0.118
X14.669 Y-0.129
X14.617 Y-0.14
X13.503 Y-0.367
X13.452 Y-0.376
X12.322 Y-0.581
X12.272 Y-0.59
X11.126 Y-0.774
X11.076 Y-0.781
X9.915 Y-0.944
X9.866 Y-0.95
X8.69 Y-1.091
X8.641 Y-1.096
X7.449 Y-1.216
X7.402 Y-1.22
X6.193 Y-1.318
X6.147 Y-1.321
X4.923 Y-1.397
X4.877 Y-1.4
X3.637 Y-1.454
X3.593 Y-1.456
X2.337 Y-1.488
X2.293 Y-1.489
X1.021 Y-1.5
G2 X-1.491 Y1.208 I-0.021 J2.5
G1 X22.12 Y284.549
X11.85 Y285.406
G2 X9.635 Y288.515 I0.208 J2.491
G1 X9.832 Y289.285
X9.836 Y289.301
X10.04 Y290.081
X10.044 Y290.097
X10.257 Y290.886
X10.261 Y290.902
X10.482 Y291.7
X10.486 Y291.715
X10.715 Y292.522
X10.719 Y292.537
X10.956 Y293.353
X10.96 Y293.368
X11.205 Y294.193
X11.209 Y294.207
X11.462 Y295.041
X11.466 Y295.054
X11.727 Y295.898
X11.731 Y295.912
X12 Y296.765
X12.004 Y296.779
X12.281 Y297.64
X12.285 Y297.652
X12.57 Y298.523
X12.574 Y298.535
X12.868 Y299.415
X12.872 Y299.427
X13.173 Y300.316
X13.177 Y300.328
X13.486 Y301.226
X13.49 Y301.237
X13.808 Y302.145
X13.812 Y302.157
X14.138 Y303.073
X14.142 Y303.085
X14.475 Y304.01
X14.479 Y304.019
X14.821 Y304.954
X14.825 Y304.965
X15.175 Y305.909
X15.179 Y305.92
X15.537 Y306.872
X15.541 Y306.881
X15.907 Y307.843
X15.911 Y307.854
X16.285 Y308.824
X16.289 Y308.833
X16.671 Y309.813
X16.675 Y309.823
X17.066 Y310.811
X17.069 Y310.82
X17.468 Y311.818
X17.472 Y311.828
X17.879 Y312.834
X17.883 Y312.843
X18.298 Y313.858
X18.302 Y313.866
X18.725 Y314.89
X18.729 Y314.899
X19.16 Y315.932
X19.164 Y315.941
X19.604 Y316.982
X19.607 Y316.99
X20.055 Y318.04
X20.059 Y318.048
X20.515 Y319.107
X20.519 Y319.116
X20.983 Y320.183
X20.987 Y320.191
X21.459 Y321.266
X21.463 Y321.273
X21.943 Y322.357
X21.946 Y322.365
X22.435 Y323.458
X22.439 Y323.467
X22.936 Y324.567
X22.94 Y324.574
X23.445 Y325.683
X23.449 Y325.691
X23.962 Y326.807
X23.965 Y326.814
X24.487 Y327.939
X24.491 Y327.947
X25.021 Y329.079
X25.024 Y329.086
X25.562 Y330.226
X25.566 Y330.233
X26.112 Y331.381
X26.115 Y331.389
X26.67 Y332.544
X26.673 Y332.551
X27.236 Y333.714
X27.239 Y333.721
X27.81 Y334.891
X27.814 Y334.898
X28.393 Y336.075
X28.397 Y336.083
X28.984 Y337.266
X28.987 Y337.273
X29.582 Y338.464
X29.586 Y338.471
X30.189 Y339.668
X30.192 Y339.675
X30.804 Y340.879
X30.808 Y340.887
X31.427 Y342.096
X31.431 Y342.103
X32.058 Y343.319
X32.064 Y343.33
X33.343 Y345.779
X33.351 Y345.793
X34.662 Y348.264
X34.67 Y348.279
X36.013 Y350.77
X36.022 Y350.785
X37.397 Y353.293
X37.405 Y353.308
X38.811 Y355.833
X38.82 Y355.848
X40.258 Y358.387
X40.267 Y358.402
X41.735 Y360.953
X41.745 Y360.97
X43.244 Y363.53
X43.254 Y363.546
X44.784 Y366.114
X44.794 Y366.13
X46.355 Y368.704
X46.365 Y368.721
X47.956 Y371.297
X47.967 Y371.315
X49.587 Y373.891
X49.598 Y373.909
X51.248 Y376.483
X51.259 Y376.501
X52.938 Y379.071
X52.95 Y379.09
X54.657 Y381.654
X54.67 Y381.673
X56.406 Y384.227
X56.42 Y384.247
X58.183 Y386.789
X58.197 Y386.809
X59.989 Y389.337
X60.004 Y389.358
X61.822 Y391.869
X61.837 Y391.89
X63.683 Y394.383
X63.699 Y394.405
X65.571 Y396.877
X65.588 Y396.9
X67.486 Y399.348
X67.504 Y399.371
X69.427 Y401.793
X69.446 Y401.816
X71.395 Y404.211
X71.414 Y404.235
X73.388 Y406.6
X73.403 Y406.618
X74.399 Y407.789
X74.41 Y407.802
X75.412 Y408.964
X75.422 Y408.976
X76.43 Y410.13
X76.441 Y410.142
X77.455 Y411.287
X77.466 Y411.299
X78.486 Y412.436
X78.498 Y412.45
X79.524 Y413.577
X79.535 Y413.589
X80.566 Y414.707
X80.579 Y414.72
X81.616 Y415.828
X81.627 Y415.841
X82.67 Y416.94
X82.683 Y416.953
X83.731 Y418.042
X83.744 Y418.055
X84.798 Y419.134
X84.811 Y419.148
X85.871 Y420.216
X85.884 Y420.229
X86.949 Y421.286
X86.962 Y421.299
X88.032 Y422.347
X88.046 Y422.361
X89.121 Y423.398
X89.135 Y423.411
X90.216 Y424.437
X90.231 Y424.451
X91.317 Y425.466
X91.331 Y425.479
X92.422 Y426.483
X92.437 Y426.496
X93.533 Y427.489
X93.549 Y427.503
X94.65 Y428.484
X94.664 Y428.496
X95.77 Y429.467
X95.787 Y429.482
X96.898 Y430.44
X96.912 Y430.452
X98.029 Y431.4
X98.045 Y431.413
X99.166 Y432.349
X99.182 Y432.363
X100.308 Y433.287
X100.323 Y433.299
X101.453 Y434.212
X101.47 Y434.225
X102.605 Y435.126
X102.622 Y435.139
X103.762 Y436.028
X103.777 Y436.04
X104.921 Y436.918
X104.938 Y436.931
X106.087 Y437.797
X106.103 Y437.809
X107.256 Y438.664
X107.274 Y438.677
X108.432 Y439.52
X108.449 Y439.533
X109.611 Y440.363
X109.627 Y440.375
X109.701 Y440.427
Z-5
X102.072 Y451.313
X102.04 Y451.291
X100.954 Y450.514
X99.883 Y449.728
X98.825 Y448.932
X97.781 Y448.128
X96.75 Y447.315
X95.733 Y446.491
X94.727 Y445.658
X93.734 Y444.818
X92.755 Y443.968
X91.787 Y443.109
X90.832 Y442.243
X89.889 Y441.368
X88.959 Y440.485
X88.04 Y439.593
X87.132 Y438.695
X86.236 Y437.788
X85.351 Y436.876
X84.478 Y435.955
X83.615 Y435.027
X82.763 Y434.094
X81.921 Y433.154
X81.089 Y432.208
X80.267 Y431.255
X79.454 Y430.297
X78.65 Y429.335
X77.857 Y428.368
X77.074 Y427.398
X75.524 Y425.436
X74.01 Y423.463
X72.524 Y421.477
X71.065 Y419.481
X69.63 Y417.477
X68.216 Y415.468
X66.821 Y413.458
X65.441 Y411.448
X64.074 Y409.441
X62.717 Y407.442
X61.368 Y405.454
X61.366 Y405.451
X60.023 Y403.479
X60.019 Y403.472
X58.68 Y401.519
X58.672 Y401.508
X57.333 Y399.578
X57.323 Y399.564
X55.982 Y397.659
X55.969 Y397.64
X54.622 Y395.763
X54.605 Y395.74
X53.25 Y393.896
X53.23 Y393.87
X51.863 Y392.06
X51.847 Y392.039
X51.158 Y391.147
X51.145 Y391.13
X50.452 Y390.249
X50.439 Y390.232
X49.742 Y389.361
X49.727 Y389.342
X49.025 Y388.482
X49.01 Y388.464
X48.303 Y387.614
X48.286 Y387.595
X47.574 Y386.756
X47.555 Y386.734
X46.837 Y385.908
X46.819 Y385.887
X46.094 Y385.072
X46.073 Y385.049
X45.342 Y384.247
X45.322 Y384.225
X44.584 Y383.435
X44.56 Y383.41
X43.815 Y382.634
X43.791 Y382.609
X43.039 Y381.846
X43.014 Y381.822
X42.254 Y381.072
X42.226 Y381.045
X41.457 Y380.31
X41.429 Y380.284
X40.652 Y379.563
X40.622 Y379.536
X39.836 Y378.83
X39.805 Y378.802
X39.009 Y378.111
X38.976 Y378.083
X38.171 Y377.408
X38.138 Y377.381
X37.322 Y376.721
X37.287 Y376.693
X36.462 Y376.049
X36.424 Y376.02
X35.588 Y375.393
X35.551 Y375.366
X34.704 Y374.755
X34.665 Y374.727
X33.807 Y374.133
X33.765 Y374.104
X32.896 Y373.528
X32.854 Y373.501
X31.973 Y372.942
X31.931 Y372.916
X31.038 Y372.374
X30.992 Y372.347
X30.087 Y371.824
X30.041 Y371.798
X29.124 Y371.293
X29.076 Y371.267
X28.146 Y370.781
X28.099 Y370.758
X27.156 Y370.29
X27.106 Y370.265
X26.149 Y369.817
X26.102 Y369.796
X25.132 Y369.366
X25.081 Y369.344
X24.098 Y368.934
X24.046 Y368.913
X23.049 Y368.523
X22.997 Y368.503
X21.986 Y368.133
X21.935 Y368.115
X20.909 Y367.765
X20.858 Y367.748
X19.818 Y367.418
X19.767 Y367.402
X18.712 Y367.092
X18.659 Y367.078
X17.59 Y366.789
X17.537 Y366.775
X16.453 Y366.507
X16.401 Y366.495
X15.302 Y366.248
X15.251 Y366.237
X14.136 Y366.011
X14.086 Y366.001
X12.956 Y365.796
X12.906 Y365.788
X11.76 Y365.604
X11.711 Y365.596
X10.55 Y365.433
X10.5 Y365.427
X9.324 Y365.286
X9.274 Y365.28
X8.082 Y365.161
X8.036 Y365.157
X6.828 Y365.059
X6.781 Y365.056
X5.557 Y364.98
X5.51 Y364.977
X4.27 Y364.923
X4.227 Y364.922
X2.971 Y364.889
X2.927 Y364.888
X1.656 Y364.877
G2 X-0.857 Y367.585 I-0.022 J2.5
G1 X22.754 Y650.926
X12.484 Y651.783
G2 X10.269 Y654.892 I0.208 J2.491
G1 X10.465 Y655.662
X10.47 Y655.678
X10.674 Y656.458
X10.678 Y656.474
X10.891 Y657.263
X10.895 Y657.279
X11.116 Y658.077
X11.12 Y658.092
X11.349 Y658.899
X11.353 Y658.914
X11.59 Y659.73
X11.594 Y659.745
X11.839 Y660.57
X11.843 Y660.583
X12.095 Y661.418
X12.1 Y661.433
X12.361 Y662.276
X12.365 Y662.289
X12.634 Y663.142
X12.638 Y663.156
X12.915 Y664.017
X12.919 Y664.029
X13.204 Y664.9
X13.208 Y664.912
X13.501 Y665.792
X13.505 Y665.804
X13.807 Y666.693
X13.811 Y666.706
X14.12 Y667.604
X14.124 Y667.614
X14.442 Y668.522
X14.446 Y668.534
X14.771 Y669.45
X14.775 Y669.461
X15.109 Y670.387
X15.113 Y670.398
X15.455 Y671.332
X15.459 Y671.342
X15.809 Y672.286
X15.813 Y672.297
X16.171 Y673.249
X16.174 Y673.259
X16.541 Y674.221
X16.545 Y674.231
X16.919 Y675.201
X16.923 Y675.21
X17.305 Y676.19
X17.309 Y676.2
X17.7 Y677.188
X17.703 Y677.197
X18.102 Y678.195
X18.106 Y678.205
X18.513 Y679.211
X18.517 Y679.22
X18.932 Y680.235
X18.936 Y680.243
X19.359 Y681.267
X19.363 Y681.276
X19.794 Y682.309
X19.798 Y682.318
X20.238 Y683.359
X20.241 Y683.367
X20.689 Y684.417
X20.693 Y684.425
X21.149 Y685.484
X21.153 Y685.492
X21.617 Y686.56
X21.621 Y686.568
X22.093 Y687.643
X22.096 Y687.651
X22.577 Y688.735
X22.58 Y688.742
X23.069 Y689.835
X23.073 Y689.844
X23.57 Y690.944
X23.574 Y690.951
X24.079 Y692.06
X24.083 Y692.068
X24.596 Y693.184
X24.599 Y693.191
X25.121 Y694.316
X25.125 Y694.324
X25.655 Y695.456
X25.658 Y695.463
X26.196 Y696.603
X26.199 Y696.61
X26.746 Y697.758
X26.749 Y697.766
X27.304 Y698.921
X27.307 Y698.928
X27.87 Y700.091
X27.873 Y700.098
X28.444 Y701.268
X28.448 Y701.275
X29.027 Y702.452
X29.03 Y702.459
X29.617 Y703.643
X29.621 Y703.651
X30.216 Y704.841
X30.22 Y704.848
X30.823 Y706.045
X30.826 Y706.052
X31.438 Y707.256
X31.441 Y707.263
X32.061 Y708.473
X32.065 Y708.481
X32.693 Y709.696
X32.698 Y709.707
X33.977 Y712.156
X33.985 Y712.17
X35.296 Y714.641
X35.304 Y714.656
X36.647 Y717.147
X36.655 Y717.161
X38.03 Y719.67
X38.039 Y719.686
X39.445 Y722.21
X39.454 Y722.225
X40.892 Y724.764
X40.9 Y724.779
X42.369 Y727.33
X42.378 Y727.346
X43.878 Y729.907
X43.888 Y729.924
X45.418 Y732.492
X45.428 Y732.508
X46.989 Y735.081
X46.999 Y735.098
X48.589 Y737.674
X48.6 Y737.692
X50.221 Y740.268
X50.232 Y740.286
X51.881 Y742.86
X51.893 Y742.879
X53.572 Y745.449
X53.584 Y745.468
X55.291 Y748.031
X55.304 Y748.05
X57.04 Y750.604
X57.054 Y750.624
X58.817 Y753.166
X58.831 Y753.186
X60.623 Y755.714
X60.637 Y755.735
X62.456 Y758.247
X62.472 Y758.269
X64.317 Y760.761
X64.333 Y760.782
X66.205 Y763.254
X66.222 Y763.277
X68.12 Y765.725
X68.137 Y765.747
X70.061 Y768.17
X70.08 Y768.194
X72.029 Y770.588
X72.048 Y770.612
X74.022 Y772.977
X74.037 Y772.995
X75.033 Y774.166
X75.044 Y774.179
X76.046 Y775.341
X76.056 Y775.353
X77.064 Y776.507
X77.075 Y776.519
X78.089 Y777.664
X78.1 Y777.676
X79.12 Y778.813
X79.132 Y778.827
X80.157 Y779.954
X80.169 Y779.966
X81.2 Y781.084
X81.213 Y781.097
X82.25 Y782.205
X82.261 Y782.218
X83.304 Y783.317
X83.317 Y783.33
X84.365 Y784.419
X84.378 Y784.432
X85.432 Y785.511
X85.445 Y785.525
X86.505 Y786.593
X86.518 Y786.606
X87.582 Y787.664
X87.595 Y787.676
X88.666 Y788.724
X88.68 Y788.738
X89.755 Y789.775
X89.769 Y789.788
X90.85 Y790.814
X90.864 Y790.828
X91.951 Y791.843
X91.965 Y791.856
X93.056 Y792.86
X93.071 Y792.873
X94.167 Y793.866
X94.182 Y793.88
X95.284 Y794.861
X95.298 Y794.873
X96.404 Y795.844
X96.42 Y795.858
X97.531 Y796.817
X97.547 Y796.831
X98.664 Y797.778
X98.679 Y797.79
X99.8 Y798.726
X99.816 Y798.74
X100.942 Y799.664
X100.957 Y799.676
X102.087 Y800.589
X102.104 Y800.602
X103.239 Y801.503
X103.256 Y801.516
X104.396 Y802.405
X104.411 Y802.417
X105.555 Y803.295
X105.572 Y803.308
X106.721 Y804.174
X106.737 Y804.186
X107.89 Y805.041
X107.908 Y805.054
X109.066 Y805.897
X109.083 Y805.909
X110.245 Y806.74
X110.261 Y806.752
X111.427 Y807.572
X111.444 Y807.584
X112.614 Y808.392
X112.631 Y808.403
X113.805 Y809.2
X113.822 Y809.212
X115.001 Y809.998
X115.018 Y810.009
X116.2 Y810.784
X116.218 Y810.795
X117.405 Y811.558
X117.421 Y811.568
X118.611 Y812.32
X118.629 Y812.331
X119.823 Y813.072
X119.84 Y813.083
X121.038 Y813.813
X121.056 Y813.823
X122.258 Y814.542
X122.275 Y814.552
X123.48 Y815.26
X123.497 Y815.271
X124.707 Y815.969
X124.723 Y815.978
X125.935 Y816.665
X125.953 Y816.675
X127.169 Y817.351
X127.186 Y817.36
X128.406 Y818.026
X128.422 Y818.035
X129.645 Y818.691
X129.662 Y818.7
X130.888 Y819.346
X130.905 Y819.355
X132.135 Y819.991
X132.15 Y819.998
X133.383 Y820.625
X133.401 Y820.635
X134.637 Y821.25
X134.652 Y821.258
X135.891 Y821.865
X135.915 Y821.876
X138.403 Y823.063
X138.434 Y823.078
X140.933 Y824.228
X140.964 Y824.242
X143.476 Y825.357
X143.505 Y825.37
X146.027 Y826.451
X146.055 Y826.463
X148.588 Y827.512
X148.616 Y827.523
X151.16 Y828.541
X151.186 Y828.551
X153.739 Y829.54
X153.766 Y829.551
X156.33 Y830.51
X156.353 Y830.518
X158.925 Y831.451
X158.949 Y831.46
X161.531 Y832.367
X161.553 Y832.374
X164.143 Y833.257
X164.165 Y833.264
X166.764 Y834.124
X166.785 Y834.131
X169.392 Y834.968
X169.41 Y834.974
X172.024 Y835.791
X172.042 Y835.797
X174.664 Y836.595
X174.682 Y836.6
X177.312 Y837.379
X177.328 Y837.384
X179.964 Y838.146
X179.98 Y838.15
X182.623 Y838.895
X182.637 Y838.899
X185.286 Y839.629
X185.299 Y839.633
X187.955 Y840.349
X187.969 Y840.352
X190.631 Y841.054
X190.643 Y841.058
X193.311 Y841.747
X193.323 Y841.75
X195.997 Y842.426
X196.007 Y842.428
X198.686 Y843.094
X198.697 Y843.097
X201.381 Y843.751
X201.391 Y843.753
X204.081 Y844.397
X204.09 Y844.4
X206.786 Y845.034
X206.794 Y845.036
X209.494 Y845.661
X209.503 Y845.663
X212.208 Y846.279
X212.22 Y846.281
X217.645 Y847.488
X217.66 Y847.492
X223.103 Y848.668
X223.117 Y848.671
X228.577 Y849.818
X228.59 Y849.821
X234.069 Y850.941
X234.081 Y850.944
X239.576 Y852.039
X239.588 Y852.041
X245.1 Y853.112
X245.112 Y853.114
X250.641 Y854.16
X250.652 Y854.163
X256.197 Y855.185
X256.209 Y855.188
X261.77 Y856.188
X261.781 Y856.19
X267.359 Y857.167
G2 X270.29 Y854.704 I0.431 J-2.463
G1 Y534.704
Y534.671
X270.274 Y533.466
X270.272 Y533.404
X270.227 Y532.218
X270.224 Y532.149
X270.147 Y530.981
X270.141 Y530.913
X270.034 Y529.764
X270.027 Y529.695
X269.89 Y528.565
X269.88 Y528.492
X269.712 Y527.381
X269.7 Y527.309
X269.502 Y526.216
X269.487 Y526.141
X269.258 Y525.067
X269.242 Y524.995
X268.984 Y523.939
X268.963 Y523.861
X268.674 Y522.824
X268.652 Y522.75
X268.335 Y521.731
X268.309 Y521.655
X267.961 Y520.654
X267.933 Y520.578
X267.555 Y519.595
X267.526 Y519.52
X267.118 Y518.555
X267.085 Y518.479
X266.648 Y517.533
X266.614 Y517.461
X266.149 Y516.532
X266.11 Y516.458
X265.615 Y515.546
X265.576 Y515.477
X265.053 Y514.583
X265.012 Y514.515
X264.461 Y513.638
X264.417 Y513.57
X263.837 Y512.71
X263.794 Y512.648
X263.187 Y511.804
X263.138 Y511.739
X262.502 Y510.913
X262.456 Y510.855
X261.793 Y510.045
X261.744 Y509.987
X261.054 Y509.194
X261.006 Y509.141
X260.289 Y508.363
X260.24 Y508.311
X259.497 Y507.55
X259.448 Y507.5
X258.678 Y506.754
X258.629 Y506.709
X257.833 Y505.978
X257.784 Y505.934
X256.963 Y505.219
X256.914 Y505.177
X256.067 Y504.477
X256.018 Y504.438
X255.146 Y503.753
X255.1 Y503.717
X254.202 Y503.046
X254.155 Y503.012
X253.234 Y502.356
X253.19 Y502.325
X252.245 Y501.682
X252.2 Y501.652
X251.232 Y501.024
X251.188 Y500.996
X250.196 Y500.381
X250.154 Y500.356
X249.139 Y499.754
X249.098 Y499.73
X248.06 Y499.141
X248.021 Y499.119
X246.962 Y498.543
X246.923 Y498.522
X245.841 Y497.958
X245.804 Y497.939
X244.701 Y497.387
X244.664 Y497.369
X243.541 Y496.83
X243.508 Y496.815
X242.363 Y496.286
X242.329 Y496.27
X241.165 Y495.753
X241.132 Y495.739
X239.948 Y495.233
X239.917 Y495.22
X238.713 Y494.725
X238.684 Y494.713
X237.462 Y494.228
X237.434 Y494.217
X236.193 Y493.742
X236.165 Y493.732
X234.906 Y493.267
X234.881 Y493.258
X233.604 Y492.802
X233.58 Y492.793
X232.287 Y492.346
X232.262 Y492.338
X230.951 Y491.9
X230.929 Y491.892
X229.603 Y491.463
X229.581 Y491.456
X228.238 Y491.035
X228.22 Y491.03
X226.863 Y490.616
X226.842 Y490.61
X225.469 Y490.204
X225.451 Y490.198
X224.064 Y489.799
X224.047 Y489.794
X222.646 Y489.402
X222.628 Y489.398
X221.213 Y489.013
X221.2 Y489.009
X219.773 Y488.629
X219.757 Y488.625
X218.317 Y488.252
X218.304 Y488.249
X216.851 Y487.881
X216.839 Y487.878
X215.376 Y487.515
X215.364 Y487.512
X213.889 Y487.154
X213.877 Y487.151
X212.391 Y486.798
X212.383 Y486.796
X210.887 Y486.446
X210.872 Y486.442
X207.852 Y485.755
X207.836 Y485.752
X204.78 Y485.077
X204.767 Y485.074
X201.68 Y484.409
X201.67 Y484.407
X198.556 Y483.75
X198.549 Y483.748
X195.411 Y483.095
X195.407 Y483.094
X192.249 Y482.443
X192.246
X189.071 Y481.792
X185.887 Y481.138
X182.695 Y480.48
X179.5 Y479.813
X176.305 Y479.137
X173.116 Y478.449
X169.933 Y477.746
X166.762 Y477.027
X163.605 Y476.288
X160.465 Y475.529
X157.345 Y474.746
X154.251 Y473.939
X151.179 Y473.103
X149.659 Y472.677
X148.143 Y472.241
X146.635 Y471.799
X145.137 Y471.349
X143.646 Y470.89
X142.165 Y470.424
X140.693 Y469.949
X139.231 Y469.466
X137.779 Y468.974
X136.337 Y468.473
X134.906 Y467.964
X133.486 Y467.445
X132.077 Y466.918
X130.678 Y466.38
X129.292 Y465.834
X127.919 Y465.278
X126.556 Y464.712
X125.205 Y464.136
X123.867 Y463.55
X122.542 Y462.956
X121.229 Y462.35
X119.929 Y461.735
X118.643 Y461.109
X117.369 Y460.474
X116.109 Y459.828
X114.861 Y459.172
X113.628 Y458.507
X112.408 Y457.83
X111.201 Y457.144
X110.009 Y456.447
X108.829 Y455.741
X107.664 Y455.024
X106.511 Y454.296
X105.372 Y453.56
X104.248 Y452.813
X103.136 Y452.057
X102.072 Y451.313
Z-10 F333.3
X102.04 Y451.291 F1000
X100.954 Y450.514
X99.883 Y449.728
X98.825 Y448.932
X97.781 Y448.128
X96.75 Y447.315
X95.733 Y446.491
X94.727 Y445.658
X93.734 Y444.818
X92.755 Y443.968
X91.787 Y443.109
X90.832 Y442.243
X89.889 Y441.368
X88.959 Y440.485
X88.04 Y439.593
X87.132 Y438.695
X86.236 Y437.788
X85.351 Y436.876
X84.478 Y435.955
X83.615 Y435.027
X82.763 Y434.094
X81.921 Y433.154
X81.089 Y432.208
X80.267 Y431.255
X79.454 Y430.297
X78.65 Y429.335
X77.857 Y428.368
X77.074 Y427.398
X75.524 Y425.436
X74.01 Y423.463
X72.524 Y421.477
X71.065 Y419.481
X69.63 Y417.477
X68.216 Y415.468
X66.821 Y413.458
X65.441 Y411.448
X64.074 Y409.441
X62.717 Y407.442
X61.368 Y405.454
X61.366 Y405.451
X60.023 Y403.479
X60.019 Y403.472
X58.68 Y401.519
X58.672 Y401.508
X57.333 Y399.578
X57.323 Y399.564
X55.982 Y397.659
X55.969 Y397.64
X54.622 Y395.763
X54.605 Y395.74
X53.25 Y393.896
X53.23 Y393.87
X51.863 Y392.06
X51.847 Y392.039
X51.158 Y391.147
X51.145 Y391.13
X50.452 Y390.249
X50.439 Y390.232
X49.742 Y389.361
X49.727 Y389.342
X49.025 Y388.482
X49.01 Y388.464
X48.303 Y387.614
X48.286 Y387.595
X47.574 Y386.756
X47.555 Y386.734
X46.837 Y385.908
X46.819 Y385.887
X46.094 Y385.072
X46.073 Y385.049
X45.342 Y384.247
X45.322 Y384.225
X44.584 Y383.435
X44.56 Y383.41
X43.815 Y382.634
X43.791 Y382.609
X43.039 Y381.846
X43.014 Y381.822
X42.254 Y381.072
X42.226 Y381.045
X41.457 Y380.31
X41.429 Y380.284
X40.652 Y379.563
X40.622 Y379.536
X39.836 Y378.83
X39.805 Y378.802
X39.009 Y378.111
X38.976 Y378.083
X38.171 Y377.408
X38.138 Y377.381
X37.322 Y376.721
X37.287 Y376.693
X36.462 Y376.049
X36.424 Y376.02
X35.588 Y375.393
X35.551 Y375.366
X34.704 Y374.755
X34.665 Y374.727
X33.807 Y374.133
X33.765 Y374.104
X32.896 Y373.528
X32.854 Y373.501
X31.973 Y372.942
X31.931 Y372.916
X31.038 Y372.374
X30.992 Y372.347
X30.087 Y371.824
X30.041 Y371.798
X29.124 Y371.293
X29.076 Y371.267
X28.146 Y370.781
X28.099 Y370.758
X27.156 Y370.29
X27.106 Y370.265
X26.149 Y369.817
X26.102 Y369.796
X25.132 Y369.366
X25.081 Y369.344
X24.098 Y368.934
X24.046 Y368.913
X23.049 Y368.523
X22.997 Y368.503
X21.986 Y368.133
X21.935 Y368.115
X20.909 Y367.765
X20.858 Y367.748
X19.818 Y367.418
X19.767 Y367.402
X18.712 Y367.092
X18.659 Y367.078
X17.59 Y366.789
X17.537 Y366.775
X16.453 Y366.507
X16.401 Y366.495
X15.302 Y366.248
X15.251 Y366.237
X14.136 Y366.011
X14.086 Y366.001
X12.956 Y365.796
X12.906 Y365.788
X11.76 Y365.604
X11.711 Y365.596
X10.55 Y365.433
X10.5 Y365.427
X9.324 Y365.286
X9.274 Y365.28
X8.082 Y365.161
X8.036 Y365.157
X6.828 Y365.059
X6.781 Y365.056
X5.557 Y364.98
X5.51 Y364.977
X4.27 Y364.923
X4.227 Y364.922
X2.971 Y364.889
X2.927 Y364.888
X1.656 Y364.877
G2 X-0.857 Y367.585 I-0.022 J2.5
G1 X22.754 Y650.926
X12.484 Y651.783
G2 X10.269 Y654.892 I0.208 J2.491
G1 X10.465 Y655.662
X10.47 Y655.678
X10.674 Y656.458
X10.678 Y656.474
X10.891 Y657.263
X10.895 Y657.279
X11.116 Y658.077
X11.12 Y658.092
X11.349 Y658.899
X11.353 Y658.914
X11.59 Y659.73
X11.594 Y659.745
X11.839 Y660.57
X11.843 Y660.583
X12.095 Y661.418
X12.1 Y661.433
X12.361 Y662.276
X12.365 Y662.289
X12.634 Y663.142
X12.638 Y663.156
X12.915 Y664.017
X12.919 Y664.029
X13.204 Y664.9
X13.208 Y664.912
X13.501 Y665.792
X13.505 Y665.804
X13.807 Y666.693
X13.811 Y666.706
X14.12 Y667.604
X14.124 Y667.614
X14.442 Y668.522
X14.446 Y668.534
X14.771 Y669.45
X14.775 Y669.461
X15.109 Y670.387
X15.113 Y670.398
X15.455 Y671.332
X15.459 Y671.342
X15.809 Y672.286
X15.813 Y672.297
X16.171 Y673.249
X16.174 Y673.259
X16.541 Y674.221
X16.545 Y674.231
X16.919 Y675.201
X16.923 Y675.21
X17.305 Y676.19
X17.309 Y676.2
X17.7 Y677.188
X17.703 Y677.197
X18.102 Y678.195
X18.106 Y678.205
X18.513 Y679.211
X18.517 Y679.22
X18.932 Y680.235
X18.936 Y680.243
X19.359 Y681.267
X19.363 Y681.276
X19.794 Y682.309
X19.798 Y682.318
X20.238 Y683.359
X20.241 Y683.367
X20.689 Y684.417
X20.693 Y684.425
X21.149 Y685.484
X21.153 Y685.492
X21.617 Y686.56
X21.621 Y686.568
X22.093 Y687.643
X22.096 Y687.651
X22.577 Y688.735
X22.58 Y688.742
X23.069 Y689.835
X23.073 Y689.844
X23.57 Y690.944
X23.574 Y690.951
X24.079 Y692.06
X24.083 Y692.068
X24.596 Y693.184
X24.599 Y693.191
X25.121 Y694.316
X25.125 Y694.324
X25.655 Y695.456
X25.658 Y695.463
X26.196 Y696.603
X26.199 Y696.61
X26.746 Y697.758
X26.749 Y697.766
X27.304 Y698.921
X27.307 Y698.928
X27.87 Y700.091
X27.873 Y700.098
X28.444 Y701.268
X28.448 Y701.275
X29.027 Y702.452
X29.03 Y702.459
X29.617 Y703.643
X29.621 Y703.651
X30.216 Y704.841
X30.22 Y704.848
X30.823 Y706.045
X30.826 Y706.052
X31.438 Y707.256
X31.441 Y707.263
X32.061 Y708.473
X32.065 Y708.481
X32.693 Y709.696
X32.698 Y709.707
X33.977 Y712.156
X33.985 Y712.17
X35.296 Y714.641
X35.304 Y714.656
X36.647 Y717.147
X36.655 Y717.161
X38.03 Y719.67
X38.039 Y719.686
X39.445 Y722.21
X39.454 Y722.225
X40.892 Y724.764
X40.9 Y724.779
X42.369 Y727.33
X42.378 Y727.346
X43.878 Y729.907
X43.888 Y729.924
X45.418 Y732.492
X45.428 Y732.508
X46.989 Y735.081
X46.999 Y735.098
X48.589 Y737.674
X48.6 Y737.692
X50.221 Y740.268
X50.232 Y740.286
X51.881 Y742.86
X51.893 Y742.879
X53.572 Y745.449
X53.584 Y745.468
X55.291 Y748.031
X55.304 Y748.05
X57.04 Y750.604
X57.054 Y750.624
X58.817 Y753.166
X58.831 Y753.186
X60.623 Y755.714
X60.637 Y755.735
X62.456 Y758.247
X62.472 Y758.269
X64.317 Y760.761
X64.333 Y760.782
X66.205 Y763.254
X66.222 Y763.277
X68.12 Y765.725
X68.137 Y765.747
X70.061 Y768.17
X70.08 Y768.194
X72.029 Y770.588
X72.048 Y770.612
X74.022 Y772.977
X74.037 Y772.995
X75.033 Y774.166
X75.044 Y774.179
X76.046 Y775.341
X76.056 Y775.353
X77.064 Y776.507
X77.075 Y776.519
X78.089 Y777.664
X78.1 Y777.676
X79.12 Y778.813
X79.132 Y778.827
X80.157 Y779.954
X80.169 Y779.966
X81.2 Y781.084
X81.213 Y781.097
X82.25 Y782.205
X82.261 Y782.218
X83.304 Y783.317
X83.317 Y783.33
X84.365 Y784.419
X84.378 Y784.432
X85.432 Y785.511
X85.445 Y785.525
X86.505 Y786.593
X86.518 Y786.606
X87.582 Y787.664
X87.595 Y787.676
X88.666 Y788.724
X88.68 Y788.738
X89.755 Y789.775
X89.769 Y789.788
X90.85 Y790.814
X90.864 Y790.828
X91.951 Y791.843
X91.965 Y791.856
X93.056 Y792.86
X93.071 Y792.873
X94.167 Y793.866
X94.182 Y793.88
X95.284 Y794.861
X95.298 Y794.873
X96.404 Y795.844
X96.42 Y795.858
X97.531 Y796.817
X97.547 Y796.831
X98.664 Y797.778
X98.679 Y797.79
X99.8 Y798.726
X99.816 Y798.74
X100.942 Y799.664
X100.957 Y799.676
X102.087 Y800.589
X102.104 Y800.602
X103.239 Y801.503
X103.256 Y801.516
X104.396 Y802.405
X104.411 Y802.417
X105.555 Y803.295
X105.572 Y803.308
X106.721 Y804.174
X106.737 Y804.186
X107.89 Y805.041
X107.908 Y805.054
X109.066 Y805.897
X109.083 Y805.909
X110.245 Y806.74
X110.261 Y806.752
X111.427 Y807.572
X111.444 Y807.584
X112.614 Y808.392
X112.631 Y808.403
X113.805 Y809.2
X113.822 Y809.212
X115.001 Y809.998
X115.018 Y810.009
X116.2 Y810.784
X116.218 Y810.795
X117.405 Y811.558
X117.421 Y811.568
X118.611 Y812.32
X118.629 Y812.331
X119.823 Y813.072
X119.84 Y813.083
X121.038 Y813.813
X121.056 Y813.823
X122.258 Y814.542
X122.275 Y814.552
X123.48 Y815.26
X123.497 Y815.271
X124.707 Y815.969
X124.723 Y815.978
X125.935 Y816.665
X125.953 Y816.675
X127.169 Y817.351
X127.186 Y817.36
X128.406 Y818.026
X128.422 Y818.035
X129.645 Y818.691
X129.662 Y818.7
X130.888 Y819.346
X130.905 Y819.355
X132.135 Y819.991
X132.15 Y819.998
X133.383 Y820.625
X133.401 Y820.635
X134.637 Y821.25
X134.652 Y821.258
X135.891 Y821.865
X135.915 Y821.876
X138.403 Y823.063
X138.434 Y823.078
X140.933 Y824.228
X140.964 Y824.242
X143.476 Y825.357
X143.505 Y825.37
X146.027 Y826.451
X146.055 Y826.463
X148.588 Y827.512
X148.616 Y827.523
X151.16 Y828.541
X151.186 Y828.551
X153.739 Y829.54
X153.766 Y829.551
X156.33 Y830.51
X156.353 Y830.518
X158.925 Y831.451
X158.949 Y831.46
X161.531 Y832.367
X161.553 Y832.374
X164.143 Y833.257
X164.165 Y833.264
X166.764 Y834.124
X166.785 Y834.131
X169.392 Y834.968
X169.41 Y834.974
X172.024 Y835.791
X172.042 Y835.797
X174.664 Y836.595
X174.682 Y836.6
X177.312 Y837.379
X177.328 Y837.384
X179.964 Y838.146
X179.98 Y838.15
X182.623 Y838.895
X182.637 Y838.899
X185.286 Y839.629
X185.299 Y839.633
X187.955 Y840.349
X187.969 Y840.352
X190.631 Y841.054
X190.643 Y841.058
X193.311 Y841.747
X193.323 Y841.75
X195.997 Y842.426
X196.007 Y842.428
X198.686 Y843.094
X198.697 Y843.097
X201.381 Y843.751
X201.391 Y843.753
X204.081 Y844.397
X204.09 Y844.4
X206.786 Y845.034
X206.794 Y845.036
X209.494 Y845.661
X209.503 Y845.663
X212.208 Y846.279
X212.22 Y846.281
X217.645 Y847.488
X217.66 Y847.492
X223.103 Y848.668
X223.117 Y848.671
X228.577 Y849.818
X228.59 Y849.821
X234.069 Y850.941
X234.081 Y850.944
X239.576 Y852.039
X239.588 Y852.041
X245.1 Y853.112
X245.112 Y853.114
X250.641 Y854.16
X250.652 Y854.163
X256.197 Y855.185
X256.209 Y855.188
X261.77 Y856.188
X261.781 Y856.19
X267.359 Y857.167
G2 X270.29 Y854.704 I0.431 J-2.463
G1 Y534.704
Y534.671
X270.274 Y533.466
X270.272 Y533.404
X270.227 Y532.218
X270.224 Y532.149
X270.147 Y530.981
X270.141 Y530.913
X270.034 Y529.764
X270.027 Y529.695
X269.89 Y528.565
X269.88 Y528.492
X269.712 Y527.381
X269.7 Y527.309
X269.502 Y526.216
X269.487 Y526.141
X269.258 Y525.067
X269.242 Y524.995
X268.984 Y523.939
X268.963 Y523.861
X268.674 Y522.824
X268.652 Y522.75
X268.335 Y521.731
X268.309 Y521.655
X267.961 Y520.654
X267.933 Y520.578
X267.555 Y519.595
X267.526 Y519.52
X267.118 Y518.555
X267.085 Y518.479
X266.648 Y517.533
X266.614 Y517.461
X266.149 Y516.532
X266.11 Y516.458
X265.615 Y515.546
X265.576 Y515.477
X265.053 Y514.583
X265.012 Y514.515
X264.461 Y513.638
X264.417 Y513.57
X263.837 Y512.71
X263.794 Y512.648
X263.187 Y511.804
X263.138 Y511.739
X262.502 Y510.913
X262.456 Y510.855
X261.793 Y510.045
X261.744 Y509.987
X261.054 Y509.194
X261.006 Y509.141
X260.289 Y508.363
X260.24 Y508.311
X259.497 Y507.55
X259.448 Y507.5
X258.678 Y506.754
X258.629 Y506.709
X257.833 Y505.978
X257.784 Y505.934
X256.963 Y505.219
X256.914 Y505.177
X256.067 Y504.477
X256.018 Y504.438
X255.146 Y503.753
X255.1 Y503.717
X254.202 Y503.046
X254.155 Y503.012
X253.234 Y502.356
X253.19 Y502.325
X252.245 Y501.682
X252.2 Y501.652
X251.232 Y501.024
X251.188 Y500.996
X250.196 Y500.381
X250.154 Y500.356
X249.139 Y499.754
X249.098 Y499.73
X248.06 Y499.141
X248.021 Y499.119
X246.962 Y498.543
X246.923 Y498.522
X245.841 Y497.958
X245.804 Y497.939
X244.701 Y497.387
X244.664 Y497.369
X243.541 Y496.83
X243.508 Y496.815
X242.363 Y496.286
X242.329 Y496.27
X241.165 Y495.753
X241.132 Y495.739
X239.948 Y495.233
X239.917 Y495.22
X238.713 Y494.725
X238.684 Y494.713
X237.462 Y494.228
X237.434 Y494.217
X236.193 Y493.742
X236.165 Y493.732
X234.906 Y493.267
X234.881 Y493.258
X233.604 Y492.802
X233.58 Y492.793
X232.287 Y492.346
X232.262 Y492.338
X230.951 Y491.9
X230.929 Y491.892
X229.603 Y491.463
X229.581 Y491.456
X228.238 Y491.035
X228.22 Y491.03
X226.863 Y490.616
X226.842 Y490.61
X225.469 Y490.204
X225.451 Y490.198
X224.064 Y489.799
X224.047 Y489.794
X222.646 Y489.402
X222.628 Y489.398
X221.213 Y489.013
X221.2 Y489.009
X219.773 Y488.629
X219.757 Y488.625
X218.317 Y488.252
X218.304 Y488.249
X216.851 Y487.881
X216.839 Y487.878
X215.376 Y487.515
X215.364 Y487.512
X213.889 Y487.154
X213.877 Y487.151
X212.391 Y486.798
X212.383 Y486.796
X210.887 Y486.446
X210.872 Y486.442
X207.852 Y485.755
X207.836 Y485.752
X204.78 Y485.077
X204.767 Y485.074
X201.68 Y484.409
X201.67 Y484.407
X198.556 Y483.75
X198.549 Y483.748
X195.411 Y483.095
X195.407 Y483.094
X192.249 Y482.443
X192.246
X189.071 Y481.792
X185.887 Y481.138
X182.695 Y480.48
X179.5 Y479.813
X176.305 Y479.137
X173.116 Y478.449
X169.933 Y477.746
X166.762 Y477.027
X163.605 Y476.288
X160.465 Y475.529
X157.345 Y474.746
X154.251 Y473.939
X151.179 Y473.103
X149.659 Y472.677
X148.143 Y472.241
X146.635 Y471.799
X145.137 Y471.349
X143.646 Y470.89
X142.165 Y470.424
X140.693 Y469.949
X139.231 Y469.466
X137.779 Y468.974
X136.337 Y468.473
X134.906 Y467.964
X133.486 Y467.445
X132.077 Y466.918
X130.678 Y466.38
X129.292 Y465.834
X127.919 Y465.278
X126.556 Y464.712
X125.205 Y464.136
X123.867 Y463.55
X122.542 Y462.956
X121.229 Y462.35
X119.929 Y461.735
X118.643 Y461.109
X117.369 Y460.474
X116.109 Y459.828
X114.861 Y459.172
X113.628 Y458.507
X112.408 Y457.83
X111.201 Y457.144
X110.009 Y456.447
X108.829 Y455.741
X107.664 Y455.024
X106.511 Y454.296
X105.372 Y453.56
X104.248 Y452.813
X103.136 Y452.057
X102.072 Y451.313
Z-13 F333.3
X102.04 Y451.291 F1000
X100.954 Y450.514
X99.883 Y449.728
X98.825 Y448.932
X97.781 Y448.128
X96.75 Y447.315
X95.733 Y446.491
X94.727 Y445.658
X93.734 Y444.818
X92.755 Y443.968
X91.787 Y443.109
X90.832 Y442.243
X89.889 Y441.368
X88.959 Y440.485
X88.04 Y439.593
X87.132 Y438.695
X86.236 Y437.788
X85.351 Y436.876
X84.478 Y435.955
X83.615 Y435.027
X82.763 Y434.094
X81.921 Y433.154
X81.089 Y432.208
X80.267 Y431.255
X79.454 Y430.297
X78.65 Y429.335
X77.857 Y428.368
X77.074 Y427.398
X75.524 Y425.436
X74.01 Y423.463
X72.524 Y421.477
X71.065 Y419.481
X69.63 Y417.477
X68.216 Y415.468
X66.821 Y413.458
X65.441 Y411.448
X64.074 Y409.441
X62.717 Y407.442
X61.368 Y405.454
X61.366 Y405.451
X60.023 Y403.479
X60.019 Y403.472
X58.68 Y401.519
X58.672 Y401.508
X57.333 Y399.578
X57.323 Y399.564
X55.982 Y397.659
X55.969 Y397.64
X54.622 Y395.763
X54.605 Y395.74
X53.25 Y393.896
X53.23 Y393.87
X51.863 Y392.06
X51.847 Y392.039
X51.158 Y391.147
X51.145 Y391.13
X50.452 Y390.249
X50.439 Y390.232
X49.742 Y389.361
X49.727 Y389.342
X49.025 Y388.482
X49.01 Y388.464
X48.303 Y387.614
X48.286 Y387.595
X47.574 Y386.756
X47.555 Y386.734
X46.837 Y385.908
X46.819 Y385.887
X46.094 Y385.072
X46.073 Y385.049
X45.342 Y384.247
X45.322 Y384.225
X44.584 Y383.435
X44.56 Y383.41
X43.815 Y382.634
X43.791 Y382.609
X43.039 Y381.846
X43.014 Y381.822
X42.254 Y381.072
X42.226 Y381.045
X41.457 Y380.31
X41.429 Y380.284
X40.652 Y379.563
X40.622 Y379.536
X39.836 Y378.83
X39.805 Y378.802
X39.009 Y378.111
X38.976 Y378.083
X38.171 Y377.408
X38.138 Y377.381
X37.322 Y376.721
X37.287 Y376.693
X36.462 Y376.049
X36.424 Y376.02
X35.588 Y375.393
X35.551 Y375.366
X34.704 Y374.755
X34.665 Y374.727
X33.807 Y374.133
X33.765 Y374.104
X32.896 Y373.528
X32.854 Y373.501
X31.973 Y372.942
X31.931 Y372.916
X31.038 Y372.374
X30.992 Y372.347
X30.087 Y371.824
X30.041 Y371.798
X29.124 Y371.293
X29.076 Y371.267
X28.146 Y370.781
X28.099 Y370.758
X27.156 Y370.29
X27.106 Y370.265
X26.149 Y369.817
X26.102 Y369.796
X25.132 Y369.366
X25.081 Y369.344
X24.098 Y368.934
X24.046 Y368.913
X23.049 Y368.523
X22.997 Y368.503
X21.986 Y368.133
X21.935 Y368.115
X20.909 Y367.765
X20.858 Y367.748
X19.818 Y367.418
X19.767 Y367.402
X18.712 Y367.092
X18.659 Y367.078
X17.59 Y366.789
X17.537 Y366.775
X16.453 Y366.507
X16.401 Y366.495
X15.302 Y366.248
X15.251 Y366.237
X14.136 Y366.011
X14.086 Y366.001
X12.956 Y365.796
X12.906 Y365.788
X11.76 Y365.604
X11.711 Y365.596
X10.55 Y365.433
X10.5 Y365.427
X9.324 Y365.286
X9.274 Y365.28
X8.082 Y365.161
X8.036 Y365.157
X6.828 Y365.059
X6.781 Y365.056
X5.557 Y364.98
X5.51 Y364.977
X4.27 Y364.923
X4.227 Y364.922
X2.971 Y364.889
X2.927 Y364.888
X1.656 Y364.877
G2 X-0.857 Y367.585 I-0.022 J2.5
G1 X22.754 Y650.926
X12.484 Y651.783
G2 X10.269 Y654.892 I0.208 J2.491
G1 X10.465 Y655.662
X10.47 Y655.678
X10.674 Y656.458
X10.678 Y656.474
X10.891 Y657.263
X10.895 Y657.279
X11.116 Y658.077
X11.12 Y658.092
X11.349 Y658.899
X11.353 Y658.914
X11.59 Y659.73
X11.594 Y659.745
X11.839 Y660.57
X11.843 Y660.583
X12.095 Y661.418
X12.1 Y661.433
X12.361 Y662.276
X12.365 Y662.289
X12.634 Y663.142
X12.638 Y663.156
X12.915 Y664.017
X12.919 Y664.029
X13.204 Y664.9
X13.208 Y664.912
X13.501 Y665.792
X13.505 Y665.804
X13.807 Y666.693
X13.811 Y666.706
X14.12 Y667.604
X14.124 Y667.614
X14.442 Y668.522
X14.446 Y668.534
X14.771 Y669.45
X14.775 Y669.461
X15.109 Y670.387
X15.113 Y670.398
X15.455 Y671.332
X15.459 Y671.342
X15.809 Y672.286
X15.813 Y672.297
X16.171 Y673.249
X16.174 Y673.259
X16.541 Y674.221
X16.545 Y674.231
X16.919 Y675.201
X16.923 Y675.21
X17.305 Y676.19
X17.309 Y676.2
X17.7 Y677.188
X17.703 Y677.197
X18.102 Y678.195
X18.106 Y678.205
X18.513 Y679.211
X18.517 Y679.22
X18.932 Y680.235
X18.936 Y680.243
X19.359 Y681.267
X19.363 Y681.276
X19.794 Y682.309
X19.798 Y682.318
X20.238 Y683.359
X20.241 Y683.367
X20.689 Y684.417
X20.693 Y684.425
X21.149 Y685.484
X21.153 Y685.492
X21.617 Y686.56
X21.621 Y686.568
X22.093 Y687.643
X22.096 Y687.651
X22.577 Y688.735
X22.58 Y688.742
X23.069 Y689.835
X23.073 Y689.844
X23.57 Y690.944
X23.574 Y690.951
X24.079 Y692.06
X24.083 Y692.068
X24.596 Y693.184
X24.599 Y693.191
X25.121 Y694.316
X25.125 Y694.324
X25.655 Y695.456
X25.658 Y695.463
X26.196 Y696.603
X26.199 Y696.61
X26.746 Y697.758
X26.749 Y697.766
X27.304 Y698.921
X27.307 Y698.928
X27.87 Y700.091
X27.873 Y700.098
X28.444 Y701.268
X28.448 Y701.275
X29.027 Y702.452
X29.03 Y702.459
X29.617 Y703.643
X29.621 Y703.651
X30.216 Y704.841
X30.22 Y704.848
X30.823 Y706.045
X30.826 Y706.052
X31.438 Y707.256
X31.441 Y707.263
X32.061 Y708.473
X32.065 Y708.481
X32.693 Y709.696
X32.698 Y709.707
X33.977 Y712.156
X33.985 Y712.17
X35.296 Y714.641
X35.304 Y714.656
X36.647 Y717.147
X36.655 Y717.161
X38.03 Y719.67
X38.039 Y719.686
X39.445 Y722.21
X39.454 Y722.225
X40.892 Y724.764
X40.9 Y724.779
X42.369 Y727.33
X42.378 Y727.346
X43.878 Y729.907
X43.888 Y729.924
X45.418 Y732.492
X45.428 Y732.508
X46.989 Y735.081
X46.999 Y735.098
X48.589 Y737.674
X48.6 Y737.692
X50.221 Y740.268
X50.232 Y740.286
X51.881 Y742.86
X51.893 Y742.879
X53.572 Y745.449
X53.584 Y745.468
X55.291 Y748.031
X55.304 Y748.05
X57.04 Y750.604
X57.054 Y750.624
X58.817 Y753.166
X58.831 Y753.186
X60.623 Y755.714
X60.637 Y755.735
X62.456 Y758.247
X62.472 Y758.269
X64.317 Y760.761
X64.333 Y760.782
X66.205 Y763.254
X66.222 Y763.277
X68.12 Y765.725
X68.137 Y765.747
X70.061 Y768.17
X70.08 Y768.194
X72.029 Y770.588
X72.048 Y770.612
X74.022 Y772.977
X74.037 Y772.995
X75.033 Y774.166
X75.044 Y774.179
X76.046 Y775.341
X76.056 Y775.353
X77.064 Y776.507
X77.075 Y776.519
X78.089 Y777.664
X78.1 Y777.676
X79.12 Y778.813
X79.132 Y778.827
X80.157 Y779.954
X80.169 Y779.966
X81.2 Y781.084
X81.213 Y781.097
X82.25 Y782.205
X82.261 Y782.218
X83.304 Y783.317
X83.317 Y783.33
X84.365 Y784.419
X84.378 Y784.432
X85.432 Y785.511
X85.445 Y785.525
X86.505 Y786.593
X86.518 Y786.606
X87.582 Y787.664
X87.595 Y787.676
X88.666 Y788.724
X88.68 Y788.738
X89.755 Y789.775
X89.769 Y789.788
X90.85 Y790.814
X90.864 Y790.828
X91.951 Y791.843
X91.965 Y791.856
X93.056 Y792.86
X93.071 Y792.873
X94.167 Y793.866
X94.182 Y793.88
X95.284 Y794.861
X95.298 Y794.873
X96.404 Y795.844
X96.42 Y795.858
X97.531 Y796.817
X97.547 Y796.831
X98.664 Y797.778
X98.679 Y797.79
X99.8 Y798.726
X99.816 Y798.74
X100.942 Y799.664
X100.957 Y799.676
X102.087 Y800.589
X102.104 Y800.602
X103.239 Y801.503
X103.256 Y801.516
X104.396 Y802.405
X104.411 Y802.417
X105.555 Y803.295
X105.572 Y803.308
X106.721 Y804.174
X106.737 Y804.186
X107.89 Y805.041
X107.908 Y805.054
X109.066 Y805.897
X109.083 Y805.909
X110.245 Y806.74
X110.261 Y806.752
X111.427 Y807.572
X111.444 Y807.584
X112.614 Y808.392
X112.631 Y808.403
X113.805 Y809.2
X113.822 Y809.212
X115.001 Y809.998
X115.018 Y810.009
X116.2 Y810.784
X116.218 Y810.795
X117.405 Y811.558
X117.421 Y811.568
X118.611 Y812.32
X118.629 Y812.331
X119.823 Y813.072
X119.84 Y813.083
X121.038 Y813.813
X121.056 Y813.823
X122.258 Y814.542
X122.275 Y814.552
X123.48 Y815.26
X123.497 Y815.271
X124.707 Y815.969
X124.723 Y815.978
X125.935 Y816.665
X125.953 Y816.675
X127.169 Y817.351
X127.186 Y817.36
X128.406 Y818.026
X128.422 Y818.035
X129.645 Y818.691
X129.662 Y818.7
X130.888 Y819.346
X130.905 Y819.355
X132.135 Y819.991
X132.15 Y819.998
X133.383 Y820.625
X133.401 Y820.635
X134.637 Y821.25
X134.652 Y821.258
X135.891 Y821.865
X135.915 Y821.876
X138.403 Y823.063
X138.434 Y823.078
X140.933 Y824.228
X140.964 Y824.242
X143.476 Y825.357
X143.505 Y825.37
X146.027 Y826.451
X146.055 Y826.463
X148.588 Y827.512
X148.616 Y827.523
X151.16 Y828.541
X151.186 Y828.551
X153.739 Y829.54
X153.766 Y829.551
X156.33 Y830.51
X156.353 Y830.518
X158.925 Y831.451
X158.949 Y831.46
X161.531 Y832.367
X161.553 Y832.374
X164.143 Y833.257
X164.165 Y833.264
X166.764 Y834.124
X166.785 Y834.131
X169.392 Y834.968
X169.41 Y834.974
X172.024 Y835.791
X172.042 Y835.797
X174.664 Y836.595
X174.682 Y836.6
X177.312 Y837.379
X177.328 Y837.384
X179.964 Y838.146
X179.98 Y838.15
X182.623 Y838.895
X182.637 Y838.899
X185.286 Y839.629
X185.299 Y839.633
X187.955 Y840.349
X187.969 Y840.352
X190.631 Y841.054
X190.643 Y841.058
X193.311 Y841.747
X193.323 Y841.75
X195.997 Y842.426
X196.007 Y842.428
X198.686 Y843.094
X198.697 Y843.097
X201.381 Y843.751
X201.391 Y843.753
X204.081 Y844.397
X204.09 Y844.4
X206.786 Y845.034
X206.794 Y845.036
X209.494 Y845.661
X209.503 Y845.663
X212.208 Y846.279
X212.22 Y846.281
X217.645 Y847.488
X217.66 Y847.492
X223.103 Y848.668
X223.117 Y848.671
X228.577 Y849.818
X228.59 Y849.821
X234.069 Y850.941
X234.081 Y850.944
X239.576 Y852.039
X239.588 Y852.041
X245.1 Y853.112
X245.112 Y853.114
X250.641 Y854.16
X250.652 Y854.163
X256.197 Y855.185
X256.209 Y855.188
X261.77 Y856.188
X261.781 Y856.19
X267.359 Y857.167
G2 X270.29 Y854.704 I0.431 J-2.463
G1 Y534.704
Y534.671
X270.274 Y533.466
X270.272 Y533.404
X270.227 Y532.218
X270.224 Y532.149
X270.147 Y530.981
X270.141 Y530.913
X270.034 Y529.764
X270.027 Y529.695
X269.89 Y528.565
X269.88 Y528.492
X269.712 Y527.381
X269.7 Y527.309
X269.502 Y526.216
X269.487 Y526.141
X269.258 Y525.067
X269.242 Y524.995
X268.984 Y523.939
X268.963 Y523.861
X268.674 Y522.824
X268.652 Y522.75
X268.335 Y521.731
X268.309 Y521.655
X267.961 Y520.654
X267.933 Y520.578
X267.555 Y519.595
X267.526 Y519.52
X267.118 Y518.555
X267.085 Y518.479
X266.648 Y517.533
X266.614 Y517.461
X266.149 Y516.532
X266.11 Y516.458
X265.615 Y515.546
X265.576 Y515.477
X265.053 Y514.583
X265.012 Y514.515
X264.461 Y513.638
X264.417 Y513.57
X263.837 Y512.71
X263.794 Y512.648
X263.187 Y511.804
X263.138 Y511.739
X262.502 Y510.913
X262.456 Y510.855
X261.793 Y510.045
X261.744 Y509.987
X261.054 Y509.194
X261.006 Y509.141
X260.289 Y508.363
X260.24 Y508.311
X259.497 Y507.55
X259.448 Y507.5
X258.678 Y506.754
X258.629 Y506.709
X257.833 Y505.978
X257.784 Y505.934
X256.963 Y505.219
X256.914 Y505.177
X256.067 Y504.477
X256.018 Y504.438
X255.146 Y503.753
X255.1 Y503.717
X254.202 Y503.046
X254.155 Y503.012
X253.234 Y502.356
X253.19 Y502.325
X252.245 Y501.682
X252.2 Y501.652
X251.232 Y501.024
X251.188 Y500.996
X250.196 Y500.381
X250.154 Y500.356
X249.139 Y499.754
X249.098 Y499.73
X248.06 Y499.141
X248.021 Y499.119
X246.962 Y498.543
X246.923 Y498.522
X245.841 Y497.958
X245.804 Y497.939
X244.701 Y497.387
X244.664 Y497.369
X243.541 Y496.83
X243.508 Y496.815
X242.363 Y496.286
X242.329 Y496.27
X241.165 Y495.753
X241.132 Y495.739
X239.948 Y495.233
X239.917 Y495.22
X238.713 Y494.725
X238.684 Y494.713
X237.462 Y494.228
X237.434 Y494.217
X236.193 Y493.742
X236.165 Y493.732
X234.906 Y493.267
X234.881 Y493.258
X233.604 Y492.802
X233.58 Y492.793
X232.287 Y492.346
X232.262 Y492.338
X230.951 Y491.9
X230.929 Y491.892
X229.603 Y491.463
X229.581 Y491.456
X228.238 Y491.035
X228.22 Y491.03
X226.863 Y490.616
X226.842 Y490.61
X225.469 Y490.204
X225.451 Y490.198
X224.064 Y489.799
X224.047 Y489.794
X222.646 Y489.402
X222.628 Y489.398
X221.213 Y489.013
X221.2 Y489.009
X219.773 Y488.629
X219.757 Y488.625
X218.317 Y488.252
X218.304 Y488.249
X216.851 Y487.881
X216.839 Y487.878
X215.376 Y487.515
X215.364 Y487.512
X213.889 Y487.154
X213.877 Y487.151
X212.391 Y486.798
X212.383 Y486.796
X210.887 Y486.446
X210.872 Y486.442
X207.852 Y485.755
X207.836 Y485.752
X204.78 Y485.077
X204.767 Y485.074
X201.68 Y484.409
X201.67 Y484.407
X198.556 Y483.75
X198.549 Y483.748
X195.411 Y483.095
X195.407 Y483.094
X192.249 Y482.443
X192.246
X189.071 Y481.792
X185.887 Y481.138
X182.695 Y480.48
X179.5 Y479.813
X176.305 Y479.137
X173.116 Y478.449
X169.933 Y477.746
X166.762 Y477.027
X163.605 Y476.288
X160.465 Y475.529
X157.345 Y474.746
X154.251 Y473.939
X151.179 Y473.103
X149.659 Y472.677
X148.143 Y472.241
X146.635 Y471.799
X145.137 Y471.349
X143.646 Y470.89
X142.165 Y470.424
X140.693 Y469.949
X139.231 Y469.466
X137.779 Y468.974
X136.337 Y468.473
X134.906 Y467.964
X133.486 Y467.445
X132.077 Y466.918
X130.678 Y466.38
X129.292 Y465.834
X127.919 Y465.278
X126.556 Y464.712
X125.205 Y464.136
X123.867 Y463.55
X122.542 Y462.956
X121.229 Y462.35
X119.929 Y461.735
X118.643 Y461.109
X117.369 Y460.474
X116.109 Y459.828
X114.861 Y459.172
X113.628 Y458.507
X112.408 Y457.83
X111.201 Y457.144
X110.009 Y456.447
X108.829 Y455.741
X107.664 Y455.024
X106.511 Y454.296
X105.372 Y453.56
X104.248 Y452.813
X103.136 Y452.057
X102.072 Y451.313
G0 Z15
M9
M5
M30
