(CamperGaskastenRahmen)
(T4  D=5 CR=0 - ZMIN=-27 - flat end mill)
G90 G94
G17
G21

(Adaptive2)
T4
S5000 M3
G54
M8
G0 X-0.491 Y18.377
Z16.5
Z6.5
Z-0.5
G1 Z-1 F1000
X-0.489 Y18.384 Z-1.087
X-0.483 Y18.406 Z-1.171
X-0.474 Y18.442 Z-1.25
X-0.461 Y18.49 Z-1.321
X-0.446 Y18.55 Z-1.383
X-0.428 Y18.619 Z-1.433
X-0.409 Y18.696 Z-1.47
X-0.388 Y18.777 Z-1.492
X-0.366 Y18.861 Z-1.5
G3 X0.025 Y21.583 I-12.366 J3.167
G1 Y21.685
X0.045 Y21.783
X0.364 Y22.526
X0.456 Y22.631
X0.643 Y22.875
X0.832 Y23.195
X1.013 Y23.612
X1.173 Y24.156
X1.293 Y24.884
X1.325 Y25.691
X1.292 Y26.499
X1.23 Y27.305
X1.146 Y28.109
X1.048 Y28.911
X0.941 Y29.712
X0.853 Y30.516
X0.78 Y31.32
X0.718 Y32.126
X0.662 Y32.933
X0.616 Y33.74
X0.586 Y34.547
X0.566 Y35.355
X0.552 Y36.163
X0.543 Y36.972
X0.537 Y37.78
X0.533 Y38.588
X0.529 Y40.204
X0.526 Y42.629
X0.525 Y51.52
Y71.726
Y121.836
Y171.947
Y222.057
Y272.168
Y322.279
Y372.389
Y422.5
Y472.611
Y492.817
X0.53 Y493.625
X0.547 Y494.433
X0.572 Y495.241
X0.603 Y496.048
X0.638 Y496.856
X0.699 Y497.662
X0.782 Y498.466
X0.88 Y499.268
X0.987 Y500.069
X1.111 Y500.868
X1.264 Y501.661
X1.435 Y502.451
X1.62 Y503.238
X1.812 Y504.023
X2.035 Y504.8
X2.281 Y505.57
X2.542 Y506.335
X2.812 Y507.097
X3.101 Y507.852
X3.416 Y508.596
X3.749 Y509.332
X4.094 Y510.063
X4.446 Y510.791
X4.828 Y511.503
X5.23 Y512.204
X5.645 Y512.898
X6.069 Y513.586
X6.511 Y514.263
X6.976 Y514.924
X7.456 Y515.574
X7.945 Y516.217
X8.443 Y516.854
X8.967 Y517.47
X9.507 Y518.071
X10.057 Y518.662
X10.615 Y519.247
X11.19 Y519.815
X11.784 Y520.363
X12.39 Y520.899
X13.003 Y521.426
X13.624 Y521.942
X14.266 Y522.434
X14.92 Y522.909
X15.582 Y523.372
X16.249 Y523.828
X16.932 Y524.261
X17.628 Y524.672
X18.332 Y525.069
X19.041 Y525.456
X19.758 Y525.829
X20.489 Y526.175
X21.228 Y526.502
X21.972 Y526.817
X22.72 Y527.123
X23.479 Y527.402
X24.245 Y527.658
X25.017 Y527.899
X25.792 Y528.129
X26.571 Y528.342
X27.358 Y528.526
X28.15 Y528.691
X28.943 Y528.843
X29.739 Y528.987
X30.539 Y529.099
X31.342 Y529.188
X32.147 Y529.262
X32.953 Y529.325
X33.76 Y529.375
X34.567 Y529.408
X35.375 Y529.43
X36.183 Y529.445
X36.992 Y529.455
X37.8 Y529.461
X38.608 Y529.466
X40.224 Y529.471
X42.649 Y529.474
X50.732 Y529.475
X58.814
X108.925
X159.035
X209.146
X259.256
X309.367
X343.313
X344.121 Y529.462
X344.929 Y529.439
X345.737 Y529.409
X346.544 Y529.376
X347.351 Y529.326
X348.156 Y529.251
X348.959 Y529.159
X349.76 Y529.055
X350.561 Y528.944
X351.356 Y528.8
X352.147 Y528.634
X352.935 Y528.453
X353.72 Y528.263
X354.501 Y528.052
X355.273 Y527.815
X356.04 Y527.56
X356.803 Y527.293
X357.563 Y527.017
X358.31 Y526.709
X359.049 Y526.382
X359.782 Y526.041
X360.511 Y525.691
X361.229 Y525.32
X361.934 Y524.925
X362.63 Y524.515
X363.321 Y524.095
X364.005 Y523.664
X364.671 Y523.207
X365.325 Y522.731
X365.97 Y522.245
X366.61 Y521.751
X367.233 Y521.237
X367.84 Y520.702
X368.435 Y520.156
X369.022 Y519.6
X369.599 Y519.035
X370.154 Y518.447
X370.694 Y517.845
X371.223 Y517.235
X371.746 Y516.618
X372.246 Y515.983
X372.727 Y515.334
X373.194 Y514.674
X373.653 Y514.008
X374.097 Y513.333
X374.516 Y512.642
X374.917 Y511.941
X375.308 Y511.233
X375.69 Y510.521
X376.045 Y509.795
X376.378 Y509.058
X376.697 Y508.316
X377.006 Y507.569
X377.297 Y506.815
X377.561 Y506.051
X377.807 Y505.281
X378.041 Y504.507
X378.266 Y503.731
X378.459 Y502.946
X378.63 Y502.156
X378.786 Y501.363
X378.933 Y500.568
X379.058 Y499.77
X379.155 Y498.968
X379.234 Y498.163
X379.301 Y497.358
X379.359 Y496.552
X379.397 Y495.744
X379.423 Y494.936
X379.44 Y494.128
X379.452 Y493.32
X379.459 Y492.512
X379.465 Y491.704
X379.468 Y490.896
X379.472 Y489.279
X379.474 Y486.046
X379.475 Y484.43
Y434.319
Y384.208
Y334.098
Y283.987
Y233.877
Y183.766
Y133.655
Y83.545
Y36.667
X379.461 Y35.859
X379.438 Y35.051
X379.409 Y34.243
X379.375 Y33.436
X379.325 Y32.629
X379.249 Y31.824
X379.156 Y31.021
X379.052 Y30.22
X378.941 Y29.419
X378.796 Y28.624
X378.63 Y27.833
X378.449 Y27.046
X378.259 Y26.26
X378.047 Y25.48
X377.809 Y24.708
X377.553 Y23.941
X377.286 Y23.178
X377.009 Y22.419
X376.701 Y21.672
X376.373 Y20.933
X376.032 Y20.2
X375.682 Y19.471
X375.311 Y18.754
X374.915 Y18.049
X374.505 Y17.352
X374.085 Y16.662
X373.653 Y15.979
X373.195 Y15.313
X372.72 Y14.659
X372.233 Y14.014
X371.739 Y13.374
X371.224 Y12.752
X370.689 Y12.146
X370.142 Y11.551
X369.586 Y10.963
X369.02 Y10.387
X368.432 Y9.832
X367.83 Y9.293
X367.219 Y8.764
X366.603 Y8.241
X365.967 Y7.742
X365.317 Y7.261
X364.658 Y6.794
X363.992 Y6.336
X363.316 Y5.893
X362.625 Y5.474
X361.923 Y5.073
X361.215 Y4.683
X360.503 Y4.3
X359.777 Y3.946
X359.04 Y3.614
X358.297 Y3.295
X357.55 Y2.986
X356.796 Y2.696
X356.032 Y2.432
X355.262 Y2.187
X354.488 Y1.953
X353.712 Y1.728
X352.927 Y1.536
X352.137 Y1.365
X351.344 Y1.21
X350.549 Y1.064
X349.75 Y0.939
X348.948 Y0.843
X348.143 Y0.764
X347.338 Y0.697
X346.532 Y0.64
X345.724 Y0.602
X344.916 Y0.576
X344.108 Y0.559
X343.3 Y0.548
X342.492 Y0.54
X341.684 Y0.535
X340.876 Y0.532
X339.259 Y0.528
X336.026 Y0.526
X297.231 Y0.525
X247.12
X197.01
X146.899
X96.788
X46.678
X36.979
X36.171 Y0.533
X35.363 Y0.553
X34.555 Y0.58
X33.747 Y0.612
X32.94 Y0.65
X32.135 Y0.718
X31.331 Y0.805
X30.529 Y0.906
X29.728 Y1.015
X28.931 Y1.147
X28.138 Y1.306
X27.349 Y1.481
X26.563 Y1.668
X25.78 Y1.866
X25.005 Y2.096
X24.236 Y2.346
X23.472 Y2.61
X22.711 Y2.882
X21.959 Y3.179
X21.217 Y3.499
X20.482 Y3.836
X19.752 Y4.182
X19.029 Y4.542
X18.319 Y4.93
X17.62 Y5.335
X16.928 Y5.752
X16.24 Y6.177
X15.568 Y6.626
X14.911 Y7.096
X14.262 Y7.579
X13.621 Y8.07
X12.99 Y8.575
X12.378 Y9.103
X11.779 Y9.646
X11.189 Y10.199
X10.605 Y10.758
X10.044 Y11.339
X9.499 Y11.936
X8.967 Y12.544
X8.442 Y13.159
X7.932 Y13.786
X7.445 Y14.431
X6.973 Y15.087
X6.512 Y15.751
X6.058 Y16.419
X5.632 Y17.106
X5.225 Y17.805
X4.832 Y18.511
X4.447 Y19.221
X4.081 Y19.942
X3.937 Y20.738
X3.957 Y21.546
X4.032 Y22.35
X4.117 Y23.154
X4.185 Y23.959
X4.222 Y24.767
X4.229 Y25.575
X4.209 Y26.383
X4.166 Y27.19
X4.104 Y27.996
X4.03 Y28.801
X3.954 Y29.605
X3.881 Y30.41
X3.813 Y31.216
X3.751 Y32.022
X3.698 Y32.828
X3.656 Y33.635
X3.622 Y34.443
X3.596 Y35.251
X3.577 Y36.059
X3.563 Y36.867
X3.552 Y37.675
X3.544 Y38.483
X3.539 Y39.291
X3.535 Y40.1
X3.53 Y41.716
X3.527 Y44.141
X3.525 Y49.798
Y70.004
Y120.115
Y170.226
Y220.336
Y270.447
Y320.557
Y370.668
Y420.779
Y470.889
Y491.095
X3.526 Y491.903
X3.533 Y492.712
X3.546 Y493.52
X3.564 Y494.328
X3.589 Y495.136
X3.628 Y495.943
X3.683 Y496.749
X3.753 Y497.555
X3.838 Y498.358
X3.941 Y499.16
X4.064 Y499.959
X4.207 Y500.754
X4.366 Y501.547
X4.544 Y502.335
X4.746 Y503.118
X4.968 Y503.895
X5.207 Y504.667
X5.466 Y505.433
X5.746 Y506.191
X6.047 Y506.941
X6.363 Y507.685
X6.698 Y508.42
X7.054 Y509.146
X7.43 Y509.861
X7.822 Y510.568
X8.231 Y511.265
X8.661 Y511.95
X9.109 Y512.622
X9.572 Y513.285
X10.05 Y513.936
X10.548 Y514.573
X11.062 Y515.197
X11.591 Y515.808
X12.134 Y516.406
X12.694 Y516.989
X13.27 Y517.556
X13.86 Y518.109
X14.462 Y518.648
X15.079 Y519.17
X15.71 Y519.674
X16.353 Y520.164
X17.008 Y520.638
X17.676 Y521.094
X18.356 Y521.531
X19.046 Y521.952
X19.745 Y522.356
X20.456 Y522.741
X21.178 Y523.105
X21.908 Y523.452
X22.646 Y523.782
X23.392 Y524.091
X24.148 Y524.379
X24.909 Y524.649
X25.677 Y524.901
X26.452 Y525.133
X27.232 Y525.342
X28.018 Y525.531
X28.808 Y525.703
X29.602 Y525.853
X30.4 Y525.98
X31.201 Y526.088
X32.004 Y526.178
X32.809 Y526.252
X33.615 Y526.309
X34.422 Y526.353
X35.23 Y526.386
X36.038 Y526.411
X36.846 Y526.429
X37.654 Y526.442
X38.462 Y526.451
X39.27 Y526.458
X40.079 Y526.463
X40.887 Y526.467
X42.503 Y526.471
X44.928 Y526.474
X52.202 Y526.475
X61.901
X112.012
X162.122
X212.233
X262.344
X312.454
X341.551
X342.359 Y526.471
X343.167 Y526.461
X343.975 Y526.445
X344.783 Y526.423
X345.591 Y526.391
X346.397 Y526.343
X347.203 Y526.279
X348.008 Y526.201
X348.811 Y526.108
X349.611 Y525.993
X350.408 Y525.858
X351.201 Y525.706
X351.991 Y525.536
X352.777 Y525.344
X353.556 Y525.131
X354.33 Y524.899
X355.099 Y524.65
X355.861 Y524.38
X356.615 Y524.088
X357.361 Y523.778
X358.1 Y523.45
X358.83 Y523.103
X359.549 Y522.735
X360.26 Y522.35
X360.962 Y521.95
X361.652 Y521.529
X362.33 Y521.089
X362.997 Y520.633
X363.654 Y520.161
X364.297 Y519.671
X364.926 Y519.164
X365.542 Y518.641
X366.147 Y518.105
X366.736 Y517.552
X367.31 Y516.983
X367.869 Y516.399
X368.415 Y515.803
X368.945 Y515.192
X369.456 Y514.567
X369.952 Y513.928
X370.433 Y513.279
X370.897 Y512.617
X371.342 Y511.942
X371.769 Y511.256
X372.182 Y510.562
X372.576 Y509.856
X372.949 Y509.138
X373.303 Y508.412
X373.64 Y507.677
X373.958 Y506.935
X374.255 Y506.183
X374.533 Y505.424
X374.794 Y504.659
X375.035 Y503.887
X375.254 Y503.109
X375.451 Y502.326
X375.631 Y501.538
X375.791 Y500.745
X375.927 Y499.949
X376.043 Y499.149
X376.141 Y498.346
X376.222 Y497.542
X376.286 Y496.737
X376.336 Y495.93
X376.373 Y495.123
X376.401 Y494.315
X376.422 Y493.507
X376.437 Y492.699
X376.448 Y491.891
X376.456 Y491.082
X376.461 Y490.274
X376.465 Y489.466
X376.47 Y487.849
X376.473 Y485.425
X376.475 Y479.767
Y476.534
Y426.424
Y376.313
Y326.202
Y276.092
Y225.981
Y175.87
Y125.76
Y75.649
Y38.47
X376.471 Y37.662
X376.461 Y36.854
X376.445 Y36.046
X376.423 Y35.238
X376.392 Y34.43
X376.344 Y33.623
X376.281 Y32.818
X376.204 Y32.013
X376.111 Y31.21
X375.997 Y30.41
X375.862 Y29.613
X375.71 Y28.819
X375.54 Y28.029
X375.349 Y27.244
X375.136 Y26.464
X374.905 Y25.69
X374.657 Y24.92
X374.387 Y24.159
X374.095 Y23.405
X373.786 Y22.658
X373.459 Y21.919
X373.112 Y21.189
X372.745 Y20.469
X372.36 Y19.758
X371.96 Y19.056
X371.54 Y18.365
X371.101 Y17.687
X370.645 Y17.02
X370.173 Y16.363
X369.684 Y15.72
X369.177 Y15.09
X368.655 Y14.474
X368.119 Y13.869
X367.566 Y13.279
X366.997 Y12.705
X366.414 Y12.145
X365.819 Y11.599
X365.208 Y11.069
X364.583 Y10.557
X363.945 Y10.061
X363.296 Y9.579
X362.634 Y9.115
X361.96 Y8.67
X361.274 Y8.242
X360.58 Y7.828
X359.874 Y7.434
X359.157 Y7.061
X358.431 Y6.706
X357.697 Y6.368
X356.954 Y6.049
X356.202 Y5.752
X355.444 Y5.474
X354.679 Y5.212
X353.908 Y4.971
X353.13 Y4.752
X352.346 Y4.553
X351.558 Y4.373
X350.766 Y4.213
X349.969 Y4.076
X349.17 Y3.96
X348.367 Y3.861
X347.563 Y3.78
X346.758 Y3.715
X345.951 Y3.665
X345.143 Y3.628
X344.336 Y3.599
X343.528 Y3.579
X342.72 Y3.564
X341.912 Y3.553
X341.103 Y3.545
X340.295 Y3.539
X339.487 Y3.535
X337.87 Y3.53
X335.446 Y3.527
X334.637 Y3.526
X325.747 Y3.525
X284.527
X234.416
X184.306
X134.195
X84.084
X38.823
X38.015 Y3.527
X37.207 Y3.534
X36.399 Y3.548
X35.591 Y3.567
X34.783 Y3.592
X33.975 Y3.632
X33.169 Y3.688
X32.364 Y3.76
X31.561 Y3.846
X30.759 Y3.952
X29.961 Y4.077
X29.166 Y4.222
X28.374 Y4.383
X27.586 Y4.565
X26.804 Y4.768
X26.027 Y4.992
X25.255 Y5.232
X24.49 Y5.493
X23.733 Y5.775
X22.984 Y6.077
X22.241 Y6.396
X21.507 Y6.734
X20.782 Y7.093
X20.068 Y7.47
X19.361 Y7.863
X18.665 Y8.274
X17.982 Y8.705
X17.31 Y9.155
X16.649 Y9.619
X15.999 Y10.1
X15.364 Y10.6
X14.742 Y11.116
X14.131 Y11.646
X13.534 Y12.19
X12.953 Y12.752
X12.388 Y13.33
X11.835 Y13.92
X11.298 Y14.523
X10.778 Y15.142
X10.275 Y15.775
X9.787 Y16.419
X9.314 Y17.075
X8.861 Y17.744
X8.426 Y18.425
X8.006 Y19.116
X7.638 Y19.836
X7.428 Y20.616
X7.322 Y21.417
X7.275 Y22.224
X7.257 Y23.032
X7.247 Y23.84
X7.236 Y24.648
X7.216 Y25.456
X7.184 Y26.264
X7.14 Y27.071
X7.086 Y27.877
X7.025 Y28.683
X6.897 Y30.295
X6.836 Y31.101
X6.779 Y31.907
X6.729 Y32.714
X6.687 Y33.521
X6.652 Y34.328
X6.623 Y35.136
X6.6 Y35.944
X6.582 Y36.752
X6.568 Y37.56
X6.557 Y38.368
X6.549 Y39.176
X6.543 Y39.984
X6.538 Y40.793
X6.532 Y42.409
X6.528 Y44.834
X6.526 Y48.875
X6.525 Y87.67
Y137.781
Y187.892
Y238.002
Y288.113
Y338.224
Y388.334
Y438.445
Y488.555
Y490.172
X6.528 Y490.98
X6.533 Y491.788
X6.543 Y492.596
X6.558 Y493.405
X6.581 Y494.212
X6.616 Y495.02
X6.663 Y495.827
X6.725 Y496.633
X6.803 Y497.437
X6.899 Y498.24
X7.014 Y499.04
X7.148 Y499.837
X7.303 Y500.63
X7.479 Y501.419
X7.676 Y502.203
X7.895 Y502.981
X8.137 Y503.752
X8.4 Y504.516
X8.684 Y505.273
X8.988 Y506.021
X9.315 Y506.761
X9.662 Y507.491
X10.029 Y508.211
X10.417 Y508.92
X10.826 Y509.617
X11.254 Y510.303
X11.702 Y510.976
X12.169 Y511.635
X12.654 Y512.281
X13.158 Y512.914
X13.679 Y513.532
X14.218 Y514.134
X14.773 Y514.721
X15.345 Y515.292
X15.934 Y515.846
X16.539 Y516.382
X17.158 Y516.901
X17.792 Y517.403
X18.44 Y517.885
X19.102 Y518.35
X19.776 Y518.796
X20.462 Y519.222
X21.161 Y519.628
X21.872 Y520.013
X22.593 Y520.379
X23.324 Y520.723
X24.065 Y521.046
X24.814 Y521.348
X25.572 Y521.629
X26.338 Y521.888
X27.111 Y522.125
X27.89 Y522.34
X28.675 Y522.533
X29.465 Y522.702
X30.26 Y522.848
X31.058 Y522.974
X31.86 Y523.079
X32.663 Y523.166
X33.468 Y523.236
X34.275 Y523.292
X35.082 Y523.336
X35.889 Y523.37
X36.697 Y523.397
X37.505 Y523.417
X38.313 Y523.432
X39.121 Y523.443
X39.929 Y523.451
X40.738 Y523.458
X41.546 Y523.462
X43.162 Y523.468
X45.587 Y523.473
X50.436 Y523.475
X84.382
X134.493
X184.604
X234.714
X284.825
X334.935
X339.785
X340.593 Y523.474
X341.401 Y523.47
X342.21 Y523.462
X343.018 Y523.45
X343.826 Y523.431
X344.633 Y523.402
X345.441 Y523.361
X346.247 Y523.307
X347.052 Y523.237
X347.856 Y523.15
X348.657 Y523.044
X349.456 Y522.919
X350.251 Y522.774
X351.042 Y522.608
X351.828 Y522.42
X352.609 Y522.212
X353.384 Y521.982
X354.151 Y521.729
X354.912 Y521.455
X355.664 Y521.16
X356.408 Y520.844
X357.142 Y520.506
X357.867 Y520.149
X358.582 Y519.771
X359.285 Y519.373
X359.976 Y518.954
X360.655 Y518.515
X361.321 Y518.057
X361.974 Y517.581
X362.612 Y517.085
X363.237 Y516.573
X363.847 Y516.042
X364.442 Y515.495
X365.021 Y514.931
X365.583 Y514.35
X366.127 Y513.753
X366.655 Y513.14
X367.165 Y512.513
X367.656 Y511.872
X368.129 Y511.217
X368.584 Y510.548
X369.02 Y509.868
X369.436 Y509.175
X369.832 Y508.47
X370.207 Y507.754
X370.561 Y507.028
X370.894 Y506.291
X371.206 Y505.546
X371.497 Y504.792
X371.767 Y504.03
X372.014 Y503.26
X372.24 Y502.484
X372.444 Y501.702
X372.624 Y500.914
X372.781 Y500.121
X372.916 Y499.324
X373.031 Y498.525
X373.127 Y497.722
X373.205 Y496.917
X373.267 Y496.112
X373.317 Y495.305
X373.355 Y494.498
X373.385 Y493.69
X373.408 Y492.882
X373.425 Y492.074
X373.438 Y491.266
X373.448 Y490.458
X373.455 Y489.649
X373.46 Y488.841
X373.464 Y488.033
X373.469 Y486.417
X373.473 Y483.992
X373.475 Y479.142
Y449.238
Y399.127
Y349.016
Y298.906
Y248.795
Y198.685
Y148.574
Y98.463
Y48.353
Y40.27
X373.474 Y39.462
X373.47 Y38.654
X373.463 Y37.846
X373.451 Y37.037
X373.433 Y36.229
X373.405 Y35.422
X373.365 Y34.614
X373.311 Y33.808
X373.243 Y33.003
X373.157 Y32.199
X373.052 Y31.398
X372.928 Y30.599
X372.784 Y29.804
X372.619 Y29.012
X372.433 Y28.226
X372.227 Y27.444
X371.998 Y26.669
X371.747 Y25.901
X371.475 Y25.14
X371.181 Y24.387
X370.866 Y23.643
X370.53 Y22.908
X370.174 Y22.182
X369.797 Y21.467
X369.4 Y20.763
X368.983 Y20.071
X368.546 Y19.391
X368.089 Y18.724
X367.614 Y18.07
X367.12 Y17.431
X366.608 Y16.805
X366.079 Y16.194
X365.532 Y15.599
X364.969 Y15.019
X364.39 Y14.455
X363.794 Y13.909
X363.183 Y13.381
X362.557 Y12.87
X361.916 Y12.377
X361.262 Y11.902
X360.594 Y11.446
X359.915 Y11.009
X359.223 Y10.592
X358.518 Y10.195
X357.803 Y9.818
X357.078 Y9.462
X356.342 Y9.128
X355.597 Y8.815
X354.843 Y8.522
X354.082 Y8.251
X353.313 Y8.002
X352.537 Y7.775
X351.756 Y7.569
X350.968 Y7.387
X350.176 Y7.229
X349.379 Y7.092
X348.579 Y6.976
X347.777 Y6.879
X346.972 Y6.8
X346.167 Y6.736
X345.36 Y6.686
X344.553 Y6.647
X343.745 Y6.617
X342.937 Y6.594
X342.129 Y6.576
X341.321 Y6.563
X340.513 Y6.553
X339.705 Y6.545
X338.896 Y6.54
X338.088 Y6.536
X336.472 Y6.531
X334.047 Y6.527
X329.198 Y6.525
X302.526
X252.415
X202.305
X152.194
X102.083
X51.973
X39.849 Y6.526
X39.041 Y6.528
X38.233 Y6.533
X37.425 Y6.543
X36.616 Y6.558
X35.808 Y6.58
X35.001 Y6.614
X34.194 Y6.661
X33.388 Y6.722
X32.584 Y6.8
X31.781 Y6.896
X30.981 Y7.011
X30.184 Y7.145
X29.391 Y7.299
X28.602 Y7.475
X27.818 Y7.672
X27.04 Y7.889
X26.268 Y8.13
X25.503 Y8.392
X24.747 Y8.676
X23.998 Y8.981
X23.259 Y9.307
X22.528 Y9.654
X21.808 Y10.02
X21.099 Y10.407
X20.401 Y10.815
X19.715 Y11.243
X19.042 Y11.69
X18.382 Y12.156
X17.735 Y12.642
X17.103 Y13.145
X16.485 Y13.665
X15.882 Y14.204
X15.295 Y14.759
X14.723 Y15.33
X14.168 Y15.918
X13.632 Y16.523
X13.112 Y17.142
X12.61 Y17.775
X12.126 Y18.423
X11.662 Y19.084
X11.234 Y19.77
X10.913 Y20.512
X10.693 Y21.289
X10.544 Y22.084
X10.442 Y22.886
X10.368 Y23.69
X10.31 Y24.497
X10.206 Y26.11
X10.152 Y26.916
X10.096 Y27.722
X10.037 Y28.528
X9.917 Y30.14
X9.859 Y30.947
X9.806 Y31.753
X9.758 Y32.56
X9.716 Y33.367
X9.679 Y34.174
X9.648 Y34.982
X9.623 Y35.79
X9.602 Y36.598
X9.585 Y37.406
X9.571 Y38.214
X9.561 Y39.022
X9.552 Y39.83
X9.546 Y40.639
X9.541 Y41.447
X9.534 Y43.063
X9.53 Y44.68
X9.526 Y47.913
X9.525 Y55.995
Y74.585
Y124.695
Y174.806
Y224.916
Y275.027
Y325.138
Y375.248
Y425.359
Y475.47
Y488.401
X9.526 Y489.21
X9.528 Y490.018
X9.533 Y490.826
X9.54 Y491.634
X9.553 Y492.442
X9.573 Y493.25
X9.602 Y494.058
X9.643 Y494.865
X9.698 Y495.672
X9.768 Y496.477
X9.856 Y497.28
X9.962 Y498.081
X10.089 Y498.88
X10.238 Y499.674
X10.408 Y500.464
X10.602 Y501.249
X10.819 Y502.027
X11.061 Y502.799
X11.326 Y503.562
X11.615 Y504.317
X11.927 Y505.062
X12.263 Y505.798
X12.621 Y506.522
X13.003 Y507.235
X13.407 Y507.934
X13.834 Y508.621
X14.283 Y509.293
X14.753 Y509.951
X15.243 Y510.593
X15.754 Y511.219
X16.285 Y511.829
X16.834 Y512.422
X17.403 Y512.996
X17.99 Y513.552
X18.595 Y514.088
X19.216 Y514.604
X19.854 Y515.101
X20.507 Y515.577
X21.175 Y516.032
X21.857 Y516.465
X22.553 Y516.877
X23.262 Y517.265
X23.983 Y517.63
X24.716 Y517.971
X25.459 Y518.289
X26.211 Y518.584
X26.973 Y518.854
X27.743 Y519.1
X28.52 Y519.321
X29.305 Y519.517
X30.095 Y519.687
X30.889 Y519.834
X31.688 Y519.959
X32.489 Y520.063
X33.293 Y520.149
X34.098 Y520.219
X34.904 Y520.276
X35.711 Y520.321
X36.519 Y520.356
X37.327 Y520.384
X38.135 Y520.406
X38.943 Y520.423
X39.751 Y520.435
X40.559 Y520.445
X41.367 Y520.453
X42.175 Y520.458
X42.984 Y520.463
X44.6 Y520.468
X47.025 Y520.472
X51.874 Y520.475
X76.121
X126.232
X176.343
X226.453
X276.564
X326.674
X338.798
X339.606 Y520.473
X340.414 Y520.47
X341.223 Y520.464
X342.031 Y520.454
X342.839 Y520.438
X343.647 Y520.414
X344.454 Y520.38
X345.261 Y520.332
X346.067 Y520.27
X346.871 Y520.192
X347.674 Y520.095
X348.474 Y519.978
X349.27 Y519.841
X350.062 Y519.681
X350.85 Y519.5
X351.632 Y519.295
X352.407 Y519.065
X353.174 Y518.812
X353.934 Y518.535
X354.684 Y518.234
X355.424 Y517.911
X356.154 Y517.564
X356.873 Y517.194
X357.58 Y516.802
X358.273 Y516.386
X358.952 Y515.949
X359.617 Y515.489
X360.268 Y515.009
X360.902 Y514.508
X361.52 Y513.988
X362.122 Y513.448
X362.706 Y512.889
X363.271 Y512.311
X363.817 Y511.716
X364.344 Y511.102
X364.85 Y510.473
X365.337 Y509.827
X365.803 Y509.167
X366.247 Y508.492
X366.67 Y507.803
X367.07 Y507.101
X367.447 Y506.386
X367.8 Y505.659
X368.131 Y504.921
X368.437 Y504.173
X368.72 Y503.416
X368.978 Y502.65
X369.212 Y501.877
X369.42 Y501.096
X369.604 Y500.309
X369.763 Y499.516
X369.898 Y498.719
X370.013 Y497.919
X370.108 Y497.117
X370.186 Y496.312
X370.249 Y495.506
X370.299 Y494.7
X370.339 Y493.892
X370.371 Y493.085
X370.396 Y492.277
X370.415 Y491.469
X370.429 Y490.661
X370.441 Y489.853
X370.449 Y489.044
X370.456 Y488.236
X370.461 Y487.428
X370.467 Y485.812
X370.472 Y483.387
X370.474 Y479.346
X370.475 Y452.674
Y402.563
Y352.453
Y302.342
Y252.231
Y202.121
Y152.01
Y101.9
Y51.789
Y41.282
X370.474 Y40.474
X370.471 Y39.665
X370.465 Y38.857
X370.455 Y38.049
X370.44 Y37.241
X370.417 Y36.433
X370.384 Y35.625
X370.338 Y34.819
X370.277 Y34.013
X370.201 Y33.208
X370.105 Y32.405
X369.991 Y31.605
X369.855 Y30.809
X369.698 Y30.016
X369.519 Y29.228
X369.316 Y28.445
X369.089 Y27.669
X368.838 Y26.901
X368.564 Y26.141
X368.265 Y25.39
X367.944 Y24.648
X367.599 Y23.917
X367.231 Y23.197
X366.841 Y22.49
X366.428 Y21.795
X365.993 Y21.114
X365.536 Y20.447
X365.057 Y19.796
X364.559 Y19.16
X364.04 Y18.54
X363.502 Y17.937
X362.945 Y17.351
X362.369 Y16.784
X361.775 Y16.236
X361.164 Y15.707
X360.536 Y15.199
X359.892 Y14.71
X359.233 Y14.242
X358.559 Y13.796
X357.871 Y13.371
X357.171 Y12.968
X356.457 Y12.589
X355.731 Y12.233
X354.995 Y11.901
X354.248 Y11.592
X353.491 Y11.307
X352.726 Y11.046
X351.953 Y10.81
X351.173 Y10.599
X350.387 Y10.413
X349.595 Y10.252
X348.798 Y10.114
X347.998 Y9.997
X347.196 Y9.901
X346.392 Y9.821
X345.586 Y9.757
X344.779 Y9.705
X343.972 Y9.664
X343.165 Y9.632
X342.357 Y9.607
X341.549 Y9.587
X340.741 Y9.572
X339.933 Y9.56
X339.124 Y9.552
X338.316 Y9.545
X337.508 Y9.54
X335.891 Y9.533
X334.275 Y9.529
X331.042 Y9.526
X322.151 Y9.525
X301.137
X251.027
X200.916
X150.805
X100.695
X50.584
X41.694
X40.885 Y9.526
X40.077 Y9.528
X39.269 Y9.532
X38.461 Y9.54
X37.653 Y9.552
X36.845 Y9.57
X36.037 Y9.598
X35.229 Y9.637
X34.423 Y9.689
X33.618 Y9.758
X32.814 Y9.844
X32.012 Y9.948
X31.214 Y10.073
X30.419 Y10.219
X29.628 Y10.387
X28.843 Y10.578
X28.064 Y10.792
X27.291 Y11.031
X26.527 Y11.293
X25.771 Y11.58
X25.025 Y11.89
X24.288 Y12.223
X23.563 Y12.579
X22.849 Y12.957
X22.147 Y13.359
X21.459 Y13.783
X20.785 Y14.229
X20.126 Y14.696
X19.482 Y15.185
X18.854 Y15.694
X18.242 Y16.222
X17.647 Y16.769
X17.071 Y17.335
X16.513 Y17.92
X15.974 Y18.522
X15.455 Y19.142
X14.959 Y19.78
X14.521 Y20.46
X14.174 Y21.19
X13.913 Y21.955
X13.718 Y22.739
X13.571 Y23.534
X13.455 Y24.334
X13.36 Y25.136
X13.279 Y25.94
X13.205 Y26.745
X13.136 Y27.551
X13.07 Y28.356
X13.007 Y29.162
X12.946 Y29.968
X12.889 Y30.774
X12.835 Y31.58
X12.787 Y32.387
X12.744 Y33.194
X12.706 Y34.002
X12.673 Y34.809
X12.645 Y35.617
X12.622 Y36.425
X12.602 Y37.233
X12.586 Y38.041
X12.573 Y38.849
X12.563 Y39.657
X12.555 Y40.465
X12.548 Y41.274
X12.543 Y42.082
X12.535 Y43.698
X12.531 Y45.315
X12.528 Y47.739
X12.525 Y52.589
Y80.877
Y130.988
Y181.098
Y231.209
Y281.32
Y331.43
Y381.541
Y431.652
Y481.762
Y487.42
X12.526 Y488.228
X12.528 Y489.036
X12.532 Y489.845
X12.538 Y490.653
X12.549 Y491.461
X12.565 Y492.269
X12.59 Y493.077
X12.625 Y493.884
X12.672 Y494.691
X12.735 Y495.497
X12.814 Y496.301
X12.913 Y497.103
X13.032 Y497.903
X13.173 Y498.699
X13.338 Y499.49
X13.528 Y500.276
X13.743 Y501.055
X13.986 Y501.826
X14.254 Y502.588
X14.549 Y503.34
X14.87 Y504.082
X15.217 Y504.812
X15.59 Y505.529
X15.989 Y506.232
X16.414 Y506.92
X16.863 Y507.591
X17.337 Y508.246
X17.834 Y508.884
X18.353 Y509.503
X18.895 Y510.103
X19.458 Y510.682
X20.043 Y511.24
X20.648 Y511.777
X21.272 Y512.29
X21.914 Y512.781
X22.573 Y513.248
X23.249 Y513.691
X23.941 Y514.109
X24.648 Y514.501
X25.369 Y514.866
X26.103 Y515.205
X26.849 Y515.517
X27.605 Y515.802
X28.371 Y516.059
X29.146 Y516.289
X29.929 Y516.49
X30.718 Y516.664
X31.513 Y516.813
X32.311 Y516.939
X33.112 Y517.044
X33.916 Y517.131
X34.721 Y517.202
X35.527 Y517.26
X36.334 Y517.306
X37.141 Y517.343
X37.949 Y517.373
X38.757 Y517.396
X39.565 Y517.414
X40.373 Y517.428
X41.181 Y517.439
X41.989 Y517.448
X42.798 Y517.454
X43.606 Y517.459
X45.222 Y517.466
X47.647 Y517.471
X50.88 Y517.474
X62.195 Y517.475
X87.251
X137.361
X187.472
X237.583
X287.693
X337.804 Y517.474
X338.612 Y517.473
X339.42 Y517.471
X340.228 Y517.466
X341.037 Y517.458
X341.845 Y517.444
X342.653 Y517.424
X343.461 Y517.395
X344.268 Y517.355
X345.074 Y517.3
X345.879 Y517.23
X346.683 Y517.142
X347.484 Y517.033
X348.281 Y516.904
X349.075 Y516.752
X349.864 Y516.575
X350.647 Y516.373
X351.422 Y516.145
X352.189 Y515.89
X352.947 Y515.609
X353.694 Y515.301
X354.43 Y514.968
X355.154 Y514.609
X355.865 Y514.223
X356.561 Y513.812
X357.241 Y513.376
X357.905 Y512.914
X358.551 Y512.43
X359.18 Y511.922
X359.79 Y511.392
X360.381 Y510.84
X360.95 Y510.266
X361.498 Y509.672
X362.023 Y509.058
X362.526 Y508.425
X363.006 Y507.775
X363.462 Y507.107
X363.893 Y506.424
X364.299 Y505.725
X364.678 Y505.011
X365.031 Y504.284
X365.357 Y503.544
X365.656 Y502.793
X365.928 Y502.032
X366.172 Y501.262
X366.388 Y500.483
X366.576 Y499.697
X366.738 Y498.905
X366.876 Y498.109
X366.992 Y497.309
X367.088 Y496.506
X367.167 Y495.702
X367.231 Y494.896
X367.283 Y494.09
X367.325 Y493.283
X367.358 Y492.475
X367.385 Y491.667
X367.405 Y490.859
X367.421 Y490.051
X367.434 Y489.243
X367.444 Y488.435
X367.451 Y487.627
X367.457 Y486.818
X367.461 Y486.01
X367.467 Y484.394
X367.472 Y481.969
X367.474 Y477.928
X367.475 Y447.215
Y436.708
Y386.597
Y336.487
Y286.376
Y236.265
Y186.155
Y136.044
Y85.933
Y42.289
X367.473 Y41.48
X367.471 Y40.672
X367.466 Y39.864
X367.459 Y39.056
X367.446 Y38.248
X367.427 Y37.44
X367.399 Y36.632
X367.36 Y35.825
X367.308 Y35.018
X367.239 Y34.213
X367.153 Y33.409
X367.047 Y32.608
X366.92 Y31.81
X366.77 Y31.015
X366.596 Y30.226
X366.398 Y29.443
X366.172 Y28.666
X365.921 Y27.898
X365.642 Y27.14
X365.338 Y26.391
X365.007 Y25.653
X364.651 Y24.928
X364.269 Y24.216
X363.86 Y23.518
X363.427 Y22.836
X362.968 Y22.171
X362.486 Y21.522
X361.981 Y20.891
X361.454 Y20.279
X360.904 Y19.686
X360.333 Y19.114
X359.741 Y18.564
X359.129 Y18.036
X358.498 Y17.53
X357.85 Y17.048
X357.184 Y16.589
X356.503 Y16.155
X355.805 Y15.746
X355.093 Y15.364
X354.368 Y15.008
X353.63 Y14.679
X352.88 Y14.377
X352.12 Y14.102
X351.35 Y13.855
X350.573 Y13.635
X349.787 Y13.444
X348.996 Y13.279
X348.2 Y13.138
X347.401 Y13.02
X346.598 Y12.922
X345.794 Y12.841
X344.989 Y12.775
X344.182 Y12.722
X343.375 Y12.679
X342.567 Y12.645
X341.76 Y12.618
X340.952 Y12.597
X340.144 Y12.58
X339.336 Y12.567
X338.527 Y12.557
X337.719 Y12.55
X336.911 Y12.544
X336.103 Y12.539
X334.486 Y12.533
X332.062 Y12.528
X330.445 Y12.527
X323.979 Y12.525
X280.334
X230.224
X180.113
X130.003
X79.892
X42.713
X41.905 Y12.526
X41.097 Y12.528
X40.288 Y12.531
X39.48 Y12.537
X38.672 Y12.547
X37.864 Y12.562
X37.056 Y12.585
X36.248 Y12.618
X35.441 Y12.663
X34.635 Y12.723
X33.831 Y12.799
X33.028 Y12.895
X32.228 Y13.011
X31.432 Y13.148
X30.64 Y13.309
X29.853 Y13.495
X29.073 Y13.706
X28.301 Y13.944
X27.537 Y14.208
X26.783 Y14.499
X26.039 Y14.816
X25.307 Y15.159
X24.588 Y15.528
X23.883 Y15.922
X23.192 Y16.342
X22.518 Y16.788
X21.86 Y17.258
X21.22 Y17.751
X20.598 Y18.267
X19.995 Y18.805
X19.412 Y19.364
X18.85 Y19.946
X18.316 Y20.552
X17.837 Y21.203
X17.73 Y21.394
X17.655 Y21.536
X17.64 Y21.561
X17.624 Y21.584
X16.621 Y22.924
X16.542 Y23.045
X16.427 Y23.229
X16.318 Y23.412
X15.151 Y25.549
X14.968 Y25.911
X14.938 Y25.983
X14.73 Y26.534
X13.977 Y28.554
X13.916 Y28.738
X13.866 Y28.9
X13.86 Y28.922
X13.659 Y29.84
X13.339 Y31.309
X13.229 Y31.86
X13.209 Y32.044
X13.179 Y32.411
X13.126 Y33.146
X13.035 Y34.431
X13.01 Y34.798
X13.001 Y34.982
X13 Y35.717
Y494.651
X13.001 Y495.018
X13.01 Y495.202
X13.061 Y495.936
X13.166 Y497.405
X13.194 Y497.773
X13.209 Y497.956
X13.229 Y498.14
X13.339 Y498.691
X13.779 Y500.711
X13.86 Y501.078
X13.866 Y501.1
X13.916 Y501.262
X13.977 Y501.446
X14.73 Y503.466
X14.938 Y504.017
X14.968 Y504.089
X15.151 Y504.451
X16.318 Y506.588
X16.437 Y506.788
X16.542 Y506.955
X16.621 Y507.076
X18.09 Y509.039
X18.181 Y509.159
X18.327 Y509.342
X18.457 Y509.496
X18.668 Y509.71
X19.218 Y510.261
X20.136 Y511.179
X20.508 Y511.546
X20.661 Y511.676
X20.845 Y511.822
X21.212 Y512.098
X22.928 Y513.383
X23.049 Y513.46
X23.233 Y513.576
X23.416 Y513.684
X25.555 Y514.852
X25.916 Y515.035
X26.539 Y515.271
X28.559 Y516.025
X28.743 Y516.085
X28.91 Y516.137
X29.747 Y516.321
X31.314 Y516.662
X31.865 Y516.772
X32.048 Y516.792
X32.416 Y516.821
X33.518 Y516.9
X34.436 Y516.966
X34.803 Y516.991
X34.987 Y516.998
X35.722 Y517
X344.646
X345.013 Y516.998
X345.197 Y516.991
X345.931 Y516.94
X347.401 Y516.835
X347.768 Y516.806
X347.952 Y516.792
X348.135 Y516.772
X348.686 Y516.662
X350.706 Y516.222
X351.09 Y516.137
X351.257 Y516.085
X351.441 Y516.025
X353.461 Y515.271
X354.084 Y515.035
X354.445 Y514.852
X356.584 Y513.684
X356.767 Y513.576
X356.951 Y513.46
X357.072 Y513.383
X359.034 Y511.913
X359.155 Y511.822
X359.339 Y511.676
X359.492 Y511.546
X359.864 Y511.179
X361.175 Y509.867
X361.359 Y509.682
X361.543 Y509.496
X361.673 Y509.342
X361.819 Y509.159
X361.958 Y508.975
X363.379 Y507.076
X363.458 Y506.955
X363.573 Y506.771
X363.682 Y506.588
X364.849 Y504.451
X365.032 Y504.089
X365.062 Y504.017
X365.27 Y503.466
X366.023 Y501.446
X366.084 Y501.262
X366.134 Y501.1
X366.14 Y501.078
X366.341 Y500.16
X366.661 Y498.691
X366.771 Y498.14
X366.792 Y497.956
X366.821 Y497.589
X366.874 Y496.854
X366.965 Y495.569
X366.99 Y495.202
X366.999 Y495.018
X367 Y494.283
Y35.349
X366.999 Y34.982
X366.99 Y34.798
X366.939 Y34.064
X366.834 Y32.595
X366.806 Y32.227
X366.792 Y32.044
X366.771 Y31.86
X366.661 Y31.309
X366.221 Y29.289
X366.14 Y28.922
X366.134 Y28.9
X366.084 Y28.738
X366.023 Y28.554
X365.27 Y26.534
X365.062 Y25.983
X365.032 Y25.911
X364.849 Y25.549
X363.682 Y23.412
X363.563 Y23.212
X363.458 Y23.045
X363.379 Y22.924
X361.91 Y20.961
X361.819 Y20.841
X361.673 Y20.658
X361.543 Y20.504
X361.332 Y20.29
X360.782 Y19.739
X359.864 Y18.821
X359.492 Y18.454
X359.339 Y18.324
X359.155 Y18.178
X358.788 Y17.902
X357.072 Y16.617
X356.951 Y16.54
X356.767 Y16.424
X356.584 Y16.316
X354.445 Y15.148
X354.084 Y14.965
X353.461 Y14.729
X351.441 Y13.975
X351.257 Y13.915
X351.09 Y13.863
X350.253 Y13.679
X348.686 Y13.338
X348.135 Y13.228
X347.952 Y13.208
X347.584 Y13.179
X346.482 Y13.1
X345.564 Y13.034
X345.197 Y13.009
X345.013 Y13.002
X344.278 Y13
X35.354
X34.987 Y13.002
X34.803 Y13.009
X34.069 Y13.06
X32.599 Y13.165
X32.232 Y13.194
X32.048 Y13.208
X31.865 Y13.228
X31.314 Y13.338
X29.294 Y13.778
X28.91 Y13.863
X28.743 Y13.915
X28.559 Y13.975
X26.539 Y14.729
X25.916 Y14.965
X25.555 Y15.148
X23.416 Y16.316
X23.233 Y16.424
X23.049 Y16.54
X22.928 Y16.617
X20.966 Y18.087
X20.845 Y18.178
X20.661 Y18.324
X20.508 Y18.454
X20.136 Y18.821
X18.825 Y20.133
X18.641 Y20.318
X18.457 Y20.504
X18.327 Y20.658
X18.181 Y20.841
X18.09 Y20.961
G3 X17.858 Y21.12 I-0.387 J-0.316
G1 X17.779 Y21.133 Z-1.494
X17.703 Y21.145 Z-1.474
X17.632 Y21.131 Z-1.444
X17.567 Y21.118 Z-1.402
X17.509 Y21.106 Z-1.35
X17.466 Y21.08 Z-1.291
X17.432 Y21.06 Z-1.225
X17.407 Y21.045 Z-1.153
X17.392 Y21.036 Z-1.078
X17.386 Y21.032 Z-1
G0 Z6.5
X-0.491 Y18.377
Z-3.5
G1 Z-4 F1000
X-0.489 Y18.384 Z-4.087
X-0.483 Y18.406 Z-4.171
X-0.474 Y18.442 Z-4.25
X-0.461 Y18.49 Z-4.321
X-0.446 Y18.55 Z-4.383
X-0.428 Y18.619 Z-4.433
X-0.409 Y18.696 Z-4.47
X-0.388 Y18.777 Z-4.492
X-0.366 Y18.861 Z-4.5
G3 X0.025 Y21.583 I-12.366 J3.167
G1 Y21.685
X0.045 Y21.783
X0.364 Y22.526
X0.456 Y22.631
X0.643 Y22.875
X0.832 Y23.195
X1.013 Y23.612
X1.173 Y24.156
X1.293 Y24.884
X1.325 Y25.691
X1.292 Y26.499
X1.23 Y27.305
X1.146 Y28.109
X1.048 Y28.911
X0.941 Y29.712
X0.853 Y30.516
X0.78 Y31.32
X0.718 Y32.126
X0.662 Y32.933
X0.616 Y33.74
X0.586 Y34.547
X0.566 Y35.355
X0.552 Y36.163
X0.543 Y36.972
X0.537 Y37.78
X0.533 Y38.588
X0.529 Y40.204
X0.526 Y42.629
X0.525 Y51.52
Y71.726
Y121.836
Y171.947
Y222.057
Y272.168
Y322.279
Y372.389
Y422.5
Y472.611
Y492.817
X0.53 Y493.625
X0.547 Y494.433
X0.572 Y495.241
X0.603 Y496.048
X0.638 Y496.856
X0.699 Y497.662
X0.782 Y498.466
X0.88 Y499.268
X0.987 Y500.069
X1.111 Y500.868
X1.264 Y501.661
X1.435 Y502.451
X1.62 Y503.238
X1.812 Y504.023
X2.035 Y504.8
X2.281 Y505.57
X2.542 Y506.335
X2.812 Y507.097
X3.101 Y507.852
X3.416 Y508.596
X3.749 Y509.332
X4.094 Y510.063
X4.446 Y510.791
X4.828 Y511.503
X5.23 Y512.204
X5.645 Y512.898
X6.069 Y513.586
X6.511 Y514.263
X6.976 Y514.924
X7.456 Y515.574
X7.945 Y516.217
X8.443 Y516.854
X8.967 Y517.47
X9.507 Y518.071
X10.057 Y518.662
X10.615 Y519.247
X11.19 Y519.815
X11.784 Y520.363
X12.39 Y520.899
X13.003 Y521.426
X13.624 Y521.942
X14.266 Y522.434
X14.92 Y522.909
X15.582 Y523.372
X16.249 Y523.828
X16.932 Y524.261
X17.628 Y524.672
X18.332 Y525.069
X19.041 Y525.456
X19.758 Y525.829
X20.489 Y526.175
X21.228 Y526.502
X21.972 Y526.817
X22.72 Y527.123
X23.479 Y527.402
X24.245 Y527.658
X25.017 Y527.899
X25.792 Y528.129
X26.571 Y528.342
X27.358 Y528.526
X28.15 Y528.691
X28.943 Y528.843
X29.739 Y528.987
X30.539 Y529.099
X31.342 Y529.188
X32.147 Y529.262
X32.953 Y529.325
X33.76 Y529.375
X34.567 Y529.408
X35.375 Y529.43
X36.183 Y529.445
X36.992 Y529.455
X37.8 Y529.461
X38.608 Y529.466
X40.224 Y529.471
X42.649 Y529.474
X50.732 Y529.475
X58.814
X108.925
X159.035
X209.146
X259.256
X309.367
X343.313
X344.121 Y529.462
X344.929 Y529.439
X345.737 Y529.409
X346.544 Y529.376
X347.351 Y529.326
X348.156 Y529.251
X348.959 Y529.159
X349.76 Y529.055
X350.561 Y528.944
X351.356 Y528.8
X352.147 Y528.634
X352.935 Y528.453
X353.72 Y528.263
X354.501 Y528.052
X355.273 Y527.815
X356.04 Y527.56
X356.803 Y527.293
X357.563 Y527.017
X358.31 Y526.709
X359.049 Y526.382
X359.782 Y526.041
X360.511 Y525.691
X361.229 Y525.32
X361.934 Y524.925
X362.63 Y524.515
X363.321 Y524.095
X364.005 Y523.664
X364.671 Y523.207
X365.325 Y522.731
X365.97 Y522.245
X366.61 Y521.751
X367.233 Y521.237
X367.84 Y520.702
X368.435 Y520.156
X369.022 Y519.6
X369.599 Y519.035
X370.154 Y518.447
X370.694 Y517.845
X371.223 Y517.235
X371.746 Y516.618
X372.246 Y515.983
X372.727 Y515.334
X373.194 Y514.674
X373.653 Y514.008
X374.097 Y513.333
X374.516 Y512.642
X374.917 Y511.941
X375.308 Y511.233
X375.69 Y510.521
X376.045 Y509.795
X376.378 Y509.058
X376.697 Y508.316
X377.006 Y507.569
X377.297 Y506.815
X377.561 Y506.051
X377.807 Y505.281
X378.041 Y504.507
X378.266 Y503.731
X378.459 Y502.946
X378.63 Y502.156
X378.786 Y501.363
X378.933 Y500.568
X379.058 Y499.77
X379.155 Y498.968
X379.234 Y498.163
X379.301 Y497.358
X379.359 Y496.552
X379.397 Y495.744
X379.423 Y494.936
X379.44 Y494.128
X379.452 Y493.32
X379.459 Y492.512
X379.465 Y491.704
X379.468 Y490.896
X379.472 Y489.279
X379.474 Y486.046
X379.475 Y484.43
Y434.319
Y384.208
Y334.098
Y283.987
Y233.877
Y183.766
Y133.655
Y83.545
Y36.667
X379.461 Y35.859
X379.438 Y35.051
X379.409 Y34.243
X379.375 Y33.436
X379.325 Y32.629
X379.249 Y31.824
X379.156 Y31.021
X379.052 Y30.22
X378.941 Y29.419
X378.796 Y28.624
X378.63 Y27.833
X378.449 Y27.046
X378.259 Y26.26
X378.047 Y25.48
X377.809 Y24.708
X377.553 Y23.941
X377.286 Y23.178
X377.009 Y22.419
X376.701 Y21.672
X376.373 Y20.933
X376.032 Y20.2
X375.682 Y19.471
X375.311 Y18.754
X374.915 Y18.049
X374.505 Y17.352
X374.085 Y16.662
X373.653 Y15.979
X373.195 Y15.313
X372.72 Y14.659
X372.233 Y14.014
X371.739 Y13.374
X371.224 Y12.752
X370.689 Y12.146
X370.142 Y11.551
X369.586 Y10.963
X369.02 Y10.387
X368.432 Y9.832
X367.83 Y9.293
X367.219 Y8.764
X366.603 Y8.241
X365.967 Y7.742
X365.317 Y7.261
X364.658 Y6.794
X363.992 Y6.336
X363.316 Y5.893
X362.625 Y5.474
X361.923 Y5.073
X361.215 Y4.683
X360.503 Y4.3
X359.777 Y3.946
X359.04 Y3.614
X358.297 Y3.295
X357.55 Y2.986
X356.796 Y2.696
X356.032 Y2.432
X355.262 Y2.187
X354.488 Y1.953
X353.712 Y1.728
X352.927 Y1.536
X352.137 Y1.365
X351.344 Y1.21
X350.549 Y1.064
X349.75 Y0.939
X348.948 Y0.843
X348.143 Y0.764
X347.338 Y0.697
X346.532 Y0.64
X345.724 Y0.602
X344.916 Y0.576
X344.108 Y0.559
X343.3 Y0.548
X342.492 Y0.54
X341.684 Y0.535
X340.876 Y0.532
X339.259 Y0.528
X336.026 Y0.526
X297.231 Y0.525
X247.12
X197.01
X146.899
X96.788
X46.678
X36.979
X36.171 Y0.533
X35.363 Y0.553
X34.555 Y0.58
X33.747 Y0.612
X32.94 Y0.65
X32.135 Y0.718
X31.331 Y0.805
X30.529 Y0.906
X29.728 Y1.015
X28.931 Y1.147
X28.138 Y1.306
X27.349 Y1.481
X26.563 Y1.668
X25.78 Y1.866
X25.005 Y2.096
X24.236 Y2.346
X23.472 Y2.61
X22.711 Y2.882
X21.959 Y3.179
X21.217 Y3.499
X20.482 Y3.836
X19.752 Y4.182
X19.029 Y4.542
X18.319 Y4.93
X17.62 Y5.335
X16.928 Y5.752
X16.24 Y6.177
X15.568 Y6.626
X14.911 Y7.096
X14.262 Y7.579
X13.621 Y8.07
X12.99 Y8.575
X12.378 Y9.103
X11.779 Y9.646
X11.189 Y10.199
X10.605 Y10.758
X10.044 Y11.339
X9.499 Y11.936
X8.967 Y12.544
X8.442 Y13.159
X7.932 Y13.786
X7.445 Y14.431
X6.973 Y15.087
X6.512 Y15.751
X6.058 Y16.419
X5.632 Y17.106
X5.225 Y17.805
X4.832 Y18.511
X4.447 Y19.221
X4.081 Y19.942
X3.937 Y20.738
X3.957 Y21.546
X4.032 Y22.35
X4.117 Y23.154
X4.185 Y23.959
X4.222 Y24.767
X4.229 Y25.575
X4.209 Y26.383
X4.166 Y27.19
X4.104 Y27.996
X4.03 Y28.801
X3.954 Y29.605
X3.881 Y30.41
X3.813 Y31.216
X3.751 Y32.022
X3.698 Y32.828
X3.656 Y33.635
X3.622 Y34.443
X3.596 Y35.251
X3.577 Y36.059
X3.563 Y36.867
X3.552 Y37.675
X3.544 Y38.483
X3.539 Y39.291
X3.535 Y40.1
X3.53 Y41.716
X3.527 Y44.141
X3.525 Y49.798
Y70.004
Y120.115
Y170.226
Y220.336
Y270.447
Y320.557
Y370.668
Y420.779
Y470.889
Y491.095
X3.526 Y491.903
X3.533 Y492.712
X3.546 Y493.52
X3.564 Y494.328
X3.589 Y495.136
X3.628 Y495.943
X3.683 Y496.749
X3.753 Y497.555
X3.838 Y498.358
X3.941 Y499.16
X4.064 Y499.959
X4.207 Y500.754
X4.366 Y501.547
X4.544 Y502.335
X4.746 Y503.118
X4.968 Y503.895
X5.207 Y504.667
X5.466 Y505.433
X5.746 Y506.191
X6.047 Y506.941
X6.363 Y507.685
X6.698 Y508.42
X7.054 Y509.146
X7.43 Y509.861
X7.822 Y510.568
X8.231 Y511.265
X8.661 Y511.95
X9.109 Y512.622
X9.572 Y513.285
X10.05 Y513.936
X10.548 Y514.573
X11.062 Y515.197
X11.591 Y515.808
X12.134 Y516.406
X12.694 Y516.989
X13.27 Y517.556
X13.86 Y518.109
X14.462 Y518.648
X15.079 Y519.17
X15.71 Y519.674
X16.353 Y520.164
X17.008 Y520.638
X17.676 Y521.094
X18.356 Y521.531
X19.046 Y521.952
X19.745 Y522.356
X20.456 Y522.741
X21.178 Y523.105
X21.908 Y523.452
X22.646 Y523.782
X23.392 Y524.091
X24.148 Y524.379
X24.909 Y524.649
X25.677 Y524.901
X26.452 Y525.133
X27.232 Y525.342
X28.018 Y525.531
X28.808 Y525.703
X29.602 Y525.853
X30.4 Y525.98
X31.201 Y526.088
X32.004 Y526.178
X32.809 Y526.252
X33.615 Y526.309
X34.422 Y526.353
X35.23 Y526.386
X36.038 Y526.411
X36.846 Y526.429
X37.654 Y526.442
X38.462 Y526.451
X39.27 Y526.458
X40.079 Y526.463
X40.887 Y526.467
X42.503 Y526.471
X44.928 Y526.474
X52.202 Y526.475
X61.901
X112.012
X162.122
X212.233
X262.344
X312.454
X341.551
X342.359 Y526.471
X343.167 Y526.461
X343.975 Y526.445
X344.783 Y526.423
X345.591 Y526.391
X346.397 Y526.343
X347.203 Y526.279
X348.008 Y526.201
X348.811 Y526.108
X349.611 Y525.993
X350.408 Y525.858
X351.201 Y525.706
X351.991 Y525.536
X352.777 Y525.344
X353.556 Y525.131
X354.33 Y524.899
X355.099 Y524.65
X355.861 Y524.38
X356.615 Y524.088
X357.361 Y523.778
X358.1 Y523.45
X358.83 Y523.103
X359.549 Y522.735
X360.26 Y522.35
X360.962 Y521.95
X361.652 Y521.529
X362.33 Y521.089
X362.997 Y520.633
X363.654 Y520.161
X364.297 Y519.671
X364.926 Y519.164
X365.542 Y518.641
X366.147 Y518.105
X366.736 Y517.552
X367.31 Y516.983
X367.869 Y516.399
X368.415 Y515.803
X368.945 Y515.192
X369.456 Y514.567
X369.952 Y513.928
X370.433 Y513.279
X370.897 Y512.617
X371.342 Y511.942
X371.769 Y511.256
X372.182 Y510.562
X372.576 Y509.856
X372.949 Y509.138
X373.303 Y508.412
X373.64 Y507.677
X373.958 Y506.935
X374.255 Y506.183
X374.533 Y505.424
X374.794 Y504.659
X375.035 Y503.887
X375.254 Y503.109
X375.451 Y502.326
X375.631 Y501.538
X375.791 Y500.745
X375.927 Y499.949
X376.043 Y499.149
X376.141 Y498.346
X376.222 Y497.542
X376.286 Y496.737
X376.336 Y495.93
X376.373 Y495.123
X376.401 Y494.315
X376.422 Y493.507
X376.437 Y492.699
X376.448 Y491.891
X376.456 Y491.082
X376.461 Y490.274
X376.465 Y489.466
X376.47 Y487.849
X376.473 Y485.425
X376.475 Y479.767
Y476.534
Y426.424
Y376.313
Y326.202
Y276.092
Y225.981
Y175.87
Y125.76
Y75.649
Y38.47
X376.471 Y37.662
X376.461 Y36.854
X376.445 Y36.046
X376.423 Y35.238
X376.392 Y34.43
X376.344 Y33.623
X376.281 Y32.818
X376.204 Y32.013
X376.111 Y31.21
X375.997 Y30.41
X375.862 Y29.613
X375.71 Y28.819
X375.54 Y28.029
X375.349 Y27.244
X375.136 Y26.464
X374.905 Y25.69
X374.657 Y24.92
X374.387 Y24.159
X374.095 Y23.405
X373.786 Y22.658
X373.459 Y21.919
X373.112 Y21.189
X372.745 Y20.469
X372.36 Y19.758
X371.96 Y19.056
X371.54 Y18.365
X371.101 Y17.687
X370.645 Y17.02
X370.173 Y16.363
X369.684 Y15.72
X369.177 Y15.09
X368.655 Y14.474
X368.119 Y13.869
X367.566 Y13.279
X366.997 Y12.705
X366.414 Y12.145
X365.819 Y11.599
X365.208 Y11.069
X364.583 Y10.557
X363.945 Y10.061
X363.296 Y9.579
X362.634 Y9.115
X361.96 Y8.67
X361.274 Y8.242
X360.58 Y7.828
X359.874 Y7.434
X359.157 Y7.061
X358.431 Y6.706
X357.697 Y6.368
X356.954 Y6.049
X356.202 Y5.752
X355.444 Y5.474
X354.679 Y5.212
X353.908 Y4.971
X353.13 Y4.752
X352.346 Y4.553
X351.558 Y4.373
X350.766 Y4.213
X349.969 Y4.076
X349.17 Y3.96
X348.367 Y3.861
X347.563 Y3.78
X346.758 Y3.715
X345.951 Y3.665
X345.143 Y3.628
X344.336 Y3.599
X343.528 Y3.579
X342.72 Y3.564
X341.912 Y3.553
X341.103 Y3.545
X340.295 Y3.539
X339.487 Y3.535
X337.87 Y3.53
X335.446 Y3.527
X334.637 Y3.526
X325.747 Y3.525
X284.527
X234.416
X184.306
X134.195
X84.084
X38.823
X38.015 Y3.527
X37.207 Y3.534
X36.399 Y3.548
X35.591 Y3.567
X34.783 Y3.592
X33.975 Y3.632
X33.169 Y3.688
X32.364 Y3.76
X31.561 Y3.846
X30.759 Y3.952
X29.961 Y4.077
X29.166 Y4.222
X28.374 Y4.383
X27.586 Y4.565
X26.804 Y4.768
X26.027 Y4.992
X25.255 Y5.232
X24.49 Y5.493
X23.733 Y5.775
X22.984 Y6.077
X22.241 Y6.396
X21.507 Y6.734
X20.782 Y7.093
X20.068 Y7.47
X19.361 Y7.863
X18.665 Y8.274
X17.982 Y8.705
X17.31 Y9.155
X16.649 Y9.619
X15.999 Y10.1
X15.364 Y10.6
X14.742 Y11.116
X14.131 Y11.646
X13.534 Y12.19
X12.953 Y12.752
X12.388 Y13.33
X11.835 Y13.92
X11.298 Y14.523
X10.778 Y15.142
X10.275 Y15.775
X9.787 Y16.419
X9.314 Y17.075
X8.861 Y17.744
X8.426 Y18.425
X8.006 Y19.116
X7.638 Y19.836
X7.428 Y20.616
X7.322 Y21.417
X7.275 Y22.224
X7.257 Y23.032
X7.247 Y23.84
X7.236 Y24.648
X7.216 Y25.456
X7.184 Y26.264
X7.14 Y27.071
X7.086 Y27.877
X7.025 Y28.683
X6.897 Y30.295
X6.836 Y31.101
X6.779 Y31.907
X6.729 Y32.714
X6.687 Y33.521
X6.652 Y34.328
X6.623 Y35.136
X6.6 Y35.944
X6.582 Y36.752
X6.568 Y37.56
X6.557 Y38.368
X6.549 Y39.176
X6.543 Y39.984
X6.538 Y40.793
X6.532 Y42.409
X6.528 Y44.834
X6.526 Y48.875
X6.525 Y87.67
Y137.781
Y187.892
Y238.002
Y288.113
Y338.224
Y388.334
Y438.445
Y488.555
Y490.172
X6.528 Y490.98
X6.533 Y491.788
X6.543 Y492.596
X6.558 Y493.405
X6.581 Y494.212
X6.616 Y495.02
X6.663 Y495.827
X6.725 Y496.633
X6.803 Y497.437
X6.899 Y498.24
X7.014 Y499.04
X7.148 Y499.837
X7.303 Y500.63
X7.479 Y501.419
X7.676 Y502.203
X7.895 Y502.981
X8.137 Y503.752
X8.4 Y504.516
X8.684 Y505.273
X8.988 Y506.021
X9.315 Y506.761
X9.662 Y507.491
X10.029 Y508.211
X10.417 Y508.92
X10.826 Y509.617
X11.254 Y510.303
X11.702 Y510.976
X12.169 Y511.635
X12.654 Y512.281
X13.158 Y512.914
X13.679 Y513.532
X14.218 Y514.134
X14.773 Y514.721
X15.345 Y515.292
X15.934 Y515.846
X16.539 Y516.382
X17.158 Y516.901
X17.792 Y517.403
X18.44 Y517.885
X19.102 Y518.35
X19.776 Y518.796
X20.462 Y519.222
X21.161 Y519.628
X21.872 Y520.013
X22.593 Y520.379
X23.324 Y520.723
X24.065 Y521.046
X24.814 Y521.348
X25.572 Y521.629
X26.338 Y521.888
X27.111 Y522.125
X27.89 Y522.34
X28.675 Y522.533
X29.465 Y522.702
X30.26 Y522.848
X31.058 Y522.974
X31.86 Y523.079
X32.663 Y523.166
X33.468 Y523.236
X34.275 Y523.292
X35.082 Y523.336
X35.889 Y523.37
X36.697 Y523.397
X37.505 Y523.417
X38.313 Y523.432
X39.121 Y523.443
X39.929 Y523.451
X40.738 Y523.458
X41.546 Y523.462
X43.162 Y523.468
X45.587 Y523.473
X50.436 Y523.475
X84.382
X134.493
X184.604
X234.714
X284.825
X334.935
X339.785
X340.593 Y523.474
X341.401 Y523.47
X342.21 Y523.462
X343.018 Y523.45
X343.826 Y523.431
X344.633 Y523.402
X345.441 Y523.361
X346.247 Y523.307
X347.052 Y523.237
X347.856 Y523.15
X348.657 Y523.044
X349.456 Y522.919
X350.251 Y522.774
X351.042 Y522.608
X351.828 Y522.42
X352.609 Y522.212
X353.384 Y521.982
X354.151 Y521.729
X354.912 Y521.455
X355.664 Y521.16
X356.408 Y520.844
X357.142 Y520.506
X357.867 Y520.149
X358.582 Y519.771
X359.285 Y519.373
X359.976 Y518.954
X360.655 Y518.515
X361.321 Y518.057
X361.974 Y517.581
X362.612 Y517.085
X363.237 Y516.573
X363.847 Y516.042
X364.442 Y515.495
X365.021 Y514.931
X365.583 Y514.35
X366.127 Y513.753
X366.655 Y513.14
X367.165 Y512.513
X367.656 Y511.872
X368.129 Y511.217
X368.584 Y510.548
X369.02 Y509.868
X369.436 Y509.175
X369.832 Y508.47
X370.207 Y507.754
X370.561 Y507.028
X370.894 Y506.291
X371.206 Y505.546
X371.497 Y504.792
X371.767 Y504.03
X372.014 Y503.26
X372.24 Y502.484
X372.444 Y501.702
X372.624 Y500.914
X372.781 Y500.121
X372.916 Y499.324
X373.031 Y498.525
X373.127 Y497.722
X373.205 Y496.917
X373.267 Y496.112
X373.317 Y495.305
X373.355 Y494.498
X373.385 Y493.69
X373.408 Y492.882
X373.425 Y492.074
X373.438 Y491.266
X373.448 Y490.458
X373.455 Y489.649
X373.46 Y488.841
X373.464 Y488.033
X373.469 Y486.417
X373.473 Y483.992
X373.475 Y479.142
Y449.238
Y399.127
Y349.016
Y298.906
Y248.795
Y198.685
Y148.574
Y98.463
Y48.353
Y40.27
X373.474 Y39.462
X373.47 Y38.654
X373.463 Y37.846
X373.451 Y37.037
X373.433 Y36.229
X373.405 Y35.422
X373.365 Y34.614
X373.311 Y33.808
X373.243 Y33.003
X373.157 Y32.199
X373.052 Y31.398
X372.928 Y30.599
X372.784 Y29.804
X372.619 Y29.012
X372.433 Y28.226
X372.227 Y27.444
X371.998 Y26.669
X371.747 Y25.901
X371.475 Y25.14
X371.181 Y24.387
X370.866 Y23.643
X370.53 Y22.908
X370.174 Y22.182
X369.797 Y21.467
X369.4 Y20.763
X368.983 Y20.071
X368.546 Y19.391
X368.089 Y18.724
X367.614 Y18.07
X367.12 Y17.431
X366.608 Y16.805
X366.079 Y16.194
X365.532 Y15.599
X364.969 Y15.019
X364.39 Y14.455
X363.794 Y13.909
X363.183 Y13.381
X362.557 Y12.87
X361.916 Y12.377
X361.262 Y11.902
X360.594 Y11.446
X359.915 Y11.009
X359.223 Y10.592
X358.518 Y10.195
X357.803 Y9.818
X357.078 Y9.462
X356.342 Y9.128
X355.597 Y8.815
X354.843 Y8.522
X354.082 Y8.251
X353.313 Y8.002
X352.537 Y7.775
X351.756 Y7.569
X350.968 Y7.387
X350.176 Y7.229
X349.379 Y7.092
X348.579 Y6.976
X347.777 Y6.879
X346.972 Y6.8
X346.167 Y6.736
X345.36 Y6.686
X344.553 Y6.647
X343.745 Y6.617
X342.937 Y6.594
X342.129 Y6.576
X341.321 Y6.563
X340.513 Y6.553
X339.705 Y6.545
X338.896 Y6.54
X338.088 Y6.536
X336.472 Y6.531
X334.047 Y6.527
X329.198 Y6.525
X302.526
X252.415
X202.305
X152.194
X102.083
X51.973
X39.849 Y6.526
X39.041 Y6.528
X38.233 Y6.533
X37.425 Y6.543
X36.616 Y6.558
X35.808 Y6.58
X35.001 Y6.614
X34.194 Y6.661
X33.388 Y6.722
X32.584 Y6.8
X31.781 Y6.896
X30.981 Y7.011
X30.184 Y7.145
X29.391 Y7.299
X28.602 Y7.475
X27.818 Y7.672
X27.04 Y7.889
X26.268 Y8.13
X25.503 Y8.392
X24.747 Y8.676
X23.998 Y8.981
X23.259 Y9.307
X22.528 Y9.654
X21.808 Y10.02
X21.099 Y10.407
X20.401 Y10.815
X19.715 Y11.243
X19.042 Y11.69
X18.382 Y12.156
X17.735 Y12.642
X17.103 Y13.145
X16.485 Y13.665
X15.882 Y14.204
X15.295 Y14.759
X14.723 Y15.33
X14.168 Y15.918
X13.632 Y16.523
X13.112 Y17.142
X12.61 Y17.775
X12.126 Y18.423
X11.662 Y19.084
X11.234 Y19.77
X10.913 Y20.512
X10.693 Y21.289
X10.544 Y22.084
X10.442 Y22.886
X10.368 Y23.69
X10.31 Y24.497
X10.206 Y26.11
X10.152 Y26.916
X10.096 Y27.722
X10.037 Y28.528
X9.917 Y30.14
X9.859 Y30.947
X9.806 Y31.753
X9.758 Y32.56
X9.716 Y33.367
X9.679 Y34.174
X9.648 Y34.982
X9.623 Y35.79
X9.602 Y36.598
X9.585 Y37.406
X9.571 Y38.214
X9.561 Y39.022
X9.552 Y39.83
X9.546 Y40.639
X9.541 Y41.447
X9.534 Y43.063
X9.53 Y44.68
X9.526 Y47.913
X9.525 Y55.995
Y74.585
Y124.695
Y174.806
Y224.916
Y275.027
Y325.138
Y375.248
Y425.359
Y475.47
Y488.401
X9.526 Y489.21
X9.528 Y490.018
X9.533 Y490.826
X9.54 Y491.634
X9.553 Y492.442
X9.573 Y493.25
X9.602 Y494.058
X9.643 Y494.865
X9.698 Y495.672
X9.768 Y496.477
X9.856 Y497.28
X9.962 Y498.081
X10.089 Y498.88
X10.238 Y499.674
X10.408 Y500.464
X10.602 Y501.249
X10.819 Y502.027
X11.061 Y502.799
X11.326 Y503.562
X11.615 Y504.317
X11.927 Y505.062
X12.263 Y505.798
X12.621 Y506.522
X13.003 Y507.235
X13.407 Y507.934
X13.834 Y508.621
X14.283 Y509.293
X14.753 Y509.951
X15.243 Y510.593
X15.754 Y511.219
X16.285 Y511.829
X16.834 Y512.422
X17.403 Y512.996
X17.99 Y513.552
X18.595 Y514.088
X19.216 Y514.604
X19.854 Y515.101
X20.507 Y515.577
X21.175 Y516.032
X21.857 Y516.465
X22.553 Y516.877
X23.262 Y517.265
X23.983 Y517.63
X24.716 Y517.971
X25.459 Y518.289
X26.211 Y518.584
X26.973 Y518.854
X27.743 Y519.1
X28.52 Y519.321
X29.305 Y519.517
X30.095 Y519.687
X30.889 Y519.834
X31.688 Y519.959
X32.489 Y520.063
X33.293 Y520.149
X34.098 Y520.219
X34.904 Y520.276
X35.711 Y520.321
X36.519 Y520.356
X37.327 Y520.384
X38.135 Y520.406
X38.943 Y520.423
X39.751 Y520.435
X40.559 Y520.445
X41.367 Y520.453
X42.175 Y520.458
X42.984 Y520.463
X44.6 Y520.468
X47.025 Y520.472
X51.874 Y520.475
X76.121
X126.232
X176.343
X226.453
X276.564
X326.674
X338.798
X339.606 Y520.473
X340.414 Y520.47
X341.223 Y520.464
X342.031 Y520.454
X342.839 Y520.438
X343.647 Y520.414
X344.454 Y520.38
X345.261 Y520.332
X346.067 Y520.27
X346.871 Y520.192
X347.674 Y520.095
X348.474 Y519.978
X349.27 Y519.841
X350.062 Y519.681
X350.85 Y519.5
X351.632 Y519.295
X352.407 Y519.065
X353.174 Y518.812
X353.934 Y518.535
X354.684 Y518.234
X355.424 Y517.911
X356.154 Y517.564
X356.873 Y517.194
X357.58 Y516.802
X358.273 Y516.386
X358.952 Y515.949
X359.617 Y515.489
X360.268 Y515.009
X360.902 Y514.508
X361.52 Y513.988
X362.122 Y513.448
X362.706 Y512.889
X363.271 Y512.311
X363.817 Y511.716
X364.344 Y511.102
X364.85 Y510.473
X365.337 Y509.827
X365.803 Y509.167
X366.247 Y508.492
X366.67 Y507.803
X367.07 Y507.101
X367.447 Y506.386
X367.8 Y505.659
X368.131 Y504.921
X368.437 Y504.173
X368.72 Y503.416
X368.978 Y502.65
X369.212 Y501.877
X369.42 Y501.096
X369.604 Y500.309
X369.763 Y499.516
X369.898 Y498.719
X370.013 Y497.919
X370.108 Y497.117
X370.186 Y496.312
X370.249 Y495.506
X370.299 Y494.7
X370.339 Y493.892
X370.371 Y493.085
X370.396 Y492.277
X370.415 Y491.469
X370.429 Y490.661
X370.441 Y489.853
X370.449 Y489.044
X370.456 Y488.236
X370.461 Y487.428
X370.467 Y485.812
X370.472 Y483.387
X370.474 Y479.346
X370.475 Y452.674
Y402.563
Y352.453
Y302.342
Y252.231
Y202.121
Y152.01
Y101.9
Y51.789
Y41.282
X370.474 Y40.474
X370.471 Y39.665
X370.465 Y38.857
X370.455 Y38.049
X370.44 Y37.241
X370.417 Y36.433
X370.384 Y35.625
X370.338 Y34.819
X370.277 Y34.013
X370.201 Y33.208
X370.105 Y32.405
X369.991 Y31.605
X369.855 Y30.809
X369.698 Y30.016
X369.519 Y29.228
X369.316 Y28.445
X369.089 Y27.669
X368.838 Y26.901
X368.564 Y26.141
X368.265 Y25.39
X367.944 Y24.648
X367.599 Y23.917
X367.231 Y23.197
X366.841 Y22.49
X366.428 Y21.795
X365.993 Y21.114
X365.536 Y20.447
X365.057 Y19.796
X364.559 Y19.16
X364.04 Y18.54
X363.502 Y17.937
X362.945 Y17.351
X362.369 Y16.784
X361.775 Y16.236
X361.164 Y15.707
X360.536 Y15.199
X359.892 Y14.71
X359.233 Y14.242
X358.559 Y13.796
X357.871 Y13.371
X357.171 Y12.968
X356.457 Y12.589
X355.731 Y12.233
X354.995 Y11.901
X354.248 Y11.592
X353.491 Y11.307
X352.726 Y11.046
X351.953 Y10.81
X351.173 Y10.599
X350.387 Y10.413
X349.595 Y10.252
X348.798 Y10.114
X347.998 Y9.997
X347.196 Y9.901
X346.392 Y9.821
X345.586 Y9.757
X344.779 Y9.705
X343.972 Y9.664
X343.165 Y9.632
X342.357 Y9.607
X341.549 Y9.587
X340.741 Y9.572
X339.933 Y9.56
X339.124 Y9.552
X338.316 Y9.545
X337.508 Y9.54
X335.891 Y9.533
X334.275 Y9.529
X331.042 Y9.526
X322.151 Y9.525
X301.137
X251.027
X200.916
X150.805
X100.695
X50.584
X41.694
X40.885 Y9.526
X40.077 Y9.528
X39.269 Y9.532
X38.461 Y9.54
X37.653 Y9.552
X36.845 Y9.57
X36.037 Y9.598
X35.229 Y9.637
X34.423 Y9.689
X33.618 Y9.758
X32.814 Y9.844
X32.012 Y9.948
X31.214 Y10.073
X30.419 Y10.219
X29.628 Y10.387
X28.843 Y10.578
X28.064 Y10.792
X27.291 Y11.031
X26.527 Y11.293
X25.771 Y11.58
X25.025 Y11.89
X24.288 Y12.223
X23.563 Y12.579
X22.849 Y12.957
X22.147 Y13.359
X21.459 Y13.783
X20.785 Y14.229
X20.126 Y14.696
X19.482 Y15.185
X18.854 Y15.694
X18.242 Y16.222
X17.647 Y16.769
X17.071 Y17.335
X16.513 Y17.92
X15.974 Y18.522
X15.455 Y19.142
X14.959 Y19.78
X14.521 Y20.46
X14.174 Y21.19
X13.913 Y21.955
X13.718 Y22.739
X13.571 Y23.534
X13.455 Y24.334
X13.36 Y25.136
X13.279 Y25.94
X13.205 Y26.745
X13.136 Y27.551
X13.07 Y28.356
X13.007 Y29.162
X12.946 Y29.968
X12.889 Y30.774
X12.835 Y31.58
X12.787 Y32.387
X12.744 Y33.194
X12.706 Y34.002
X12.673 Y34.809
X12.645 Y35.617
X12.622 Y36.425
X12.602 Y37.233
X12.586 Y38.041
X12.573 Y38.849
X12.563 Y39.657
X12.555 Y40.465
X12.548 Y41.274
X12.543 Y42.082
X12.535 Y43.698
X12.531 Y45.315
X12.528 Y47.739
X12.525 Y52.589
Y80.877
Y130.988
Y181.098
Y231.209
Y281.32
Y331.43
Y381.541
Y431.652
Y481.762
Y487.42
X12.526 Y488.228
X12.528 Y489.036
X12.532 Y489.845
X12.538 Y490.653
X12.549 Y491.461
X12.565 Y492.269
X12.59 Y493.077
X12.625 Y493.884
X12.672 Y494.691
X12.735 Y495.497
X12.814 Y496.301
X12.913 Y497.103
X13.032 Y497.903
X13.173 Y498.699
X13.338 Y499.49
X13.528 Y500.276
X13.743 Y501.055
X13.986 Y501.826
X14.254 Y502.588
X14.549 Y503.34
X14.87 Y504.082
X15.217 Y504.812
X15.59 Y505.529
X15.989 Y506.232
X16.414 Y506.92
X16.863 Y507.591
X17.337 Y508.246
X17.834 Y508.884
X18.353 Y509.503
X18.895 Y510.103
X19.458 Y510.682
X20.043 Y511.24
X20.648 Y511.777
X21.272 Y512.29
X21.914 Y512.781
X22.573 Y513.248
X23.249 Y513.691
X23.941 Y514.109
X24.648 Y514.501
X25.369 Y514.866
X26.103 Y515.205
X26.849 Y515.517
X27.605 Y515.802
X28.371 Y516.059
X29.146 Y516.289
X29.929 Y516.49
X30.718 Y516.664
X31.513 Y516.813
X32.311 Y516.939
X33.112 Y517.044
X33.916 Y517.131
X34.721 Y517.202
X35.527 Y517.26
X36.334 Y517.306
X37.141 Y517.343
X37.949 Y517.373
X38.757 Y517.396
X39.565 Y517.414
X40.373 Y517.428
X41.181 Y517.439
X41.989 Y517.448
X42.798 Y517.454
X43.606 Y517.459
X45.222 Y517.466
X47.647 Y517.471
X50.88 Y517.474
X62.195 Y517.475
X87.251
X137.361
X187.472
X237.583
X287.693
X337.804 Y517.474
X338.612 Y517.473
X339.42 Y517.471
X340.228 Y517.466
X341.037 Y517.458
X341.845 Y517.444
X342.653 Y517.424
X343.461 Y517.395
X344.268 Y517.355
X345.074 Y517.3
X345.879 Y517.23
X346.683 Y517.142
X347.484 Y517.033
X348.281 Y516.904
X349.075 Y516.752
X349.864 Y516.575
X350.647 Y516.373
X351.422 Y516.145
X352.189 Y515.89
X352.947 Y515.609
X353.694 Y515.301
X354.43 Y514.968
X355.154 Y514.609
X355.865 Y514.223
X356.561 Y513.812
X357.241 Y513.376
X357.905 Y512.914
X358.551 Y512.43
X359.18 Y511.922
X359.79 Y511.392
X360.381 Y510.84
X360.95 Y510.266
X361.498 Y509.672
X362.023 Y509.058
X362.526 Y508.425
X363.006 Y507.775
X363.462 Y507.107
X363.893 Y506.424
X364.299 Y505.725
X364.678 Y505.011
X365.031 Y504.284
X365.357 Y503.544
X365.656 Y502.793
X365.928 Y502.032
X366.172 Y501.262
X366.388 Y500.483
X366.576 Y499.697
X366.738 Y498.905
X366.876 Y498.109
X366.992 Y497.309
X367.088 Y496.506
X367.167 Y495.702
X367.231 Y494.896
X367.283 Y494.09
X367.325 Y493.283
X367.358 Y492.475
X367.385 Y491.667
X367.405 Y490.859
X367.421 Y490.051
X367.434 Y489.243
X367.444 Y488.435
X367.451 Y487.627
X367.457 Y486.818
X367.461 Y486.01
X367.467 Y484.394
X367.472 Y481.969
X367.474 Y477.928
X367.475 Y447.215
Y436.708
Y386.597
Y336.487
Y286.376
Y236.265
Y186.155
Y136.044
Y85.933
Y42.289
X367.473 Y41.48
X367.471 Y40.672
X367.466 Y39.864
X367.459 Y39.056
X367.446 Y38.248
X367.427 Y37.44
X367.399 Y36.632
X367.36 Y35.825
X367.308 Y35.018
X367.239 Y34.213
X367.153 Y33.409
X367.047 Y32.608
X366.92 Y31.81
X366.77 Y31.015
X366.596 Y30.226
X366.398 Y29.443
X366.172 Y28.666
X365.921 Y27.898
X365.642 Y27.14
X365.338 Y26.391
X365.007 Y25.653
X364.651 Y24.928
X364.269 Y24.216
X363.86 Y23.518
X363.427 Y22.836
X362.968 Y22.171
X362.486 Y21.522
X361.981 Y20.891
X361.454 Y20.279
X360.904 Y19.686
X360.333 Y19.114
X359.741 Y18.564
X359.129 Y18.036
X358.498 Y17.53
X357.85 Y17.048
X357.184 Y16.589
X356.503 Y16.155
X355.805 Y15.746
X355.093 Y15.364
X354.368 Y15.008
X353.63 Y14.679
X352.88 Y14.377
X352.12 Y14.102
X351.35 Y13.855
X350.573 Y13.635
X349.787 Y13.444
X348.996 Y13.279
X348.2 Y13.138
X347.401 Y13.02
X346.598 Y12.922
X345.794 Y12.841
X344.989 Y12.775
X344.182 Y12.722
X343.375 Y12.679
X342.567 Y12.645
X341.76 Y12.618
X340.952 Y12.597
X340.144 Y12.58
X339.336 Y12.567
X338.527 Y12.557
X337.719 Y12.55
X336.911 Y12.544
X336.103 Y12.539
X334.486 Y12.533
X332.062 Y12.528
X330.445 Y12.527
X323.979 Y12.525
X280.334
X230.224
X180.113
X130.003
X79.892
X42.713
X41.905 Y12.526
X41.097 Y12.528
X40.288 Y12.531
X39.48 Y12.537
X38.672 Y12.547
X37.864 Y12.562
X37.056 Y12.585
X36.248 Y12.618
X35.441 Y12.663
X34.635 Y12.723
X33.831 Y12.799
X33.028 Y12.895
X32.228 Y13.011
X31.432 Y13.148
X30.64 Y13.309
X29.853 Y13.495
X29.073 Y13.706
X28.301 Y13.944
X27.537 Y14.208
X26.783 Y14.499
X26.039 Y14.816
X25.307 Y15.159
X24.588 Y15.528
X23.883 Y15.922
X23.192 Y16.342
X22.518 Y16.788
X21.86 Y17.258
X21.22 Y17.751
X20.598 Y18.267
X19.995 Y18.805
X19.412 Y19.364
X18.85 Y19.946
X18.316 Y20.552
X17.837 Y21.203
X17.73 Y21.394
X17.655 Y21.536
X17.64 Y21.561
X17.624 Y21.584
X16.621 Y22.924
X16.542 Y23.045
X16.427 Y23.229
X16.318 Y23.412
X15.151 Y25.549
X14.968 Y25.911
X14.938 Y25.983
X14.73 Y26.534
X13.977 Y28.554
X13.916 Y28.738
X13.866 Y28.9
X13.86 Y28.922
X13.659 Y29.84
X13.339 Y31.309
X13.229 Y31.86
X13.209 Y32.044
X13.179 Y32.411
X13.126 Y33.146
X13.035 Y34.431
X13.01 Y34.798
X13.001 Y34.982
X13 Y35.717
Y494.651
X13.001 Y495.018
X13.01 Y495.202
X13.061 Y495.936
X13.166 Y497.405
X13.194 Y497.773
X13.209 Y497.956
X13.229 Y498.14
X13.339 Y498.691
X13.779 Y500.711
X13.86 Y501.078
X13.866 Y501.1
X13.916 Y501.262
X13.977 Y501.446
X14.73 Y503.466
X14.938 Y504.017
X14.968 Y504.089
X15.151 Y504.451
X16.318 Y506.588
X16.437 Y506.788
X16.542 Y506.955
X16.621 Y507.076
X18.09 Y509.039
X18.181 Y509.159
X18.327 Y509.342
X18.457 Y509.496
X18.668 Y509.71
X19.218 Y510.261
X20.136 Y511.179
X20.508 Y511.546
X20.661 Y511.676
X20.845 Y511.822
X21.212 Y512.098
X22.928 Y513.383
X23.049 Y513.46
X23.233 Y513.576
X23.416 Y513.684
X25.555 Y514.852
X25.916 Y515.035
X26.539 Y515.271
X28.559 Y516.025
X28.743 Y516.085
X28.91 Y516.137
X29.747 Y516.321
X31.314 Y516.662
X31.865 Y516.772
X32.048 Y516.792
X32.416 Y516.821
X33.518 Y516.9
X34.436 Y516.966
X34.803 Y516.991
X34.987 Y516.998
X35.722 Y517
X344.646
X345.013 Y516.998
X345.197 Y516.991
X345.931 Y516.94
X347.401 Y516.835
X347.768 Y516.806
X347.952 Y516.792
X348.135 Y516.772
X348.686 Y516.662
X350.706 Y516.222
X351.09 Y516.137
X351.257 Y516.085
X351.441 Y516.025
X353.461 Y515.271
X354.084 Y515.035
X354.445 Y514.852
X356.584 Y513.684
X356.767 Y513.576
X356.951 Y513.46
X357.072 Y513.383
X359.034 Y511.913
X359.155 Y511.822
X359.339 Y511.676
X359.492 Y511.546
X359.864 Y511.179
X361.175 Y509.867
X361.359 Y509.682
X361.543 Y509.496
X361.673 Y509.342
X361.819 Y509.159
X361.958 Y508.975
X363.379 Y507.076
X363.458 Y506.955
X363.573 Y506.771
X363.682 Y506.588
X364.849 Y504.451
X365.032 Y504.089
X365.062 Y504.017
X365.27 Y503.466
X366.023 Y501.446
X366.084 Y501.262
X366.134 Y501.1
X366.14 Y501.078
X366.341 Y500.16
X366.661 Y498.691
X366.771 Y498.14
X366.792 Y497.956
X366.821 Y497.589
X366.874 Y496.854
X366.965 Y495.569
X366.99 Y495.202
X366.999 Y495.018
X367 Y494.283
Y35.349
X366.999 Y34.982
X366.99 Y34.798
X366.939 Y34.064
X366.834 Y32.595
X366.806 Y32.227
X366.792 Y32.044
X366.771 Y31.86
X366.661 Y31.309
X366.221 Y29.289
X366.14 Y28.922
X366.134 Y28.9
X366.084 Y28.738
X366.023 Y28.554
X365.27 Y26.534
X365.062 Y25.983
X365.032 Y25.911
X364.849 Y25.549
X363.682 Y23.412
X363.563 Y23.212
X363.458 Y23.045
X363.379 Y22.924
X361.91 Y20.961
X361.819 Y20.841
X361.673 Y20.658
X361.543 Y20.504
X361.332 Y20.29
X360.782 Y19.739
X359.864 Y18.821
X359.492 Y18.454
X359.339 Y18.324
X359.155 Y18.178
X358.788 Y17.902
X357.072 Y16.617
X356.951 Y16.54
X356.767 Y16.424
X356.584 Y16.316
X354.445 Y15.148
X354.084 Y14.965
X353.461 Y14.729
X351.441 Y13.975
X351.257 Y13.915
X351.09 Y13.863
X350.253 Y13.679
X348.686 Y13.338
X348.135 Y13.228
X347.952 Y13.208
X347.584 Y13.179
X346.482 Y13.1
X345.564 Y13.034
X345.197 Y13.009
X345.013 Y13.002
X344.278 Y13
X35.354
X34.987 Y13.002
X34.803 Y13.009
X34.069 Y13.06
X32.599 Y13.165
X32.232 Y13.194
X32.048 Y13.208
X31.865 Y13.228
X31.314 Y13.338
X29.294 Y13.778
X28.91 Y13.863
X28.743 Y13.915
X28.559 Y13.975
X26.539 Y14.729
X25.916 Y14.965
X25.555 Y15.148
X23.416 Y16.316
X23.233 Y16.424
X23.049 Y16.54
X22.928 Y16.617
X20.966 Y18.087
X20.845 Y18.178
X20.661 Y18.324
X20.508 Y18.454
X20.136 Y18.821
X18.825 Y20.133
X18.641 Y20.318
X18.457 Y20.504
X18.327 Y20.658
X18.181 Y20.841
X18.09 Y20.961
G3 X17.858 Y21.12 I-0.387 J-0.316
G1 X17.779 Y21.133 Z-4.494
X17.703 Y21.145 Z-4.474
X17.632 Y21.131 Z-4.444
X17.567 Y21.118 Z-4.402
X17.509 Y21.106 Z-4.35
X17.466 Y21.08 Z-4.291
X17.432 Y21.06 Z-4.225
X17.407 Y21.045 Z-4.153
X17.392 Y21.036 Z-4.078
X17.386 Y21.032 Z-4
G0 Z6.5
X-0.491 Y18.377
Z-6.5
G1 Z-7 F1000
X-0.489 Y18.384 Z-7.087
X-0.483 Y18.406 Z-7.171
X-0.474 Y18.442 Z-7.25
X-0.461 Y18.49 Z-7.321
X-0.446 Y18.55 Z-7.383
X-0.428 Y18.619 Z-7.433
X-0.409 Y18.696 Z-7.47
X-0.388 Y18.777 Z-7.492
X-0.366 Y18.861 Z-7.5
G3 X0.025 Y21.583 I-12.366 J3.167
G1 Y21.685
X0.045 Y21.783
X0.364 Y22.526
X0.456 Y22.631
X0.643 Y22.875
X0.832 Y23.195
X1.013 Y23.612
X1.173 Y24.156
X1.293 Y24.884
X1.325 Y25.691
X1.292 Y26.499
X1.23 Y27.305
X1.146 Y28.109
X1.048 Y28.911
X0.941 Y29.712
X0.853 Y30.516
X0.78 Y31.32
X0.718 Y32.126
X0.662 Y32.933
X0.616 Y33.74
X0.586 Y34.547
X0.566 Y35.355
X0.552 Y36.163
X0.543 Y36.972
X0.537 Y37.78
X0.533 Y38.588
X0.529 Y40.204
X0.526 Y42.629
X0.525 Y51.52
Y71.726
Y121.836
Y171.947
Y222.057
Y272.168
Y322.279
Y372.389
Y422.5
Y472.611
Y492.817
X0.53 Y493.625
X0.547 Y494.433
X0.572 Y495.241
X0.603 Y496.048
X0.638 Y496.856
X0.699 Y497.662
X0.782 Y498.466
X0.88 Y499.268
X0.987 Y500.069
X1.111 Y500.868
X1.264 Y501.661
X1.435 Y502.451
X1.62 Y503.238
X1.812 Y504.023
X2.035 Y504.8
X2.281 Y505.57
X2.542 Y506.335
X2.812 Y507.097
X3.101 Y507.852
X3.416 Y508.596
X3.749 Y509.332
X4.094 Y510.063
X4.446 Y510.791
X4.828 Y511.503
X5.23 Y512.204
X5.645 Y512.898
X6.069 Y513.586
X6.511 Y514.263
X6.976 Y514.924
X7.456 Y515.574
X7.945 Y516.217
X8.443 Y516.854
X8.967 Y517.47
X9.507 Y518.071
X10.057 Y518.662
X10.615 Y519.247
X11.19 Y519.815
X11.784 Y520.363
X12.39 Y520.899
X13.003 Y521.426
X13.624 Y521.942
X14.266 Y522.434
X14.92 Y522.909
X15.582 Y523.372
X16.249 Y523.828
X16.932 Y524.261
X17.628 Y524.672
X18.332 Y525.069
X19.041 Y525.456
X19.758 Y525.829
X20.489 Y526.175
X21.228 Y526.502
X21.972 Y526.817
X22.72 Y527.123
X23.479 Y527.402
X24.245 Y527.658
X25.017 Y527.899
X25.792 Y528.129
X26.571 Y528.342
X27.358 Y528.526
X28.15 Y528.691
X28.943 Y528.843
X29.739 Y528.987
X30.539 Y529.099
X31.342 Y529.188
X32.147 Y529.262
X32.953 Y529.325
X33.76 Y529.375
X34.567 Y529.408
X35.375 Y529.43
X36.183 Y529.445
X36.992 Y529.455
X37.8 Y529.461
X38.608 Y529.466
X40.224 Y529.471
X42.649 Y529.474
X50.732 Y529.475
X58.814
X108.925
X159.035
X209.146
X259.256
X309.367
X343.313
X344.121 Y529.462
X344.929 Y529.439
X345.737 Y529.409
X346.544 Y529.376
X347.351 Y529.326
X348.156 Y529.251
X348.959 Y529.159
X349.76 Y529.055
X350.561 Y528.944
X351.356 Y528.8
X352.147 Y528.634
X352.935 Y528.453
X353.72 Y528.263
X354.501 Y528.052
X355.273 Y527.815
X356.04 Y527.56
X356.803 Y527.293
X357.563 Y527.017
X358.31 Y526.709
X359.049 Y526.382
X359.782 Y526.041
X360.511 Y525.691
X361.229 Y525.32
X361.934 Y524.925
X362.63 Y524.515
X363.321 Y524.095
X364.005 Y523.664
X364.671 Y523.207
X365.325 Y522.731
X365.97 Y522.245
X366.61 Y521.751
X367.233 Y521.237
X367.84 Y520.702
X368.435 Y520.156
X369.022 Y519.6
X369.599 Y519.035
X370.154 Y518.447
X370.694 Y517.845
X371.223 Y517.235
X371.746 Y516.618
X372.246 Y515.983
X372.727 Y515.334
X373.194 Y514.674
X373.653 Y514.008
X374.097 Y513.333
X374.516 Y512.642
X374.917 Y511.941
X375.308 Y511.233
X375.69 Y510.521
X376.045 Y509.795
X376.378 Y509.058
X376.697 Y508.316
X377.006 Y507.569
X377.297 Y506.815
X377.561 Y506.051
X377.807 Y505.281
X378.041 Y504.507
X378.266 Y503.731
X378.459 Y502.946
X378.63 Y502.156
X378.786 Y501.363
X378.933 Y500.568
X379.058 Y499.77
X379.155 Y498.968
X379.234 Y498.163
X379.301 Y497.358
X379.359 Y496.552
X379.397 Y495.744
X379.423 Y494.936
X379.44 Y494.128
X379.452 Y493.32
X379.459 Y492.512
X379.465 Y491.704
X379.468 Y490.896
X379.472 Y489.279
X379.474 Y486.046
X379.475 Y484.43
Y434.319
Y384.208
Y334.098
Y283.987
Y233.877
Y183.766
Y133.655
Y83.545
Y36.667
X379.461 Y35.859
X379.438 Y35.051
X379.409 Y34.243
X379.375 Y33.436
X379.325 Y32.629
X379.249 Y31.824
X379.156 Y31.021
X379.052 Y30.22
X378.941 Y29.419
X378.796 Y28.624
X378.63 Y27.833
X378.449 Y27.046
X378.259 Y26.26
X378.047 Y25.48
X377.809 Y24.708
X377.553 Y23.941
X377.286 Y23.178
X377.009 Y22.419
X376.701 Y21.672
X376.373 Y20.933
X376.032 Y20.2
X375.682 Y19.471
X375.311 Y18.754
X374.915 Y18.049
X374.505 Y17.352
X374.085 Y16.662
X373.653 Y15.979
X373.195 Y15.313
X372.72 Y14.659
X372.233 Y14.014
X371.739 Y13.374
X371.224 Y12.752
X370.689 Y12.146
X370.142 Y11.551
X369.586 Y10.963
X369.02 Y10.387
X368.432 Y9.832
X367.83 Y9.293
X367.219 Y8.764
X366.603 Y8.241
X365.967 Y7.742
X365.317 Y7.261
X364.658 Y6.794
X363.992 Y6.336
X363.316 Y5.893
X362.625 Y5.474
X361.923 Y5.073
X361.215 Y4.683
X360.503 Y4.3
X359.777 Y3.946
X359.04 Y3.614
X358.297 Y3.295
X357.55 Y2.986
X356.796 Y2.696
X356.032 Y2.432
X355.262 Y2.187
X354.488 Y1.953
X353.712 Y1.728
X352.927 Y1.536
X352.137 Y1.365
X351.344 Y1.21
X350.549 Y1.064
X349.75 Y0.939
X348.948 Y0.843
X348.143 Y0.764
X347.338 Y0.697
X346.532 Y0.64
X345.724 Y0.602
X344.916 Y0.576
X344.108 Y0.559
X343.3 Y0.548
X342.492 Y0.54
X341.684 Y0.535
X340.876 Y0.532
X339.259 Y0.528
X336.026 Y0.526
X297.231 Y0.525
X247.12
X197.01
X146.899
X96.788
X46.678
X36.979
X36.171 Y0.533
X35.363 Y0.553
X34.555 Y0.58
X33.747 Y0.612
X32.94 Y0.65
X32.135 Y0.718
X31.331 Y0.805
X30.529 Y0.906
X29.728 Y1.015
X28.931 Y1.147
X28.138 Y1.306
X27.349 Y1.481
X26.563 Y1.668
X25.78 Y1.866
X25.005 Y2.096
X24.236 Y2.346
X23.472 Y2.61
X22.711 Y2.882
X21.959 Y3.179
X21.217 Y3.499
X20.482 Y3.836
X19.752 Y4.182
X19.029 Y4.542
X18.319 Y4.93
X17.62 Y5.335
X16.928 Y5.752
X16.24 Y6.177
X15.568 Y6.626
X14.911 Y7.096
X14.262 Y7.579
X13.621 Y8.07
X12.99 Y8.575
X12.378 Y9.103
X11.779 Y9.646
X11.189 Y10.199
X10.605 Y10.758
X10.044 Y11.339
X9.499 Y11.936
X8.967 Y12.544
X8.442 Y13.159
X7.932 Y13.786
X7.445 Y14.431
X6.973 Y15.087
X6.512 Y15.751
X6.058 Y16.419
X5.632 Y17.106
X5.225 Y17.805
X4.832 Y18.511
X4.447 Y19.221
X4.081 Y19.942
X3.937 Y20.738
X3.957 Y21.546
X4.032 Y22.35
X4.117 Y23.154
X4.185 Y23.959
X4.222 Y24.767
X4.229 Y25.575
X4.209 Y26.383
X4.166 Y27.19
X4.104 Y27.996
X4.03 Y28.801
X3.954 Y29.605
X3.881 Y30.41
X3.813 Y31.216
X3.751 Y32.022
X3.698 Y32.828
X3.656 Y33.635
X3.622 Y34.443
X3.596 Y35.251
X3.577 Y36.059
X3.563 Y36.867
X3.552 Y37.675
X3.544 Y38.483
X3.539 Y39.291
X3.535 Y40.1
X3.53 Y41.716
X3.527 Y44.141
X3.525 Y49.798
Y70.004
Y120.115
Y170.226
Y220.336
Y270.447
Y320.557
Y370.668
Y420.779
Y470.889
Y491.095
X3.526 Y491.903
X3.533 Y492.712
X3.546 Y493.52
X3.564 Y494.328
X3.589 Y495.136
X3.628 Y495.943
X3.683 Y496.749
X3.753 Y497.555
X3.838 Y498.358
X3.941 Y499.16
X4.064 Y499.959
X4.207 Y500.754
X4.366 Y501.547
X4.544 Y502.335
X4.746 Y503.118
X4.968 Y503.895
X5.207 Y504.667
X5.466 Y505.433
X5.746 Y506.191
X6.047 Y506.941
X6.363 Y507.685
X6.698 Y508.42
X7.054 Y509.146
X7.43 Y509.861
X7.822 Y510.568
X8.231 Y511.265
X8.661 Y511.95
X9.109 Y512.622
X9.572 Y513.285
X10.05 Y513.936
X10.548 Y514.573
X11.062 Y515.197
X11.591 Y515.808
X12.134 Y516.406
X12.694 Y516.989
X13.27 Y517.556
X13.86 Y518.109
X14.462 Y518.648
X15.079 Y519.17
X15.71 Y519.674
X16.353 Y520.164
X17.008 Y520.638
X17.676 Y521.094
X18.356 Y521.531
X19.046 Y521.952
X19.745 Y522.356
X20.456 Y522.741
X21.178 Y523.105
X21.908 Y523.452
X22.646 Y523.782
X23.392 Y524.091
X24.148 Y524.379
X24.909 Y524.649
X25.677 Y524.901
X26.452 Y525.133
X27.232 Y525.342
X28.018 Y525.531
X28.808 Y525.703
X29.602 Y525.853
X30.4 Y525.98
X31.201 Y526.088
X32.004 Y526.178
X32.809 Y526.252
X33.615 Y526.309
X34.422 Y526.353
X35.23 Y526.386
X36.038 Y526.411
X36.846 Y526.429
X37.654 Y526.442
X38.462 Y526.451
X39.27 Y526.458
X40.079 Y526.463
X40.887 Y526.467
X42.503 Y526.471
X44.928 Y526.474
X52.202 Y526.475
X61.901
X112.012
X162.122
X212.233
X262.344
X312.454
X341.551
X342.359 Y526.471
X343.167 Y526.461
X343.975 Y526.445
X344.783 Y526.423
X345.591 Y526.391
X346.397 Y526.343
X347.203 Y526.279
X348.008 Y526.201
X348.811 Y526.108
X349.611 Y525.993
X350.408 Y525.858
X351.201 Y525.706
X351.991 Y525.536
X352.777 Y525.344
X353.556 Y525.131
X354.33 Y524.899
X355.099 Y524.65
X355.861 Y524.38
X356.615 Y524.088
X357.361 Y523.778
X358.1 Y523.45
X358.83 Y523.103
X359.549 Y522.735
X360.26 Y522.35
X360.962 Y521.95
X361.652 Y521.529
X362.33 Y521.089
X362.997 Y520.633
X363.654 Y520.161
X364.297 Y519.671
X364.926 Y519.164
X365.542 Y518.641
X366.147 Y518.105
X366.736 Y517.552
X367.31 Y516.983
X367.869 Y516.399
X368.415 Y515.803
X368.945 Y515.192
X369.456 Y514.567
X369.952 Y513.928
X370.433 Y513.279
X370.897 Y512.617
X371.342 Y511.942
X371.769 Y511.256
X372.182 Y510.562
X372.576 Y509.856
X372.949 Y509.138
X373.303 Y508.412
X373.64 Y507.677
X373.958 Y506.935
X374.255 Y506.183
X374.533 Y505.424
X374.794 Y504.659
X375.035 Y503.887
X375.254 Y503.109
X375.451 Y502.326
X375.631 Y501.538
X375.791 Y500.745
X375.927 Y499.949
X376.043 Y499.149
X376.141 Y498.346
X376.222 Y497.542
X376.286 Y496.737
X376.336 Y495.93
X376.373 Y495.123
X376.401 Y494.315
X376.422 Y493.507
X376.437 Y492.699
X376.448 Y491.891
X376.456 Y491.082
X376.461 Y490.274
X376.465 Y489.466
X376.47 Y487.849
X376.473 Y485.425
X376.475 Y479.767
Y476.534
Y426.424
Y376.313
Y326.202
Y276.092
Y225.981
Y175.87
Y125.76
Y75.649
Y38.47
X376.471 Y37.662
X376.461 Y36.854
X376.445 Y36.046
X376.423 Y35.238
X376.392 Y34.43
X376.344 Y33.623
X376.281 Y32.818
X376.204 Y32.013
X376.111 Y31.21
X375.997 Y30.41
X375.862 Y29.613
X375.71 Y28.819
X375.54 Y28.029
X375.349 Y27.244
X375.136 Y26.464
X374.905 Y25.69
X374.657 Y24.92
X374.387 Y24.159
X374.095 Y23.405
X373.786 Y22.658
X373.459 Y21.919
X373.112 Y21.189
X372.745 Y20.469
X372.36 Y19.758
X371.96 Y19.056
X371.54 Y18.365
X371.101 Y17.687
X370.645 Y17.02
X370.173 Y16.363
X369.684 Y15.72
X369.177 Y15.09
X368.655 Y14.474
X368.119 Y13.869
X367.566 Y13.279
X366.997 Y12.705
X366.414 Y12.145
X365.819 Y11.599
X365.208 Y11.069
X364.583 Y10.557
X363.945 Y10.061
X363.296 Y9.579
X362.634 Y9.115
X361.96 Y8.67
X361.274 Y8.242
X360.58 Y7.828
X359.874 Y7.434
X359.157 Y7.061
X358.431 Y6.706
X357.697 Y6.368
X356.954 Y6.049
X356.202 Y5.752
X355.444 Y5.474
X354.679 Y5.212
X353.908 Y4.971
X353.13 Y4.752
X352.346 Y4.553
X351.558 Y4.373
X350.766 Y4.213
X349.969 Y4.076
X349.17 Y3.96
X348.367 Y3.861
X347.563 Y3.78
X346.758 Y3.715
X345.951 Y3.665
X345.143 Y3.628
X344.336 Y3.599
X343.528 Y3.579
X342.72 Y3.564
X341.912 Y3.553
X341.103 Y3.545
X340.295 Y3.539
X339.487 Y3.535
X337.87 Y3.53
X335.446 Y3.527
X334.637 Y3.526
X325.747 Y3.525
X284.527
X234.416
X184.306
X134.195
X84.084
X38.823
X38.015 Y3.527
X37.207 Y3.534
X36.399 Y3.548
X35.591 Y3.567
X34.783 Y3.592
X33.975 Y3.632
X33.169 Y3.688
X32.364 Y3.76
X31.561 Y3.846
X30.759 Y3.952
X29.961 Y4.077
X29.166 Y4.222
X28.374 Y4.383
X27.586 Y4.565
X26.804 Y4.768
X26.027 Y4.992
X25.255 Y5.232
X24.49 Y5.493
X23.733 Y5.775
X22.984 Y6.077
X22.241 Y6.396
X21.507 Y6.734
X20.782 Y7.093
X20.068 Y7.47
X19.361 Y7.863
X18.665 Y8.274
X17.982 Y8.705
X17.31 Y9.155
X16.649 Y9.619
X15.999 Y10.1
X15.364 Y10.6
X14.742 Y11.116
X14.131 Y11.646
X13.534 Y12.19
X12.953 Y12.752
X12.388 Y13.33
X11.835 Y13.92
X11.298 Y14.523
X10.778 Y15.142
X10.275 Y15.775
X9.787 Y16.419
X9.314 Y17.075
X8.861 Y17.744
X8.426 Y18.425
X8.006 Y19.116
X7.638 Y19.836
X7.428 Y20.616
X7.322 Y21.417
X7.275 Y22.224
X7.257 Y23.032
X7.247 Y23.84
X7.236 Y24.648
X7.216 Y25.456
X7.184 Y26.264
X7.14 Y27.071
X7.086 Y27.877
X7.025 Y28.683
X6.897 Y30.295
X6.836 Y31.101
X6.779 Y31.907
X6.729 Y32.714
X6.687 Y33.521
X6.652 Y34.328
X6.623 Y35.136
X6.6 Y35.944
X6.582 Y36.752
X6.568 Y37.56
X6.557 Y38.368
X6.549 Y39.176
X6.543 Y39.984
X6.538 Y40.793
X6.532 Y42.409
X6.528 Y44.834
X6.526 Y48.875
X6.525 Y87.67
Y137.781
Y187.892
Y238.002
Y288.113
Y338.224
Y388.334
Y438.445
Y488.555
Y490.172
X6.528 Y490.98
X6.533 Y491.788
X6.543 Y492.596
X6.558 Y493.405
X6.581 Y494.212
X6.616 Y495.02
X6.663 Y495.827
X6.725 Y496.633
X6.803 Y497.437
X6.899 Y498.24
X7.014 Y499.04
X7.148 Y499.837
X7.303 Y500.63
X7.479 Y501.419
X7.676 Y502.203
X7.895 Y502.981
X8.137 Y503.752
X8.4 Y504.516
X8.684 Y505.273
X8.988 Y506.021
X9.315 Y506.761
X9.662 Y507.491
X10.029 Y508.211
X10.417 Y508.92
X10.826 Y509.617
X11.254 Y510.303
X11.702 Y510.976
X12.169 Y511.635
X12.654 Y512.281
X13.158 Y512.914
X13.679 Y513.532
X14.218 Y514.134
X14.773 Y514.721
X15.345 Y515.292
X15.934 Y515.846
X16.539 Y516.382
X17.158 Y516.901
X17.792 Y517.403
X18.44 Y517.885
X19.102 Y518.35
X19.776 Y518.796
X20.462 Y519.222
X21.161 Y519.628
X21.872 Y520.013
X22.593 Y520.379
X23.324 Y520.723
X24.065 Y521.046
X24.814 Y521.348
X25.572 Y521.629
X26.338 Y521.888
X27.111 Y522.125
X27.89 Y522.34
X28.675 Y522.533
X29.465 Y522.702
X30.26 Y522.848
X31.058 Y522.974
X31.86 Y523.079
X32.663 Y523.166
X33.468 Y523.236
X34.275 Y523.292
X35.082 Y523.336
X35.889 Y523.37
X36.697 Y523.397
X37.505 Y523.417
X38.313 Y523.432
X39.121 Y523.443
X39.929 Y523.451
X40.738 Y523.458
X41.546 Y523.462
X43.162 Y523.468
X45.587 Y523.473
X50.436 Y523.475
X84.382
X134.493
X184.604
X234.714
X284.825
X334.935
X339.785
X340.593 Y523.474
X341.401 Y523.47
X342.21 Y523.462
X343.018 Y523.45
X343.826 Y523.431
X344.633 Y523.402
X345.441 Y523.361
X346.247 Y523.307
X347.052 Y523.237
X347.856 Y523.15
X348.657 Y523.044
X349.456 Y522.919
X350.251 Y522.774
X351.042 Y522.608
X351.828 Y522.42
X352.609 Y522.212
X353.384 Y521.982
X354.151 Y521.729
X354.912 Y521.455
X355.664 Y521.16
X356.408 Y520.844
X357.142 Y520.506
X357.867 Y520.149
X358.582 Y519.771
X359.285 Y519.373
X359.976 Y518.954
X360.655 Y518.515
X361.321 Y518.057
X361.974 Y517.581
X362.612 Y517.085
X363.237 Y516.573
X363.847 Y516.042
X364.442 Y515.495
X365.021 Y514.931
X365.583 Y514.35
X366.127 Y513.753
X366.655 Y513.14
X367.165 Y512.513
X367.656 Y511.872
X368.129 Y511.217
X368.584 Y510.548
X369.02 Y509.868
X369.436 Y509.175
X369.832 Y508.47
X370.207 Y507.754
X370.561 Y507.028
X370.894 Y506.291
X371.206 Y505.546
X371.497 Y504.792
X371.767 Y504.03
X372.014 Y503.26
X372.24 Y502.484
X372.444 Y501.702
X372.624 Y500.914
X372.781 Y500.121
X372.916 Y499.324
X373.031 Y498.525
X373.127 Y497.722
X373.205 Y496.917
X373.267 Y496.112
X373.317 Y495.305
X373.355 Y494.498
X373.385 Y493.69
X373.408 Y492.882
X373.425 Y492.074
X373.438 Y491.266
X373.448 Y490.458
X373.455 Y489.649
X373.46 Y488.841
X373.464 Y488.033
X373.469 Y486.417
X373.473 Y483.992
X373.475 Y479.142
Y449.238
Y399.127
Y349.016
Y298.906
Y248.795
Y198.685
Y148.574
Y98.463
Y48.353
Y40.27
X373.474 Y39.462
X373.47 Y38.654
X373.463 Y37.846
X373.451 Y37.037
X373.433 Y36.229
X373.405 Y35.422
X373.365 Y34.614
X373.311 Y33.808
X373.243 Y33.003
X373.157 Y32.199
X373.052 Y31.398
X372.928 Y30.599
X372.784 Y29.804
X372.619 Y29.012
X372.433 Y28.226
X372.227 Y27.444
X371.998 Y26.669
X371.747 Y25.901
X371.475 Y25.14
X371.181 Y24.387
X370.866 Y23.643
X370.53 Y22.908
X370.174 Y22.182
X369.797 Y21.467
X369.4 Y20.763
X368.983 Y20.071
X368.546 Y19.391
X368.089 Y18.724
X367.614 Y18.07
X367.12 Y17.431
X366.608 Y16.805
X366.079 Y16.194
X365.532 Y15.599
X364.969 Y15.019
X364.39 Y14.455
X363.794 Y13.909
X363.183 Y13.381
X362.557 Y12.87
X361.916 Y12.377
X361.262 Y11.902
X360.594 Y11.446
X359.915 Y11.009
X359.223 Y10.592
X358.518 Y10.195
X357.803 Y9.818
X357.078 Y9.462
X356.342 Y9.128
X355.597 Y8.815
X354.843 Y8.522
X354.082 Y8.251
X353.313 Y8.002
X352.537 Y7.775
X351.756 Y7.569
X350.968 Y7.387
X350.176 Y7.229
X349.379 Y7.092
X348.579 Y6.976
X347.777 Y6.879
X346.972 Y6.8
X346.167 Y6.736
X345.36 Y6.686
X344.553 Y6.647
X343.745 Y6.617
X342.937 Y6.594
X342.129 Y6.576
X341.321 Y6.563
X340.513 Y6.553
X339.705 Y6.545
X338.896 Y6.54
X338.088 Y6.536
X336.472 Y6.531
X334.047 Y6.527
X329.198 Y6.525
X302.526
X252.415
X202.305
X152.194
X102.083
X51.973
X39.849 Y6.526
X39.041 Y6.528
X38.233 Y6.533
X37.425 Y6.543
X36.616 Y6.558
X35.808 Y6.58
X35.001 Y6.614
X34.194 Y6.661
X33.388 Y6.722
X32.584 Y6.8
X31.781 Y6.896
X30.981 Y7.011
X30.184 Y7.145
X29.391 Y7.299
X28.602 Y7.475
X27.818 Y7.672
X27.04 Y7.889
X26.268 Y8.13
X25.503 Y8.392
X24.747 Y8.676
X23.998 Y8.981
X23.259 Y9.307
X22.528 Y9.654
X21.808 Y10.02
X21.099 Y10.407
X20.401 Y10.815
X19.715 Y11.243
X19.042 Y11.69
X18.382 Y12.156
X17.735 Y12.642
X17.103 Y13.145
X16.485 Y13.665
X15.882 Y14.204
X15.295 Y14.759
X14.723 Y15.33
X14.168 Y15.918
X13.632 Y16.523
X13.112 Y17.142
X12.61 Y17.775
X12.126 Y18.423
X11.662 Y19.084
X11.234 Y19.77
X10.913 Y20.512
X10.693 Y21.289
X10.544 Y22.084
X10.442 Y22.886
X10.368 Y23.69
X10.31 Y24.497
X10.206 Y26.11
X10.152 Y26.916
X10.096 Y27.722
X10.037 Y28.528
X9.917 Y30.14
X9.859 Y30.947
X9.806 Y31.753
X9.758 Y32.56
X9.716 Y33.367
X9.679 Y34.174
X9.648 Y34.982
X9.623 Y35.79
X9.602 Y36.598
X9.585 Y37.406
X9.571 Y38.214
X9.561 Y39.022
X9.552 Y39.83
X9.546 Y40.639
X9.541 Y41.447
X9.534 Y43.063
X9.53 Y44.68
X9.526 Y47.913
X9.525 Y55.995
Y74.585
Y124.695
Y174.806
Y224.916
Y275.027
Y325.138
Y375.248
Y425.359
Y475.47
Y488.401
X9.526 Y489.21
X9.528 Y490.018
X9.533 Y490.826
X9.54 Y491.634
X9.553 Y492.442
X9.573 Y493.25
X9.602 Y494.058
X9.643 Y494.865
X9.698 Y495.672
X9.768 Y496.477
X9.856 Y497.28
X9.962 Y498.081
X10.089 Y498.88
X10.238 Y499.674
X10.408 Y500.464
X10.602 Y501.249
X10.819 Y502.027
X11.061 Y502.799
X11.326 Y503.562
X11.615 Y504.317
X11.927 Y505.062
X12.263 Y505.798
X12.621 Y506.522
X13.003 Y507.235
X13.407 Y507.934
X13.834 Y508.621
X14.283 Y509.293
X14.753 Y509.951
X15.243 Y510.593
X15.754 Y511.219
X16.285 Y511.829
X16.834 Y512.422
X17.403 Y512.996
X17.99 Y513.552
X18.595 Y514.088
X19.216 Y514.604
X19.854 Y515.101
X20.507 Y515.577
X21.175 Y516.032
X21.857 Y516.465
X22.553 Y516.877
X23.262 Y517.265
X23.983 Y517.63
X24.716 Y517.971
X25.459 Y518.289
X26.211 Y518.584
X26.973 Y518.854
X27.743 Y519.1
X28.52 Y519.321
X29.305 Y519.517
X30.095 Y519.687
X30.889 Y519.834
X31.688 Y519.959
X32.489 Y520.063
X33.293 Y520.149
X34.098 Y520.219
X34.904 Y520.276
X35.711 Y520.321
X36.519 Y520.356
X37.327 Y520.384
X38.135 Y520.406
X38.943 Y520.423
X39.751 Y520.435
X40.559 Y520.445
X41.367 Y520.453
X42.175 Y520.458
X42.984 Y520.463
X44.6 Y520.468
X47.025 Y520.472
X51.874 Y520.475
X76.121
X126.232
X176.343
X226.453
X276.564
X326.674
X338.798
X339.606 Y520.473
X340.414 Y520.47
X341.223 Y520.464
X342.031 Y520.454
X342.839 Y520.438
X343.647 Y520.414
X344.454 Y520.38
X345.261 Y520.332
X346.067 Y520.27
X346.871 Y520.192
X347.674 Y520.095
X348.474 Y519.978
X349.27 Y519.841
X350.062 Y519.681
X350.85 Y519.5
X351.632 Y519.295
X352.407 Y519.065
X353.174 Y518.812
X353.934 Y518.535
X354.684 Y518.234
X355.424 Y517.911
X356.154 Y517.564
X356.873 Y517.194
X357.58 Y516.802
X358.273 Y516.386
X358.952 Y515.949
X359.617 Y515.489
X360.268 Y515.009
X360.902 Y514.508
X361.52 Y513.988
X362.122 Y513.448
X362.706 Y512.889
X363.271 Y512.311
X363.817 Y511.716
X364.344 Y511.102
X364.85 Y510.473
X365.337 Y509.827
X365.803 Y509.167
X366.247 Y508.492
X366.67 Y507.803
X367.07 Y507.101
X367.447 Y506.386
X367.8 Y505.659
X368.131 Y504.921
X368.437 Y504.173
X368.72 Y503.416
X368.978 Y502.65
X369.212 Y501.877
X369.42 Y501.096
X369.604 Y500.309
X369.763 Y499.516
X369.898 Y498.719
X370.013 Y497.919
X370.108 Y497.117
X370.186 Y496.312
X370.249 Y495.506
X370.299 Y494.7
X370.339 Y493.892
X370.371 Y493.085
X370.396 Y492.277
X370.415 Y491.469
X370.429 Y490.661
X370.441 Y489.853
X370.449 Y489.044
X370.456 Y488.236
X370.461 Y487.428
X370.467 Y485.812
X370.472 Y483.387
X370.474 Y479.346
X370.475 Y452.674
Y402.563
Y352.453
Y302.342
Y252.231
Y202.121
Y152.01
Y101.9
Y51.789
Y41.282
X370.474 Y40.474
X370.471 Y39.665
X370.465 Y38.857
X370.455 Y38.049
X370.44 Y37.241
X370.417 Y36.433
X370.384 Y35.625
X370.338 Y34.819
X370.277 Y34.013
X370.201 Y33.208
X370.105 Y32.405
X369.991 Y31.605
X369.855 Y30.809
X369.698 Y30.016
X369.519 Y29.228
X369.316 Y28.445
X369.089 Y27.669
X368.838 Y26.901
X368.564 Y26.141
X368.265 Y25.39
X367.944 Y24.648
X367.599 Y23.917
X367.231 Y23.197
X366.841 Y22.49
X366.428 Y21.795
X365.993 Y21.114
X365.536 Y20.447
X365.057 Y19.796
X364.559 Y19.16
X364.04 Y18.54
X363.502 Y17.937
X362.945 Y17.351
X362.369 Y16.784
X361.775 Y16.236
X361.164 Y15.707
X360.536 Y15.199
X359.892 Y14.71
X359.233 Y14.242
X358.559 Y13.796
X357.871 Y13.371
X357.171 Y12.968
X356.457 Y12.589
X355.731 Y12.233
X354.995 Y11.901
X354.248 Y11.592
X353.491 Y11.307
X352.726 Y11.046
X351.953 Y10.81
X351.173 Y10.599
X350.387 Y10.413
X349.595 Y10.252
X348.798 Y10.114
X347.998 Y9.997
X347.196 Y9.901
X346.392 Y9.821
X345.586 Y9.757
X344.779 Y9.705
X343.972 Y9.664
X343.165 Y9.632
X342.357 Y9.607
X341.549 Y9.587
X340.741 Y9.572
X339.933 Y9.56
X339.124 Y9.552
X338.316 Y9.545
X337.508 Y9.54
X335.891 Y9.533
X334.275 Y9.529
X331.042 Y9.526
X322.151 Y9.525
X301.137
X251.027
X200.916
X150.805
X100.695
X50.584
X41.694
X40.885 Y9.526
X40.077 Y9.528
X39.269 Y9.532
X38.461 Y9.54
X37.653 Y9.552
X36.845 Y9.57
X36.037 Y9.598
X35.229 Y9.637
X34.423 Y9.689
X33.618 Y9.758
X32.814 Y9.844
X32.012 Y9.948
X31.214 Y10.073
X30.419 Y10.219
X29.628 Y10.387
X28.843 Y10.578
X28.064 Y10.792
X27.291 Y11.031
X26.527 Y11.293
X25.771 Y11.58
X25.025 Y11.89
X24.288 Y12.223
X23.563 Y12.579
X22.849 Y12.957
X22.147 Y13.359
X21.459 Y13.783
X20.785 Y14.229
X20.126 Y14.696
X19.482 Y15.185
X18.854 Y15.694
X18.242 Y16.222
X17.647 Y16.769
X17.071 Y17.335
X16.513 Y17.92
X15.974 Y18.522
X15.455 Y19.142
X14.959 Y19.78
X14.521 Y20.46
X14.174 Y21.19
X13.913 Y21.955
X13.718 Y22.739
X13.571 Y23.534
X13.455 Y24.334
X13.36 Y25.136
X13.279 Y25.94
X13.205 Y26.745
X13.136 Y27.551
X13.07 Y28.356
X13.007 Y29.162
X12.946 Y29.968
X12.889 Y30.774
X12.835 Y31.58
X12.787 Y32.387
X12.744 Y33.194
X12.706 Y34.002
X12.673 Y34.809
X12.645 Y35.617
X12.622 Y36.425
X12.602 Y37.233
X12.586 Y38.041
X12.573 Y38.849
X12.563 Y39.657
X12.555 Y40.465
X12.548 Y41.274
X12.543 Y42.082
X12.535 Y43.698
X12.531 Y45.315
X12.528 Y47.739
X12.525 Y52.589
Y80.877
Y130.988
Y181.098
Y231.209
Y281.32
Y331.43
Y381.541
Y431.652
Y481.762
Y487.42
X12.526 Y488.228
X12.528 Y489.036
X12.532 Y489.845
X12.538 Y490.653
X12.549 Y491.461
X12.565 Y492.269
X12.59 Y493.077
X12.625 Y493.884
X12.672 Y494.691
X12.735 Y495.497
X12.814 Y496.301
X12.913 Y497.103
X13.032 Y497.903
X13.173 Y498.699
X13.338 Y499.49
X13.528 Y500.276
X13.743 Y501.055
X13.986 Y501.826
X14.254 Y502.588
X14.549 Y503.34
X14.87 Y504.082
X15.217 Y504.812
X15.59 Y505.529
X15.989 Y506.232
X16.414 Y506.92
X16.863 Y507.591
X17.337 Y508.246
X17.834 Y508.884
X18.353 Y509.503
X18.895 Y510.103
X19.458 Y510.682
X20.043 Y511.24
X20.648 Y511.777
X21.272 Y512.29
X21.914 Y512.781
X22.573 Y513.248
X23.249 Y513.691
X23.941 Y514.109
X24.648 Y514.501
X25.369 Y514.866
X26.103 Y515.205
X26.849 Y515.517
X27.605 Y515.802
X28.371 Y516.059
X29.146 Y516.289
X29.929 Y516.49
X30.718 Y516.664
X31.513 Y516.813
X32.311 Y516.939
X33.112 Y517.044
X33.916 Y517.131
X34.721 Y517.202
X35.527 Y517.26
X36.334 Y517.306
X37.141 Y517.343
X37.949 Y517.373
X38.757 Y517.396
X39.565 Y517.414
X40.373 Y517.428
X41.181 Y517.439
X41.989 Y517.448
X42.798 Y517.454
X43.606 Y517.459
X45.222 Y517.466
X47.647 Y517.471
X50.88 Y517.474
X62.195 Y517.475
X87.251
X137.361
X187.472
X237.583
X287.693
X337.804 Y517.474
X338.612 Y517.473
X339.42 Y517.471
X340.228 Y517.466
X341.037 Y517.458
X341.845 Y517.444
X342.653 Y517.424
X343.461 Y517.395
X344.268 Y517.355
X345.074 Y517.3
X345.879 Y517.23
X346.683 Y517.142
X347.484 Y517.033
X348.281 Y516.904
X349.075 Y516.752
X349.864 Y516.575
X350.647 Y516.373
X351.422 Y516.145
X352.189 Y515.89
X352.947 Y515.609
X353.694 Y515.301
X354.43 Y514.968
X355.154 Y514.609
X355.865 Y514.223
X356.561 Y513.812
X357.241 Y513.376
X357.905 Y512.914
X358.551 Y512.43
X359.18 Y511.922
X359.79 Y511.392
X360.381 Y510.84
X360.95 Y510.266
X361.498 Y509.672
X362.023 Y509.058
X362.526 Y508.425
X363.006 Y507.775
X363.462 Y507.107
X363.893 Y506.424
X364.299 Y505.725
X364.678 Y505.011
X365.031 Y504.284
X365.357 Y503.544
X365.656 Y502.793
X365.928 Y502.032
X366.172 Y501.262
X366.388 Y500.483
X366.576 Y499.697
X366.738 Y498.905
X366.876 Y498.109
X366.992 Y497.309
X367.088 Y496.506
X367.167 Y495.702
X367.231 Y494.896
X367.283 Y494.09
X367.325 Y493.283
X367.358 Y492.475
X367.385 Y491.667
X367.405 Y490.859
X367.421 Y490.051
X367.434 Y489.243
X367.444 Y488.435
X367.451 Y487.627
X367.457 Y486.818
X367.461 Y486.01
X367.467 Y484.394
X367.472 Y481.969
X367.474 Y477.928
X367.475 Y447.215
Y436.708
Y386.597
Y336.487
Y286.376
Y236.265
Y186.155
Y136.044
Y85.933
Y42.289
X367.473 Y41.48
X367.471 Y40.672
X367.466 Y39.864
X367.459 Y39.056
X367.446 Y38.248
X367.427 Y37.44
X367.399 Y36.632
X367.36 Y35.825
X367.308 Y35.018
X367.239 Y34.213
X367.153 Y33.409
X367.047 Y32.608
X366.92 Y31.81
X366.77 Y31.015
X366.596 Y30.226
X366.398 Y29.443
X366.172 Y28.666
X365.921 Y27.898
X365.642 Y27.14
X365.338 Y26.391
X365.007 Y25.653
X364.651 Y24.928
X364.269 Y24.216
X363.86 Y23.518
X363.427 Y22.836
X362.968 Y22.171
X362.486 Y21.522
X361.981 Y20.891
X361.454 Y20.279
X360.904 Y19.686
X360.333 Y19.114
X359.741 Y18.564
X359.129 Y18.036
X358.498 Y17.53
X357.85 Y17.048
X357.184 Y16.589
X356.503 Y16.155
X355.805 Y15.746
X355.093 Y15.364
X354.368 Y15.008
X353.63 Y14.679
X352.88 Y14.377
X352.12 Y14.102
X351.35 Y13.855
X350.573 Y13.635
X349.787 Y13.444
X348.996 Y13.279
X348.2 Y13.138
X347.401 Y13.02
X346.598 Y12.922
X345.794 Y12.841
X344.989 Y12.775
X344.182 Y12.722
X343.375 Y12.679
X342.567 Y12.645
X341.76 Y12.618
X340.952 Y12.597
X340.144 Y12.58
X339.336 Y12.567
X338.527 Y12.557
X337.719 Y12.55
X336.911 Y12.544
X336.103 Y12.539
X334.486 Y12.533
X332.062 Y12.528
X330.445 Y12.527
X323.979 Y12.525
X280.334
X230.224
X180.113
X130.003
X79.892
X42.713
X41.905 Y12.526
X41.097 Y12.528
X40.288 Y12.531
X39.48 Y12.537
X38.672 Y12.547
X37.864 Y12.562
X37.056 Y12.585
X36.248 Y12.618
X35.441 Y12.663
X34.635 Y12.723
X33.831 Y12.799
X33.028 Y12.895
X32.228 Y13.011
X31.432 Y13.148
X30.64 Y13.309
X29.853 Y13.495
X29.073 Y13.706
X28.301 Y13.944
X27.537 Y14.208
X26.783 Y14.499
X26.039 Y14.816
X25.307 Y15.159
X24.588 Y15.528
X23.883 Y15.922
X23.192 Y16.342
X22.518 Y16.788
X21.86 Y17.258
X21.22 Y17.751
X20.598 Y18.267
X19.995 Y18.805
X19.412 Y19.364
X18.85 Y19.946
X18.316 Y20.552
X17.837 Y21.203
X17.73 Y21.394
X17.655 Y21.536
X17.64 Y21.561
X17.624 Y21.584
X16.621 Y22.924
X16.542 Y23.045
X16.427 Y23.229
X16.318 Y23.412
X15.151 Y25.549
X14.968 Y25.911
X14.938 Y25.983
X14.73 Y26.534
X13.977 Y28.554
X13.916 Y28.738
X13.866 Y28.9
X13.86 Y28.922
X13.659 Y29.84
X13.339 Y31.309
X13.229 Y31.86
X13.209 Y32.044
X13.179 Y32.411
X13.126 Y33.146
X13.035 Y34.431
X13.01 Y34.798
X13.001 Y34.982
X13 Y35.717
Y494.651
X13.001 Y495.018
X13.01 Y495.202
X13.061 Y495.936
X13.166 Y497.405
X13.194 Y497.773
X13.209 Y497.956
X13.229 Y498.14
X13.339 Y498.691
X13.779 Y500.711
X13.86 Y501.078
X13.866 Y501.1
X13.916 Y501.262
X13.977 Y501.446
X14.73 Y503.466
X14.938 Y504.017
X14.968 Y504.089
X15.151 Y504.451
X16.318 Y506.588
X16.437 Y506.788
X16.542 Y506.955
X16.621 Y507.076
X18.09 Y509.039
X18.181 Y509.159
X18.327 Y509.342
X18.457 Y509.496
X18.668 Y509.71
X19.218 Y510.261
X20.136 Y511.179
X20.508 Y511.546
X20.661 Y511.676
X20.845 Y511.822
X21.212 Y512.098
X22.928 Y513.383
X23.049 Y513.46
X23.233 Y513.576
X23.416 Y513.684
X25.555 Y514.852
X25.916 Y515.035
X26.539 Y515.271
X28.559 Y516.025
X28.743 Y516.085
X28.91 Y516.137
X29.747 Y516.321
X31.314 Y516.662
X31.865 Y516.772
X32.048 Y516.792
X32.416 Y516.821
X33.518 Y516.9
X34.436 Y516.966
X34.803 Y516.991
X34.987 Y516.998
X35.722 Y517
X344.646
X345.013 Y516.998
X345.197 Y516.991
X345.931 Y516.94
X347.401 Y516.835
X347.768 Y516.806
X347.952 Y516.792
X348.135 Y516.772
X348.686 Y516.662
X350.706 Y516.222
X351.09 Y516.137
X351.257 Y516.085
X351.441 Y516.025
X353.461 Y515.271
X354.084 Y515.035
X354.445 Y514.852
X356.584 Y513.684
X356.767 Y513.576
X356.951 Y513.46
X357.072 Y513.383
X359.034 Y511.913
X359.155 Y511.822
X359.339 Y511.676
X359.492 Y511.546
X359.864 Y511.179
X361.175 Y509.867
X361.359 Y509.682
X361.543 Y509.496
X361.673 Y509.342
X361.819 Y509.159
X361.958 Y508.975
X363.379 Y507.076
X363.458 Y506.955
X363.573 Y506.771
X363.682 Y506.588
X364.849 Y504.451
X365.032 Y504.089
X365.062 Y504.017
X365.27 Y503.466
X366.023 Y501.446
X366.084 Y501.262
X366.134 Y501.1
X366.14 Y501.078
X366.341 Y500.16
X366.661 Y498.691
X366.771 Y498.14
X366.792 Y497.956
X366.821 Y497.589
X366.874 Y496.854
X366.965 Y495.569
X366.99 Y495.202
X366.999 Y495.018
X367 Y494.283
Y35.349
X366.999 Y34.982
X366.99 Y34.798
X366.939 Y34.064
X366.834 Y32.595
X366.806 Y32.227
X366.792 Y32.044
X366.771 Y31.86
X366.661 Y31.309
X366.221 Y29.289
X366.14 Y28.922
X366.134 Y28.9
X366.084 Y28.738
X366.023 Y28.554
X365.27 Y26.534
X365.062 Y25.983
X365.032 Y25.911
X364.849 Y25.549
X363.682 Y23.412
X363.563 Y23.212
X363.458 Y23.045
X363.379 Y22.924
X361.91 Y20.961
X361.819 Y20.841
X361.673 Y20.658
X361.543 Y20.504
X361.332 Y20.29
X360.782 Y19.739
X359.864 Y18.821
X359.492 Y18.454
X359.339 Y18.324
X359.155 Y18.178
X358.788 Y17.902
X357.072 Y16.617
X356.951 Y16.54
X356.767 Y16.424
X356.584 Y16.316
X354.445 Y15.148
X354.084 Y14.965
X353.461 Y14.729
X351.441 Y13.975
X351.257 Y13.915
X351.09 Y13.863
X350.253 Y13.679
X348.686 Y13.338
X348.135 Y13.228
X347.952 Y13.208
X347.584 Y13.179
X346.482 Y13.1
X345.564 Y13.034
X345.197 Y13.009
X345.013 Y13.002
X344.278 Y13
X35.354
X34.987 Y13.002
X34.803 Y13.009
X34.069 Y13.06
X32.599 Y13.165
X32.232 Y13.194
X32.048 Y13.208
X31.865 Y13.228
X31.314 Y13.338
X29.294 Y13.778
X28.91 Y13.863
X28.743 Y13.915
X28.559 Y13.975
X26.539 Y14.729
X25.916 Y14.965
X25.555 Y15.148
X23.416 Y16.316
X23.233 Y16.424
X23.049 Y16.54
X22.928 Y16.617
X20.966 Y18.087
X20.845 Y18.178
X20.661 Y18.324
X20.508 Y18.454
X20.136 Y18.821
X18.825 Y20.133
X18.641 Y20.318
X18.457 Y20.504
X18.327 Y20.658
X18.181 Y20.841
X18.09 Y20.961
G3 X17.858 Y21.12 I-0.387 J-0.316
G1 X17.779 Y21.133 Z-7.494
X17.703 Y21.145 Z-7.474
X17.632 Y21.131 Z-7.444
X17.567 Y21.118 Z-7.402
X17.509 Y21.106 Z-7.35
X17.466 Y21.08 Z-7.291
X17.432 Y21.06 Z-7.225
X17.407 Y21.045 Z-7.153
X17.392 Y21.036 Z-7.078
X17.386 Y21.032 Z-7
G0 Z6.5
X-0.491 Y18.377
Z-9.5
G1 Z-10 F1000
X-0.489 Y18.384 Z-10.087
X-0.483 Y18.406 Z-10.171
X-0.474 Y18.442 Z-10.25
X-0.461 Y18.49 Z-10.321
X-0.446 Y18.55 Z-10.383
X-0.428 Y18.619 Z-10.433
X-0.409 Y18.696 Z-10.47
X-0.388 Y18.777 Z-10.492
X-0.366 Y18.861 Z-10.5
G3 X0.025 Y21.583 I-12.366 J3.167
G1 Y21.685
X0.045 Y21.783
X0.364 Y22.526
X0.456 Y22.631
X0.643 Y22.875
X0.832 Y23.195
X1.013 Y23.612
X1.173 Y24.156
X1.293 Y24.884
X1.325 Y25.691
X1.292 Y26.499
X1.23 Y27.305
X1.146 Y28.109
X1.048 Y28.911
X0.941 Y29.712
X0.853 Y30.516
X0.78 Y31.32
X0.718 Y32.126
X0.662 Y32.933
X0.616 Y33.74
X0.586 Y34.547
X0.566 Y35.355
X0.552 Y36.163
X0.543 Y36.972
X0.537 Y37.78
X0.533 Y38.588
X0.529 Y40.204
X0.526 Y42.629
X0.525 Y51.52
Y71.726
Y121.836
Y171.947
Y222.057
Y272.168
Y322.279
Y372.389
Y422.5
Y472.611
Y492.817
X0.53 Y493.625
X0.547 Y494.433
X0.572 Y495.241
X0.603 Y496.048
X0.638 Y496.856
X0.699 Y497.662
X0.782 Y498.466
X0.88 Y499.268
X0.987 Y500.069
X1.111 Y500.868
X1.264 Y501.661
X1.435 Y502.451
X1.62 Y503.238
X1.812 Y504.023
X2.035 Y504.8
X2.281 Y505.57
X2.542 Y506.335
X2.812 Y507.097
X3.101 Y507.852
X3.416 Y508.596
X3.749 Y509.332
X4.094 Y510.063
X4.446 Y510.791
X4.828 Y511.503
X5.23 Y512.204
X5.645 Y512.898
X6.069 Y513.586
X6.511 Y514.263
X6.976 Y514.924
X7.456 Y515.574
X7.945 Y516.217
X8.443 Y516.854
X8.967 Y517.47
X9.507 Y518.071
X10.057 Y518.662
X10.615 Y519.247
X11.19 Y519.815
X11.784 Y520.363
X12.39 Y520.899
X13.003 Y521.426
X13.624 Y521.942
X14.266 Y522.434
X14.92 Y522.909
X15.582 Y523.372
X16.249 Y523.828
X16.932 Y524.261
X17.628 Y524.672
X18.332 Y525.069
X19.041 Y525.456
X19.758 Y525.829
X20.489 Y526.175
X21.228 Y526.502
X21.972 Y526.817
X22.72 Y527.123
X23.479 Y527.402
X24.245 Y527.658
X25.017 Y527.899
X25.792 Y528.129
X26.571 Y528.342
X27.358 Y528.526
X28.15 Y528.691
X28.943 Y528.843
X29.739 Y528.987
X30.539 Y529.099
X31.342 Y529.188
X32.147 Y529.262
X32.953 Y529.325
X33.76 Y529.375
X34.567 Y529.408
X35.375 Y529.43
X36.183 Y529.445
X36.992 Y529.455
X37.8 Y529.461
X38.608 Y529.466
X40.224 Y529.471
X42.649 Y529.474
X50.732 Y529.475
X58.814
X108.925
X159.035
X209.146
X259.256
X309.367
X343.313
X344.121 Y529.462
X344.929 Y529.439
X345.737 Y529.409
X346.544 Y529.376
X347.351 Y529.326
X348.156 Y529.251
X348.959 Y529.159
X349.76 Y529.055
X350.561 Y528.944
X351.356 Y528.8
X352.147 Y528.634
X352.935 Y528.453
X353.72 Y528.263
X354.501 Y528.052
X355.273 Y527.815
X356.04 Y527.56
X356.803 Y527.293
X357.563 Y527.017
X358.31 Y526.709
X359.049 Y526.382
X359.782 Y526.041
X360.511 Y525.691
X361.229 Y525.32
X361.934 Y524.925
X362.63 Y524.515
X363.321 Y524.095
X364.005 Y523.664
X364.671 Y523.207
X365.325 Y522.731
X365.97 Y522.245
X366.61 Y521.751
X367.233 Y521.237
X367.84 Y520.702
X368.435 Y520.156
X369.022 Y519.6
X369.599 Y519.035
X370.154 Y518.447
X370.694 Y517.845
X371.223 Y517.235
X371.746 Y516.618
X372.246 Y515.983
X372.727 Y515.334
X373.194 Y514.674
X373.653 Y514.008
X374.097 Y513.333
X374.516 Y512.642
X374.917 Y511.941
X375.308 Y511.233
X375.69 Y510.521
X376.045 Y509.795
X376.378 Y509.058
X376.697 Y508.316
X377.006 Y507.569
X377.297 Y506.815
X377.561 Y506.051
X377.807 Y505.281
X378.041 Y504.507
X378.266 Y503.731
X378.459 Y502.946
X378.63 Y502.156
X378.786 Y501.363
X378.933 Y500.568
X379.058 Y499.77
X379.155 Y498.968
X379.234 Y498.163
X379.301 Y497.358
X379.359 Y496.552
X379.397 Y495.744
X379.423 Y494.936
X379.44 Y494.128
X379.452 Y493.32
X379.459 Y492.512
X379.465 Y491.704
X379.468 Y490.896
X379.472 Y489.279
X379.474 Y486.046
X379.475 Y484.43
Y434.319
Y384.208
Y334.098
Y283.987
Y233.877
Y183.766
Y133.655
Y83.545
Y36.667
X379.461 Y35.859
X379.438 Y35.051
X379.409 Y34.243
X379.375 Y33.436
X379.325 Y32.629
X379.249 Y31.824
X379.156 Y31.021
X379.052 Y30.22
X378.941 Y29.419
X378.796 Y28.624
X378.63 Y27.833
X378.449 Y27.046
X378.259 Y26.26
X378.047 Y25.48
X377.809 Y24.708
X377.553 Y23.941
X377.286 Y23.178
X377.009 Y22.419
X376.701 Y21.672
X376.373 Y20.933
X376.032 Y20.2
X375.682 Y19.471
X375.311 Y18.754
X374.915 Y18.049
X374.505 Y17.352
X374.085 Y16.662
X373.653 Y15.979
X373.195 Y15.313
X372.72 Y14.659
X372.233 Y14.014
X371.739 Y13.374
X371.224 Y12.752
X370.689 Y12.146
X370.142 Y11.551
X369.586 Y10.963
X369.02 Y10.387
X368.432 Y9.832
X367.83 Y9.293
X367.219 Y8.764
X366.603 Y8.241
X365.967 Y7.742
X365.317 Y7.261
X364.658 Y6.794
X363.992 Y6.336
X363.316 Y5.893
X362.625 Y5.474
X361.923 Y5.073
X361.215 Y4.683
X360.503 Y4.3
X359.777 Y3.946
X359.04 Y3.614
X358.297 Y3.295
X357.55 Y2.986
X356.796 Y2.696
X356.032 Y2.432
X355.262 Y2.187
X354.488 Y1.953
X353.712 Y1.728
X352.927 Y1.536
X352.137 Y1.365
X351.344 Y1.21
X350.549 Y1.064
X349.75 Y0.939
X348.948 Y0.843
X348.143 Y0.764
X347.338 Y0.697
X346.532 Y0.64
X345.724 Y0.602
X344.916 Y0.576
X344.108 Y0.559
X343.3 Y0.548
X342.492 Y0.54
X341.684 Y0.535
X340.876 Y0.532
X339.259 Y0.528
X336.026 Y0.526
X297.231 Y0.525
X247.12
X197.01
X146.899
X96.788
X46.678
X36.979
X36.171 Y0.533
X35.363 Y0.553
X34.555 Y0.58
X33.747 Y0.612
X32.94 Y0.65
X32.135 Y0.718
X31.331 Y0.805
X30.529 Y0.906
X29.728 Y1.015
X28.931 Y1.147
X28.138 Y1.306
X27.349 Y1.481
X26.563 Y1.668
X25.78 Y1.866
X25.005 Y2.096
X24.236 Y2.346
X23.472 Y2.61
X22.711 Y2.882
X21.959 Y3.179
X21.217 Y3.499
X20.482 Y3.836
X19.752 Y4.182
X19.029 Y4.542
X18.319 Y4.93
X17.62 Y5.335
X16.928 Y5.752
X16.24 Y6.177
X15.568 Y6.626
X14.911 Y7.096
X14.262 Y7.579
X13.621 Y8.07
X12.99 Y8.575
X12.378 Y9.103
X11.779 Y9.646
X11.189 Y10.199
X10.605 Y10.758
X10.044 Y11.339
X9.499 Y11.936
X8.967 Y12.544
X8.442 Y13.159
X7.932 Y13.786
X7.445 Y14.431
X6.973 Y15.087
X6.512 Y15.751
X6.058 Y16.419
X5.632 Y17.106
X5.225 Y17.805
X4.832 Y18.511
X4.447 Y19.221
X4.081 Y19.942
X3.937 Y20.738
X3.957 Y21.546
X4.032 Y22.35
X4.117 Y23.154
X4.185 Y23.959
X4.222 Y24.767
X4.229 Y25.575
X4.209 Y26.383
X4.166 Y27.19
X4.104 Y27.996
X4.03 Y28.801
X3.954 Y29.605
X3.881 Y30.41
X3.813 Y31.216
X3.751 Y32.022
X3.698 Y32.828
X3.656 Y33.635
X3.622 Y34.443
X3.596 Y35.251
X3.577 Y36.059
X3.563 Y36.867
X3.552 Y37.675
X3.544 Y38.483
X3.539 Y39.291
X3.535 Y40.1
X3.53 Y41.716
X3.527 Y44.141
X3.525 Y49.798
Y70.004
Y120.115
Y170.226
Y220.336
Y270.447
Y320.557
Y370.668
Y420.779
Y470.889
Y491.095
X3.526 Y491.903
X3.533 Y492.712
X3.546 Y493.52
X3.564 Y494.328
X3.589 Y495.136
X3.628 Y495.943
X3.683 Y496.749
X3.753 Y497.555
X3.838 Y498.358
X3.941 Y499.16
X4.064 Y499.959
X4.207 Y500.754
X4.366 Y501.547
X4.544 Y502.335
X4.746 Y503.118
X4.968 Y503.895
X5.207 Y504.667
X5.466 Y505.433
X5.746 Y506.191
X6.047 Y506.941
X6.363 Y507.685
X6.698 Y508.42
X7.054 Y509.146
X7.43 Y509.861
X7.822 Y510.568
X8.231 Y511.265
X8.661 Y511.95
X9.109 Y512.622
X9.572 Y513.285
X10.05 Y513.936
X10.548 Y514.573
X11.062 Y515.197
X11.591 Y515.808
X12.134 Y516.406
X12.694 Y516.989
X13.27 Y517.556
X13.86 Y518.109
X14.462 Y518.648
X15.079 Y519.17
X15.71 Y519.674
X16.353 Y520.164
X17.008 Y520.638
X17.676 Y521.094
X18.356 Y521.531
X19.046 Y521.952
X19.745 Y522.356
X20.456 Y522.741
X21.178 Y523.105
X21.908 Y523.452
X22.646 Y523.782
X23.392 Y524.091
X24.148 Y524.379
X24.909 Y524.649
X25.677 Y524.901
X26.452 Y525.133
X27.232 Y525.342
X28.018 Y525.531
X28.808 Y525.703
X29.602 Y525.853
X30.4 Y525.98
X31.201 Y526.088
X32.004 Y526.178
X32.809 Y526.252
X33.615 Y526.309
X34.422 Y526.353
X35.23 Y526.386
X36.038 Y526.411
X36.846 Y526.429
X37.654 Y526.442
X38.462 Y526.451
X39.27 Y526.458
X40.079 Y526.463
X40.887 Y526.467
X42.503 Y526.471
X44.928 Y526.474
X52.202 Y526.475
X61.901
X112.012
X162.122
X212.233
X262.344
X312.454
X341.551
X342.359 Y526.471
X343.167 Y526.461
X343.975 Y526.445
X344.783 Y526.423
X345.591 Y526.391
X346.397 Y526.343
X347.203 Y526.279
X348.008 Y526.201
X348.811 Y526.108
X349.611 Y525.993
X350.408 Y525.858
X351.201 Y525.706
X351.991 Y525.536
X352.777 Y525.344
X353.556 Y525.131
X354.33 Y524.899
X355.099 Y524.65
X355.861 Y524.38
X356.615 Y524.088
X357.361 Y523.778
X358.1 Y523.45
X358.83 Y523.103
X359.549 Y522.735
X360.26 Y522.35
X360.962 Y521.95
X361.652 Y521.529
X362.33 Y521.089
X362.997 Y520.633
X363.654 Y520.161
X364.297 Y519.671
X364.926 Y519.164
X365.542 Y518.641
X366.147 Y518.105
X366.736 Y517.552
X367.31 Y516.983
X367.869 Y516.399
X368.415 Y515.803
X368.945 Y515.192
X369.456 Y514.567
X369.952 Y513.928
X370.433 Y513.279
X370.897 Y512.617
X371.342 Y511.942
X371.769 Y511.256
X372.182 Y510.562
X372.576 Y509.856
X372.949 Y509.138
X373.303 Y508.412
X373.64 Y507.677
X373.958 Y506.935
X374.255 Y506.183
X374.533 Y505.424
X374.794 Y504.659
X375.035 Y503.887
X375.254 Y503.109
X375.451 Y502.326
X375.631 Y501.538
X375.791 Y500.745
X375.927 Y499.949
X376.043 Y499.149
X376.141 Y498.346
X376.222 Y497.542
X376.286 Y496.737
X376.336 Y495.93
X376.373 Y495.123
X376.401 Y494.315
X376.422 Y493.507
X376.437 Y492.699
X376.448 Y491.891
X376.456 Y491.082
X376.461 Y490.274
X376.465 Y489.466
X376.47 Y487.849
X376.473 Y485.425
X376.475 Y479.767
Y476.534
Y426.424
Y376.313
Y326.202
Y276.092
Y225.981
Y175.87
Y125.76
Y75.649
Y38.47
X376.471 Y37.662
X376.461 Y36.854
X376.445 Y36.046
X376.423 Y35.238
X376.392 Y34.43
X376.344 Y33.623
X376.281 Y32.818
X376.204 Y32.013
X376.111 Y31.21
X375.997 Y30.41
X375.862 Y29.613
X375.71 Y28.819
X375.54 Y28.029
X375.349 Y27.244
X375.136 Y26.464
X374.905 Y25.69
X374.657 Y24.92
X374.387 Y24.159
X374.095 Y23.405
X373.786 Y22.658
X373.459 Y21.919
X373.112 Y21.189
X372.745 Y20.469
X372.36 Y19.758
X371.96 Y19.056
X371.54 Y18.365
X371.101 Y17.687
X370.645 Y17.02
X370.173 Y16.363
X369.684 Y15.72
X369.177 Y15.09
X368.655 Y14.474
X368.119 Y13.869
X367.566 Y13.279
X366.997 Y12.705
X366.414 Y12.145
X365.819 Y11.599
X365.208 Y11.069
X364.583 Y10.557
X363.945 Y10.061
X363.296 Y9.579
X362.634 Y9.115
X361.96 Y8.67
X361.274 Y8.242
X360.58 Y7.828
X359.874 Y7.434
X359.157 Y7.061
X358.431 Y6.706
X357.697 Y6.368
X356.954 Y6.049
X356.202 Y5.752
X355.444 Y5.474
X354.679 Y5.212
X353.908 Y4.971
X353.13 Y4.752
X352.346 Y4.553
X351.558 Y4.373
X350.766 Y4.213
X349.969 Y4.076
X349.17 Y3.96
X348.367 Y3.861
X347.563 Y3.78
X346.758 Y3.715
X345.951 Y3.665
X345.143 Y3.628
X344.336 Y3.599
X343.528 Y3.579
X342.72 Y3.564
X341.912 Y3.553
X341.103 Y3.545
X340.295 Y3.539
X339.487 Y3.535
X337.87 Y3.53
X335.446 Y3.527
X334.637 Y3.526
X325.747 Y3.525
X284.527
X234.416
X184.306
X134.195
X84.084
X38.823
X38.015 Y3.527
X37.207 Y3.534
X36.399 Y3.548
X35.591 Y3.567
X34.783 Y3.592
X33.975 Y3.632
X33.169 Y3.688
X32.364 Y3.76
X31.561 Y3.846
X30.759 Y3.952
X29.961 Y4.077
X29.166 Y4.222
X28.374 Y4.383
X27.586 Y4.565
X26.804 Y4.768
X26.027 Y4.992
X25.255 Y5.232
X24.49 Y5.493
X23.733 Y5.775
X22.984 Y6.077
X22.241 Y6.396
X21.507 Y6.734
X20.782 Y7.093
X20.068 Y7.47
X19.361 Y7.863
X18.665 Y8.274
X17.982 Y8.705
X17.31 Y9.155
X16.649 Y9.619
X15.999 Y10.1
X15.364 Y10.6
X14.742 Y11.116
X14.131 Y11.646
X13.534 Y12.19
X12.953 Y12.752
X12.388 Y13.33
X11.835 Y13.92
X11.298 Y14.523
X10.778 Y15.142
X10.275 Y15.775
X9.787 Y16.419
X9.314 Y17.075
X8.861 Y17.744
X8.426 Y18.425
X8.006 Y19.116
X7.638 Y19.836
X7.428 Y20.616
X7.322 Y21.417
X7.275 Y22.224
X7.257 Y23.032
X7.247 Y23.84
X7.236 Y24.648
X7.216 Y25.456
X7.184 Y26.264
X7.14 Y27.071
X7.086 Y27.877
X7.025 Y28.683
X6.897 Y30.295
X6.836 Y31.101
X6.779 Y31.907
X6.729 Y32.714
X6.687 Y33.521
X6.652 Y34.328
X6.623 Y35.136
X6.6 Y35.944
X6.582 Y36.752
X6.568 Y37.56
X6.557 Y38.368
X6.549 Y39.176
X6.543 Y39.984
X6.538 Y40.793
X6.532 Y42.409
X6.528 Y44.834
X6.526 Y48.875
X6.525 Y87.67
Y137.781
Y187.892
Y238.002
Y288.113
Y338.224
Y388.334
Y438.445
Y488.555
Y490.172
X6.528 Y490.98
X6.533 Y491.788
X6.543 Y492.596
X6.558 Y493.405
X6.581 Y494.212
X6.616 Y495.02
X6.663 Y495.827
X6.725 Y496.633
X6.803 Y497.437
X6.899 Y498.24
X7.014 Y499.04
X7.148 Y499.837
X7.303 Y500.63
X7.479 Y501.419
X7.676 Y502.203
X7.895 Y502.981
X8.137 Y503.752
X8.4 Y504.516
X8.684 Y505.273
X8.988 Y506.021
X9.315 Y506.761
X9.662 Y507.491
X10.029 Y508.211
X10.417 Y508.92
X10.826 Y509.617
X11.254 Y510.303
X11.702 Y510.976
X12.169 Y511.635
X12.654 Y512.281
X13.158 Y512.914
X13.679 Y513.532
X14.218 Y514.134
X14.773 Y514.721
X15.345 Y515.292
X15.934 Y515.846
X16.539 Y516.382
