(CamperGlassSchaumstoff)
(T4 D=5 CR=0 - ZMIN=-50 - flat end mill)
G90 G94
G17
G21
(-Attention- Property Safe Retracts is set to Clearance Height.)
(Ensure the clearance height will clear the part and or fixtures.)
(Raise the Z-axis to a safe height before starting the program.)

(2D Contour2)
T4
S5000 M3
G17 G90 G94
G54
M8
G0 X153.5 Y326
Z15
G0 Z5
G1 Z1 F333.3
Z-10
G3 X83.5 Y326 I-35 J0 F1000
X153.5 Y326 I35 J0
G1 Z-20 F333.3
G3 X83.5 Y326 I-35 J0 F1000
X153.5 Y326 I35 J0
G1 Z-30 F333.3
G3 X83.5 Y326 I-35 J0 F1000
X153.5 Y326 I35 J0
G1 Z-40 F333.3
G3 X83.5 Y326 I-35 J0 F1000
X153.5 Y326 I35 J0
G1 Z-50 F333.3
G3 X83.5 Y326 I-35 J0 F1000
X153.5 Y326 I35 J0
G0 Z5
X221 Y281
G1 Z1 F333.3
Z-10
G3 X151 Y281 I-35 J0 F1000
X221 Y281 I35 J0
G1 Z-20 F333.3
G3 X151 Y281 I-35 J0 F1000
X221 Y281 I35 J0
G1 Z-30 F333.3
G3 X151 Y281 I-35 J0 F1000
X221 Y281 I35 J0
G1 Z-40 F333.3
G3 X151 Y281 I-35 J0 F1000
X221 Y281 I35 J0
G1 Z-50 F333.3
G3 X151 Y281 I-35 J0 F1000
X221 Y281 I35 J0
G0 Z5
X223.5 Y191.001
G1 Z1 F333.3
Z-10
G3 X148.499 Y191.001 I-37.5 J0 F1000
X150.584 Y178.672 I37.5 J0
G2 X149.473 Y175.685 I-2.361 J-0.822
G1 X125.658 Y161.935
X130.658 Y153.275
X154.473 Y167.025
G2 X157.615 Y166.494 I1.25 J-2.165
G3 X223.5 Y191.001 I28.384 J24.507
G1 Z-20 F333.3
G3 X148.499 Y191.001 I-37.5 J0 F1000
X150.584 Y178.672 I37.5 J0
G2 X149.473 Y175.685 I-2.361 J-0.822
G1 X125.658 Y161.935
X130.658 Y153.275
X154.473 Y167.025
G2 X157.615 Y166.494 I1.25 J-2.165
G3 X223.5 Y191.001 I28.384 J24.507
G1 Z-30 F333.3
G3 X148.499 Y191.001 I-37.5 J0 F1000
X150.584 Y178.672 I37.5 J0
G2 X149.473 Y175.685 I-2.361 J-0.822
G1 X125.658 Y161.935
X130.658 Y153.275
X154.473 Y167.025
G2 X157.615 Y166.494 I1.25 J-2.165
G3 X223.5 Y191.001 I28.384 J24.507
G1 Z-40 F333.3
G3 X148.499 Y191.001 I-37.5 J0 F1000
X150.584 Y178.672 I37.5 J0
G2 X149.473 Y175.685 I-2.361 J-0.822
G1 X125.658 Y161.935
X130.658 Y153.275
X154.473 Y167.025
G2 X157.615 Y166.494 I1.25 J-2.165
G3 X223.5 Y191.001 I28.384 J24.507
G1 Z-50 F333.3
G3 X148.499 Y191.001 I-37.5 J0 F1000
X150.584 Y178.672 I37.5 J0
G2 X149.473 Y175.685 I-2.361 J-0.822
G1 X125.658 Y161.935
X130.658 Y153.275
X154.473 Y167.025
G2 X157.615 Y166.494 I1.25 J-2.165
G3 X223.5 Y191.001 I28.384 J24.507
G0 Z5
Y101
G1 Z1 F333.3
Z-10
G3 X148.5 Y101 I-37.5 J0 F1000
X223.5 Y101 I37.5 J0
G1 Z-20 F333.3
G3 X148.5 Y101 I-37.5 J0 F1000
X223.5 Y101 I37.5 J0
G1 Z-30 F333.3
G3 X148.5 Y101 I-37.5 J0 F1000
X223.5 Y101 I37.5 J0
G1 Z-40 F333.3
G3 X148.5 Y101 I-37.5 J0 F1000
X223.5 Y101 I37.5 J0
G1 Z-50 F333.3
G3 X148.5 Y101 I-37.5 J0 F1000
X223.5 Y101 I37.5 J0
G0 Z5
X156 Y51
G1 Z1 F333.3
Z-10
G3 X81 Y51 I-37.5 J0 F1000
X156 Y51 I37.5 J0
G1 Z-20 F333.3
G3 X81 Y51 I-37.5 J0 F1000
X156 Y51 I37.5 J0
G1 Z-30 F333.3
G3 X81 Y51 I-37.5 J0 F1000
X156 Y51 I37.5 J0
G1 Z-40 F333.3
G3 X81 Y51 I-37.5 J0 F1000
X156 Y51 I37.5 J0
G1 Z-50 F333.3
G3 X81 Y51 I-37.5 J0 F1000
X156 Y51 I37.5 J0
G0 Z5
X88.5 Y101
G1 Z1 F333.3
Z-10
G3 X13.5 Y101 I-37.5 J0 F1000
X88.5 Y101 I37.5 J0
G1 Z-20 F333.3
G3 X13.5 Y101 I-37.5 J0 F1000
X88.5 Y101 I37.5 J0
G1 Z-30 F333.3
G3 X13.5 Y101 I-37.5 J0 F1000
X88.5 Y101 I37.5 J0
G1 Z-40 F333.3
G3 X13.5 Y101 I-37.5 J0 F1000
X88.5 Y101 I37.5 J0
G1 Z-50 F333.3
G3 X13.5 Y101 I-37.5 J0 F1000
X88.5 Y101 I37.5 J0
G0 Z5
X86.416 Y203.328
G1 Z1 F333.3
Z-10
G2 X87.527 Y206.315 I2.361 J0.822 F1000
G1 X111.342 Y220.065
X106.342 Y228.725
X82.527 Y214.975
G2 X79.384 Y215.506 I-1.25 J2.165
G3 X22.616 Y166.493 I-28.384 J-24.507
X86.416 Y203.328 I28.384 J24.507
G0 Z5
X87.527 Y206.315
G1 Z-9 F333.3
Z-20
X111.342 Y220.065 F1000
X106.342 Y228.725
X82.527 Y214.975
G2 X79.384 Y215.506 I-1.25 J2.165
G3 X22.616 Y166.493 I-28.384 J-24.507
X86.416 Y203.328 I28.384 J24.507
G2 X87.527 Y206.315 I2.361 J0.822
G1 Z-30 F333.3
X111.342 Y220.065 F1000
X106.342 Y228.725
X82.527 Y214.975
G2 X79.384 Y215.506 I-1.25 J2.165
G3 X22.616 Y166.493 I-28.384 J-24.507
X86.416 Y203.328 I28.384 J24.507
G2 X87.527 Y206.315 I2.361 J0.822
G1 Z-40 F333.3
X111.342 Y220.065 F1000
X106.342 Y228.725
X82.527 Y214.975
G2 X79.384 Y215.506 I-1.25 J2.165
G3 X22.616 Y166.493 I-28.384 J-24.507
X86.416 Y203.328 I28.384 J24.507
G2 X87.527 Y206.315 I2.361 J0.822
G1 Z-50 F333.3
X111.342 Y220.065 F1000
X106.342 Y228.725
X82.527 Y214.975
G2 X79.384 Y215.506 I-1.25 J2.165
G3 X22.616 Y166.493 I-28.384 J-24.507
X86.416 Y203.328 I28.384 J24.507
G2 X87.527 Y206.315 I2.361 J0.822
G0 Z5
X85.989 Y281.859
G1 Z1 F333.3
Z-10
G3 X16.011 Y280.141 I-34.989 J-0.859 F1000
X85.989 Y281.859 I34.989 J0.859
G1 Z-20 F333.3
G3 X16.011 Y280.141 I-34.989 J-0.859 F1000
X85.989 Y281.859 I34.989 J0.859
G1 Z-30 F333.3
G3 X16.011 Y280.141 I-34.989 J-0.859 F1000
X85.989 Y281.859 I34.989 J0.859
G1 Z-40 F333.3
G3 X16.011 Y280.141 I-34.989 J-0.859 F1000
X85.989 Y281.859 I34.989 J0.859
G1 Z-50 F333.3
G3 X16.011 Y280.141 I-34.989 J-0.859 F1000
X85.989 Y281.859 I34.989 J0.859
G0 Z5
X86 Y371
G1 Z1 F333.3
Z-10
G3 X16 Y371 I-35 J0 F1000
X86 Y371 I35 J0
G1 Z-20 F333.3
G3 X16 Y371 I-35 J0 F1000
X86 Y371 I35 J0
G1 Z-30 F333.3
G3 X16 Y371 I-35 J0 F1000
X86 Y371 I35 J0
G1 Z-40 F333.3
G3 X16 Y371 I-35 J0 F1000
X86 Y371 I35 J0
G1 Z-50 F333.3
G3 X16 Y371 I-35 J0 F1000
X86 Y371 I35 J0
G0 Z5
X88.5 Y461
G1 Z1 F333.3
Z-10
G3 X13.5 Y461 I-37.5 J0 F1000
X88.5 Y461 I37.5 J0
G1 Z-20 F333.3
G3 X13.5 Y461 I-37.5 J0 F1000
X88.5 Y461 I37.5 J0
G1 Z-30 F333.3
G3 X13.5 Y461 I-37.5 J0 F1000
X88.5 Y461 I37.5 J0
G1 Z-40 F333.3
G3 X13.5 Y461 I-37.5 J0 F1000
X88.5 Y461 I37.5 J0
G1 Z-50 F333.3
G3 X13.5 Y461 I-37.5 J0 F1000
X88.5 Y461 I37.5 J0
G0 Z5
Y551
G1 Z1 F333.3
Z-10
G3 X13.5 Y551 I-37.5 J0 F1000
X88.5 Y551 I37.5 J0
G1 Z-20 F333.3
G3 X13.5 Y551 I-37.5 J0 F1000
X88.5 Y551 I37.5 J0
G1 Z-30 F333.3
G3 X13.5 Y551 I-37.5 J0 F1000
X88.5 Y551 I37.5 J0
G1 Z-40 F333.3
G3 X13.5 Y551 I-37.5 J0 F1000
X88.5 Y551 I37.5 J0
G1 Z-50 F333.3
G3 X13.5 Y551 I-37.5 J0 F1000
X88.5 Y551 I37.5 J0
G0 Z5
X223.489 Y551.92
G1 Z1 F333.3
Z-10
G3 X148.511 Y550.08 I-37.489 J-0.92 F1000
X223.489 Y551.92 I37.489 J0.92
G1 Z-20 F333.3
G3 X148.511 Y550.08 I-37.489 J-0.92 F1000
X223.489 Y551.92 I37.489 J0.92
G1 Z-30 F333.3
G3 X148.511 Y550.08 I-37.489 J-0.92 F1000
X223.489 Y551.92 I37.489 J0.92
G1 Z-40 F333.3
G3 X148.511 Y550.08 I-37.489 J-0.92 F1000
X223.489 Y551.92 I37.489 J0.92
G1 Z-50 F333.3
G3 X148.511 Y550.08 I-37.489 J-0.92 F1000
X223.489 Y551.92 I37.489 J0.92
G0 Z5
Y461.92
G1 Z1 F333.3
Z-10
G3 X148.511 Y460.08 I-37.489 J-0.92 F1000
X223.489 Y461.92 I37.489 J0.92
G1 Z-20 F333.3
G3 X148.511 Y460.08 I-37.489 J-0.92 F1000
X223.489 Y461.92 I37.489 J0.92
G1 Z-30 F333.3
G3 X148.511 Y460.08 I-37.489 J-0.92 F1000
X223.489 Y461.92 I37.489 J0.92
G1 Z-40 F333.3
G3 X148.511 Y460.08 I-37.489 J-0.92 F1000
X223.489 Y461.92 I37.489 J0.92
G1 Z-50 F333.3
G3 X148.511 Y460.08 I-37.489 J-0.92 F1000
X223.489 Y461.92 I37.489 J0.92
G0 Z5
X221 Y371
G1 Z1 F333.3
Z-10
G3 X151 Y371 I-35 J0 F1000
X221 Y371 I35 J0
G1 Z-20 F333.3
G3 X151 Y371 I-35 J0 F1000
X221 Y371 I35 J0
G1 Z-30 F333.3
G3 X151 Y371 I-35 J0 F1000
X221 Y371 I35 J0
G1 Z-40 F333.3
G3 X151 Y371 I-35 J0 F1000
X221 Y371 I35 J0
G1 Z-50 F333.3
G3 X151 Y371 I-35 J0 F1000
X221 Y371 I35 J0
G0 Z15

(2D Contour3)
G0 X-1.5 Y1
Z15
Z5
G1 Z1 F333.3
Z-10
Y601 F1000
G2 X1 Y603.5 I2.5 J0
G1 X236
G2 X238.5 Y601 I0 J-2.5
G1 Y1
G2 X236 Y-1.5 I-2.5 J0
G1 X1
G2 X-1.5 Y1 I0 J2.5
G1 Z-20 F333.3
Y601 F1000
G2 X1 Y603.5 I2.5 J0
G1 X236
G2 X238.5 Y601 I0 J-2.5
G1 Y1
G2 X236 Y-1.5 I-2.5 J0
G1 X1
G2 X-1.5 Y1 I0 J2.5
G1 Z-30 F333.3
Y601 F1000
G2 X1 Y603.5 I2.5 J0
G1 X236
G2 X238.5 Y601 I0 J-2.5
G1 Y1
G2 X236 Y-1.5 I-2.5 J0
G1 X1
G2 X-1.5 Y1 I0 J2.5
G1 Z-40 F333.3
Y601 F1000
G2 X1 Y603.5 I2.5 J0
G1 X236
G2 X238.5 Y601 I0 J-2.5
G1 Y1
G2 X236 Y-1.5 I-2.5 J0
G1 X1
G2 X-1.5 Y1 I0 J2.5
G1 Z-50 F333.3
Y601 F1000
G2 X1 Y603.5 I2.5 J0
G1 X236
G2 X238.5 Y601 I0 J-2.5
G1 Y1
G2 X236 Y-1.5 I-2.5 J0
G1 X1
G2 X-1.5 Y1 I0 J2.5
G0 Z15

M9
M5
M30
