(CamperGeschirrkastenAbdeckung)
(T4  D=5 CR=0 - ZMIN=-10 - flat end mill)
G90 G94
G17
G21

(Flat1)
T4
S5000 M3
G54
M8
G0 X306.375 Y227.497
Z15
Z-3.5
G1 Z-4.5 F333.3
Y227.49 Z-4.587 F1000
X306.373 Y227.467 Z-4.671
X306.371 Y227.43 Z-4.75
X306.369 Y227.38 Z-4.821
X306.365 Y227.319 Z-4.883
X306.361 Y227.247 Z-4.933
X306.357 Y227.169 Z-4.97
X306.353 Y227.085 Z-4.992
X306.348 Y226.998 Z-5
X306.321 Y226.499
X306.301 Y226.131
X430.694 Y226.205
X430.678 Y226.499
G0 Z5
X303.884 Y227.497
Z-3.5
G1 Z-4.5 F333.3
X303.883 Y227.489 Z-4.587 F1000
X303.882 Y227.466 Z-4.671
X303.879 Y227.43 Z-4.75
X303.876 Y227.38 Z-4.821
X303.872 Y227.318 Z-4.883
X303.867 Y227.247 Z-4.933
X303.862 Y227.168 Z-4.97
X303.857 Y227.084 Z-4.992
X303.851 Y226.998 Z-5
X303.819 Y226.499
X303.702 Y224.694
G3 X304.701 Y223.63 I0.998 J-0.065
G1 X432.299 Y223.706
G3 X433.296 Y224.773 I-0.001 J1
G1 X433.18 Y226.499
G0 Z5
X300.358 Y227.541
Z-3.5
G1 Z-4.5 F333.3
Y227.534 Z-4.587 F1000
X300.357 Y227.511 Z-4.671
X300.355 Y227.474 Z-4.75
X300.353 Y227.424 Z-4.821
X300.351 Y227.363 Z-4.883
X300.348 Y227.292 Z-4.933
X300.345 Y227.213 Z-4.97
X300.342 Y227.128 Z-4.992
X300.338 Y227.042 Z-5
X300.319 Y226.542
X300.242 Y224.577
G2 X299.678 Y221.696 I-9.532 J0.372
G1 X299.489 Y221.177
G3 X300.204 Y220.159 I0.714 J-0.259
G1 X436.756 Y220.241
G3 X437.482 Y221.257 I0 J0.767
G1 X437.254 Y221.922
G2 X436.774 Y224.445 I8.541 J2.929
G1 X436.68 Y226.54
G0 Z5
X253.48 Y234.846
Z-3.5
G1 Z-4.5 F333.3
X253.473 Y234.848 Z-4.587 F1000
X253.451 Y234.852 Z-4.671
X253.415 Y234.859 Z-4.75
X253.366 Y234.869 Z-4.821
X253.305 Y234.881 Z-4.883
X253.235 Y234.894 Z-4.933
X253.158 Y234.909 Z-4.97
X253.075 Y234.926 Z-4.992
X252.99 Y234.942 Z-5
X252.499 Y235.038
X245.009 Y236.499
X17.124 Y237.842
G3 X16.118 Y236.841 I-0.006 J-1
G1 X16.119 Y234.139
G3 X17.121 Y233.14 I1 J0.001
G1 X252.499 Y233.47
G0 Z5
X253.47 Y238.304
Z-3.5
G1 Z-4.5 F333.3
X253.462 Y238.306 Z-4.587 F1000
X253.44 Y238.311 Z-4.671
X253.405 Y238.32 Z-4.75
X253.356 Y238.332 Z-4.821
X253.296 Y238.347 Z-4.883
X253.227 Y238.364 Z-4.933
X253.15 Y238.383 Z-4.97
X253.069 Y238.403 Z-4.992
X252.984 Y238.424 Z-5
X252.499 Y238.544
X245.553 Y240.259
X245.395 Y240.272
X13.639 Y241.341
G3 X12.634 Y240.341 I-0.005 J-1
G1 X12.635 Y230.651
G3 X13.636 Y229.651 I1 J0
G1 X252.499 Y229.97
G0 Z5
X253.454 Y241.754
Z-3.5
G1 Z-4.5 F333.3
X253.446 Y241.756 Z-4.587 F1000
X253.425 Y241.763 Z-4.671
X253.39 Y241.774 Z-4.75
X253.342 Y241.789 Z-4.821
X253.283 Y241.807 Z-4.883
X253.215 Y241.828 Z-4.933
X253.139 Y241.852 Z-4.97
X253.059 Y241.877 Z-4.992
X252.976 Y241.903 Z-5
X252.499 Y242.051
X246.267 Y243.991
G3 X245.973 Y244.037 I-0.297 J-0.955
G1 X10.037 Y244.838
G3 X9.15 Y243.954 I-0.003 J-0.883
G1 Y227.047
G3 X10.037 Y226.161 I0.886 J0
G1 X262.36 Y226.483
X262.492 Y226.499
G0 Z5
X253.44 Y244.473
Z-3.5
G1 Z-4.5 F333.3
X253.433 Y244.476 Z-4.587 F1000
X253.412 Y244.483 Z-4.671
X253.377 Y244.496 Z-4.75
X253.33 Y244.513 Z-4.821
X253.272 Y244.533 Z-4.883
X253.205 Y244.557 Z-4.933
X253.131 Y244.584 Z-4.97
X253.051 Y244.612 Z-4.992
X252.97 Y244.641 Z-5
X252.499 Y244.81
X246.806 Y246.843
G3 X246.472 Y246.902 I-0.336 J-0.942
G1 X7.531 Y247.465
G3 X6.528 Y246.465 I-0.002 J-1
G1 X6.529 Y224.539
G3 X7.529 Y223.539 I1 J0
G1 X264.393 Y223.602
G3 X265.389 Y224.682 I0 J1
G1 X265.244 Y226.499
G0 Z5
X253.44 Y247.98
Z-3.5
G1 Z-4.5 F333.3
X253.433 Y247.983 Z-4.587 F1000
X253.411 Y247.99 Z-4.671
X253.377 Y248.003 Z-4.75
X253.33 Y248.02 Z-4.821
X253.272 Y248.041 Z-4.883
X253.205 Y248.065 Z-4.933
X253.13 Y248.091 Z-4.97
X253.051 Y248.12 Z-4.992
X252.969 Y248.149 Z-5
X252.499 Y248.318
X251.047 Y248.839
G2 X249.753 Y249.455 I2.424 J6.756
G1 X248.034 Y250.496
G3 X247.517 Y250.641 I-0.518 J-0.855
G1 X4.045 Y250.954
G3 X3.044 Y249.954 I-0.001 J-1
G1 Y221.053
G3 X4.044 Y220.053 I1 J0
G1 X268.831 Y220.14
G3 X269.558 Y221.153 I0 J0.767
G1 X269.334 Y221.816
G2 X268.895 Y224.056 I8.215 J2.772
G1 X268.745 Y226.499
G0 Z5
X441.519 Y42.522
Z-3.5
G1 Z-4.5 F333.3
X441.526 Y42.521 Z-4.587 F1000
X441.548 Y42.517 Z-4.671
X441.585 Y42.51 Z-4.75
X441.634 Y42.501 Z-4.821
X441.694 Y42.489 Z-4.883
X441.764 Y42.476 Z-4.933
X441.842 Y42.462 Z-4.97
X441.925 Y42.446 Z-4.992
X442.01 Y42.43 Z-5
X442.502 Y42.337
X443.38 Y42.172
G3 X444.565 Y43.154 I0.185 J0.983
G1 X444.653 Y181.134
G3 X443.381 Y182.097 I-1 J0.001
G1 X442.502 Y181.848
G0 Z5
X441.519 Y39.018
Z-3.5
G1 Z-4.5 F333.3
X441.526 Y39.017 Z-4.587 F1000
X441.548 Y39.012 Z-4.671
X441.585 Y39.006 Z-4.75
X441.634 Y38.996 Z-4.821
X441.694 Y38.985 Z-4.883
X441.764 Y38.972 Z-4.933
X441.842 Y38.957 Z-4.97
X441.925 Y38.941 Z-4.992
X442.01 Y38.925 Z-5
X442.502 Y38.833
X446.783 Y38.026
G3 X447.968 Y39.009 I0.185 J0.983
G1 X448.028 Y185.694
G3 X446.735 Y186.651 I-1 J0
G1 X442.502 Y185.355
G0 Z5
X441.516 Y35.497
Z-3.5
G1 Z-4.5 F333.3
X441.523 Y35.496 Z-4.587 F1000
X441.546 Y35.492 Z-4.671
X441.582 Y35.486 Z-4.75
X441.631 Y35.477 Z-4.821
X441.692 Y35.467 Z-4.883
X441.762 Y35.455 Z-4.933
X441.84 Y35.442 Z-4.97
X441.923 Y35.428 Z-4.992
X442.009 Y35.413 Z-5
X442.502 Y35.329
X445.772 Y34.77
G2 X448.797 Y34.014 I-3.477 J-20.346
G1 X450.072 Y33.591
G3 X451.387 Y34.54 I0.315 J0.949
G1 X451.399 Y190.341
G3 X450.065 Y191.283 I-1 J0
G1 X448.522 Y190.739
X442.502 Y188.863
G0 Z5
X441.509 Y32.194
Z-3.5
G1 Z-4.5 F333.3
X441.516 Z-4.587 F1000
X441.539 Y32.191 Z-4.671
X441.575 Y32.186 Z-4.75
X441.625 Y32.181 Z-4.821
X441.686 Y32.173 Z-4.883
X441.757 Y32.165 Z-4.933
X441.835 Y32.155 Z-4.97
X441.919 Y32.145 Z-4.992
X442.005 Y32.135 Z-5
X442.502 Y32.076
X445.407 Y31.729
G2 X453.097 Y27.631 I-1.427 J-11.942
G1 X453.315 Y27.378
G3 X454.422 Y27.788 I0.477 J0.411
G1 X454.427 Y197.214
G3 X453.329 Y197.637 I-0.63 J0
G1 X452.563 Y196.797
G2 X447.044 Y193.412 I-8.805 J8.163
G1 X442.502 Y192.119
G0 Z5
X454.995 Y7.156
Z-3.5
G1 Z-4.5 F333.3
X454.987 Y7.155 Z-4.587 F1000
X454.965 Y7.154 Z-4.671
X454.928 Y7.152 Z-4.75
X454.878 Y7.149 Z-4.821
X454.817 Y7.145 Z-4.883
X454.746 Y7.14 Z-4.933
X454.667 Y7.136 Z-4.97
X454.583 Y7.13 Z-4.992
X454.496 Y7.125 Z-5
X453.997 Y7.094
G3 X453.797 Y6.881 I0.013 J-0.212
X454.223 Y6.881 I0.213 J0
X453.997 Y7.094 I-0.213 J0
G1 X453.498 Y7.063
X453.411 Y7.057 Z-4.992
X453.327 Y7.052 Z-4.97
X453.248 Y7.047 Z-4.933
X453.177 Y7.043 Z-4.883
X453.116 Y7.039 Z-4.821
X453.066 Y7.036 Z-4.75
X453.029 Y7.034 Z-4.671
X453.006 Y7.032 Z-4.587
X452.999 Z-4.5
G0 Z5
X441.458 Y29.364
Z-3.5
G1 Z-4.5 F333.3
X441.465 Z-4.587 F1000
X441.488 Y29.363 Z-4.671
X441.525 Y29.362 Z-4.75
X441.575 Y29.36 Z-4.821
X441.636 Y29.357 Z-4.883
X441.708 Y29.355 Z-4.933
X441.786 Y29.352 Z-4.97
X441.871 Y29.348 Z-4.992
X441.957 Y29.345 Z-5
X442.457 Y29.326
X444.431 Y29.25
G2 X453.381 Y20.031 I-0.357 J-9.301
G1 X453.432 Y14.206
G2 X450.721 Y7.541 I-9.347 J-0.082
G1 X450.559 Y7.379
G2 X443.916 Y4.614 I-6.636 J6.583
G1 X3.596 Y4.963
G3 X3.229 Y4.597 I0 J-0.367
G1 Y4.395
G3 X3.596 Y4.028 I0.367 J0
G1 X455.956 Y4.044
G3 X456.956 Y5.044 I0 J1
G1 X456.963 Y214.917
G3 X455.966 Y215.917 I-1 J0
G1 X453.174 Y215.926
G3 X452.445 Y214.895 I-0.003 J-0.771
G1 X452.682 Y214.234
G2 X453.206 Y211.449 I-8.477 J-3.037
G1 X453.379 Y205.281
G2 X450.885 Y198.71 I-9.224 J-0.258
G1 X450.668 Y198.479
G2 X444.498 Y195.515 I-6.91 J6.481
G1 X444.22 Y195.493
G3 X443.941 Y195.43 I0.078 J-0.997
G1 X442.5 Y194.878
G0 Z5
X253.439 Y250.487
Z-3.5
G1 Z-4.5 F333.3
X253.432 Y250.489 Z-4.587 F1000
X253.411 Y250.497 Z-4.671
X253.376 Y250.509 Z-4.75
X253.329 Y250.526 Z-4.821
X253.271 Y250.547 Z-4.883
X253.204 Y250.572 Z-4.933
X253.13 Y250.598 Z-4.97
X253.05 Y250.627 Z-4.992
X252.969 Y250.657 Z-5
X252.499 Y250.826
X251.455 Y251.203
G2 X250.308 Y251.942 I1.036 J2.869
G1 X249.33 Y252.944
G3 X248.614 Y253.246 I-0.716 J-0.698
G1 X1.653 Y253.346
G3 X0.653 Y252.346 I0 J-1
G1 Y218.661
G3 X1.653 Y217.661 I1 J0
G1 X444.148 Y217.926
G2 X450.895 Y211.156 I0.004 J-6.743
G1 X450.869 Y204.713
G2 X443.805 Y198.146 I-6.609 J0.026
G1 X443.562 Y198.163
G3 X442.902 Y197.972 I-0.069 J-0.998
G1 X442.051 Y197.349
G0 Z5
X-2.498 Y254.857
Z-3.5
G1 Z-4.5 F333.3
G19 G2 Y254.357 Z-5 J-0.5 K0 F1000
G1 Y253.857
Y212.267
X-2.496
X-2.473 Y212.431
X-2.384 Y212.787
X-2.276 Y213.06
X-2.127 Y213.333
X-1.971 Y213.554
X-1.831 Y213.717
X-1.664 Y213.88
X-1.425 Y214.067
X-1.151 Y214.231
X-0.878 Y214.352
X-0.642 Y214.427
X-0.332 Y214.488
X-0.059 Y214.51
X445.021
X445.294 Y214.493
X445.642 Y214.427
X445.878 Y214.352
X446.114 Y214.249
X446.387 Y214.092
X446.663 Y213.88
X446.929 Y213.607
X447.127 Y213.333
X447.207 Y213.195
X447.306 Y212.991
X447.384 Y212.787
X447.457 Y212.513
X447.499 Y212.24
X447.51 Y211.693
Y204.04
X447.5 Y203.766
X447.458 Y203.493
X447.386 Y203.22
X447.279 Y202.946
X447.207 Y202.804
X447.085 Y202.602
X446.934 Y202.4
X446.808 Y202.259
X446.661 Y202.117
X446.481 Y201.973
X446.301 Y201.853
X446.114 Y201.751
X445.841 Y201.635
X445.568 Y201.555
X445.294 Y201.507
X445.021 Y201.49
X436.357
X435.857
X435.77 Z-4.992
X435.686 Z-4.97
X435.607 Z-4.933
X435.535 Z-4.883
X435.474 Z-4.821
X435.424 Z-4.75
X435.387 Z-4.671
X435.364 Z-4.587
X435.357 Z-4.5
G0 Z5
X-3.462 Y254.561
Z-3.5
G1 Z-4.5 F333.3
X-3.455 Y254.559 Z-4.587 F1000
X-3.433 Y254.555 Z-4.671
X-3.397 Y254.548 Z-4.75
X-3.348 Y254.538 Z-4.821
X-3.287 Y254.526 Z-4.883
X-3.217 Y254.512 Z-4.933
X-3.14 Y254.497 Z-4.97
X-3.057 Y254.481 Z-4.992
X-2.972 Y254.464 Z-5
X-2.481 Y254.367
X-2.47 Y254.365
X-1.979 Y254.268
X-1.894 Y254.251 Z-4.992
X-1.812 Y254.235 Z-4.97
X-1.734 Y254.219 Z-4.933
X-1.664 Y254.206 Z-4.883
X-1.604 Y254.194 Z-4.821
X-1.554 Y254.184 Z-4.75
X-1.518 Y254.177 Z-4.671
X-1.496 Y254.173 Z-4.587
X-1.489 Y254.171 Z-4.5
G0 Z5
X-3.201 Y255.434
Z-3.5
G1 Z-4.5 F333.3
X-3.194 Y255.431 Z-4.587 F1000
X-3.174 Y255.421 Z-4.671
X-3.14 Y255.405 Z-4.75
X-3.095 Y255.384 Z-4.821
X-3.039 Y255.357 Z-4.883
X-2.975 Y255.327 Z-4.933
X-2.904 Y255.293 Z-4.97
X-2.828 Y255.257 Z-4.992
X-2.749 Y255.22 Z-5
X-2.297 Y255.005
X-2.285 Y254.999
X-1.833 Y254.785
X-1.755 Y254.747 Z-4.992
X-1.679 Y254.711 Z-4.97
X-1.607 Y254.677 Z-4.933
X-1.543 Y254.647 Z-4.883
X-1.487 Y254.62 Z-4.821
X-1.442 Y254.599 Z-4.75
X-1.409 Y254.583 Z-4.671
X-1.388 Y254.573 Z-4.587
X-1.381 Y254.57 Z-4.5
G0 Z5
X-1.479 Y257.179
Z-3.5
G1 Z-4.5 F333.3
X-1.476 Y257.172 Z-4.587 F1000
X-1.468 Y257.151 Z-4.671
X-1.453 Y257.117 Z-4.75
X-1.433 Y257.071 Z-4.821
X-1.409 Y257.014 Z-4.883
X-1.381 Y256.949 Z-4.933
X-1.35 Y256.876 Z-4.97
X-1.317 Y256.799 Z-4.992
X-1.283 Y256.719 Z-5
X-1.086 Y256.259
X-1.081 Y256.249
X-0.884 Y255.789
X-0.85 Y255.709 Z-4.992
X-0.817 Y255.632 Z-4.97
X-0.786 Y255.559 Z-4.933
X-0.757 Y255.494 Z-4.883
X-0.733 Y255.437 Z-4.821
X-0.713 Y255.391 Z-4.75
X-0.699 Y255.357 Z-4.671
X-0.69 Y255.336 Z-4.587
X-0.687 Y255.329 Z-4.5
G0 Z5
X251.026 Y256.495
Z-3.5
G1 Z-4.5 F333.3
G18 G3 X250.526 Z-5 I-0.5 K0 F1000
G1 X250.026
X-0.059 Y256.497
G0 Z5
X252.4 Y256.55
Z-3.5
G1 Z-4.5 F333.3
X252.395 Y256.544 Z-4.587 F1000
X252.379 Y256.528 Z-4.671
X252.354 Y256.501 Z-4.75
X252.319 Y256.465 Z-4.821
X252.277 Y256.42 Z-4.883
X252.228 Y256.368 Z-4.933
X252.173 Y256.311 Z-4.97
X252.115 Y256.25 Z-4.992
X252.056 Y256.187 Z-5
X251.711 Y255.824
X251.704 Y255.817
X251.36 Y255.455
X251.3 Y255.392 Z-4.992
X251.242 Y255.331 Z-4.97
X251.188 Y255.273 Z-4.933
X251.139 Y255.222 Z-4.883
X251.096 Y255.177 Z-4.821
X251.062 Y255.141 Z-4.75
X251.037 Y255.114 Z-4.671
X251.021 Y255.098 Z-4.587
X251.016 Y255.092 Z-4.5
G0 Z5
X253.488 Y254.355
Z-3.5
G1 Z-4.5 F333.3
X253.481 Z-4.587 F1000
X253.458 Y254.353 Z-4.671
X253.422 Y254.35 Z-4.75
X253.372 Y254.347 Z-4.821
X253.31 Y254.342 Z-4.883
X253.239 Y254.337 Z-4.933
X253.16 Y254.331 Z-4.97
X253.076 Y254.325 Z-4.992
X252.99 Y254.318 Z-5
X252.491 Y254.281
X252.48 Y254.28
X251.982 Y254.242
X251.895 Y254.236 Z-4.992
X251.811 Y254.23 Z-4.97
X251.732 Y254.224 Z-4.933
X251.661 Y254.218 Z-4.883
X251.6 Y254.214 Z-4.821
X251.55 Y254.21 Z-4.75
X251.513 Y254.207 Z-4.671
X251.491 Y254.206 Z-4.587
X251.483 Y254.205 Z-4.5
G0 Z5
X251.499 Y253.999
Z-3.5
G1 Z-4.5 F333.3
X251.507 Z-4.587 F1000
X251.529 Y254.001 Z-4.671
X251.566 Y254.004 Z-4.75
X251.616 Y254.008 Z-4.821
X251.677 Y254.013 Z-4.883
X251.748 Y254.018 Z-4.933
X251.827 Y254.024 Z-4.97
X251.911 Y254.031 Z-4.992
X251.998 Y254.038 Z-5
X252.496 Y254.077
X252.506
G0 Z5
X439.203 Y200.765
Z-3.5
G1 Z-4.5 F333.3
X439.209 Y200.76 Z-4.587 F1000
X439.226 Y200.746 Z-4.671
X439.255 Y200.723 Z-4.75
X439.294 Y200.691 Z-4.821
X439.341 Y200.652 Z-4.883
X439.397 Y200.607 Z-4.933
X439.458 Y200.558 Z-4.97
X439.524 Y200.505 Z-4.992
X439.591 Y200.45 Z-5
X439.98 Y200.135
X440.152 Y199.995
X440.54 Y199.681
X440.608 Y199.626 Z-4.992
X440.673 Y199.573 Z-4.97
X440.735 Y199.523 Z-4.933
X440.79 Y199.478 Z-4.883
X440.838 Y199.439 Z-4.821
X440.877 Y199.408 Z-4.75
X440.905 Y199.385 Z-4.671
X440.923 Y199.371 Z-4.587
X440.929 Y199.366 Z-4.5
G0 Z5
X297.677 Y228.382
Z-3.5
G1 Z-4.5 F333.3
Y228.375 Z-4.587 F1000
X297.679 Y228.352 Z-4.671
X297.682 Y228.316 Z-4.75
X297.685 Y228.266 Z-4.821
X297.69 Y228.204 Z-4.883
X297.695 Y228.133 Z-4.933
X297.701 Y228.054 Z-4.97
X297.707 Y227.97 Z-4.992
X297.713 Y227.884 Z-5
X297.75 Y227.385
X297.902 Y225.322
G17 G2 X291.217 Y218.15 I-6.664 J-0.49
G1 X277.581 Y218.193
G2 X271.197 Y224.785 I0.02 J6.407
G1 X271.246 Y226.499
G0 Z5
X294.5 Y233.777
Z-3.5
G1 Z-4.5 F333.3
G19 G2 Y233.277 Z-5 J-0.5 K0 F1000
G1 Y232.777
Y224.267
X294.485 Y223.72
X294.439 Y223.447
X294.36 Y223.173
X294.202 Y222.817
X294.089 Y222.627
X293.902 Y222.377
X293.601 Y222.08
X293.355 Y221.899
X293.109 Y221.76
X292.836 Y221.644
X292.563 Y221.564
X292.407 Y221.533
X292.017 Y221.5
X277.263
X276.716 Y221.516
X276.593 Y221.533
X276.386 Y221.576
X276.17 Y221.642
X275.896 Y221.757
X275.623 Y221.913
X275.399 Y222.08
X275.223 Y222.241
X275.077 Y222.402
X274.911 Y222.627
X274.755 Y222.9
X274.64 Y223.173
X274.574 Y223.392
X274.515 Y223.72
X274.5 Y224.267
Y226.496
X274.496 Y226.499
G0 Z5
X440.632 Y26.689
Z-3.5
G1 Z-4.5 F333.3
X440.639 Z-4.587 F1000
X440.662 Y26.691 Z-4.671
X440.699 Y26.693 Z-4.75
X440.748 Y26.697 Z-4.821
X440.81 Y26.701 Z-4.883
X440.881 Y26.706 Z-4.933
X440.96 Y26.712 Z-4.97
X441.044 Y26.718 Z-4.992
X441.13 Y26.724 Z-5
X441.629 Y26.76
X443.686 Y26.907
G17 G2 X450.878 Y20.269 I0.48 J-6.695
G1 X450.932 Y13.907
G2 X444.196 Y7.116 I-6.733 J-0.057
G1 X1.653 Y7.339
G3 X0.653 Y6.339 I-0.001 J-1
G1 Y2.653
G3 X1.653 Y1.653 I1 J0
G1 X458.347
G3 X459.347 Y2.653 I0 J1
G1 Y217.349
G3 X458.327 Y218.349 I-1 J0
G1 X445.974 Y218.103
G2 X439.099 Y225.362 I-0.134 J6.758
G1 X439.25 Y227.387
G0 Z5
X-1.329 Y-1.397
Z-3.5
G1 Z-4.5 F333.3
X-1.321 Z-4.587 F1000
X-1.299 Y-1.399 Z-4.671
X-1.262 Y-1.402 Z-4.75
X-1.212 Y-1.406 Z-4.821
X-1.151 Y-1.411 Z-4.883
X-1.079 Y-1.417 Z-4.933
X-1.001 Y-1.423 Z-4.97
X-0.917 Y-1.43 Z-4.992
X-0.83 Y-1.436 Z-5
X-0.332 Y-1.476
X-0.059 Y-1.498
X459.775
X460.322 Y-1.478
X460.488 Y-1.446
G0 Z5
X-1.489 Y0.982
Z-3.5
G1 Z-4.5 F333.3
X-1.496 Y0.981 Z-4.587 F1000
X-1.519 Y0.98 Z-4.671
X-1.556 Y0.978 Z-4.75
X-1.605 Y0.975 Z-4.821
X-1.667 Y0.972 Z-4.883
X-1.738 Y0.968 Z-4.933
X-1.817 Y0.964 Z-4.97
X-1.901 Y0.959 Z-4.992
X-1.988 Y0.954 Z-5
X-2.487 Y0.927
X-2.504 Y0.926
G0 Z5
X462.58 Y224.867
Z-3.5
G1 Z-4.5 F333.3
X462.579 Y224.859 Z-4.587 F1000
X462.577 Y224.837 Z-4.671
X462.574 Y224.8 Z-4.75
X462.57 Y224.75 Z-4.821
X462.565 Y224.689 Z-4.883
X462.559 Y224.618 Z-4.933
X462.552 Y224.539 Z-4.97
X462.545 Y224.455 Z-4.992
X462.538 Y224.369 Z-5
X462.497 Y223.87
X462.485 Y223.72
X462.438 Y223.447
X462.36 Y223.173
X462.245 Y222.9
X462.089 Y222.627
X461.961 Y222.449
X461.801 Y222.266
X461.601 Y222.08
X461.415 Y221.938
X461.141 Y221.775
X460.868 Y221.655
X460.633 Y221.581
X460.322 Y221.52
X460.048 Y221.5
X445.021
X444.594 Y221.533
X444.475 Y221.556
X444.202 Y221.63
X443.928 Y221.741
X443.664 Y221.887
X443.382 Y222.094
X443.247 Y222.217
X443.113 Y222.36
X442.911 Y222.627
X442.835 Y222.749
X442.726 Y222.961
X442.64 Y223.173
X442.562 Y223.447
X442.515 Y223.72
X442.5 Y224.267
Y232.765
Y233.265
G0 Z5
X435.472 Y23.51
Z-3.5
G1 Z-4.5 F333.3
G18 G2 X435.972 Z-5 I0.5 K0 F1000
G1 X436.472
X445.021
X445.294 Y23.493
X445.568 Y23.445
X445.841 Y23.365
X446.114 Y23.25
X446.386 Y23.093
X446.661 Y22.882
X446.834 Y22.714
X446.978 Y22.546
X447.103 Y22.371
X447.207 Y22.196
X447.303 Y21.999
X447.403 Y21.726
X447.469 Y21.453
X447.504 Y21.179
X447.51 Y20.906
Y13.253
X447.493 Y12.706
X447.445 Y12.433
X447.365 Y12.159
X447.207 Y11.804
X447.092 Y11.613
X446.905 Y11.365
X446.661 Y11.118
X446.357 Y10.888
X446.114 Y10.75
X445.841 Y10.635
X445.568 Y10.555
X445.382 Y10.519
X445.021 Y10.49
X-0.059 Y10.491
X-0.382 Y10.519
X-0.63 Y10.57
X-0.878 Y10.648
X-1.151 Y10.769
X-1.425 Y10.933
X-1.6 Y11.066
X-1.805 Y11.256
X-1.971 Y11.446
X-2.092 Y11.613
X-2.25 Y11.886
X-2.365 Y12.159
X-2.445 Y12.433
X-2.493 Y12.706
X-2.498
X-2.499 Y1.226
G0 Z5
X462.498
Z-4
G1 Z-5 F333.3
Y223.87 F1000
G0 Z5
X463.503 Y0.87
Z-3.5
G1 Z-4.5 F333.3
X463.495 Z-4.587 F1000
X463.472 Y0.872 Z-4.671
X463.436 Y0.874 Z-4.75
X463.386 Y0.876 Z-4.821
X463.324 Y0.88 Z-4.883
X463.253 Y0.884 Z-4.933
X463.174 Y0.888 Z-4.97
X463.09 Y0.893 Z-4.992
X463.003 Y0.897 Z-5
X462.504 Y0.925
X462.487 Y0.926
X461.988 Y0.953
X461.901 Y0.958 Z-4.992
X461.817 Y0.963 Z-4.97
X461.738 Y0.967 Z-4.933
X461.667 Y0.971 Z-4.883
X461.605 Y0.974 Z-4.821
X461.556 Y0.977 Z-4.75
X461.519 Y0.979 Z-4.671
X461.496 Y0.98 Z-4.587
X461.489 Y0.981 Z-4.5
G0 Z5
X-2.186 Y-0.594
Z-3.5
G1 Z-4.5 F333.3
X-2.18 Y-0.597 Z-4.587 F1000
X-2.161 Y-0.609 Z-4.671
X-2.129 Y-0.628 Z-4.75
X-2.086 Y-0.654 Z-4.821
X-2.033 Y-0.686 Z-4.883
X-1.972 Y-0.723 Z-4.933
X-1.905 Y-0.763 Z-4.97
X-1.833 Y-0.807 Z-4.992
X-1.758 Y-0.852 Z-5
X-1.33 Y-1.11
X-1.151 Y-1.217
X-0.878 Y-1.339
X-0.701 Y-1.394
G0 Z5
X-2.77 Y1.419
Z-3.5
G1 Z-4.5 F333.3
X-2.767 Y1.411 Z-4.587 F1000
X-2.76 Y1.39 Z-4.671
X-2.748 Y1.355 Z-4.75
X-2.732 Y1.308 Z-4.821
X-2.712 Y1.249 Z-4.883
X-2.689 Y1.182 Z-4.933
X-2.664 Y1.107 Z-4.97
X-2.637 Y1.027 Z-4.992
X-2.609 Y0.945 Z-5
X-2.449 Y0.471
X-2.423 Y0.396
G0 Z5
X-2.592 Y1.627
Z-3.5
G1 Z-4.5 F333.3
Y1.619 Z-4.587 F1000
X-2.589 Y1.597 Z-4.671
X-2.584 Y1.561 Z-4.75
X-2.578 Y1.511 Z-4.821
X-2.57 Y1.45 Z-4.883
X-2.562 Y1.379 Z-4.933
X-2.552 Y1.301 Z-4.97
X-2.542 Y1.217 Z-4.992
X-2.531 Y1.131 Z-5
X-2.469 Y0.635
X-2.45 Y0.478
G0 Z5
X-3.489 Y0.678
Z-3.5
G1 Z-4.5 F333.3
X-3.482 Z-4.587 F1000
X-3.459 Y0.679 Z-4.671
X-3.422 Y0.681 Z-4.75
X-3.372 Y0.683 Z-4.821
X-3.311 Y0.685 Z-4.883
X-3.239 Y0.688 Z-4.933
X-3.16 Y0.691 Z-4.97
X-3.076 Y0.694 Z-4.992
X-2.99 Y0.697 Z-5
X-2.49 Y0.716
X-2.479 Y0.717
X-1.98 Y0.736
X-1.893 Y0.739 Z-4.992
X-1.809 Y0.743 Z-4.97
X-1.73 Y0.746 Z-4.933
X-1.658 Y0.748 Z-4.883
X-1.597 Y0.751 Z-4.821
X-1.547 Y0.753 Z-4.75
X-1.51 Y0.754 Z-4.671
X-1.488 Y0.755 Z-4.587
X-1.48 Z-4.5
G0 Z5
X-2.038 Y255.834
Z-3.5
G1 Z-4.5 F333.3
X-2.04 Y255.827 Z-4.587 F1000
X-2.047 Y255.805 Z-4.671
X-2.058 Y255.77 Z-4.75
X-2.073 Y255.722 Z-4.821
X-2.092 Y255.664 Z-4.883
X-2.113 Y255.596 Z-4.933
X-2.137 Y255.52 Z-4.97
X-2.162 Y255.44 Z-4.992
X-2.188 Y255.357 Z-5
X-2.338 Y254.88
X-2.424 Y254.607
X-2.435 Y254.603
G0 Z5
X-1.33 Y254.687
Z-3.5
G1 Z-4.5 F333.3
X-1.336 Y254.691 Z-4.587 F1000
X-1.356 Y254.702 Z-4.671
X-1.387 Y254.721 Z-4.75
X-1.43 Y254.747 Z-4.821
X-1.483 Y254.779 Z-4.883
X-1.544 Y254.816 Z-4.933
X-1.611 Y254.857 Z-4.97
X-1.683 Y254.9 Z-4.992
X-1.758 Y254.945 Z-5
X-2.186 Y255.204
X-2.194 Y255.209
G0 Z5
X-0.411 Y256.752
Z-3.5
G1 Z-4.5 F333.3
X-0.418 Y256.748 Z-4.587 F1000
X-0.436 Y256.735 Z-4.671
X-0.466 Y256.714 Z-4.75
X-0.507 Y256.686 Z-4.821
X-0.558 Y256.65 Z-4.883
X-0.617 Y256.61 Z-4.933
X-0.681 Y256.564 Z-4.97
X-0.75 Y256.516 Z-4.992
X-0.822 Y256.467 Z-5
X-1.232 Y256.181
X-1.367 Y256.087
G0 Z5
X-1.148 Y256.219
Z-4
G1 Z-5 F333.3
X-1.215 Y256.191 F1000
G0 Z5
X-0.491 Y255.417
Z-3.5
G1 Z-4.5 F333.3
X-0.494 Y255.424 Z-4.587 F1000
X-0.503 Y255.444 Z-4.671
X-0.518 Y255.478 Z-4.75
X-0.538 Y255.523 Z-4.821
X-0.563 Y255.58 Z-4.883
X-0.592 Y255.645 Z-4.933
X-0.624 Y255.717 Z-4.97
X-0.658 Y255.794 Z-4.992
X-0.694 Y255.873 Z-5
X-0.897 Y256.33
X-0.901 Y256.339
G0 Z5
X251.795 Y256.155
Z-3.5
G1 Z-4.5 F333.3
X251.787 Y256.157 Z-4.587 F1000
X251.765 Y256.162 Z-4.671
X251.729 Y256.169 Z-4.75
X251.68 Y256.18 Z-4.821
X251.62 Y256.193 Z-4.883
X251.55 Y256.208 Z-4.933
X251.473 Y256.225 Z-4.97
X251.391 Y256.243 Z-4.992
X251.306 Y256.262 Z-5
X250.818 Y256.369
X250.73 Y256.388
X250.242 Y256.494
G0 Z5
X251.89 Y255.878
Z-3.5
G1 Z-4.5 F333.3
X251.883 Y255.881 Z-4.587 F1000
X251.863 Y255.89 Z-4.671
X251.829 Y255.906 Z-4.75
X251.784 Y255.926 Z-4.821
X251.728 Y255.952 Z-4.883
X251.663 Y255.982 Z-4.933
X251.591 Y256.015 Z-4.97
X251.515 Y256.05 Z-4.992
X251.436 Y256.086 Z-5
X250.981 Y256.295
X250.838 Y256.361
G0 Z5
X251.922 Y256.934
Z-3.5
G1 Z-4.5 F333.3
X251.918 Y256.928 Z-4.587 F1000
X251.905 Y256.91 Z-4.671
X251.884 Y256.88 Z-4.75
X251.855 Y256.839 Z-4.821
X251.819 Y256.788 Z-4.883
X251.778 Y256.73 Z-4.933
X251.733 Y256.665 Z-4.97
X251.684 Y256.597 Z-4.992
X251.634 Y256.526 Z-5
X251.346 Y256.117
X251.338 Y256.106
X251.05 Y255.698
X251 Y255.627 Z-4.992
X250.951 Y255.558 Z-4.97
X250.906 Y255.494 Z-4.933
X250.864 Y255.435 Z-4.883
X250.829 Y255.385 Z-4.821
X250.8 Y255.344 Z-4.75
X250.779 Y255.314 Z-4.671
X250.766 Y255.295 Z-4.587
X250.761 Y255.289 Z-4.5
G0 Z5
X250.909 Y255.191
Z-3.5
G1 Z-4.5 F333.3
X250.914 Y255.197 Z-4.587 F1000
X250.928 Y255.215 Z-4.671
X250.951 Y255.243 Z-4.75
X250.982 Y255.283 Z-4.821
X251.021 Y255.331 Z-4.883
X251.065 Y255.386 Z-4.933
X251.115 Y255.448 Z-4.97
X251.167 Y255.514 Z-4.992
X251.221 Y255.582 Z-5
X251.533 Y255.972
X251.54 Y255.98
G0 Z5
X252.676 Y254.637
Z-3.5
G1 Z-4.5 F333.3
X252.671 Y254.643 Z-4.587 F1000
X252.657 Y254.661 Z-4.671
X252.634 Y254.69 Z-4.75
X252.603 Y254.729 Z-4.821
X252.565 Y254.777 Z-4.883
X252.52 Y254.833 Z-4.933
X252.471 Y254.895 Z-4.97
X252.419 Y254.961 Z-4.992
X252.365 Y255.029 Z-5
X252.054 Y255.421
X251.847 Y255.682
X251.854 Y255.69
G0 Z5
X253.432 Y254.662
Z-3.5
G1 Z-4.5 F333.3
X253.424 Y254.661 Z-4.587 F1000
X253.402 Y254.66 Z-4.671
X253.365 Y254.658 Z-4.75
X253.315 Y254.655 Z-4.821
X253.254 Y254.652 Z-4.883
X253.182 Y254.648 Z-4.933
X253.103 Y254.644 Z-4.97
X253.019 Y254.639 Z-4.992
X252.933 Y254.634 Z-5
X252.433 Y254.607
X252.423
X252.338 Y254.88
G0 Z5
X251.489 Y254.171
Z-3.5
G1 Z-4.5 F333.3
X251.496 Y254.173 Z-4.587 F1000
X251.519 Y254.177 Z-4.671
X251.555 Y254.184 Z-4.75
X251.604 Y254.194 Z-4.821
X251.664 Y254.206 Z-4.883
X251.734 Y254.22 Z-4.933
X251.812 Y254.235 Z-4.97
X251.894 Y254.251 Z-4.992
X251.979 Y254.268 Z-5
X252.47 Y254.365
X252.481 Y254.367
G0 Z5
X461.48 Y0.755
Z-3.5
G1 Z-4.5 F333.3
X461.488 Z-4.587 F1000
X461.51 Y0.754 Z-4.671
X461.547 Y0.752 Z-4.75
X461.597 Y0.75 Z-4.821
X461.659 Y0.748 Z-4.883
X461.73 Y0.745 Z-4.933
X461.809 Y0.742 Z-4.97
X461.893 Y0.739 Z-4.992
X461.98 Y0.736 Z-5
X462.479 Y0.717
X462.49
G0 Z5
X462.328 Y-0.515
Z-3.5
G1 Z-4.5 F333.3
X462.329 Y-0.507 Z-4.587 F1000
X462.331 Y-0.485 Z-4.671
X462.336 Y-0.448 Z-4.75
X462.342 Y-0.399 Z-4.821
X462.35 Y-0.337 Z-4.883
X462.358 Y-0.267 Z-4.933
X462.368 Y-0.188 Z-4.97
X462.378 Y-0.105 Z-4.992
X462.389 Y-0.018 Z-5
X462.45 Y0.478
X462.47 Y0.635
G0 Z5
X462.094 Y-0.559
Z-3.5
G1 Z-4.5 F333.3
X462.097 Y-0.552 Z-4.587 F1000
X462.104 Y-0.531 Z-4.671
X462.116 Y-0.496 Z-4.75
X462.133 Y-0.449 Z-4.821
X462.153 Y-0.39 Z-4.883
X462.176 Y-0.323 Z-4.933
X462.202 Y-0.248 Z-4.97
X462.229 Y-0.169 Z-4.992
X462.257 Y-0.087 Z-5
X462.42 Y0.386
X462.448 Y0.466
G0 Z5
X461.884 Y-1.958
Z-3.5
G1 Z-4.5 F333.3
X461.88 Y-1.952 Z-4.587 F1000
X461.868 Y-1.932 Z-4.671
X461.849 Y-1.901 Z-4.75
X461.824 Y-1.858 Z-4.821
X461.792 Y-1.805 Z-4.883
X461.756 Y-1.743 Z-4.933
X461.716 Y-1.675 Z-4.97
X461.673 Y-1.603 Z-4.992
X461.628 Y-1.528 Z-5
X461.373 Y-1.098
X461.367 Y-1.088
X461.112 Y-0.658
X461.067 Y-0.583 Z-4.992
X461.024 Y-0.511 Z-4.97
X460.984 Y-0.443 Z-4.933
X460.948 Y-0.381 Z-4.883
X460.916 Y-0.328 Z-4.821
X460.891 Y-0.285 Z-4.75
X460.872 Y-0.254 Z-4.671
X460.86 Y-0.234 Z-4.587
X460.856 Y-0.228 Z-4.5
G0 Z5
X461.473 Y-2.182
Z-3.5
G1 Z-4.5 F333.3
X461.47 Y-2.175 Z-4.587 F1000
X461.461 Y-2.154 Z-4.671
X461.447 Y-2.12 Z-4.75
X461.427 Y-2.074 Z-4.821
X461.403 Y-2.017 Z-4.883
X461.376 Y-1.951 Z-4.933
X461.345 Y-1.879 Z-4.97
X461.312 Y-1.801 Z-4.992
X461.278 Y-1.721 Z-5
X461.083 Y-1.261
X461.078 Y-1.25
X461.141 Y-1.223
X461.151 Y-1.229
G0 Z5
X460.487 Y-0.417
Z-3.5
G1 Z-4.5 F333.3
X460.49 Y-0.424 Z-4.587 F1000
X460.499 Y-0.445 Z-4.671
X460.514 Y-0.479 Z-4.75
X460.534 Y-0.525 Z-4.821
X460.559 Y-0.581 Z-4.883
X460.587 Y-0.646 Z-4.933
X460.619 Y-0.719 Z-4.97
X460.652 Y-0.796 Z-4.992
X460.687 Y-0.876 Z-5
X460.887 Y-1.334
X460.891 Y-1.343
G0 Z5
X460.999 Y-2.362
Z-3.5
G1 Z-4.5 F333.3
X460.997 Y-2.355 Z-4.587 F1000
X460.99 Y-2.333 Z-4.671
X460.981 Y-2.298 Z-4.75
X460.967 Y-2.249 Z-4.821
X460.951 Y-2.19 Z-4.883
X460.931 Y-2.121 Z-4.933
X460.91 Y-2.045 Z-4.97
X460.888 Y-1.964 Z-4.992
X460.864 Y-1.88 Z-5
X460.73 Y-1.399
X460.726 Y-1.386
X460.592 Y-0.904
X460.569 Y-0.821 Z-4.992
X460.546 Y-0.74 Z-4.97
X460.525 Y-0.663 Z-4.933
X460.505 Y-0.595 Z-4.883
X460.489 Y-0.535 Z-4.821
X460.476 Y-0.487 Z-4.75
X460.466 Y-0.452 Z-4.671
X460.46 Y-0.43 Z-4.587
X460.457 Y-0.423 Z-4.5
G0 Z5
X460.288 Y-0.467
Z-3.5
G1 Z-4.5 F333.3
X460.29 Y-0.475 Z-4.587 F1000
X460.295 Y-0.497 Z-4.671
X460.303 Y-0.532 Z-4.75
X460.313 Y-0.581 Z-4.821
X460.327 Y-0.641 Z-4.883
X460.342 Y-0.711 Z-4.933
X460.359 Y-0.788 Z-4.97
X460.378 Y-0.87 Z-4.992
X460.396 Y-0.955 Z-5
X460.505 Y-1.443
X460.508 Y-1.455
G0 Z5
X455.11 Y220.501
Z1.5
G1 Z0.5 F333.3
X455.109 Y220.509 Z0.413 F1000
X455.105 Y220.531 Z0.329
X455.1 Y220.568 Z0.25
X455.092 Y220.617 Z0.179
X455.083 Y220.678 Z0.117
X455.072 Y220.749 Z0.067
X455.061 Y220.827 Z0.03
X455.048 Y220.91 Z0.008
X455.035 Y220.996 Z0
X454.96 Y221.49
X454.747 Y222.892
X454.711 Y223.365
G17 G2 X453.544 Y221.49 I-7.139 J3.144
G1 X453.222 Y221.107
X453.167 Y221.041 Z0.008
X453.112 Y220.976 Z0.03
X453.062 Y220.916 Z0.067
X453.016 Y220.861 Z0.117
X452.976 Y220.814 Z0.179
X452.944 Y220.776 Z0.25
X452.92 Y220.748 Z0.329
X452.906 Y220.73 Z0.413
X452.901 Y220.725 Z0.5
G0 Z5
X453.702 Y227.443
Z1.5
G1 Z0.5 F333.3
X453.699 Y227.436 Z0.413 F1000
X453.691 Y227.415 Z0.329
X453.676 Y227.381 Z0.25
X453.657 Y227.335 Z0.179
X453.633 Y227.278 Z0.117
X453.606 Y227.212 Z0.067
X453.576 Y227.14 Z0.03
X453.543 Y227.062 Z0.008
X453.51 Y226.982 Z0
X453.318 Y226.52
X452.459 Y224.456
G2 X451.029 Y222.491 I-4.887 J2.052
G1 X449.867 Y221.49
X449.488 Y221.164
X449.422 Y221.107 Z0.008
X449.358 Y221.052 Z0.03
X449.298 Y221.001 Z0.067
X449.244 Y220.954 Z0.117
X449.197 Y220.914 Z0.179
X449.159 Y220.882 Z0.25
X449.131 Y220.858 Z0.329
X449.114 Y220.843 Z0.413
X449.108 Y220.838 Z0.5
G0 Z5
X446.012 Y220.843
Z1.5
G1 Z0.5 F333.3
X446.006 Y220.848 Z0.413 F1000
X445.989 Y220.863 Z0.329
X445.961 Y220.886 Z0.25
X445.922 Y220.919 Z0.179
X445.875 Y220.959 Z0.117
X445.821 Y221.005 Z0.067
X445.761 Y221.056 Z0.03
X445.697 Y221.11 Z0.008
X445.63 Y221.167 Z0
X445.249 Y221.49
X444.079 Y222.483
G2 X443.489 Y223.07 I3.421 J4.031
G1 X442.49 Y224.233
X442.164 Y224.613
X442.108 Y224.679 Z0.008
X442.053 Y224.742 Z0.03
X442.001 Y224.802 Z0.067
X441.955 Y224.857 Z0.117
X441.915 Y224.903 Z0.179
X441.882 Y224.941 Z0.25
X441.858 Y224.969 Z0.329
X441.844 Y224.986 Z0.413
X441.839 Y224.992 Z0.5
G0 Z5
X450.697 Y227.441
Z1.5
G1 Z0.5 F333.3
X450.694 Y227.434 Z0.413 F1000
X450.685 Y227.413 Z0.329
X450.671 Y227.38 Z0.25
X450.652 Y227.334 Z0.179
X450.628 Y227.277 Z0.117
X450.6 Y227.211 Z0.067
X450.569 Y227.138 Z0.03
X450.537 Y227.061 Z0.008
X450.503 Y226.981 Z0
X450.308 Y226.52
X449.89 Y225.53
G2 X448.886 Y224.363 I-2.318 J0.978
G1 X448.872 Y224.354
G2 X446.507 Y224.214 I-1.314 J2.146
G1 X446.462 Y224.234
G2 X444.988 Y226.533 I1.058 J2.301
G1 X444.985 Y230.008
G3 X444.002 Y230.667 I-0.712 J-0.001
G1 X442.49 Y230.048
X442.027 Y229.859
X441.947 Y229.826 Z0.008
X441.869 Y229.794 Z0.03
X441.796 Y229.764 Z0.067
X441.73 Y229.737 Z0.117
X441.673 Y229.714 Z0.179
X441.626 Y229.695 Z0.25
X441.592 Y229.681 Z0.329
X441.571 Y229.673 Z0.413
X441.564 Y229.67 Z0.5
G0 Z5
X443.369 Y236.076
Z1.5
G1 Z0.5 F333.3
X443.374 Y236.07 Z0.413 F1000
X443.389 Y236.053 Z0.329
X443.413 Y236.025 Z0.25
X443.445 Y235.987 Z0.179
X443.485 Y235.94 Z0.117
X443.531 Y235.886 Z0.067
X443.583 Y235.825 Z0.03
X443.637 Y235.761 Z0.008
X443.694 Y235.695 Z0
X444.018 Y235.315
X444.361 Y234.913
G3 X445.652 Y234.922 I0.642 J0.547
G1 X445.978 Y235.316
G0 Z5
X442.571 Y233.992
Z1.5
G1 Z0.5 F333.3
X442.57 Y233.985 Z0.413 F1000
X442.569 Y233.962 Z0.329
X442.566 Y233.925 Z0.25
X442.563 Y233.875 Z0.179
X442.558 Y233.814 Z0.117
X442.554 Y233.743 Z0.067
X442.548 Y233.664 Z0.03
X442.542 Y233.58 Z0.008
X442.536 Y233.493 Z0
X442.502 Y232.995
X442.49 Y232.823
X442.456 Y232.324
X442.45 Y232.238 Z0.008
X442.444 Y232.154 Z0.03
X442.438 Y232.075 Z0.067
X442.433 Y232.004 Z0.117
X442.429 Y231.942 Z0.179
X442.426 Y231.892 Z0.25
X442.423 Y231.856 Z0.329
X442.422 Y231.833 Z0.413
X442.421 Y231.826 Z0.5
G0 Z5
X448.425 Y226.069
Z1.5
G1 Z0.5 F333.3
X448.419 Y226.073 Z0.413 F1000
X448.399 Y226.083 Z0.329
X448.366 Y226.1 Z0.25
X448.321 Y226.123 Z0.179
X448.267 Y226.151 Z0.117
X448.203 Y226.184 Z0.067
X448.133 Y226.22 Z0.03
X448.058 Y226.258 Z0.008
X447.981 Y226.298 Z0
X447.536 Y226.527
X447.52 Y226.535
Y233.013
G0 Z5
X457.641 Y220.502
Z1.5
G1 Z0.5 F333.3
X457.639 Y220.509 Z0.413 F1000
X457.636 Y220.531 Z0.329
X457.63 Y220.568 Z0.25
X457.623 Y220.617 Z0.179
X457.614 Y220.678 Z0.117
X457.603 Y220.749 Z0.067
X457.591 Y220.827 Z0.03
X457.578 Y220.91 Z0.008
X457.565 Y220.996 Z0
X457.489 Y221.49
X457.231 Y223.17
X457.201 Y223.528
X457.188 Y223.772
G2 X457.275 Y225.019 I5.241 J0.263
G1 X457.562 Y226.52
G0 Z5
X461.332 Y220.768
Z1.5
G1 Z0.5 F333.3
X461.328 Y220.775 Z0.413 F1000
X461.317 Y220.794 Z0.329
X461.299 Y220.826 Z0.25
X461.274 Y220.87 Z0.179
X461.244 Y220.923 Z0.117
X461.208 Y220.985 Z0.067
X461.169 Y221.054 Z0.03
X461.127 Y221.127 Z0.008
X461.084 Y221.202 Z0
X460.837 Y221.637
X460.305 Y222.57
G2 X459.978 Y223.688 I2.181 J1.244
G1 X459.968 Y223.897
G2 X460.387 Y225.419 I2.515 J0.126
G1 X460.983 Y226.314
G0 Z5
X462.554 Y222.849
Z1.5
G1 Z0.5 F333.3
X462.553 Y222.857 Z0.413 F1000
X462.552 Y222.88 Z0.329
X462.55 Y222.916 Z0.25
X462.548 Y222.966 Z0.179
X462.545 Y223.028 Z0.117
X462.541 Y223.099 Z0.067
X462.537 Y223.178 Z0.03
X462.533 Y223.262 Z0.008
X462.528 Y223.349 Z0
X462.503 Y223.848
X462.496 Y223.992
G0 Z5
X290.546 Y236.157
Z1.5
G1 Z0.5 F333.3
X290.55 Y236.151 Z0.413 F1000
X290.565 Y236.133 Z0.329
X290.588 Y236.105 Z0.25
X290.619 Y236.066 Z0.179
X290.658 Y236.018 Z0.117
X290.703 Y235.962 Z0.067
X290.752 Y235.901 Z0.03
X290.805 Y235.835 Z0.008
X290.859 Y235.768 Z0
X291.173 Y235.378
X291.491 Y234.985
G3 X292.632 Y234.941 I0.589 J0.475
G1 X292.983 Y235.315
G0 Z5
X295.16 Y224.967
Z1.5
G1 Z0.5 F333.3
X295.155 Y224.961 Z0.413 F1000
X295.141 Y224.944 Z0.329
X295.117 Y224.916 Z0.25
X295.084 Y224.878 Z0.179
X295.044 Y224.831 Z0.117
X294.998 Y224.777 Z0.067
X294.946 Y224.717 Z0.03
X294.892 Y224.653 Z0.008
X294.835 Y224.587 Z0
X294.51 Y224.207
X293.406 Y222.917
X293.075 Y222.586
X291.804 Y221.49
X291.425 Y221.164
X291.36 Y221.107 Z0.008
X291.296 Y221.052 Z0.03
X291.236 Y221 Z0.067
X291.182 Y220.954 Z0.117
X291.135 Y220.913 Z0.179
X291.098 Y220.881 Z0.25
X291.07 Y220.857 Z0.329
X291.053 Y220.842 Z0.413
X291.047 Y220.837 Z0.5
G0 Z5
X282.773 Y220.655
Z1.5
G1 Z0.5 F333.3
X282.769 Y220.661 Z0.413 F1000
X282.757 Y220.68 Z0.329
X282.736 Y220.711 Z0.25
X282.709 Y220.752 Z0.179
X282.675 Y220.804 Z0.117
X282.636 Y220.863 Z0.067
X282.592 Y220.929 Z0.03
X282.546 Y221 Z0.008
X282.498 Y221.072 Z0
X282.223 Y221.49
X281.993 Y221.84
X281.764 Y221.49
X281.49 Y221.072
X281.442 Y220.999 Z0.008
X281.396 Y220.929 Z0.03
X281.353 Y220.863 Z0.067
X281.314 Y220.803 Z0.117
X281.28 Y220.752 Z0.179
X281.252 Y220.71 Z0.25
X281.232 Y220.679 Z0.329
X281.22 Y220.66 Z0.413
X281.216 Y220.654 Z0.5
G0 Z5
X287.914 Y220.837
Z1.5
G1 Z0.5 F333.3
X287.908 Y220.842 Z0.413 F1000
X287.891 Y220.857 Z0.329
X287.863 Y220.881 Z0.25
X287.825 Y220.914 Z0.179
X287.779 Y220.954 Z0.117
X287.724 Y221.001 Z0.067
X287.665 Y221.052 Z0.03
X287.601 Y221.107 Z0.008
X287.535 Y221.164 Z0
X287.156 Y221.49
X285.903 Y222.569
G2 X284.566 Y224.46 I3.55 J3.93
G1 X284.126 Y225.515
X283.72 Y226.52
G0 Z5
X295.436 Y229.67
Z1.5
G1 Z0.5 F333.3
X295.429 Y229.673 Z0.413 F1000
X295.408 Y229.681 Z0.329
X295.374 Y229.695 Z0.25
X295.328 Y229.714 Z0.179
X295.271 Y229.737 Z0.117
X295.205 Y229.764 Z0.067
X295.131 Y229.794 Z0.03
X295.053 Y229.826 Z0.008
X294.973 Y229.859 Z0
X294.51 Y230.047
X293.005 Y230.66
G3 X292.021 Y230 I-0.27 J-0.662
G1 X292.01 Y226.491
G2 X291.274 Y224.726 I-2.503 J0.008
G1 X291.258 Y224.71
G2 X289.487 Y223.98 I-1.767 J1.773
G1 X289.465
G2 X287.696 Y224.716 I0.004 J2.503
G1 X287.68 Y224.732
G2 X287.145 Y225.531 I1.773 J1.767
G1 X286.73 Y226.52
G0 Z5
X294.579 Y231.825
Z1.5
G1 Z0.5 F333.3
X294.578 Y231.832 Z0.413 F1000
X294.577 Y231.855 Z0.329
X294.574 Y231.891 Z0.25
X294.571 Y231.941 Z0.179
X294.567 Y232.003 Z0.117
X294.562 Y232.074 Z0.067
X294.556 Y232.153 Z0.03
X294.55 Y232.237 Z0.008
X294.544 Y232.323 Z0
X294.51 Y232.822
X294.498 Y232.994
X294.464 Y233.492
G0 Z5
X289.552 Y234.177
Z1.5
G1 Z0.5 F333.3
X289.551 Y234.169 Z0.413 F1000
X289.55 Y234.147 Z0.329
X289.548 Y234.11 Z0.25
X289.545 Y234.06 Z0.179
X289.541 Y233.998 Z0.117
X289.536 Y233.927 Z0.067
X289.532 Y233.848 Z0.03
X289.526 Y233.764 Z0.008
X289.521 Y233.678 Z0
X289.49 Y233.179
X289.48 Y233.013
Y226.535
Y226.035
Y225.948 Z0.008
Y225.864 Z0.03
Y225.785 Z0.067
Y225.714 Z0.117
Y225.652 Z0.179
Y225.602 Z0.25
Y225.565 Z0.329
Y225.543 Z0.413
Y225.535 Z0.5
G0 Z5
X280.639 Y227.447
Z1.5
G1 Z0.5 F333.3
X280.636 Y227.44 Z0.413 F1000
X280.628 Y227.419 Z0.329
X280.614 Y227.385 Z0.25
X280.595 Y227.339 Z0.179
X280.572 Y227.282 Z0.117
X280.545 Y227.215 Z0.067
X280.516 Y227.142 Z0.03
X280.484 Y227.064 Z0.008
X280.452 Y226.984 Z0
X280.264 Y226.52
X279.846 Y225.483
X279.409 Y224.44
G2 X277.966 Y222.461 I-4.867 J2.036
G1 X276.837 Y221.499
X276.457 Y221.175
X276.391 Y221.118 Z0.008
X276.326 Y221.064 Z0.03
X276.266 Y221.012 Z0.067
X276.212 Y220.966 Z0.117
X276.165 Y220.926 Z0.179
X276.127 Y220.894 Z0.25
X276.099 Y220.87 Z0.329
X276.082 Y220.855 Z0.413
X276.076 Y220.85 Z0.5
G0 Z5
X277.641 Y227.443
Z1.5
G1 Z0.5 F333.3
X277.638 Y227.436 Z0.413 F1000
X277.629 Y227.415 Z0.329
X277.615 Y227.381 Z0.25
X277.596 Y227.335 Z0.179
X277.572 Y227.278 Z0.117
X277.544 Y227.212 Z0.067
X277.514 Y227.139 Z0.03
X277.481 Y227.061 Z0.008
X277.448 Y226.981 Z0
X277.255 Y226.52
X276.84 Y225.528
G2 X275.702 Y224.277 I-2.324 J0.972
G1 X275.482 Y224.169
X274.506 Y223.747
X274.047 Y223.548
X273.967 Y223.513 Z0.008
X273.89 Y223.48 Z0.03
X273.817 Y223.449 Z0.067
X273.752 Y223.42 Z0.117
X273.695 Y223.396 Z0.179
X273.649 Y223.376 Z0.25
X273.616 Y223.361 Z0.329
X273.595 Y223.352 Z0.413
X273.588 Y223.349 Z0.5
G0 Z5
X275.384 Y226.975
Z1.5
G1 Z0.5 F333.3
X275.377 Y226.971 Z0.413 F1000
X275.357 Y226.961 Z0.329
X275.325 Y226.943 Z0.25
X275.281 Y226.92 Z0.179
X275.226 Y226.891 Z0.117
X275.163 Y226.857 Z0.067
X275.094 Y226.82 Z0.03
X275.019 Y226.781 Z0.008
X274.943 Y226.74 Z0
X274.501 Y226.504
X274.49 Y226.498
X274.049 Y226.263
X273.972 Y226.222 Z0.008
X273.898 Y226.183 Z0.03
X273.828 Y226.145 Z0.067
X273.765 Y226.112 Z0.117
X273.711 Y226.083 Z0.179
X273.667 Y226.059 Z0.25
X273.634 Y226.042 Z0.329
X273.614 Y226.031 Z0.413
X273.608 Y226.028 Z0.5
G0 Z15

(Face3)
X463.25 Y308.799
Z15
Z5
G1 Z0.5 F333.3
G18 G3 X462.75 Z0 I-0.5 K0 F1000
G1 X462.51
X274.49
G17 G2 X274.49 Y311.563 I0 J1.382
G1 X462.51
G3 X462.51 Y314.326 I0 J1.382
G1 X274.49
G2 X274.49 Y317.09 I0 J1.382
G1 X462.51
G18 G2 X463.01 Z0.5 I0 K0.5
G0 Z15
G17

(2D Contour1)
G0 X441 Y400
Z15
Z5
G1 Z-4.5 F333.3
G18 G2 X441.5 Z-5 I0.5 K0 F1000
G1 X442
G17 G3 X442.5 Y400.5 I0 J0.5
G1 Y728
G3 X436 Y734.5 I-6.5 J0
G1 X301
G3 X294.5 Y728 I0 J-6.5
G1 Y333
G3 X301 Y326.5 I6.5 J0
G1 X436
G3 X442.5 Y333 I0 J6.5
G1 Y400.5
G3 X442 Y401 I-0.5 J0
G1 X441.5
G18 G3 X441 Z-4.5 I0 K0.5
G0 Z5
Y400
G1 Z0 F333.3
Z-9.5
G2 X441.5 Z-10 I0.5 K0 F1000
G1 X442
G17 G3 X442.5 Y400.5 I0 J0.5
G1 Y728
G3 X436 Y734.5 I-6.5 J0
G1 X301
G3 X294.5 Y728 I0 J-6.5
G1 Y333
G3 X301 Y326.5 I6.5 J0
G1 X436
G3 X442.5 Y333 I0 J6.5
G1 Y400.5
G3 X442 Y401 I-0.5 J0
G1 X441.5
G18 G3 X441 Z-9.5 I0 K0.5
G0 Z5
Y263.5
G1 Z-4.5 F333.3
G2 X441.5 Z-5 I0.5 K0 F1000
G1 X442
G17 G3 X442.5 Y264 I0 J0.5
G1 Y295
G3 X436 Y301.5 I-6.5 J0
G1 X301
G3 X294.5 Y295 I0 J-6.5
G1 Y233
G3 X301 Y226.5 I6.5 J0
G1 X436
G3 X442.5 Y233 I0 J6.5
G1 Y264
G3 X442 Y264.5 I-0.5 J0
G1 X441.5
G18 G3 X441 Z-4.5 I0 K0.5
G0 Z5
Y263.5
G1 Z0 F333.3
Z-9.5
G2 X441.5 Z-10 I0.5 K0 F1000
G1 X442
G17 G3 X442.5 Y264 I0 J0.5
G1 Y295
G3 X436 Y301.5 I-6.5 J0
G1 X301
G3 X294.5 Y295 I0 J-6.5
G1 Y233
G3 X301 Y226.5 I6.5 J0
G1 X436
G3 X442.5 Y233 I0 J6.5
G1 Y264
G3 X442 Y264.5 I-0.5 J0
G1 X441.5
G18 G3 X441 Z-9.5 I0 K0.5
G0 Z5
Y97
G1 Z-4.5 F333.3
G2 X441.5 Z-5 I0.5 K0 F1000
G1 X442
G17 G3 X442.5 Y97.5 I0 J0.5
G1 Y195
G3 X436 Y201.5 I-6.5 J0
G1 X301
G3 X294.5 Y195 I0 J-6.5
G1 Y30
G3 X301 Y23.5 I6.5 J0
G1 X436
G3 X442.5 Y30 I0 J6.5
G1 Y97.5
G3 X442 Y98 I-0.5 J0
G1 X441.5
G18 G3 X441 Z-4.5 I0 K0.5
G0 Z5
Y97
G1 Z0 F333.3
Z-9.5
G2 X441.5 Z-10 I0.5 K0 F1000
G1 X442
G17 G3 X442.5 Y97.5 I0 J0.5
G1 Y195
G3 X436 Y201.5 I-6.5 J0
G1 X301
G3 X294.5 Y195 I0 J-6.5
G1 Y30
G3 X301 Y23.5 I6.5 J0
G1 X436
G3 X442.5 Y30 I0 J6.5
G1 Y97.5
G3 X442 Y98 I-0.5 J0
G1 X441.5
G18 G3 X441 Z-9.5 I0 K0.5
G0 Z15
G17

(2D Contour2)
G0 X274.5 Y749
Z15
Z5
G1 Z-5 F333.3
G2 X277 Y751.5 I2.5 J0 F1000
G1 X460
G2 X462.5 Y749 I0 J-2.5
G1 Y1
G2 X460 Y-1.5 I-2.5 J0
G1 X0
G2 X-2.5 Y1 I0 J2.5
G1 Y254
G2 X0 Y256.5 I2.5 J0
G1 X250
G2 X252.5 Y254 I0 J-2.5
G1 Y226.5
X274.5
Y749
Z-10 F333.3
G2 X277 Y751.5 I2.5 J0 F1000
G1 X460
G2 X462.5 Y749 I0 J-2.5
G1 Y1
G2 X460 Y-1.5 I-2.5 J0
G1 X0
G2 X-2.5 Y1 I0 J2.5
G1 Y254
G2 X0 Y256.5 I2.5 J0
G1 X250
G2 X252.5 Y254 I0 J-2.5
G1 Y226.5
X274.5
Y749
G0 Z15
M9
M5
M30
