(CamperGaskastenMuelleimerRuecken)
(T4  D=5 CR=0 - ZMIN=-9 - flat end mill)
G90 G94
G17
G21

(2D Pocket11)
T4
S5000 M3
G54
M8
G0 X250.231 Y1.966
Z15
Z5
G1 Z-4 F333.3
X250.226 Y1.96 Z-4.087 F1000
X250.213 Y1.942 Z-4.171
X250.191 Y1.912 Z-4.25
X250.161 Y1.872 Z-4.321
X250.125 Y1.822 Z-4.383
X250.083 Y1.765 Z-4.433
X250.036 Y1.701 Z-4.47
X249.986 Y1.633 Z-4.492
X249.934 Y1.564 Z-4.5
X249.233 Y0.611
G2 X246.228 Y-2.394 I-11.395 J8.389
G1 X246.213 Y-2.406
X246.143 Y-2.457 Z-4.492
X246.075 Y-2.507 Z-4.47
X246.011 Y-2.554 Z-4.433
X245.954 Y-2.596 Z-4.383
X245.904 Y-2.633 Z-4.321
X245.864 Y-2.662 Z-4.25
X245.834 Y-2.684 Z-4.171
X245.816 Y-2.698 Z-4.087
X245.81 Y-2.702 Z-4
G0 Z5
X1.979 Y-3.402
G1 Z-4 F333.3
X1.973 Y-3.397 Z-4.087 F1000
X1.954 Y-3.384 Z-4.171
X1.925 Y-3.362 Z-4.25
X1.885 Y-3.333 Z-4.321
X1.835 Y-3.296 Z-4.383
X1.777 Y-3.254 Z-4.433
X1.714 Y-3.207 Z-4.47
X1.646 Y-3.157 Z-4.492
X1.576 Y-3.106 Z-4.5
X0.611 Y-2.395
G2 X-2.394 Y0.61 I8.389 J11.395
G1 X-2.406 Y0.625
X-2.457 Y0.695 Z-4.492
X-2.507 Y0.763 Z-4.47
X-2.554 Y0.827 Z-4.433
X-2.596 Y0.884 Z-4.383
X-2.633 Y0.934 Z-4.321
X-2.662 Y0.974 Z-4.25
X-2.684 Y1.004 Z-4.171
X-2.698 Y1.022 Z-4.087
X-2.702 Y1.028 Z-4
G0 Z5
X249.067 Y428.932
G1 Z-4 F333.3
Y428.924 Z-4.087 F1000
Y428.902 Z-4.171
Y428.865 Z-4.25
Y428.815 Z-4.321
Y428.753 Z-4.383
Y428.682 Z-4.433
Y428.603 Z-4.47
Y428.519 Z-4.492
Y428.432 Z-4.5
Y427.108
X249.088 Y9
G2 X237.838 Y-2.25 I-11.25 J0
G1 X9
G2 X-2.25 Y9 I0 J11.25
G1 X-2.229 Y427.108
Y427.127
Y427.214 Z-4.492
Y427.298 Z-4.47
Y427.377 Z-4.433
Y427.449 Z-4.383
Y427.51 Z-4.321
Y427.56 Z-4.25
Y427.597 Z-4.171
Y427.62 Z-4.087
Y427.627 Z-4
G0 Z5
X246.167 Y429.874
G1 Z-4 F333.3
Y429.866 Z-4.087 F1000
Y429.844 Z-4.171
Y429.807 Z-4.25
Y429.757 Z-4.321
Y429.695 Z-4.383
Y429.624 Z-4.433
Y429.545 Z-4.47
Y429.461 Z-4.492
Y429.374 Z-4.5
Y428.871
X246.188 Y9
G2 X237.838 Y0.65 I-8.35 J0
G1 X9
G2 X0.65 Y9 I0 J8.35
G1 X0.671 Y428.88
Y428.899
Y428.986 Z-4.492
Y429.07 Z-4.47
Y429.149 Z-4.433
Y429.221 Z-4.383
Y429.282 Z-4.321
Y429.332 Z-4.25
Y429.369 Z-4.171
Y429.392 Z-4.087
Y429.399 Z-4
G0 Z5
X243.267 Y429.876
G1 Z-4 F333.3
Y429.868 Z-4.087 F1000
Y429.845 Z-4.171
Y429.809 Z-4.25
Y429.759 Z-4.321
Y429.697 Z-4.383
Y429.626 Z-4.433
Y429.547 Z-4.47
Y429.462 Z-4.492
Y429.376 Z-4.5
Y428.872
X243.288 Y9
G2 X237.838 Y3.55 I-5.45 J0
G1 X9
G2 X3.55 Y9 I0 J5.45
G1 X3.571 Y428.88
Y428.899
Y428.986 Z-4.492
Y429.07 Z-4.47
Y429.149 Z-4.433
Y429.221 Z-4.383
Y429.282 Z-4.321
Y429.332 Z-4.25
Y429.369 Z-4.171
Y429.392 Z-4.087
Y429.399 Z-4
G0 Z5
X240.49 Y429.871
G1 Z-4.05 F333.3
X240.489 Y429.865 Z-4.128 F1000
X240.486 Y429.844 Z-4.204
X240.481 Y429.812 Z-4.275
X240.474 Y429.767 Z-4.339
X240.465 Y429.713 Z-4.395
X240.455 Y429.649 Z-4.44
X240.444 Y429.579 Z-4.473
X240.432 Y429.504 Z-4.493
X240.42 Y429.427 Z-4.5
X240.344 Y428.948
X240.338 Y428.87
Y9
G2 X237.838 Y6.5 I-2.5 J0
G1 X9
G2 X6.5 Y9 I0 J2.5
G1 Y426.48
Y428.875
X6.494 Y428.954
X6.427 Y429.378
X6.413 Y429.464 Z-4.492
X6.4 Y429.547 Z-4.47
X6.388 Y429.625 Z-4.433
X6.376 Y429.695 Z-4.383
X6.367 Y429.756 Z-4.321
X6.359 Y429.806 Z-4.25
X6.353 Y429.842 Z-4.171
X6.35 Y429.864 Z-4.087
X6.348 Y429.872 Z-4
G0 Z15

(2D Contour12)
X250.838 Y426.98
Z15
Z5
G1 Z-4.5 F333.3
G18 G3 X250.338 Z-5 I-0.5 K0 F1000
G1 X249.838
G17 G3 X249.338 Y426.48 I0 J-0.5
G1 Y0
G2 X246.838 Y-2.5 I-2.5 J0
G1 X0
G2 X-2.5 Y0 I0 J2.5
G1 Y426.48
G2 X0 Y428.98 I2.5 J0
G1 X246.838
G2 X249.338 Y426.48 I0 J-2.5
G3 X249.838 Y425.98 I0.5 J0
G1 X250.338
G18 G2 X250.838 Z-4.5 I0 K0.5
G1 Y426.98
Z-8.5 F333.3
G3 X250.338 Z-9 I-0.5 K0 F1000
G1 X249.838
G17 G3 X249.338 Y426.48 I0 J-0.5
G1 Y0
G2 X246.838 Y-2.5 I-2.5 J0
G1 X0
G2 X-2.5 Y0 I0 J2.5
G1 Y426.48
G2 X0 Y428.98 I2.5 J0
G1 X246.838
G2 X249.338 Y426.48 I0 J-2.5
G3 X249.838 Y425.98 I0.5 J0
G1 X250.338
G18 G2 X250.838 Z-8.5 I0 K0.5
G0 Z15
G17
M9
M5
M30
