(CamperSitzbankOberteil)
(T4 D=5 CR=0 - ZMIN=-21 - flat end mill)
G90 G94
G17
G21
(-Attention- Property Safe Retracts is set to Clearance Height.)
(Ensure the clearance height will clear the part and or fixtures.)
(Raise the Z-axis to a safe height before starting the program.)

(2D Contour1)
T4
S5000 M3
G17 G90 G94
G54
M8
G0 X182.5 Y776
Z15
G0 Z5
G1 Z4 F333.3
Z-3
G2 X200 Y793.5 I17.5 J0 F1000
G1 X205
G2 X222.5 Y776 I0 J-17.5
G1 Y76
G3 X235 Y63.5 I12.5 J0
G1 X255
G2 X257.5 Y61 I0 J-2.5
G1 Y1
G2 X255 Y-1.5 I-2.5 J0
G1 X-255
G2 X-257.5 Y1 I0 J2.5
G1 Y61
G2 X-255 Y63.5 I2.5 J0
G1 X-235
G3 X-222.5 Y76 I0 J12.5
G1 Y776
G2 X-205 Y793.5 I17.5 J0
G1 X-200
G2 X-182.5 Y776 I0 J-17.5
G1 Y76
G3 X-170 Y63.5 I12.5 J0
G1 X-154
G3 X-141.5 Y76 I0 J12.5
G1 Y776
G2 X-124 Y793.5 I17.5 J0
G1 X-119
G2 X-101.5 Y776 I0 J-17.5
G1 Y76
G3 X-89 Y63.5 I12.5 J0
G1 X-73
G3 X-60.5 Y76 I0 J12.5
G1 Y776
G2 X-43 Y793.5 I17.5 J0
G1 X-38
G2 X-20.5 Y776 I0 J-17.5
G1 Y76
G3 X-8 Y63.5 I12.5 J0
G1 X8
G3 X20.5 Y76 I0 J12.5
G1 Y776
G2 X38 Y793.5 I17.5 J0
G1 X43
G2 X60.5 Y776 I0 J-17.5
G1 Y76
G3 X73 Y63.5 I12.5 J0
G1 X89
G3 X101.5 Y76 I0 J12.5
G1 Y776
G2 X119 Y793.5 I17.5 J0
G1 X124
G2 X141.5 Y776 I0 J-17.5
G1 Y76
G3 X154 Y63.5 I12.5 J0
G1 X170
G3 X182.5 Y76 I0 J12.5
G1 Y776
Z-6 F333.3
G2 X200 Y793.5 I17.5 J0 F1000
G1 X205
G2 X222.5 Y776 I0 J-17.5
G1 Y76
G3 X235 Y63.5 I12.5 J0
G1 X255
G2 X257.5 Y61 I0 J-2.5
G1 Y1
G2 X255 Y-1.5 I-2.5 J0
G1 X-255
G2 X-257.5 Y1 I0 J2.5
G1 Y61
G2 X-255 Y63.5 I2.5 J0
G1 X-235
G3 X-222.5 Y76 I0 J12.5
G1 Y776
G2 X-205 Y793.5 I17.5 J0
G1 X-200
G2 X-182.5 Y776 I0 J-17.5
G1 Y76
G3 X-170 Y63.5 I12.5 J0
G1 X-154
G3 X-141.5 Y76 I0 J12.5
G1 Y776
G2 X-124 Y793.5 I17.5 J0
G1 X-119
G2 X-101.5 Y776 I0 J-17.5
G1 Y76
G3 X-89 Y63.5 I12.5 J0
G1 X-73
G3 X-60.5 Y76 I0 J12.5
G1 Y776
G2 X-43 Y793.5 I17.5 J0
G1 X-38
G2 X-20.5 Y776 I0 J-17.5
G1 Y76
G3 X-8 Y63.5 I12.5 J0
G1 X8
G3 X20.5 Y76 I0 J12.5
G1 Y776
G2 X38 Y793.5 I17.5 J0
G1 X43
G2 X60.5 Y776 I0 J-17.5
G1 Y76
G3 X73 Y63.5 I12.5 J0
G1 X89
G3 X101.5 Y76 I0 J12.5
G1 Y776
G2 X119 Y793.5 I17.5 J0
G1 X124
G2 X141.5 Y776 I0 J-17.5
G1 Y76
G3 X154 Y63.5 I12.5 J0
G1 X170
G3 X182.5 Y76 I0 J12.5
G1 Y776
Z-9 F333.3
G2 X200 Y793.5 I17.5 J0 F1000
G1 X205
G2 X222.5 Y776 I0 J-17.5
G1 Y76
G3 X235 Y63.5 I12.5 J0
G1 X255
G2 X257.5 Y61 I0 J-2.5
G1 Y1
G2 X255 Y-1.5 I-2.5 J0
G1 X-255
G2 X-257.5 Y1 I0 J2.5
G1 Y61
G2 X-255 Y63.5 I2.5 J0
G1 X-235
G3 X-222.5 Y76 I0 J12.5
G1 Y776
G2 X-205 Y793.5 I17.5 J0
G1 X-200
G2 X-182.5 Y776 I0 J-17.5
G1 Y76
G3 X-170 Y63.5 I12.5 J0
G1 X-154
G3 X-141.5 Y76 I0 J12.5
G1 Y776
G2 X-124 Y793.5 I17.5 J0
G1 X-119
G2 X-101.5 Y776 I0 J-17.5
G1 Y76
G3 X-89 Y63.5 I12.5 J0
G1 X-73
G3 X-60.5 Y76 I0 J12.5
G1 Y776
G2 X-43 Y793.5 I17.5 J0
G1 X-38
G2 X-20.5 Y776 I0 J-17.5
G1 Y76
G3 X-8 Y63.5 I12.5 J0
G1 X8
G3 X20.5 Y76 I0 J12.5
G1 Y776
G2 X38 Y793.5 I17.5 J0
G1 X43
G2 X60.5 Y776 I0 J-17.5
G1 Y76
G3 X73 Y63.5 I12.5 J0
G1 X89
G3 X101.5 Y76 I0 J12.5
G1 Y776
G2 X119 Y793.5 I17.5 J0
G1 X124
G2 X141.5 Y776 I0 J-17.5
G1 Y76
G3 X154 Y63.5 I12.5 J0
G1 X170
G3 X182.5 Y76 I0 J12.5
G1 Y776
Z-12 F333.3
G2 X200 Y793.5 I17.5 J0 F1000
G1 X205
G2 X222.5 Y776 I0 J-17.5
G1 Y76
G3 X235 Y63.5 I12.5 J0
G1 X255
G2 X257.5 Y61 I0 J-2.5
G1 Y1
G2 X255 Y-1.5 I-2.5 J0
G1 X-255
G2 X-257.5 Y1 I0 J2.5
G1 Y61
G2 X-255 Y63.5 I2.5 J0
G1 X-235
G3 X-222.5 Y76 I0 J12.5
G1 Y776
G2 X-205 Y793.5 I17.5 J0
G1 X-200
G2 X-182.5 Y776 I0 J-17.5
G1 Y76
G3 X-170 Y63.5 I12.5 J0
G1 X-154
G3 X-141.5 Y76 I0 J12.5
G1 Y776
G2 X-124 Y793.5 I17.5 J0
G1 X-119
G2 X-101.5 Y776 I0 J-17.5
G1 Y76
G3 X-89 Y63.5 I12.5 J0
G1 X-73
G3 X-60.5 Y76 I0 J12.5
G1 Y776
G2 X-43 Y793.5 I17.5 J0
G1 X-38
G2 X-20.5 Y776 I0 J-17.5
G1 Y76
G3 X-8 Y63.5 I12.5 J0
G1 X8
G3 X20.5 Y76 I0 J12.5
G1 Y776
G2 X38 Y793.5 I17.5 J0
G1 X43
G2 X60.5 Y776 I0 J-17.5
G1 Y76
G3 X73 Y63.5 I12.5 J0
G1 X89
G3 X101.5 Y76 I0 J12.5
G1 Y776
G2 X119 Y793.5 I17.5 J0
G1 X124
G2 X141.5 Y776 I0 J-17.5
G1 Y76
G3 X154 Y63.5 I12.5 J0
G1 X170
G3 X182.5 Y76 I0 J12.5
G1 Y776
Z-15 F333.3
G2 X200 Y793.5 I17.5 J0 F1000
G1 X205
G2 X222.5 Y776 I0 J-17.5
G1 Y76
G3 X235 Y63.5 I12.5 J0
G1 X255
G2 X257.5 Y61 I0 J-2.5
G1 Y1
G2 X255 Y-1.5 I-2.5 J0
G1 X-255
G2 X-257.5 Y1 I0 J2.5
G1 Y61
G2 X-255 Y63.5 I2.5 J0
G1 X-235
G3 X-222.5 Y76 I0 J12.5
G1 Y776
G2 X-205 Y793.5 I17.5 J0
G1 X-200
G2 X-182.5 Y776 I0 J-17.5
G1 Y76
G3 X-170 Y63.5 I12.5 J0
G1 X-154
G3 X-141.5 Y76 I0 J12.5
G1 Y776
G2 X-124 Y793.5 I17.5 J0
G1 X-119
G2 X-101.5 Y776 I0 J-17.5
G1 Y76
G3 X-89 Y63.5 I12.5 J0
G1 X-73
G3 X-60.5 Y76 I0 J12.5
G1 Y776
G2 X-43 Y793.5 I17.5 J0
G1 X-38
G2 X-20.5 Y776 I0 J-17.5
G1 Y76
G3 X-8 Y63.5 I12.5 J0
G1 X8
G3 X20.5 Y76 I0 J12.5
G1 Y776
G2 X38 Y793.5 I17.5 J0
G1 X43
G2 X60.5 Y776 I0 J-17.5
G1 Y76
G3 X73 Y63.5 I12.5 J0
G1 X89
G3 X101.5 Y76 I0 J12.5
G1 Y776
G2 X119 Y793.5 I17.5 J0
G1 X124
G2 X141.5 Y776 I0 J-17.5
G1 Y76
G3 X154 Y63.5 I12.5 J0
G1 X170
G3 X182.5 Y76 I0 J12.5
G1 Y776
Z-18 F333.3
G2 X200 Y793.5 I17.5 J0 F1000
G1 X205
G2 X222.5 Y776 I0 J-17.5
G1 Y76
G3 X235 Y63.5 I12.5 J0
G1 X255
G2 X257.5 Y61 I0 J-2.5
G1 Y1
G2 X255 Y-1.5 I-2.5 J0
G1 X-255
G2 X-257.5 Y1 I0 J2.5
G1 Y61
G2 X-255 Y63.5 I2.5 J0
G1 X-235
G3 X-222.5 Y76 I0 J12.5
G1 Y776
G2 X-205 Y793.5 I17.5 J0
G1 X-200
G2 X-182.5 Y776 I0 J-17.5
G1 Y76
G3 X-170 Y63.5 I12.5 J0
G1 X-154
G3 X-141.5 Y76 I0 J12.5
G1 Y776
G2 X-124 Y793.5 I17.5 J0
G1 X-119
G2 X-101.5 Y776 I0 J-17.5
G1 Y76
G3 X-89 Y63.5 I12.5 J0
G1 X-73
G3 X-60.5 Y76 I0 J12.5
G1 Y776
G2 X-43 Y793.5 I17.5 J0
G1 X-38
G2 X-20.5 Y776 I0 J-17.5
G1 Y76
G3 X-8 Y63.5 I12.5 J0
G1 X8
G3 X20.5 Y76 I0 J12.5
G1 Y776
G2 X38 Y793.5 I17.5 J0
G1 X43
G2 X60.5 Y776 I0 J-17.5
G1 Y76
G3 X73 Y63.5 I12.5 J0
G1 X89
G3 X101.5 Y76 I0 J12.5
G1 Y776
G2 X119 Y793.5 I17.5 J0
G1 X124
G2 X141.5 Y776 I0 J-17.5
G1 Y76
G3 X154 Y63.5 I12.5 J0
G1 X170
G3 X182.5 Y76 I0 J12.5
G1 Y776
Z-21 F333.3
G2 X200 Y793.5 I17.5 J0 F1000
G1 X205
G2 X222.5 Y776 I0 J-17.5
G1 Y76
G3 X235 Y63.5 I12.5 J0
G1 X255
G2 X257.5 Y61 I0 J-2.5
G1 Y1
G2 X255 Y-1.5 I-2.5 J0
G1 X-255
G2 X-257.5 Y1 I0 J2.5
G1 Y61
G2 X-255 Y63.5 I2.5 J0
G1 X-235
G3 X-222.5 Y76 I0 J12.5
G1 Y776
G2 X-205 Y793.5 I17.5 J0
G1 X-200
G2 X-182.5 Y776 I0 J-17.5
G1 Y76
G3 X-170 Y63.5 I12.5 J0
G1 X-154
G3 X-141.5 Y76 I0 J12.5
G1 Y776
G2 X-124 Y793.5 I17.5 J0
G1 X-119
G2 X-101.5 Y776 I0 J-17.5
G1 Y76
G3 X-89 Y63.5 I12.5 J0
G1 X-73
G3 X-60.5 Y76 I0 J12.5
G1 Y776
G2 X-43 Y793.5 I17.5 J0
G1 X-38
G2 X-20.5 Y776 I0 J-17.5
G1 Y76
G3 X-8 Y63.5 I12.5 J0
G1 X8
G3 X20.5 Y76 I0 J12.5
G1 Y776
G2 X38 Y793.5 I17.5 J0
G1 X43
G2 X60.5 Y776 I0 J-17.5
G1 Y76
G3 X73 Y63.5 I12.5 J0
G1 X89
G3 X101.5 Y76 I0 J12.5
G1 Y776
G2 X119 Y793.5 I17.5 J0
G1 X124
G2 X141.5 Y776 I0 J-17.5
G1 Y76
G3 X154 Y63.5 I12.5 J0
G1 X170
G3 X182.5 Y76 I0 J12.5
G1 Y776
G0 Z15
M9
M5
M30
