(CamperGaskastenMuelleimerFuehrungsschiene)
(T4  D=5 CR=0 - ZMIN=-9 - flat end mill)
G90 G94
G17
G21

(2D Contour14)
T4
S5000 M3
G54
M8
G0 X153.748 Y31.618
Z15
Z5
G1 Z-4.5 F333.3
X153.756 Y31.617 Z-4.587 F1000
X153.778 Y31.614 Z-4.671
X153.815 Y31.609 Z-4.75
X153.864 Y31.602 Z-4.821
X153.925 Y31.594 Z-4.883
X153.996 Y31.585 Z-4.933
X154.074 Y31.574 Z-4.97
X154.158 Y31.563 Z-4.992
X154.244 Y31.551 Z-5
X154.739 Y31.485
G3 X155.301 Y31.914 I0.067 J0.496
G2 X177.213 Y104.614 I237.448 J-31.914
X177.955 Y105.516 I2.249 J-1.092
G3 X169.513 Y116.686 I-4.221 J5.585
X167.027 Y113.104 I4.221 J-5.585
G1 X166.992 Y112.997
X166.953 Y112.892
X160.417 Y96.519
X160.404 Y96.487
G3 X144.864 Y42.978 I232.346 J-96.487
G2 X140.807 Y38.026 I-6.404 J1.11
G1 X36.558 Y-2.331
G2 X35.656 Y-2.5 I-0.903 J2.331
G1 X4
G2 X-0.182 Y8.976 I0 J6.5
G1 X164.521 Y147.414
G2 X166.13 Y148 I1.609 J-1.914
G1 X205.565
G2 X207.539 Y143.966 I0 J-2.5
G3 X198.685 Y131.789 I185.211 J-143.966
G1 X384.881 Y37.337
G2 X386.25 Y35.107 I-1.131 J-2.23
G1 Y0
G2 X383.75 Y-2.5 I-2.5 J0
G1 X251.23
G2 X248.883 Y10.062 I0 J6.5
G1 X251.999 Y11.268
G2 X254.034 Y12.497 I2.155 J-1.268
G1 X254.736 Y12.531
G3 X259.609 Y17.292 I-0.582 J5.469
G2 X271.756 Y58.191 I133.142 J-17.29
X272.274 Y58.907 I2.253 J-1.084
G3 X263.946 Y67.546 I-4.164 J4.32
X262.804 Y66.027 I4.164 J-4.32
G1 X256.973 Y51.623
G3 X250.619 Y29.984 I135.777 J-51.623
G2 X246.605 Y25.265 I-6.36 J1.342
G1 X175.323 Y-2.331
G2 X174.42 Y-2.5 I-0.903 J2.331
G1 X112.466
G2 X110.119 Y10.062 I0 J6.5
G1 X151.377 Y26.034
G3 X155.162 Y30.857 I-2.165 J5.595
G2 X155.301 Y31.914 I237.588 J-30.857
G3 X154.873 Y32.476 I-0.496 J0.067
G1 X154.377 Y32.542
X154.291 Y32.554 Z-4.992
X154.208 Y32.565 Z-4.97
X154.129 Y32.576 Z-4.933
X154.058 Y32.585 Z-4.883
X153.997 Y32.593 Z-4.821
X153.948 Y32.6 Z-4.75
X153.911 Y32.605 Z-4.671
X153.889 Y32.608 Z-4.587
X153.881 Y32.609 Z-4.5
X153.748 Y31.618
Z-8.5 F333.3
X153.756 Y31.617 Z-8.587 F1000
X153.778 Y31.614 Z-8.671
X153.815 Y31.609 Z-8.75
X153.864 Y31.602 Z-8.821
X153.925 Y31.594 Z-8.883
X153.996 Y31.585 Z-8.933
X154.074 Y31.574 Z-8.97
X154.158 Y31.563 Z-8.992
X154.244 Y31.551 Z-9
X154.739 Y31.485
G3 X155.301 Y31.914 I0.067 J0.496
G2 X177.213 Y104.614 I237.448 J-31.914
X177.955 Y105.516 I2.249 J-1.092
G3 X169.513 Y116.686 I-4.221 J5.585
X167.027 Y113.104 I4.221 J-5.585
G1 X166.992 Y112.997
X166.953 Y112.892
X160.417 Y96.519
X160.404 Y96.487
G3 X144.864 Y42.978 I232.346 J-96.487
G2 X140.807 Y38.026 I-6.404 J1.11
G1 X36.558 Y-2.331
G2 X35.656 Y-2.5 I-0.903 J2.331
G1 X4
G2 X-0.182 Y8.976 I0 J6.5
G1 X164.521 Y147.414
G2 X166.13 Y148 I1.609 J-1.914
G1 X205.565
G2 X207.539 Y143.966 I0 J-2.5
G3 X198.685 Y131.789 I185.211 J-143.966
G1 X384.881 Y37.337
G2 X386.25 Y35.107 I-1.131 J-2.23
G1 Y0
G2 X383.75 Y-2.5 I-2.5 J0
G1 X251.23
G2 X248.883 Y10.062 I0 J6.5
G1 X251.999 Y11.268
G2 X254.034 Y12.497 I2.155 J-1.268
G1 X254.736 Y12.531
G3 X259.609 Y17.292 I-0.582 J5.469
G2 X271.756 Y58.191 I133.142 J-17.29
X272.274 Y58.907 I2.253 J-1.084
G3 X263.946 Y67.546 I-4.164 J4.32
X262.804 Y66.027 I4.164 J-4.32
G1 X256.973 Y51.623
G3 X250.619 Y29.984 I135.777 J-51.623
G2 X246.605 Y25.265 I-6.36 J1.342
G1 X175.323 Y-2.331
G2 X174.42 Y-2.5 I-0.903 J2.331
G1 X112.466
G2 X110.119 Y10.062 I0 J6.5
G1 X151.377 Y26.034
G3 X155.162 Y30.857 I-2.165 J5.595
G2 X155.301 Y31.914 I237.588 J-30.857
G3 X154.873 Y32.476 I-0.496 J0.067
G1 X154.377 Y32.542
X154.291 Y32.554 Z-8.992
X154.208 Y32.565 Z-8.97
X154.129 Y32.576 Z-8.933
X154.058 Y32.585 Z-8.883
X153.997 Y32.593 Z-8.821
X153.948 Y32.6 Z-8.75
X153.911 Y32.605 Z-8.671
X153.889 Y32.608 Z-8.587
X153.881 Y32.609 Z-8.5
G0 Z15
M9
M5
M30
