(CamperSchubladeDosenhalter_griffmulde)
(T2 D=8 CR=4 - ZMIN=-63 - ball end mill)
G90 G94
G17
G21
(-Attention- Property Safe Retracts is set to Clearance Height.)
(Ensure the clearance height will clear the part and or fixtures.)
(Raise the Z-axis to a safe height before starting the program.)

(Adaptive1)
T2
S5000 M3
G17 G90 G94
G54
M8
G0 X-19.041 Y62.284
Z15
G0 Z2.5
G3 X-20.891 Y62.119 Z2.423 I-0.874 J-0.659 F333.3
X-19.931 Y60.532 Z2.345 I0.975 J-0.494
X-18.929 Y62.091 Z2.268 I0.015 J1.092
X-20.767 Y62.305 Z2.19 I-0.986 J-0.466
X-20.151 Y60.562 Z2.113 I0.851 J-0.679
X-18.859 Y61.88 Z2.035 I0.235 J1.062
X-20.609 Y62.46 Z1.958 I-1.056 J-0.256
X-20.361 Y60.635 Z1.88 I0.693 J-0.835
X-18.833 Y61.66 Z1.803 I0.444 J0.989
X-20.423 Y62.58 Z1.725 I-1.082 J-0.036
X-20.55 Y60.749 Z1.648 I0.508 J-0.955
X-18.852 Y61.44 Z1.57 I0.633 J0.875
X-20.218 Y62.659 Z1.493 I-1.063 J0.184
X-20.711 Y60.899 Z1.415 I0.302 J-1.034
X-18.915 Y61.23 Z1.338 I0.795 J0.725
X-20.001 Y62.695 Z1.261 I-1 J0.394
X-20.838 Y61.077 Z1.183 I0.086 J-1.07
X-19.02 Y61.037 Z1.106 I0.922 J0.547
X-19.783 Y62.686 Z1.028 I-0.896 J0.586
X-20.926 Y61.277 Z0.951 I-0.132 J-1.061
X-19.16 Y60.871 Z0.873 I1.01 J0.347
X-19.572 Y62.633 Z0.796 I-0.755 J0.753
X-20.971 Y61.49 Z0.718 I-0.344 J-1.008
X-19.331 Y60.737 Z0.641 I1.055 J0.135
X-19.376 Y62.539 Z0.563 I-0.584 J0.887
X-20.973 Y61.707 Z0.486 I-0.539 J-0.914
X-19.525 Y60.64 Z0.408 I1.056 J-0.082
X-19.205 Y62.407 Z0.331 I-0.391 J0.983
X-20.93 Y61.918 Z0.254 I-0.71 J-0.783
X-19.733 Y60.585 Z0.176 I1.014 J-0.293
X-19.064 Y62.244 Z0.099 I-0.182 J1.038
X-20.846 Y62.116 Z0.021 I-0.851 J-0.62
X-19.948 Y60.574 Z-0.056 I0.93 J-0.491
X-18.959 Y62.057 Z-0.134 I0.032 J1.05
X-20.724 Y62.292 Z-0.211 I-0.955 J-0.433
X-20.159 Y60.606 Z-0.289 I0.808 J-0.667
X-18.896 Y61.853 Z-0.366 I0.243 J1.017
X-20.569 Y62.439 Z-0.444 I-1.019 J-0.229
X-20.359 Y60.681 Z-0.521 I0.653 J-0.814
X-18.874 Y61.641 Z-0.599 I0.443 J0.943
X-20.388 Y62.551 Z-0.676 I-1.041 J-0.017
X-20.539 Y60.794 Z-0.754 I0.473 J-0.926
X-18.897 Y61.43 Z-0.831 I0.623 J0.831
X-20.189 Y62.624 Z-0.908 I-1.018 J0.193
X-20.691 Y60.94 Z-0.986 I0.274 J-0.998
X-18.961 Y61.229 Z-1.063 I0.775 J0.684
X-19.981 Y62.654 Z-1.141 I-0.954 J0.394
X-20.811 Y61.114 Z-1.218 I0.065 J-1.029
X-19.064 Y61.046 Z-1.296 I0.894 J0.511
X-19.771 Y62.642 Z-1.373 I-0.851 J0.578
X-20.892 Y61.307 Z-1.451 I-0.144 J-1.017
X-19.202 Y60.888 Z-1.528 I0.975 J0.318
X-19.569 Y62.588 Z-1.606 I-0.713 J0.735
X-20.932 Y61.512 Z-1.683 I-0.346 J-0.963
X-19.368 Y60.762 Z-1.761 I1.016 J0.113
X-19.383 Y62.494 Z-1.838 I-0.547 J0.861
X-20.93 Y61.72 Z-1.915 I-0.532 J-0.869
X-19.556 Y60.673 Z-1.993 I1.013 J-0.095
X-19.22 Y62.365 Z-2.07 I-0.36 J0.951
X-20.885 Y61.923 Z-2.148 I-0.695 J-0.74
X-19.757 Y60.624 Z-2.225 I0.969 J-0.298
X-19.088 Y62.206 Z-2.303 I-0.159 J1
X-20.801 Y62.111 Z-2.38 I-0.827 J-0.582
X-19.963 Y60.617 Z-2.458 I0.885 J-0.486
X-18.991 Y62.024 Z-2.535 I0.047 J1.007
X-20.681 Y62.278 Z-2.613 I-0.924 J-0.4
X-20.166 Y60.651 Z-2.69 I0.765 J-0.653
X-18.933 Y61.828 Z-2.768 I0.25 J0.973
X-20.53 Y62.416 Z-2.845 I-0.982 J-0.203
X-20.356 Y60.726 Z-2.923 I0.614 J-0.791
X-18.916 Y61.624 Z-3 I0.44 J0.898
X-20.916 Y61.624 I-1 J0
X-18.916 Y61.624 I1 J0
G1 X-18.888 Y62.135 F1000
G3 X-19.079 Y62.972 I-0.802 J0.257
X-20.856 Y63.342 I-1.134 J-0.99
X-21.909 Y60.846 I0.754 J-1.789
X-18.351 Y60.075 I2.02 J0.723
X-19.385 Y64.761 I-1.802 J2.059
X-22.952 Y63.514 I-0.944 J-3.024
X-22.267 Y58.665 I2.909 J-2.062
X-18.189 Y58.181 I2.411 J2.892
X-16.127 Y64.149 I-1.83 J3.972
X-17.696 Y65.922 I-3.848 J-1.823
G1 X-17.997 Y66.045
X-18.312 Y66.124
X-18.636 Y66.15
X-19.915
G3 X-23.754 Y64.353 I0.02 J-5.043
X-24.916 Y61.144 I3.923 J-3.236
X-22.416 Y56.824 I5.022 J0.023
X-21.296 Y56.344 I2.91 J5.248
G1 X-20.875 Y56.247
X-20.395 Y56.175
X-19.915 Y56.15
X-19.29
G3 X-14.589 Y58.862 I-0.111 J5.622
X-14.265 Y65.029 I-5.328 J3.371
X-16.056 Y66.149 I-1.781 J-0.857
G1 X-18.636 Y66.15
G3 X-19.405 Y65.413 Z-2.814 I0.028 J-0.8
G1 X-19.412 Y65.323 Z-2.8
X-20.059 Y57.012
X-20.061 Y56.994
Y56.977
G3 X-19.29 Y56.15 Z-3 I0.8 J-0.027
G1 X-16.292
G3 X-13.868 Y57.107 I-0.141 J3.908
X-11.901 Y59.966 I-3.804 J4.722
X-11.87 Y64.864 I-6.98 J2.494
X-13.403 Y66.122 I-1.898 J-0.751
G1 X-13.746 Y66.15
X-16.056
G3 X-16.828 Y65.373 Z-2.808 I0.028 J-0.8
G1 X-16.829 Y65.323 Z-2.8
X-17.063 Y56.977
X-17.064 Y56.972 Z-2.801
G3 X-16.292 Y56.15 Z-3 I0.8 J-0.022
G1 X-14.011
G3 X-11.809 Y57.008 I-0.128 J3.586
X-9.883 Y59.637 I-3.762 J4.774
X-9.457 Y64.345 I-7.174 J3.023
X-9.96 Y65.439 I-2.887 J-0.665
X-11.494 Y66.151 I-1.542 J-1.316
G1 X-13.746 Y66.15
G3 X-14.518 Y65.376 Z-2.808 I0.028 J-0.8
G1 X-14.52 Y65.323 Z-2.8
X-14.783 Y56.977
Y56.975
G3 X-14.011 Y56.15 Z-3 I0.8 J-0.025
G1 X-11.854
G3 X-9.65 Y57.019 I-0.132 J3.566
X-7.793 Y59.459 I-3.812 J4.826
X-7.193 Y64.185 I-7.088 J3.302
X-7.533 Y65.158 I-4.036 J-0.866
X-9.264 Y66.15 I-1.736 J-1.022
G1 X-11.494
G3 X-12.266 Y65.385 Z-2.81 I0.028 J-0.8
G1 X-12.268 Y65.323 Z-2.8
X-12.625 Y56.984
X-12.626 Y56.977
G3 X-11.854 Y56.15 Z-3 I0.8 J-0.027
G1 X-9.692
G3 X-7.631 Y56.911 I-0.132 J3.531
X-5.578 Y59.526 I-3.703 J5.021
X-4.979 Y64.209 I-7.01 J3.276
X-5.314 Y65.16 I-4.108 J-0.914
X-7.043 Y66.15 I-1.733 J-1.02
G1 X-9.264
G3 X-10.035 Y65.391 Z-2.811 I0.028 J-0.8
G1 X-10.038 Y65.323 Z-2.8
X-10.463 Y56.99
X-10.464 Y56.977
G3 X-9.692 Y56.15 Z-3 I0.8 J-0.027
G1 X-7.535
G3 X-5.302 Y57.025 I-0.141 J3.648
X-3.521 Y59.232 I-3.764 J4.86
X-2.759 Y64.186 I-6.924 J3.599
X-3.094 Y65.151 I-4.101 J-0.881
X-4.829 Y66.15 I-1.741 J-1.015
G1 X-7.043
G3 X-7.814 Y65.397 Z-2.812 I0.028 J-0.8
G1 X-7.818 Y65.323 Z-2.8
X-8.306 Y56.996
X-8.307 Y56.977
G3 X-7.535 Y56.15 Z-3 I0.8 J-0.027
G1 X-5.373
G3 X-3.135 Y57.004 I-0.111 J3.65
X-1.204 Y59.468 I-3.826 J4.988
X-0.541 Y64.143 I-6.974 J3.374
X-0.876 Y65.138 I-4.165 J-0.849
X-2.618 Y66.15 I-1.747 J-1.001
G1 X-4.829
G3 X-5.6 Y65.402 Z-2.813 I0.028 J-0.8
G1 X-5.605 Y65.323 Z-2.8
X-6.144 Y57.001
X-6.145 Y56.977
G3 X-5.373 Y56.15 Z-3 I0.8 J-0.027
G1 X-3.119
G3 X-1.035 Y56.926 I-0.16 J3.616
X1.052 Y59.578 I-3.757 J5.103
X1.653 Y64.221 I-6.947 J3.26
X1.353 Y65.099 I-4.463 J-1.034
X-0.409 Y66.15 I-1.764 J-0.954
G1 X-2.618
G3 X-3.389 Y65.398 Z-2.812 I0.028 J-0.8
G1 X-3.393 Y65.323 Z-2.8
X-3.89 Y56.997
X-3.891 Y56.977
G3 X-3.119 Y56.15 Z-3 I0.8 J-0.027
G1 X-0.936
G3 X1.31 Y57.033 I-0.157 J3.694
X3.107 Y59.257 I-3.792 J4.903
X3.871 Y64.183 I-6.889 J3.591
X3.537 Y65.15 I-4.08 J-0.868
X1.802 Y66.15 I-1.741 J-1.015
G1 X-0.409
G3 X-1.179 Y65.401 Z-2.812 I0.028 J-0.8
G1 X-1.184 Y65.323 Z-2.8
X-1.706 Y57
X-1.707 Y56.977
G3 X-0.936 Y56.15 Z-3 I0.8 J-0.027
G1 X1.28
G3 X3.528 Y57.042 I-0.169 J3.706
X5.323 Y59.272 I-3.81 J4.903
X6.077 Y64.202 I-6.891 J3.578
X5.745 Y65.153 I-4.246 J-0.951
X4.012 Y66.15 I-1.737 J-1.014
G1 X1.802
G3 X1.031 Y65.4 Z-2.812 I0.028 J-0.8
G1 X1.026 Y65.323 Z-2.8
X0.509 Y56.999
X0.508 Y56.977
G3 X1.28 Y56.15 Z-3 I0.8 J-0.027
G1 X3.502
G3 X5.589 Y56.929 I-0.165 J3.627
X7.679 Y59.585 I-3.763 J5.113
X8.281 Y64.223 I-6.938 J3.258
X7.982 Y65.098 I-4.462 J-1.036
X6.22 Y66.15 I-1.764 J-0.954
G1 X4.012
G3 X3.241 Y65.399 Z-2.812 I0.028 J-0.8
G1 X3.237 Y65.323 Z-2.8
X2.731 Y56.998
X2.73 Y56.977
G3 X3.502 Y56.15 Z-3 I0.8 J-0.027
G1 X5.664
G3 X7.909 Y57.015 I-0.129 J3.682
X9.848 Y59.495 I-3.856 J5.012
X10.504 Y64.15 I-6.953 J3.355
X10.17 Y65.14 I-4.116 J-0.839
X8.429 Y66.15 I-1.746 J-1.004
G1 X6.22
G3 X5.45 Y65.403 Z-2.813 I0.028 J-0.8
G1 X5.444 Y65.323 Z-2.8
X4.893 Y57.002
Y56.99
X4.892 Y56.977
G3 X5.664 Y56.15 Z-3 I0.8 J-0.027
G1 X7.918
G3 X10.006 Y56.929 I-0.164 J3.629
X12.097 Y59.584 I-3.763 J5.114
X12.699 Y64.222 I-6.939 J3.259
X12.399 Y65.099 I-4.459 J-1.034
X10.637 Y66.15 I-1.764 J-0.954
G1 X8.429
G3 X7.658 Y65.399 Z-2.812 I0.028 J-0.8
G1 X7.654 Y65.323 Z-2.8
X7.147 Y56.998
X7.146 Y56.977
G3 X7.918 Y56.15 Z-3 I0.8 J-0.027
G1 X10.101
G3 X12.349 Y57.031 I-0.154 J3.698
X14.284 Y59.534 I-3.897 J5.013
X14.917 Y64.178 I-6.954 J3.313
X14.583 Y65.148 I-4.019 J-0.837
X12.847 Y66.15 I-1.742 J-1.012
G1 X10.637
G3 X9.867 Y65.401 Z-2.812 I0.028 J-0.8
G1 X9.862 Y65.323 Z-2.8
X9.331 Y57
X9.33 Y56.977
G3 X10.101 Y56.15 Z-3 I0.8 J-0.027
G1 X12.317
G3 X14.565 Y57.037 I-0.163 J3.705
X16.362 Y59.262 I-3.8 J4.906
X17.124 Y64.193 I-6.887 J3.589
X16.791 Y65.151 I-4.272 J-0.95
X15.057 Y66.15 I-1.739 J-1.012
G1 X12.847
G3 X12.077 Y65.401 Z-2.812 I0.028 J-0.8
G1 X12.072 Y65.323 Z-2.8
X11.546 Y57
X11.545 Y56.977
G3 X12.317 Y56.15 Z-3 I0.8 J-0.027
G1 X14.539
G3 X16.626 Y56.924 I-0.157 J3.624
X18.718 Y59.573 I-3.75 J5.113
X19.328 Y64.213 I-6.937 J3.272
X18.998 Y65.156 I-4.086 J-0.903
X17.267 Y66.15 I-1.735 J-1.017
G1 X15.057
G3 X14.286 Y65.4 Z-2.812 I0.028 J-0.8
G1 X14.281 Y65.323 Z-2.8
X13.768 Y56.999
X13.767 Y56.977
G3 X14.539 Y56.15 Z-3 I0.8 J-0.027
G1 X16.701
G3 X18.946 Y57.009 I-0.12 J3.677
X20.886 Y59.482 I-3.842 J5.012
X21.551 Y64.147 I-6.959 J3.371
X21.217 Y65.137 I-4.151 J-0.847
X19.475 Y66.15 I-1.747 J-1
G1 X17.267
G3 X16.496 Y65.404 Z-2.813 I0.028 J-0.8
G1 X16.491 Y65.323 Z-2.8
X15.931 Y57.003
X15.93 Y56.99
X15.929 Y56.977
G3 X16.701 Y56.15 Z-3 I0.8 J-0.027
G1 X18.955
G3 X21.042 Y56.923 I-0.156 J3.625
X23.136 Y59.571 I-3.748 J5.114
X23.821 Y63.754 I-7.05 J3.303
X23.162 Y64.951 I-2.017 J-0.33
X19.915 Y66.151 I-3.279 J-3.878
G1 X19.475 Y66.15
G3 X18.704 Y65.4 Z-2.812 I0.028 J-0.8
G1 X18.699 Y65.323 Z-2.8
X18.185 Y56.999
X18.183 Y56.977
G3 X18.955 Y56.15 Z-3 I0.8 J-0.027
G1 X19.915
G3 X24.234 Y58.638 I-0.012 J5.014
X24.714 Y59.746 I-5.228 J2.922
X23.75 Y64.35 I-4.803 J1.398
G1 X23.621 Y64.504
X23.274 Y64.852
X23.162 Y64.951
X23.246 Y65.047
G3 X22.85 Y66.301 I-1.747 J0.137
X21.4 Y67.48 I-2.951 J-2.149
X19.234 Y68.252 I-4.011 J-7.824
X15.774 Y68.775 I-4.987 J-21.297
X8.609 Y69.004 I-6.714 J-97.86
X0.415 Y69.036 I-6.69 J-668.909
G1 X-5.731 Y69.037
X-16.998 Y69.038
G3 X-19.742 Y68.877 I-0.353 J-17.429
X-23.929 Y67.234 I1.292 J-9.454
G1 X-24.18 Y67.034
X-24.413 Y66.841
X-24.656 Y66.623
G3 X-26.071 Y57.546 I4.945 J-5.42
X-21.52 Y54.193 I6.308 J3.796
X-18.57 Y53.628 I4.653 J16.312
X-12.435 Y53.321 I6.173 J61.855
X-2.192 Y53.264 I8.324 J581.128
G1 X3.953 Y53.263
X13.172 Y53.262
X17.269
G3 X20.336 Y53.529 I0.206 J15.406
X24.474 Y55.503 I-1.7 J8.886
X27.042 Y61.616 I-4.912 J5.659
X26.254 Y64.961 I-14.714 J-1.701
X22.583 Y69.369 I-7.743 J-2.715
X19.034 Y70.817 I-6.655 J-11.239
X14.26 Y71.592 I-6.569 J-25.379
X7.097 Y71.871 I-7.313 J-95.583
X-0.073 Y71.917 I-6.459 J-443.498
G1 X-3.146 Y71.923
X-9.291 Y71.925
X-14.413
G3 X-18.366 Y71.783 I-0.56 J-39.56
X-23.035 Y70.585 I1.453 J-15.361
X-27.717 Y66.682 I4.548 J-10.215
X-28.572 Y57.389 I8.128 J-5.434
X-24.001 Y52.641 I8.878 J3.972
X-20.508 Y51.378 I6.75 J13.214
G1 X-19.629 Y51.181
G3 X-13.522 Y50.55 I7.126 J39.077
X-4.305 Y50.395 I8.131 J209.121
G1 X-2.257 Y50.382
X0.816 Y50.378
X5.937 Y50.375
X14.132
G3 X18.119 Y50.494 I0.613 J46.304
X22.43 Y51.462 I-1.353 J16.106
X27.412 Y55.182 I-4.06 J10.633
X28.266 Y56.56 I-9.621 J6.913
X29.342 Y62.14 I-9.073 J4.643
X26.328 Y69.404 I-11.627 J-0.567
X21.326 Y72.72 I-9.868 J-9.459
X17.067 Y73.935 I-7.915 J-19.663
X10.96 Y74.584 I-7.802 J-44.398
X0.721 Y74.787 I-9.187 J-204.673
G1 X-2.694 Y74.805
X-6.108 Y74.813
X-9.522 Y74.811
G3 X-15.667 Y74.764 I-1.662 J-186.702
X-20.37 Y74.208 I0.859 J-27.416
X-25.332 Y72.276 I3.605 J-16.601
X-30.673 Y66.429 I6.849 J-11.619
X-30.624 Y56.049 I11.11 J-5.137
X-25.448 Y50.619 I11.24 J5.532
X-21.421 Y48.939 I8.585 J14.911
X-17.497 Y48.126 I7.28 J25.287
X-9.325 Y47.594 I8.695 J70.544
X2.966 Y47.497 I9.828 J462.885
X15.257 Y47.517 I4.994 J713.239
X19.233 Y47.875 I-1.087 J34.293
X24.596 Y49.61 I-2.786 J17.766
X29.844 Y54.355 I-6.386 J12.337
G1 X30.106 Y54.797
G3 X31.815 Y62.56 I-11.513 J6.605
X26.739 Y72.434 I-13.95 J-0.93
X21.791 Y75.33 I-11.121 J-13.328
X16.037 Y76.854 I-9.467 J-24.113
X8.901 Y77.495 I-8.847 J-58.449
X-1.34 Y77.675 I-9.448 J-246.36
G1 X-3.388 Y77.689
G3 X-13.631 Y77.672 I-4.079 J-641.046
X-18.735 Y77.281 I0.853 J-44.649
X-23.924 Y75.901 I3.266 J-22.72
X-30.235 Y71.602 I6.527 J-16.365
X-34.249 Y62.841 I11.308 J-10.481
X-30.531 Y51.477 I14.565 J-1.525
X-24.349 Y47.204 I12.653 J11.695
X-19.709 Y45.765 I9.276 J21.717
X-12.599 Y44.898 I9.234 J46.166
X-3.385 Y44.644 I9.131 J163.968
G1 X0.712 Y44.614
X4.809 Y44.6
X8.906 Y44.601
X13.004 Y44.617
G3 X18.113 Y44.932 I-0.55 J50.533
X23.48 Y46.224 I-2.888 J23.784
X29.507 Y49.958 I-6.307 J16.913
X34.404 Y62.094 I-10.979 J11.487
X28.866 Y73.996 I-16.603 J-0.487
X23.388 Y77.529 I-13.308 J-14.618
X19.584 Y78.875 I-10.123 J-22.561
X12.523 Y80.068 I-10.342 J-39.716
X3.317 Y80.497 I-9.886 J-113.276
X-12.047 Y80.56 I-10.151 J-597.699
X-18.176 Y80.156 I0.597 J-55.689
X-24.043 Y78.74 I3.656 J-28.016
X-29.944 Y75.442 I7.399 J-20.166
X-34.97 Y69.322 I11.837 J-14.845
X-35.498 Y54.48 I15.528 J-7.982
X-29.048 Y46.787 I16.51 J7.292
X-23.241 Y43.932 I12.729 J18.552
X-16.244 Y42.427 I10.778 J33.108
G1 X-15.227 Y42.304
X-14.207 Y42.205
X-13.187 Y42.12
G3 X-1.928 Y41.763 I10.92 J166.51
X12.412 Y41.744 I8.075 J671.05
X18.538 Y42.194 I-0.865 J53.629
X24.357 Y43.679 I-3.889 J27.387
X31.33 Y48.072 I-7.462 J19.573
X34.161 Y51.555 I-13.399 J13.786
X33.803 Y72.235 I-16.196 J10.063
X27.881 Y78.097 I-17.066 J-11.318
X21.569 Y81.108 I-13.956 J-21.14
X14.576 Y82.638 I-11.532 J-35.962
X8.456 Y83.18 I-9.361 J-70.886
X-3.831 Y83.441 I-11.462 J-249.476
X-13.049 Y83.387 I-3.279 J-224.472
X-19.165 Y82.816 I1.861 J-52.975
X-26.046 Y80.859 I4.775 J-29.864
X-33.061 Y76.251 I9.255 J-21.733
X-37.17 Y70.815 I14.945 J-15.568
X-39.217 Y57.789 I17.935 J-9.493
X-32.4 Y46.036 I19.878 J3.676
X-25.816 Y42.017 I15.484 J17.964
X-18.938 Y40.043 I12.425 J30.324
X-10.799 Y39.148 I10.859 J61.293
X0.463 Y38.868 I10.868 J210.553
X12.754 Y38.901 I5.241 J337.778
X18.873 Y39.439 I-1.727 J54.639
X25.774 Y41.324 I-4.546 J30.231
X32.889 Y45.882 I-9.123 J22.069
X36.212 Y49.852 I-15.065 J15.988
X36.228 Y73.373 I-18.248 J11.773
X29.643 Y80.147 I-19.625 J-12.492
X22.306 Y83.731 I-15.802 J-23.041
X14.315 Y85.48 I-12.883 J-39.739
X5.125 Y86.161 I-11.226 J-89.162
X-11.261 Y86.295 I-10.983 J-340.349
X-18.407 Y85.749 I1.47 J-66.284
X-25.363 Y84.059 I4.983 J-35.664
X-32.561 Y80.205 I9.39 J-26.188
G1 X-33.362 Y79.574
X-34.132 Y78.92
G3 X-39.702 Y71.738 I16.043 J-18.193
X-41.243 Y54.843 I20.405 J-10.379
X-34.209 Y44.056 I22.182 J6.779
X-26.371 Y39.311 I17.587 J20.202
G1 X-25.416 Y38.94
X-24.448 Y38.603
G3 X-15.441 Y36.72 I13.57 J42.41
X-7.27 Y36.145 I10.568 J91.894
X11.165 Y35.999 I12.398 J401.369
X18.311 Y36.538 I-1.427 J66.624
X25.273 Y38.205 I-4.987 J36.184
X33.293 Y42.661 I-9.253 J26.097
X41.048 Y53.709 I-15.35 J19.022
X36.953 Y76.984 I-23.242 J7.909
G1 X36.309 Y77.781
X35.626 Y78.545
X34.915 Y79.281
G3 X25.56 Y85.432 I-20.236 J-20.587
X17.717 Y87.75 I-14.688 J-35.27
X8.57 Y88.84 I-12.609 J-66.914
X-2.69 Y89.184 I-11.592 J-194.505
X-12.931 Y89.082 I-3.348 J-176.916
X-20.055 Y88.308 I2.836 J-59.303
X-27.903 Y86.007 I6.474 J-36.612
X-36.461 Y80.47 I11.659 J-27.402
X-43.253 Y70.353 I18.316 J-19.636
X-44.704 Y58.316 I24.029 J-9.003
X-36.801 Y42.768 I25.43 J3.144
X-28.293 Y37.161 I19.895 J20.929
X-19.486 Y34.51 I15.546 J35.697
X-11.358 Y33.515 I12.116 J65.274
X-6.244 Y33.253 I8.661 J118.741
X10.143 Y33.116 I11.255 J366.802
X18.311 Y33.71 I-1.376 J75.328
X25.292 Y35.307 I-5.638 J40.705
X33.508 Y39.417 I-9.783 J29.82
X40.022 Y45.882 I-16.219 J22.857
X41.048 Y75.835 I-22.072 J15.75
X33.475 Y84.078 I-24.34 J-14.762
X27.291 Y87.676 I-19.077 J-25.675
X17.506 Y90.621 I-16.975 J-38.676
X8.357 Y91.694 I-13.029 J-71.516
X-3.927 Y92.067 I-12.292 J-202.395
X-14.165 Y91.848 I-2.251 J-133.922
X-22.272 Y90.702 I3.852 J-56.489
X-30.936 Y87.619 I8.293 J-37.019
X-39.891 Y80.877 I14.343 J-28.372
X-47.311 Y65.41 I21.368 J-19.765
X-46.395 Y53.248 I28.052 J-4.002
X-37.51 Y39.741 I27.464 J8.39
X-27.872 Y34.013 I21.306 J24.879
X-18.996 Y31.588 I16.006 J41.136
X-9.838 Y30.577 I13.017 J75.884
X-5.746 Y30.379 I7.723 J117.584
X9.616 Y30.244 I10.508 J320.128
X17.788 Y30.809 I-1.662 J83.343
X25.782 Y32.559 I-5.784 J45.565
X34.933 Y37.078 I-10.588 J32.963
X40.939 Y42.619 I-17.819 J25.34
X43.978 Y76.212 I-22.972 J19.013
X35.269 Y86.15 I-27.268 J-15.112
G1 X34.447 Y86.761
G3 X24.387 Y91.741 I-21.414 J-30.605
X14.401 Y93.947 I-16.35 J-50.311
X5.218 Y94.714 I-12.706 J-96.76
X-11.166 Y94.858 I-10.129 J-219.64
G1 X-12.189 Y94.803
X-13.211 Y94.745
X-14.233 Y94.675
G3 X-24.334 Y93.064 I3.747 J-55.94
X-32.897 Y89.701 I10.488 J-39.287
X-44.385 Y79.693 I16.111 J-30.093
X-49.886 Y66.579 I25.959 J-18.6
G1 X-50.035 Y65.566
G3 X-42.525 Y40.867 I30.623 J-4.179
X-32.917 Y33.312 I25.159 J22.109
X-22.375 Y29.433 I19.52 J36.789
X-13.276 Y28.002 I14.511 J62.64
X-2.027 Y27.421 I13.051 J143.418
X11.287 Y27.441 I6.326 J225.662
X19.441 Y28.211 I-3.066 J76.035
X27.386 Y30.177 I-7.376 J46.845
X38.917 Y36.689 I-11.947 J34.62
X48.34 Y49.894 I-21.343 J25.194
X49.419 Y70.018 I-30.506 J11.728
X38.571 Y87.022 I-32.443 J-8.735
X28.085 Y93.33 I-24.439 J-28.758
X17.255 Y96.35 I-18.855 J-46.686
X11.164 Y97.158 I-12.412 J-70.181
X-2.133 Y97.783 I-14.218 J-160.702
X-14.417 Y97.511 I-3.151 J-135.191
X-22.526 Y96.364 I5.205 J-66.05
X-33.145 Y92.688 I9.278 J-43.972
X-37.556 Y90.092 I18.232 J-36.032
X-49.1 Y77.281 I20.18 J-29.79
X-52.65 Y66.64 I30.623 J-16.13
X-49.214 Y45.773 I33.265 J-5.239
X-36.819 Y32.408 I31.226 J16.529
X-25.638 Y27.409 I22.518 J35.357
X-16.62 Y25.545 I16.266 J55.977
X-6.416 Y24.7 I13.887 J105.588
X9.968 Y24.54 I10.51 J237.136
X19.149 Y25.321 I-2.545 J84.293
X28.098 Y27.483 I-7.633 J51.181
X39.745 Y33.811 I-12.956 J37.729
G1 X40.535 Y34.463
X41.311 Y35.132
G3 X48.176 Y79.912 I-23.417 J26.506
G1 X47.645 Y80.788
G3 X36.126 Y92.264 I-31.771 J-20.371
X24.994 Y97.38 I-23.643 J-36.775
X14.997 Y99.55 I-17.713 J-57.492
X3.774 Y100.486 I-14.724 J-108.722
X-11.586 Y100.537 I-8.27 J-179.021
X-20.748 Y99.566 I3.907 J-80.566
X-30.608 Y96.853 I8.732 J-51.011
X-42.06 Y90.166 I15.358 J-39.451
G1 X-42.836 Y89.497
X-43.599 Y88.814
G3 X-55.081 Y68.68 I25.379 J-27.814
X-53.81 Y49.488 I35.871 J-7.262
X-50.814 Y42.986 I35.114 J12.238
X-37.184 Y29.385 I33.131 J19.571
X-25.91 Y24.584 I23.347 J39.186
X-15.871 Y22.606 I17.336 J61.512
X-7.709 Y21.905 I13.164 J105.394
X9.698 Y21.676 I11.621 J222.232
X18.881 Y22.435 I-2.813 J89.977
X28.835 Y24.791 I-7.781 J55.075
X40.575 Y30.963 I-13.965 J40.816
X53.064 Y46.902 I-23.191 J31.035
X53.263 Y75.863 I-35.235 J14.723
X40.311 Y92.705 I-36.723 J-14.84
X28.671 Y99.069 I-26.899 J-35.375
X21.963 Y101.107 I-18.431 J-48.608
G1 X21.809 Y101.121
X21.656 Y101.127
X-23.616
G3 X-28.042 Y100.504 I0.623 J-20.456
X-36.594 Y97.125 I9.438 J-36.405
X-52.829 Y81.889 I19.553 J-37.102
X-57.911 Y68.56 I34.52 J-20.796
X-48.562 Y35.227 I38.615 J-7.147
X-37.418 Y26.314 I31.366 J27.793
X-23.989 Y21.198 I24.623 J44.45
G1 X-23.837 Y21.179
X-23.685 Y21.173
X23.616
G3 X28.048 Y21.797 I-0.626 J20.496
X36.601 Y25.175 I-9.385 J36.276
X53.866 Y42.181 I-19.58 J37.147
X58.009 Y53.705 I-36.477 J19.622
X50.917 Y85.787 I-40.318 J7.912
X39.068 Y96.968 I-35.184 J-25.419
X31.432 Y100.977 I-25.683 J-39.635
G1 X31.187 Y101.06
X30.934 Y101.11
X30.676 Y101.127
X21.656
G3 X21.003 Y100.748 I0.028 J-0.8
G1 X20.948 Y100.66 Z-2.993
X20.894 Y100.572 Z-2.973
X20.842 Y100.488 Z-2.939
X20.793 Y100.408 Z-2.893
X20.747 Y100.334 Z-2.835
X20.706 Y100.267 Z-2.766
X20.669 Y100.209 Z-2.687
X20.639 Y100.159 Z-2.6
X20.614 Y100.12 Z-2.506
X20.597 Y100.091 Z-2.407
X20.586 Y100.074 Z-2.304
X20.582 Y100.068 Z-2.2
G0 Z-1.1
X22.175 Y21.803
Z-1.4
G1 Z-2.2 F1000
X22.181 Y21.8 Z-2.304
X22.198 Y21.789 Z-2.407
X22.227 Y21.772 Z-2.506
X22.267 Y21.748 Z-2.6
X22.317 Y21.719 Z-2.687
X22.376 Y21.683 Z-2.766
X22.444 Y21.643 Z-2.835
X22.519 Y21.599 Z-2.893
X22.599 Y21.551 Z-2.939
X22.684 Y21.5 Z-2.973
X22.773 Y21.448 Z-2.993
X22.862 Y21.394 Z-3
G3 X23.616 Y21.173 I0.809 J1.36
G1 X31.768
G3 X35.597 Y21.956 I-0.603 J12.708
X39.989 Y23.986 I-8.225 J23.558
X51.609 Y33.909 I-21.359 J36.778
X60.005 Y50.126 I-33.417 J27.583
G1 X60.019 Y50.301
X60.027 Y50.475
Y70.186
G3 X59.172 Y75.434 I-20.408 J-0.632
X55.479 Y83.854 I-35.461 J-10.53
X42.401 Y98.065 I-39.219 J-22.97
X37.99 Y100.876 I-26.565 J-36.82
G1 X37.683 Y101.014
X37.357 Y101.099
X37.021 Y101.127
X30.676
G3 X30.023 Y100.748 I0.028 J-0.8
G1 X29.968 Y100.66 Z-2.993
X29.914 Y100.572 Z-2.973
X29.862 Y100.488 Z-2.939
X29.813 Y100.408 Z-2.893
X29.767 Y100.334 Z-2.835
X29.726 Y100.267 Z-2.766
X29.689 Y100.209 Z-2.687
X29.659 Y100.159 Z-2.6
X29.634 Y100.12 Z-2.506
X29.617 Y100.091 Z-2.407
X29.606 Y100.074 Z-2.304
X29.602 Y100.068 Z-2.2
G0 Z-1.1
X59.397 Y68.745
Z-1.4
G1 Z-2.2 F1000
X59.4 Y68.751 Z-2.304
X59.411 Y68.768 Z-2.407
X59.428 Y68.797 Z-2.506
X59.452 Y68.837 Z-2.6
X59.481 Y68.887 Z-2.687
X59.517 Y68.946 Z-2.766
X59.557 Y69.014 Z-2.835
X59.601 Y69.089 Z-2.893
X59.649 Y69.169 Z-2.939
X59.7 Y69.254 Z-2.973
X59.752 Y69.343 Z-2.993
X59.806 Y69.432 Z-3
G3 X60.027 Y70.186 I-1.36 J0.809
G1 Y78.104
G3 X59.307 Y81.723 I-12.05 J-0.516
X57.333 Y86.004 I-22.53 J-7.792
X49.722 Y95.602 I-37.412 J-21.85
X43.17 Y100.926 I-32.947 J-33.857
G1 X42.88 Y101.033
X42.581 Y101.103
X42.275 Y101.127
X37.021
G3 X36.249 Y100.3 Z-2.8 I0.028 J-0.8
X36.483 Y99.762 I0.8 J0.027
G1 X58.662 Y77.567
G3 X59.2 Y77.333 I0.566 J0.565
X60.027 Y78.104 Z-3 I0.027 J0.8
G1 Y83.863
G3 X59.236 Y87.246 I-9.711 J-0.487
X57.268 Y90.946 I-18.617 J-7.528
X51.299 Y97.943 I-33.318 J-22.377
X48.174 Y100.693 I-31.787 J-32.98
X46.93 Y101.127 I-1.243 J-1.563
G1 X42.275
G3 X41.503 Y100.3 Z-2.8 I0.028 J-0.8
X41.746 Y99.754 I0.8 J0.027
G1 X58.67 Y83.317
G3 X59.2 Y83.091 I0.557 J0.574
X60.027 Y83.863 Z-3 I0.027 J0.8
G1 Y88.662
G3 X59.207 Y91.967 I-8.506 J-0.357
X57.388 Y95.136 I-15.768 J-6.941
X52.518 Y100.596 I-28.51 J-20.528
X51.167 Y101.127 I-1.343 J-1.433
G1 X46.93
G3 X46.158 Y100.3 Z-2.8 I0.028 J-0.8
X46.407 Y99.747 I0.8 J0.027
G1 X58.677 Y88.109
G3 X59.2 Y87.89 I0.551 J0.58
X60.027 Y88.662 Z-3 I0.027 J0.8
G1 Y93.113
G3 X59.251 Y96.131 I-7.647 J-0.357
X57.641 Y98.865 I-13.538 J-6.132
G1 X57.097 Y99.593
G3 X56.514 Y100.094 I-1.577 J-1.246
X55.998 Y99.588 Z-2.848 I-0.176 J-0.337
G1 X56.132 Y99.319 Z-2.8
X59.195 Y93.181
X59.307 Y92.956 Z-2.84
G3 X60.027 Y93.113 Z-3 I0.34 J0.17
X59.87 Y95.381 I-15.56 J0.062
X58.38 Y98.519 I-7.786 J-1.773
G1 X58.181 Y98.739
X57.661 Y99.259
G3 X55.892 Y100.418 I-4.557 J-5.026
X53.826 Y101.036 I-3.151 J-6.771
X51.167 Y101.127 I-2.117 J-22.946
X50.514 Y100.748 I0.028 J-0.799
G1 X50.459 Y100.66 Z-2.993
X50.405 Y100.572 Z-2.973
X50.353 Y100.488 Z-2.939
X50.304 Y100.408 Z-2.893
X50.258 Y100.334 Z-2.835
X50.217 Y100.267 Z-2.766
X50.18 Y100.209 Z-2.687
X50.15 Y100.159 Z-2.6
X50.125 Y100.12 Z-2.506
X50.108 Y100.091 Z-2.407
X50.097 Y100.074 Z-2.304
X50.093 Y100.068 Z-2.2
G0 Z-1.1
X30.326 Y21.803
Z-1.4
G1 Z-2.2 F1000
X30.332 Y21.8 Z-2.304
X30.35 Y21.789 Z-2.407
X30.379 Y21.772 Z-2.506
X30.418 Y21.748 Z-2.6
X30.468 Y21.719 Z-2.687
X30.528 Y21.683 Z-2.766
X30.595 Y21.643 Z-2.835
X30.67 Y21.599 Z-2.893
X30.751 Y21.551 Z-2.939
X30.836 Y21.5 Z-2.973
X30.924 Y21.448 Z-2.993
X31.014 Y21.394 Z-3
G3 X31.768 Y21.173 I0.809 J1.36
G1 X37.522
G3 X40.862 Y21.892 I-0.351 J9.745
X44.489 Y23.743 I-7.082 J18.365
X51.538 Y29.648 I-20.458 J31.58
X59.836 Y41.707 I-33.074 J31.643
G1 X59.941 Y41.981
X60.006 Y42.267
X60.027 Y42.559
Y50.475
G3 X59.2 Y51.246 Z-2.8 I-0.8 J-0.028
X58.591 Y50.931 I0.027 J-0.8
G1 X36.913 Y22.457
G3 X36.75 Y22 I0.637 J-0.485
X37.522 Y21.173 Z-3 I0.8 J-0.027
G1 X42.557
G3 X45.935 Y22.047 I-0.44 J8.669
X49.197 Y23.959 I-7.263 J16.127
X54.494 Y28.772 I-20.032 J27.366
X59.736 Y35.722 I-34.148 J31.211
G1 X59.896 Y36.048
X59.994 Y36.398
X60.027 Y36.76
Y42.559
G3 X59.2 Y43.331 Z-2.8 I-0.8 J-0.028
X58.606 Y43.035 I0.027 J-0.8
G1 X41.963 Y22.476
G3 X41.785 Y22 I0.622 J-0.503
X42.557 Y21.173 Z-3 I0.8 J-0.027
G1 X46.872
G3 X50.216 Y22.061 I-0.295 J7.848
X53.038 Y23.804 I-6.603 J13.849
X57.433 Y27.955 I-17.938 J23.396
X59.627 Y30.642 I-29.441 J26.278
X60.027 Y31.842 I-1.604 J1.201
G1 Y36.76
G3 X59.2 Y37.531 Z-2.8 I-0.8 J-0.028
X58.614 Y37.245 I0.027 J-0.8
G1 X46.286 Y22.485
G3 X46.101 Y22 I0.614 J-0.513
X46.872 Y21.173 Z-3 I0.8 J-0.027
G1 X51.08
G3 X54.024 Y21.979 I-0.376 J7.159
X57.091 Y23.985 I-6.324 J13.015
X59.563 Y26.336 I-12.97 J16.109
G1 X59.703 Y26.596
X59.813 Y26.868
X59.882 Y27.154
G3 X60.027 Y29.156 I-10.27 J1.75
G1 Y31.842
G3 X59.2 Y32.614 Z-2.8 I-0.8 J-0.028
X58.61 Y32.323 I0.027 J-0.8
G1 X50.491 Y22.482
G3 X50.308 Y22 I0.617 J-0.509
X51.08 Y21.173 Z-3 I0.8 J-0.027
X54.065 Y21.294 I0.613 J21.657
X57.535 Y22.919 I-1.442 J7.6
X58.456 Y23.874 I-11.606 J12.12
G1 X58.62 Y24.118
X59.1 Y24.861
G3 X59.581 Y25.881 I-9.774 J5.232
G1 X59.756 Y26.516
X59.817 Y26.756
X59.882 Y27.154
G3 X59.613 Y27.859 I-0.794 J0.102
G1 X59.535 Y27.927 Z-2.993
X59.457 Y27.995 Z-2.973
X59.382 Y28.06 Z-2.939
X59.312 Y28.121 Z-2.893
X59.246 Y28.178 Z-2.835
X59.187 Y28.23 Z-2.766
X59.135 Y28.275 Z-2.687
X59.091 Y28.314 Z-2.6
X59.056 Y28.344 Z-2.506
X59.03 Y28.366 Z-2.407
X59.015 Y28.379 Z-2.304
X59.01 Y28.384 Z-2.2
G0 Z-1.1
X-22.175 Y100.497
Z-1.4
G1 Z-2.2 F1000
X-22.181 Y100.5 Z-2.304
X-22.198 Y100.511 Z-2.407
X-22.227 Y100.528 Z-2.506
X-22.267 Y100.552 Z-2.6
X-22.317 Y100.581 Z-2.687
X-22.376 Y100.617 Z-2.766
X-22.444 Y100.657 Z-2.835
X-22.519 Y100.701 Z-2.893
X-22.599 Y100.749 Z-2.939
X-22.684 Y100.8 Z-2.973
X-22.773 Y100.852 Z-2.993
X-22.862 Y100.906 Z-3
G3 X-23.616 Y101.127 I-0.809 J-1.36
G1 X-31.528
G3 X-35.604 Y100.336 I0.377 J-12.841
X-39.991 Y98.31 I8.2 J-23.518
X-51.607 Y88.381 I21.326 J-36.708
X-60.008 Y71.866 I32.969 J-27.166
G1 X-60.02 Y71.702
X-60.027 Y71.539
Y53.87
G3 X-59.222 Y48.672 I20.782 J0.558
X-55.061 Y39.35 I34.944 J10.005
X-41.548 Y25.569 I37.152 J22.914
X-33.287 Y21.238 I25.994 J39.547
G1 X-33.021 Y21.191
X-32.753 Y21.173
X-23.685
G3 X-23.032 Y21.552 I-0.028 J0.8
G1 X-22.977 Y21.64 Z-2.993
X-22.923 Y21.728 Z-2.973
X-22.871 Y21.812 Z-2.939
X-22.822 Y21.892 Z-2.893
X-22.776 Y21.966 Z-2.835
X-22.735 Y22.033 Z-2.766
X-22.698 Y22.091 Z-2.687
X-22.668 Y22.141 Z-2.6
X-22.643 Y22.18 Z-2.506
X-22.626 Y22.209 Z-2.407
X-22.615 Y22.226 Z-2.304
X-22.611 Y22.232 Z-2.2
G0 Z-1.1
X-59.397 Y55.311
Z-1.4
G1 Z-2.2 F1000
X-59.4 Y55.305 Z-2.304
X-59.411 Y55.288 Z-2.407
X-59.428 Y55.259 Z-2.506
X-59.452 Y55.219 Z-2.6
X-59.481 Y55.169 Z-2.687
X-59.517 Y55.11 Z-2.766
X-59.557 Y55.042 Z-2.835
X-59.601 Y54.967 Z-2.893
X-59.649 Y54.887 Z-2.939
X-59.7 Y54.801 Z-2.973
X-59.752 Y54.713 Z-2.993
X-59.806 Y54.623 Z-3
G3 X-60.027 Y53.87 I1.36 J-0.809
G1 Y45.952
G3 X-59.255 Y42.026 I12.22 J0.365
X-57.251 Y37.77 I22.27 J7.885
X-49.518 Y28.273 I36.203 J21.58
X-40.093 Y21.428 I32.693 J35.109
G1 X-39.785 Y21.287
X-39.457 Y21.202
X-39.119 Y21.173
X-32.753
G3 X-31.981 Y22 Z-2.8 I-0.028 J0.8
X-32.244 Y22.565 I-0.8 J-0.027
G1 X-58.69 Y46.517
G3 X-59.2 Y46.723 I-0.537 J-0.593
X-60.027 Y45.952 Z-3 I-0.027 J-0.8
G1 Y40.193
G3 X-59.141 Y36.468 I9.79 J0.359
X-57.078 Y32.74 I18.642 J7.884
X-50.986 Y25.849 I32.484 J22.577
X-45.288 Y21.369 I31.146 J33.75
G1 X-45.001 Y21.264
X-44.705 Y21.196
X-44.403 Y21.173
X-39.119
G3 X-38.348 Y22 Z-2.8 I-0.028 J0.8
X-38.61 Y22.565 I-0.8 J-0.027
G1 X-58.69 Y40.758
G3 X-59.2 Y40.965 I-0.537 J-0.593
X-60.027 Y40.193 Z-3 I-0.027 J-0.8
G1 Y35.262
G3 X-59.184 Y31.966 I8.439 J0.401
X-57.347 Y28.82 I15.569 J6.984
X-52.536 Y23.523 I27.186 J19.856
G1 X-51.776 Y22.836
X-50.998 Y22.17
X-50.335 Y21.626
G3 X-49.067 Y21.173 I1.268 J1.547
G1 X-44.403
G3 X-43.631 Y22 Z-2.8 I-0.028 J0.8
X-43.897 Y22.568 I-0.8 J-0.027
G1 X-58.694 Y35.83
G3 X-59.2 Y36.034 I-0.534 J-0.596
X-60.027 Y35.262 Z-3 I-0.027 J-0.8
G1 Y30.835
G3 X-59.114 Y27.607 I7.847 J0.477
X-57.341 Y24.787 I13.871 J6.752
X-54.644 Y21.776 I21.41 J16.464
X-53.444 Y21.236 I1.37 J1.438
X-52.147 Y21.172 I1.349 J14.338
G1 X-49.067 Y21.173
G3 X-48.295 Y22 Z-2.8 I-0.028 J0.8
X-48.569 Y22.575 I-0.8 J-0.027
G1 X-58.702 Y31.41
G3 X-59.2 Y31.607 I-0.526 J-0.603
X-60.027 Y30.835 Z-3 I-0.027 J-0.8
G1 Y29.156
G3 X-59.553 Y25.796 I10.125 J-0.286
X-58.621 Y24.116 I8.042 J3.366
G1 X-58.452 Y23.877
G3 X-57.425 Y22.825 I8.74 J7.507
G1 X-56.877 Y22.437
G3 X-53.825 Y21.266 I4.094 J6.104
G1 X-53.444 Y21.235
G3 X-52.762 Y21.556 I0.042 J0.799
G1 X-52.699 Y21.639 Z-2.993
X-52.638 Y21.722 Z-2.973
X-52.578 Y21.801 Z-2.939
X-52.522 Y21.876 Z-2.893
X-52.47 Y21.946 Z-2.835
X-52.423 Y22.009 Z-2.766
X-52.382 Y22.064 Z-2.687
X-52.347 Y22.111 Z-2.6
X-52.319 Y22.148 Z-2.506
X-52.299 Y22.175 Z-2.407
X-52.287 Y22.191 Z-2.304
X-52.283 Y22.197 Z-2.2
G0 Z-1.1
X-30.087 Y100.497
Z-1.4
G1 Z-2.2 F1000
X-30.092 Y100.5 Z-2.304
X-30.11 Y100.511 Z-2.407
X-30.139 Y100.528 Z-2.506
X-30.179 Y100.552 Z-2.6
X-30.229 Y100.581 Z-2.687
X-30.288 Y100.617 Z-2.766
X-30.356 Y100.657 Z-2.835
X-30.43 Y100.701 Z-2.893
X-30.511 Y100.749 Z-2.939
X-30.596 Y100.8 Z-2.973
X-30.684 Y100.852 Z-2.993
X-30.774 Y100.906 Z-3
G3 X-31.528 Y101.127 I-0.809 J-1.36
G1 X-37.522
G3 X-40.871 Y100.402 I0.36 J-9.762
X-44.503 Y98.545 I7.11 J-18.388
X-51.547 Y92.634 I20.5 J-31.579
X-59.847 Y80.486 I32.751 J-31.287
G1 X-59.946 Y80.219
X-60.007 Y79.941
X-60.027 Y79.657
Y71.539
G3 X-59.2 Y70.768 Z-2.8 I0.8 J0.028
X-58.589 Y71.086 I-0.027 J0.8
G1 X-36.911 Y99.846
G3 X-36.75 Y100.3 I-0.639 J0.482
X-37.522 Y101.127 Z-3 I-0.8 J0.027
G1 X-42.557
G3 X-45.939 Y100.249 I0.447 J-8.674
X-49.206 Y98.33 I7.289 J-16.148
X-54.498 Y93.512 I20.047 J-27.336
X-59.739 Y86.534 I33.896 J-30.918
G1 X-59.897 Y86.209
X-59.994 Y85.861
X-60.027 Y85.501
Y79.657
G3 X-59.2 Y78.885 Z-2.8 I0.8 J0.028
X-58.605 Y79.182 I-0.027 J0.8
G1 X-41.962 Y99.825
G3 X-41.785 Y100.3 I-0.623 J0.502
X-42.557 Y101.127 Z-3 I-0.8 J0.027
G1 X-46.872
G3 X-50.222 Y100.232 I0.304 J-7.856
X-53.05 Y98.481 I6.635 J-13.869
X-57.442 Y94.322 I17.969 J-23.371
X-59.63 Y91.632 I29.339 J-26.107
X-60.027 Y90.435 I1.606 J-1.198
G1 Y85.501
G3 X-59.2 Y84.729 Z-2.8 I0.8 J0.028
X-58.613 Y85.017 I-0.027 J0.8
G1 X-46.285 Y99.815
G3 X-46.101 Y100.3 I-0.615 J0.512
X-46.872 Y101.127 Z-3 I-0.8 J0.027
G1 X-50.948
G3 X-54.009 Y100.321 I0.245 J-7.151
X-57.063 Y98.328 I6.27 J-12.941
X-59.411 Y96.13 I14.787 J-18.149
G1 X-59.634 Y95.841
X-59.802 Y95.516
X-59.907 Y95.166
G3 X-60.027 Y93.46 I23.358 J-2.503
G1 Y90.435
G3 X-59.2 Y89.664 Z-2.8 I0.8 J0.028
X-58.614 Y89.95 I-0.027 J0.8
G1 X-50.362 Y99.814
G3 X-50.176 Y100.3 I-0.614 J0.513
X-50.948 Y101.127 Z-3 I-0.8 J0.027
X-53.825 Y101.033 I-0.671 J-23.399
X-56.701 Y99.985 I1.066 J-7.398
G1 X-57.182 Y99.651
X-57.441 Y99.459
G3 X-58.397 Y98.5 I7.012 J-7.947
X-59.906 Y95.166 I6.2 J-4.815
G1 X-59.912 Y95.099 Z-2.997
X-59.918 Y95.034 Z-2.989
X-59.905 Y94.948 Z-2.968
X-59.891 Y94.865 Z-2.938
X-59.879 Y94.785 Z-2.899
X-59.846 Y94.722 Z-2.853
X-59.816 Y94.663 Z-2.8
X-59.789 Y94.609 Z-2.74
X-59.764 Y94.562 Z-2.673
X-59.73 Y94.523 Z-2.59
X-59.703 Y94.492 Z-2.502
X-59.683 Y94.469 Z-2.409
X-59.671 Y94.456 Z-2.312
X-59.667 Y94.451 Z-2.215
G0 Z-0.8
X49.836 Y21.803
Z-1.1
G1 Z-1.9 F1000
X49.843 Y21.801 Z-2.004
X49.862 Y21.795 Z-2.107
X49.895 Y21.786 Z-2.206
X49.939 Y21.773 Z-2.3
X49.995 Y21.756 Z-2.387
X50.061 Y21.737 Z-2.466
X50.137 Y21.715 Z-2.535
X50.22 Y21.691 Z-2.593
X50.31 Y21.665 Z-2.639
X50.406 Y21.637 Z-2.673
X50.504 Y21.608 Z-2.693
X50.604 Y21.579 Z-2.7
G3 X55.002 Y21.435 I2.48 J8.512
G1 X55.024 Y21.441
X55.148 Y21.478
X55.264 Y21.523
X55.335 Y21.568 Z-2.695
X55.406 Y21.613 Z-2.681
X55.476 Y21.657 Z-2.658
X55.533 Y21.726 Z-2.622
X55.586 Y21.791 Z-2.574
X55.636 Y21.851 Z-2.517
X55.661 Y21.914 Z-2.452
X55.683 Y21.97 Z-2.379
X55.701 Y22.018 Z-2.3
X55.717 Y22.056 Z-2.215
X55.728 Y22.084 Z-2.125
X55.732 Y22.106 Z-2.021
X55.733 Y22.113 Z-1.915
G0 Z-0.5
X56.459 Y25.591
Z-0.8
G1 Z-1.6 F1000
X56.466 Y25.589 Z-1.704
X56.485 Y25.581 Z-1.807
X56.516 Y25.57 Z-1.906
X56.56 Y25.553 Z-2
X56.614 Y25.533 Z-2.087
X56.679 Y25.508 Z-2.166
X56.752 Y25.481 Z-2.235
X56.834 Y25.45 Z-2.293
X56.921 Y25.417 Z-2.339
X57.014 Y25.382 Z-2.373
X57.11 Y25.346 Z-2.393
X57.208 Y25.309 Z-2.4
G3 X60.021 Y26.708 I0.756 J2.006
G1 X60.033 Y26.756
X60.059 Y26.865
G3 X59.839 Y27.586 I-0.785 J0.156
G1 X59.765 Y27.66 Z-2.393
X59.693 Y27.733 Z-2.373
X59.623 Y27.803 Z-2.339
X59.556 Y27.869 Z-2.293
X59.495 Y27.93 Z-2.235
X59.439 Y27.986 Z-2.166
X59.39 Y28.035 Z-2.087
X59.349 Y28.076 Z-2
X59.316 Y28.109 Z-1.906
X59.292 Y28.132 Z-1.807
X59.278 Y28.147 Z-1.704
X59.273 Y28.152 Z-1.6
G0 Z5
X-54.884 Y101.008
Z-0.8
G1 Z-1.6 F1000
X-54.89 Y101.006 Z-1.704
X-54.909 Y100.997 Z-1.807
X-54.939 Y100.983 Z-1.906
X-54.982 Y100.964 Z-2
X-55.035 Y100.94 Z-2.087
X-55.097 Y100.912 Z-2.166
X-55.169 Y100.88 Z-2.235
X-55.248 Y100.844 Z-2.293
X-55.334 Y100.805 Z-2.339
X-55.424 Y100.765 Z-2.373
X-55.518 Y100.722 Z-2.393
X-55.613 Y100.679 Z-2.4
G3 X-59.049 Y97.931 I3.646 J-8.081
G1 X-59.116 Y97.835
G3 X-59.173 Y97.083 I0.675 J-0.43
G1 X-59.131 Y96.987 Z-2.393
X-59.09 Y96.894 Z-2.373
X-59.05 Y96.803 Z-2.339
X-59.012 Y96.717 Z-2.293
X-58.977 Y96.637 Z-2.235
X-58.945 Y96.565 Z-2.166
X-58.918 Y96.502 Z-2.087
X-58.894 Y96.449 Z-2
X-58.875 Y96.407 Z-1.906
X-58.862 Y96.376 Z-1.807
X-58.854 Y96.357 Z-1.704
X-58.851 Y96.351 Z-1.6
G0 Z5
X-59.451 Y25.196
Z-0.8
G1 Z-1.6 F1000
X-59.447 Y25.19 Z-1.704
X-59.436 Y25.173 Z-1.807
X-59.417 Y25.145 Z-1.906
X-59.391 Y25.106 Z-2
X-59.359 Y25.058 Z-2.087
X-59.321 Y25 Z-2.166
X-59.278 Y24.935 Z-2.235
X-59.23 Y24.862 Z-2.293
X-59.178 Y24.784 Z-2.339
X-59.123 Y24.701 Z-2.373
X-59.066 Y24.616 Z-2.393
X-59.009 Y24.529 Z-2.4
G3 X-55.743 Y21.58 I7.389 J4.9
G1 X-55.589 Y21.51
X-55.506 Y21.49 Z-2.395
X-55.424 Y21.471 Z-2.381
X-55.344 Y21.452 Z-2.358
X-55.284 Y21.449 Z-2.335
X-55.194 Y21.464 Z-2.288
X-55.11 Y21.477 Z-2.229
X-55.036 Y21.489 Z-2.16
X-54.977 Y21.517 Z-2.083
X-54.928 Y21.541 Z-1.999
X-54.889 Y21.56 Z-1.909
X-54.861 Y21.574 Z-1.814
X-54.844 Y21.582 Z-1.715
X-54.838 Y21.585 Z-1.615
G0 Z0.1
X59.871 Y91.147
Z-0.2
G1 Z-1 F1000
X59.873 Y91.154 Z-1.104
X59.879 Y91.174 Z-1.207
X59.888 Y91.206 Z-1.306
X59.9 Y91.251 Z-1.4
X59.915 Y91.307 Z-1.487
X59.934 Y91.373 Z-1.566
X59.954 Y91.449 Z-1.635
X59.978 Y91.533 Z-1.693
X60.003 Y91.623 Z-1.739
X60.029 Y91.719 Z-1.773
X60.056 Y91.818 Z-1.793
X60.084 Y91.919 Z-1.8
G3 X60.164 Y96.318 I-8.547 J2.355
G1 X60.137 Y96.413
G3 X59.959 Y96.72 Z-1.743 I-0.764 J-0.239
G1 X59.674 Y97.025 Z-1.676
X59.346 Y97.376 Z-1.6
X56.772 Y100.134
X56.444 Y100.485 Z-1.676
X56.107 Y100.845 Z-1.755
G3 X55.883 Y101.014 Z-1.8 I-0.585 J-0.546
G1 X55.743 Y101.078
X55.649 Y101.111
X55.567 Y101.124 Z-1.796
X55.487 Y101.136 Z-1.783
X55.408 Y101.148 Z-1.761
X55.32 Y101.134 Z-1.725
X55.237 Y101.121 Z-1.679
X55.16 Y101.109 Z-1.623
X55.1 Y101.078 Z-1.561
X55.048 Y101.051 Z-1.492
X55.002 Y101.028 Z-1.417
X54.965 Y101.009 Z-1.336
X54.936 Y100.995 Z-1.251
X54.92 Y100.982 Z-1.174
X54.911 Y100.975 Z-1.095
X54.907 Y100.972 Z-1.015
G0 Z5
X-50.259 Y101.728
Z0.7
G1 Z-0.1 F1000
X-50.266 Y101.73 Z-0.204
X-50.286 Y101.736 Z-0.307
X-50.318 Y101.745 Z-0.406
X-50.362 Y101.757 Z-0.5
X-50.418 Y101.773 Z-0.587
X-50.485 Y101.792 Z-0.666
X-50.561 Y101.813 Z-0.735
X-50.644 Y101.837 Z-0.793
X-50.735 Y101.862 Z-0.839
X-50.83 Y101.889 Z-0.873
X-50.929 Y101.917 Z-0.893
X-51.029 Y101.945 Z-0.9
G3 X-55.428 Y102.05 I-2.404 J-8.534
G1 X-55.503 Y102.03
X-55.604 Y102.001
X-55.679 Y101.962 Z-0.895
X-55.754 Y101.923 Z-0.881
X-55.827 Y101.886 Z-0.858
X-55.89 Y101.822 Z-0.822
X-55.949 Y101.762 Z-0.774
X-56.003 Y101.707 Z-0.717
X-56.034 Y101.646 Z-0.652
X-56.061 Y101.592 Z-0.579
X-56.083 Y101.546 Z-0.5
X-56.102 Y101.51 Z-0.415
X-56.116 Y101.482 Z-0.325
X-56.122 Y101.461 Z-0.221
X-56.124 Y101.455 Z-0.115
G0 Z0.185
X-19.041 Y62.284
Z-0.5
G3 X-20.891 Y62.119 Z-0.577 I-0.874 J-0.659 F333.3
X-19.931 Y60.532 Z-0.655 I0.975 J-0.494
X-18.929 Y62.091 Z-0.732 I0.015 J1.092
X-20.767 Y62.305 Z-0.81 I-0.986 J-0.466
X-20.151 Y60.562 Z-0.887 I0.852 J-0.679
X-18.859 Y61.88 Z-0.965 I0.235 J1.062
X-20.609 Y62.46 Z-1.042 I-1.056 J-0.256
X-20.361 Y60.635 Z-1.12 I0.693 J-0.835
X-18.833 Y61.66 Z-1.197 I0.444 J0.989
X-20.423 Y62.58 Z-1.275 I-1.082 J-0.036
X-20.55 Y60.749 Z-1.352 I0.508 J-0.955
X-18.852 Y61.44 Z-1.43 I0.633 J0.875
X-20.218 Y62.659 Z-1.507 I-1.063 J0.184
X-20.711 Y60.899 Z-1.585 I0.302 J-1.034
X-18.915 Y61.23 Z-1.662 I0.794 J0.725
X-20.001 Y62.695 Z-1.739 I-1 J0.394
X-20.838 Y61.077 Z-1.817 I0.086 J-1.07
X-19.02 Y61.037 Z-1.894 I0.922 J0.547
X-19.783 Y62.686 Z-1.972 I-0.896 J0.586
X-20.926 Y61.277 Z-2.049 I-0.132 J-1.061
X-19.16 Y60.871 Z-2.127 I1.01 J0.347
X-19.572 Y62.633 Z-2.204 I-0.755 J0.753
X-20.971 Y61.49 Z-2.282 I-0.344 J-1.008
X-19.331 Y60.737 Z-2.359 I1.055 J0.135
X-19.376 Y62.539 Z-2.437 I-0.584 J0.887
X-20.973 Y61.707 Z-2.514 I-0.539 J-0.914
X-19.525 Y60.64 Z-2.592 I1.056 J-0.082
X-19.205 Y62.407 Z-2.669 I-0.391 J0.983
X-20.93 Y61.918 Z-2.746 I-0.71 J-0.783
X-19.733 Y60.585 Z-2.824 I1.014 J-0.293
X-19.064 Y62.244 Z-2.901 I-0.183 J1.038
X-20.846 Y62.116 Z-2.979 I-0.851 J-0.62
X-19.948 Y60.574 Z-3.056 I0.93 J-0.491
X-18.959 Y62.057 Z-3.134 I0.032 J1.05
X-20.724 Y62.292 Z-3.211 I-0.955 J-0.433
X-20.159 Y60.606 Z-3.289 I0.808 J-0.667
X-18.896 Y61.853 Z-3.366 I0.243 J1.017
X-20.569 Y62.439 Z-3.444 I-1.019 J-0.229
X-20.359 Y60.681 Z-3.521 I0.653 J-0.814
X-18.874 Y61.641 Z-3.599 I0.443 J0.943
X-20.388 Y62.551 Z-3.676 I-1.041 J-0.017
X-20.539 Y60.794 Z-3.754 I0.473 J-0.926
X-18.897 Y61.43 Z-3.831 I0.623 J0.831
X-20.189 Y62.624 Z-3.908 I-1.018 J0.193
X-20.691 Y60.94 Z-3.986 I0.274 J-0.998
X-18.961 Y61.229 Z-4.063 I0.775 J0.684
X-19.981 Y62.654 Z-4.141 I-0.954 J0.394
X-20.811 Y61.114 Z-4.218 I0.065 J-1.029
X-19.064 Y61.046 Z-4.296 I0.894 J0.511
X-19.771 Y62.642 Z-4.373 I-0.851 J0.578
X-20.892 Y61.307 Z-4.451 I-0.144 J-1.017
X-19.202 Y60.888 Z-4.528 I0.975 J0.318
X-19.569 Y62.588 Z-4.606 I-0.713 J0.735
X-20.932 Y61.512 Z-4.683 I-0.346 J-0.963
X-19.368 Y60.762 Z-4.761 I1.016 J0.113
X-19.383 Y62.494 Z-4.838 I-0.547 J0.861
X-20.93 Y61.72 Z-4.915 I-0.532 J-0.869
X-19.556 Y60.673 Z-4.993 I1.013 J-0.095
X-19.22 Y62.365 Z-5.07 I-0.36 J0.951
X-20.885 Y61.923 Z-5.148 I-0.695 J-0.74
X-19.757 Y60.624 Z-5.225 I0.969 J-0.298
X-19.088 Y62.206 Z-5.303 I-0.159 J1
X-20.801 Y62.111 Z-5.38 I-0.827 J-0.582
X-19.963 Y60.617 Z-5.458 I0.885 J-0.486
X-18.991 Y62.024 Z-5.535 I0.047 J1.007
X-20.681 Y62.278 Z-5.613 I-0.924 J-0.4
X-20.166 Y60.651 Z-5.69 I0.765 J-0.653
X-18.933 Y61.828 Z-5.768 I0.25 J0.973
X-20.53 Y62.416 Z-5.845 I-0.982 J-0.203
X-20.356 Y60.726 Z-5.923 I0.614 J-0.791
X-18.916 Y61.624 Z-6 I0.44 J0.898
X-20.916 Y61.624 I-1 J0
X-18.916 Y61.624 I1 J0
G1 X-18.888 Y62.135 F1000
G3 X-19.096 Y62.968 I-0.81 J0.24
X-20.879 Y63.297 I-1.108 J-1.005
X-21.774 Y60.636 I0.799 J-1.75
X-18.359 Y60.128 I1.885 J0.938
X-19.407 Y64.69 I-1.784 J1.991
X-22.938 Y63.379 I-0.908 J-2.964
X-22.254 Y58.776 I2.898 J-1.921
X-18.272 Y58.25 I2.393 J2.782
X-16.451 Y64.483 I-1.751 J3.894
X-17.979 Y65.956 I-3.522 J-2.127
G1 X-18.258 Y66.062
X-18.548 Y66.128
X-18.845 Y66.15
X-19.915
G3 X-23.754 Y64.353 I0.02 J-5.043
X-24.916 Y61.144 I3.923 J-3.236
X-24.523 Y59.224 I4.976 J0.017
X-21.353 Y56.366 I4.604 J1.92
X-19.435 Y56.153 I1.579 J5.465
X-14.509 Y59.253 I-0.169 J5.731
X-14.45 Y65.04 I-5.456 J2.949
X-16.237 Y66.149 I-1.779 J-0.871
G1 X-18.845 Y66.15
G3 X-19.615 Y65.407 Z-5.813 I0.028 J-0.8
G1 X-19.621 Y65.323 Z-5.8
X-20.205 Y57.006
X-20.206 Y56.991
X-20.207 Y56.977
G3 X-19.435 Y56.15 Z-6 I0.8 J-0.027
G1 X-16.476
G3 X-14.077 Y57.089 I-0.157 J3.934
X-11.963 Y60.348 I-3.844 J4.808
X-12.101 Y64.935 I-6.971 J2.087
G1 X-12.294 Y65.274
G3 X-13.949 Y66.15 I-1.654 J-1.124
G1 X-16.237
G3 X-17.008 Y65.373 Z-5.808 I0.028 J-0.8
G1 X-17.01 Y65.323 Z-5.8
X-17.248 Y56.977
Y56.972 Z-5.801
G3 X-16.476 Y56.15 Z-6 I0.8 J-0.023
G1 X-14.254
G3 X-12.075 Y56.972 I-0.104 J3.573
X-10.068 Y59.721 I-3.716 J4.821
X-9.734 Y64.522 I-7.084 J2.905
X-10.189 Y65.432 I-2.776 J-0.819
X-11.727 Y66.15 I-1.544 J-1.299
G1 X-13.949
G3 X-14.72 Y65.38 Z-5.809 I0.028 J-0.8
G1 X-14.722 Y65.323 Z-5.8
X-15.025 Y56.977
G3 X-14.254 Y56.15 Z-6 I0.8 J-0.027
G1 X-12.092
G3 X-9.91 Y57.015 I-0.154 J3.575
X-8.089 Y59.365 I-3.766 J4.798
X-7.458 Y64.208 I-7.014 J3.376
X-7.802 Y65.166 I-4.088 J-0.927
X-9.528 Y66.15 I-1.731 J-1.03
G1 X-11.727
G3 X-12.499 Y65.385 Z-5.81 I0.028 J-0.8
G1 X-12.501 Y65.323 Z-5.8
X-12.863 Y56.984
Y56.977
G3 X-12.092 Y56.15 Z-6 I0.8 J-0.027
G1 X-9.935
G3 X-7.892 Y56.931 I-0.191 J3.561
X-5.884 Y59.482 I-3.725 J4.998
X-5.286 Y64.273 I-6.946 J3.299
X-5.787 Y65.416 I-3.12 J-0.685
X-7.341 Y66.151 I-1.564 J-1.297
G1 X-9.528 Y66.15
G3 X-10.299 Y65.389 Z-5.811 I0.028 J-0.8
G1 X-10.302 Y65.323 Z-5.8
X-10.706 Y56.988
Y56.977
G3 X-9.935 Y56.15 Z-6 I0.8 J-0.027
G1 X-7.838
G3 X-5.626 Y57.024 I-0.169 J3.663
X-3.749 Y59.42 I-3.836 J4.94
X-3.09 Y64.206 I-6.909 J3.388
X-3.428 Y65.159 I-4.085 J-0.912
X-5.158 Y66.15 I-1.735 J-1.022
G1 X-7.341
G3 X-8.112 Y65.398 Z-5.812 I0.028 J-0.8
G1 X-8.116 Y65.323 Z-5.8
X-8.609 Y56.997
X-8.61 Y56.977
G3 X-7.838 Y56.15 Z-6 I0.8 J-0.027
G1 X-5.735
G3 X-3.52 Y56.983 I-0.109 J3.649
X-1.493 Y59.608 I-3.839 J5.06
X-0.898 Y64.135 I-6.941 J3.215
X-1.237 Y65.136 I-4.262 J-0.885
X-2.98 Y66.15 I-1.747 J-0.998
G1 X-5.158
G3 X-5.929 Y65.405 Z-5.813 I0.028 J-0.8
G1 X-5.934 Y65.323 Z-5.8
X-6.505 Y57.004
X-6.506 Y56.991
Y56.977
G3 X-5.735 Y56.15 Z-6 I0.8 J-0.027
G1 X-3.519
G3 X-1.297 Y57.025 I-0.174 J3.701
X0.598 Y59.428 I-3.843 J4.98
X1.267 Y64.201 I-6.885 J3.399
X0.931 Y65.155 I-4.108 J-0.911
X-0.801 Y66.15 I-1.738 J-1.018
G1 X-2.98
G3 X-3.75 Y65.402 Z-5.813 I0.028 J-0.8
G1 X-3.755 Y65.323 Z-5.8
X-4.29 Y57.001
X-4.291 Y56.977
G3 X-3.519 Y56.15 Z-6 I0.8 J-0.027
G1 X-1.35
G3 X0.875 Y57.025 I-0.173 J3.707
X2.77 Y59.423 I-3.841 J4.982
X3.444 Y64.2 I-6.882 J3.408
X3.109 Y65.153 I-4.127 J-0.916
X1.376 Y66.15 I-1.738 J-1.017
G1 X-0.801
G3 X-1.572 Y65.403 Z-5.813 I0.028 J-0.8
G1 X-1.577 Y65.323 Z-5.8
X-2.121 Y57.002
X-2.122 Y56.977
G3 X-1.35 Y56.15 Z-6 I0.8 J-0.027
G1 X0.8
G3 X3.022 Y57.005 I-0.144 J3.691
X4.924 Y59.379 I-3.793 J4.986
X5.628 Y64.165 I-6.872 J3.457
X5.291 Y65.143 I-4.249 J-0.917
X3.552 Y66.15 I-1.744 J-1.006
G1 X1.376
G3 X0.606 Y65.405 Z-5.813 I0.028 J-0.8
G1 X0.6 Y65.323 Z-5.8
X0.029 Y57.004
Y56.991
X0.028 Y56.977
G3 X0.8 Y56.15 Z-6 I0.8 J-0.027
G1 X3.022
G3 X5.25 Y57.045 I-0.203 J3.729
X7.145 Y59.473 I-3.893 J4.992
X7.791 Y64.232 I-6.88 J3.356
X7.457 Y65.162 I-4.195 J-0.98
X5.73 Y66.15 I-1.731 J-1.023
G1 X3.552
G3 X2.782 Y65.401 Z-5.812 I0.028 J-0.8
G1 X2.777 Y65.323 Z-5.8
X2.252 Y57
X2.25 Y56.977
G3 X3.022 Y56.15 Z-6 I0.8 J-0.027
G1 X5.184
G3 X7.411 Y57.033 I-0.186 J3.72
X9.307 Y59.442 I-3.862 J4.988
X9.972 Y64.214 I-6.879 J3.39
X9.638 Y65.157 I-4.082 J-0.916
X7.906 Y66.15 I-1.737 J-1.02
G1 X5.73
G3 X4.959 Y65.402 Z-5.813 I0.028 J-0.8
G1 X4.954 Y65.323 Z-5.8
X4.413 Y57.001
X4.412 Y56.977
G3 X5.184 Y56.15 Z-6 I0.8 J-0.027
G1 X7.341
G3 X9.566 Y57.017 I-0.162 J3.705
X11.466 Y59.407 I-3.824 J4.99
X12.154 Y64.186 I-6.874 J3.429
X11.818 Y65.149 I-4.177 J-0.917
X10.082 Y66.15 I-1.741 J-1.012
G1 X7.906
G3 X7.136 Y65.404 Z-5.813 I0.028 J-0.8
G1 X7.13 Y65.323 Z-5.8
X6.571 Y57.003
X6.57 Y56.99
X6.569 Y56.977
G3 X7.341 Y56.15 Z-6 I0.8 J-0.027
G1 X9.503
G3 X11.727 Y57.006 I-0.145 J3.695
X13.63 Y59.381 I-3.796 J4.991
X14.335 Y64.165 I-6.87 J3.456
X13.997 Y65.143 I-4.246 J-0.916
X12.258 Y66.15 I-1.744 J-1.006
G1 X10.082
G3 X9.312 Y65.406 Z-5.813 I0.028 J-0.8
G1 X9.307 Y65.323 Z-5.8
X8.733 Y57.005
X8.732 Y56.991
X8.731 Y56.977
G3 X9.503 Y56.15 Z-6 I0.8 J-0.027
G1 X11.66
G3 X13.882 Y56.99 I-0.121 J3.682
X15.918 Y59.622 I-3.855 J5.085
X16.515 Y64.137 I-6.919 J3.213
X16.178 Y65.135 I-4.25 J-0.88
X14.434 Y66.15 I-1.748 J-0.997
G1 X12.258
G3 X11.488 Y65.407 Z-5.813 I0.028 J-0.8
G1 X11.482 Y65.323 Z-5.8
X10.89 Y57.006
X10.889 Y56.992
X10.888 Y56.977
G3 X11.66 Y56.15 Z-6 I0.8 J-0.027
G1 X13.822
G3 X16.042 Y56.978 I-0.104 J3.671
X18.082 Y59.595 I-3.826 J5.085
X18.695 Y64.116 I-6.919 J3.241
X18.357 Y65.13 I-4.321 J-0.88
X16.61 Y66.15 I-1.751 J-0.991
G1 X14.434
G3 X13.664 Y65.409 Z-5.814 I0.028 J-0.8
G1 X13.658 Y65.323 Z-5.8
X13.052 Y57.008
X13.051 Y56.992
X13.05 Y56.977
G3 X13.822 Y56.15 Z-6 I0.8 J-0.027
G1 X16.076
G3 X18.303 Y57.041 I-0.2 J3.729
X20.2 Y59.467 I-3.885 J4.993
X20.851 Y64.224 I-6.874 J3.363
X20.516 Y65.161 I-4.21 J-0.976
X18.788 Y66.15 I-1.732 J-1.022
G1 X16.61
G3 X15.84 Y65.401 Z-5.812 I0.028 J-0.8
G1 X15.835 Y65.323 Z-5.8
X15.305 Y57
X15.304 Y56.977
G3 X16.076 Y56.15 Z-6 I0.8 J-0.027
G1 X18.259
G3 X20.326 Y56.924 I-0.185 J3.642
X22.505 Y59.758 I-3.806 J5.182
X23.023 Y64.239 I-6.904 J3.067
X22.447 Y65.343 I-2.25 J-0.472
G1 X22.187 Y65.559
X21.896 Y65.729
G3 X19.915 Y66.148 I-1.949 J-4.323
G1 X18.788 Y66.15
G3 X18.017 Y65.401 Z-5.812 I0.028 J-0.8
G1 X18.012 Y65.323 Z-5.8
X17.489 Y57
X17.488 Y56.977
G3 X18.259 Y56.15 Z-6 I0.8 J-0.027
G1 X19.915
X20.395 Y56.175
X20.875 Y56.247
G3 X23.544 Y57.938 I-1.087 J4.669
X24.813 Y60.137 I-4.906 J4.297
G1 X24.82 Y60.208 Z-5.989
X24.814 Y60.279 Z-5.978
X24.794 Y60.348 Z-5.966
X24.762 Y60.412 Z-5.955
X24.719 Y60.469 Z-5.944
X24.667 Y60.517 Z-5.933
X24.606 Y60.554 Z-5.921
X24.54 Y60.58 Z-5.91
X24.47 Y60.592 Z-5.899
X24.4 Z-5.888
X24.33 Y60.579 Z-5.876
X24.27 Y60.556 Z-5.866
X24.214 Y60.524 Z-5.856
X24.165 Y60.482 Z-5.846
X23.962 Y60.28 Z-5.8
X20.787 Y57.117
X20.563 Y56.894 Z-5.85
G3 X20.875 Y56.247 Z-6 I0.268 J-0.269
X24.697 Y59.705 I-0.961 J4.904
X23.995 Y64.025 I-4.735 J1.447
X21.896 Y65.728 I-3.938 J-2.708
G1 X21.952 Y65.845
G3 X21.315 Y66.83 I-1.627 J-0.353
X19.2 Y67.936 I-3.678 J-4.46
X16.926 Y68.488 I-4.245 J-12.531
X11.869 Y68.918 I-5.706 J-37.162
X2.652 Y69.026 I-7.749 J-267.851
G1 X-0.421 Y69.035
X-5.542 Y69.037
X-16.809 Y69.038
G3 X-19.609 Y68.887 I-0.409 J-18.484
X-23.762 Y67.326 I1.251 J-9.632
X-25.858 Y65.148 I4.721 J-6.641
X-21.896 Y54.331 I6.023 J-3.928
X-18.514 Y53.644 I5.193 J16.896
X-12.38 Y53.326 I6.246 J61.199
X-2.137 Y53.265 I8.41 J549.226
G1 X4.009 Y53.263
X15.276 Y53.262
G3 X18.823 Y53.322 I0.917 J50.879
X22.788 Y54.389 I-0.799 J10.866
X26.668 Y58.841 I-3.56 J7.019
X26.149 Y64.54 I-6.933 J2.242
X24.762 Y66.721 I-15.307 J-8.199
X20.421 Y69.993 I-8.275 J-6.463
X17.127 Y71.021 I-6.535 J-15.14
X12.073 Y71.662 I-6.732 J-32.824
X2.859 Y71.894 I-8.419 J-151.561
X-2.262 Y71.919 I-4.542 J-405.862
G1 X-5.335 Y71.923
X-11.481 Y71.925
G3 X-16.602 Y71.892 I-1.505 J-164.323
X-21.019 Y71.275 I0.465 J-19.445
X-25.977 Y68.624 I3.172 J-11.896
X-29.276 Y62.139 I6.782 J-7.531
X-24.14 Y52.784 I9.488 J-0.878
X-20.076 Y51.327 I7.053 J13.281
G1 X-19.142 Y51.131
X-18.131 Y50.965
X-17.115 Y50.834
G3 X-8.934 Y50.44 I8.095 J83.037
X1.309 Y50.378 I8.545 J567.314
G1 X6.43 Y50.375
X13.6
G3 X17.669 Y50.467 I0.747 J57.107
X22.079 Y51.363 I-1.139 J16.898
X26.865 Y54.583 I-3.911 J10.98
X29.105 Y59.065 I-7.683 J6.641
X28.55 Y64.877 I-9.822 J1.994
X23.013 Y71.431 I-11.991 J-4.514
X18.377 Y73.385 I-9.053 J-15.006
X13.392 Y74.298 I-7.797 J-28.5
X5.212 Y74.724 I-8.674 J-87.812
X-11.176 Y74.804 I-11.931 J-767.659
G1 X-12.2 Y74.811
G3 X-17.318 Y74.646 I-0.598 J-61.127
X-22.126 Y73.685 I1.807 J-21.532
X-27.661 Y70.456 I4.733 J-14.471
X-31.645 Y62.701 I8.683 J-9.361
X-26.727 Y51.55 I11.928 J-1.399
X-22.166 Y49.244 I9.356 J12.837
X-17.457 Y48.167 I7.954 J23.955
G1 X-16.442 Y48.033
X-15.423 Y47.926
G3 X-6.215 Y47.549 I9.181 J111.558
X5.052 Y47.49 I9.358 J712.243
G1 X10.173 Y47.488
G3 X16.317 Y47.576 I1.311 J122.421
X20.781 Y48.224 I-1.4 J25.342
X26.424 Y50.817 I-3.838 J15.787
X30.98 Y56.822 I-7.795 J10.647
X31.119 Y64.974 I-12.021 J4.282
X25.721 Y72.646 I-14.363 J-4.371
X20.291 Y75.535 I-11.509 J-15.083
X14.368 Y76.932 I-9.544 J-27.221
X6.201 Y77.541 I-9.418 J-71.16
X-5.064 Y77.682 I-9.862 J-338.588
G1 X-6.089 Y77.691
G3 X-14.283 Y77.645 I-2.438 J-292.288
X-19.376 Y77.144 I1.285 J-39.254
X-24.94 Y75.387 I3.756 J-21.573
X-31.081 Y70.463 I7.372 J-15.489
X-34.169 Y60.048 I11.954 J-9.209
X-28.468 Y49.721 I14.614 J1.331
X-23.399 Y46.915 I11.37 J14.557
X-17.586 Y45.443 I9.614 J25.743
X-10.448 Y44.813 I9.006 J61.315
X-0.208 Y44.627 I9.608 J247.746
X13.108 Y44.622 I6.994 J880.999
X18.215 Y44.973 I-0.787 J48.751
G1 X19.227 Y45.133
X20.196 Y45.32
X21.076 Y45.525
G3 X26.465 Y47.741 I-4.892 J19.561
X32.513 Y54.081 I-8.376 J14.046
X33.676 Y65.239 I-13.667 J7.064
X28.281 Y73.881 I-16.805 J-4.487
X22.628 Y77.461 I-13.806 J-15.548
X15.816 Y79.468 I-11.523 J-26.54
X8.694 Y80.259 I-9.833 J-56.068
X-2.568 Y80.546 I-10.74 J-200.707
X-12.81 Y80.536 I-4.787 J-346.544
X-18.929 Y80.01 I1.13 J-49.015
X-24.585 Y78.46 I4.24 J-26.564
X-31.321 Y74.103 I7.796 J-19.437
G1 X-31.836 Y73.57
X-32.329 Y73.026
G3 X-36.783 Y61.162 I13.382 J-11.792
X-31.064 Y48.546 I17.283 J0.231
X-25.597 Y44.97 I13.732 J15.022
X-18.832 Y42.888 I11.558 J25.531
X-11.715 Y42.059 I9.883 J53.881
G1 X-10.693 Y41.994
X-9.669 Y41.945
G3 X3.643 Y41.736 I11.725 J322.698
X13.885 Y41.799 I3.541 J254.916
X18.98 Y42.299 I-2.029 J46.949
X24.656 Y43.871 I-4.315 J26.61
X31.363 Y48.242 I-7.831 J19.348
X35.634 Y54.756 I-12.957 J13.153
X35.526 Y67.926 I-17.207 J6.443
X29.46 Y76.338 I-18.973 J-7.288
X22.853 Y80.278 I-15.599 J-18.646
X15.969 Y82.234 I-12.478 J-30.838
X7.831 Y83.133 I-11.041 J-62.619
G1 X6.808 Y83.195
X5.785 Y83.241
X4.761 Y83.281
G3 X-11.625 Y83.418 I-11.333 J-373.366
X-17.753 Y82.985 I1.411 J-63.478
X-24.711 Y81.312 I4.068 J-32.226
X-31.296 Y77.649 I8.516 J-23.058
X-37.823 Y69.141 I13.276 J-16.943
G1 X-38.111 Y68.398
X-38.374 Y67.65
X-38.607 Y66.894
G3 X-33.257 Y47.016 I19.113 J-5.515
X-27.268 Y42.807 I15.998 J16.396
X-20.515 Y40.448 I13.084 J26.612
X-12.412 Y39.292 I11.431 J51.175
X-6.274 Y38.983 I8.652 J110.485
X11.137 Y38.868 I11.937 J490.233
X18.284 Y39.387 I-0.885 J61.633
X24.251 Y40.823 I-4.702 J32.663
X31.678 Y44.96 I-8.095 J23.266
X37.985 Y53.566 I-13.53 J16.531
X37.789 Y69.377 I-19.698 J7.663
X31.411 Y78.18 I-21.349 J-8.758
X23.587 Y82.903 I-17.708 J-20.488
X15.705 Y85.085 I-13.911 J-34.926
X9.609 Y85.84 I-10.624 J-60.778
X-1.647 Y86.279 I-11.923 J-161.294
X-12.913 Y86.221 I-4.589 J-203.352
X-19.025 Y85.608 I2.813 J-58.821
X-25.94 Y83.757 I5.469 J-34.273
X-33.758 Y79.1 I9.845 J-25.419
X-37.626 Y74.89 I16.322 J-18.877
X-41.828 Y64.457 I18.952 J-13.696
X-35.696 Y45.699 I22.405 J-3.057
X-28.486 Y40.405 I18.468 J17.592
X-20.776 Y37.692 I14.716 J29.51
G1 X-19.777 Y37.469
X-18.771 Y37.274
G3 X-8.59 Y36.232 I12.685 J73.703
X0.625 Y35.997 I9.955 J209.136
X11.891 Y36.033 I4.704 J285.375
X19.027 Y36.689 I-2.013 J61.066
X25.941 Y38.545 I-5.64 J34.817
X30.518 Y40.828 I-10.447 J26.671
X38.648 Y48.947 I-13.032 J21.179
X40.601 Y69.507 I-20.254 J12.296
X34.003 Y79.463 I-23.996 J-8.738
X29.989 Y82.631 I-19.053 J-20.012
X20.668 Y86.782 I-18.136 J-28.182
X12.636 Y88.354 I-13.545 J-47.919
X2.421 Y89.052 I-12.372 J-105.893
X-10.893 Y89.141 I-8.259 J-239.592
X-19.051 Y88.429 I1.799 J-67.642
X-26.949 Y86.3 I6.017 J-38.036
X-34.887 Y81.682 I11.156 J-28.314
X-42.37 Y72.082 I17.101 J-21.044
X-44.252 Y56.555 I23.224 J-10.692
X-42.842 Y51.852 I25.301 J5.022
X-34.638 Y41.112 I24.278 J10.042
X-26.632 Y36.613 I18.694 J23.894
X-17.731 Y34.286 I15.101 J39.58
X-8.561 Y33.387 I12.349 J78.707
X0.653 Y33.124 I10.518 J207.19
X11.918 Y33.188 I4.327 J229.862
X19.052 Y33.872 I-2.702 J65.711
X26.949 Y36.002 I-6.022 J38.029
X34.888 Y40.619 I-11.133 J28.276
X42.375 Y50.237 I-17.133 J21.06
G1 X42.781 Y51.176
X43.153 Y52.128
G3 X42.862 Y71.145 I-24.922 J9.13
X36.047 Y81.258 I-26.299 J-10.372
X26.732 Y87.493 I-22.148 J-23.012
X19.966 Y89.837 I-16.275 J-36.03
X9.866 Y91.469 I-14.886 J-60.075
X-0.361 Y91.987 I-12.15 J-138.499
X-12.649 Y91.914 I-5.117 J-170.658
X-19.774 Y91.136 I3.611 J-66.115
X-28.613 Y88.586 I6.941 J-40.649
G1 X-29.549 Y88.168
G3 X-40.861 Y79.554 I13.092 J-28.928
X-45.851 Y70.666 I22.921 J-18.714
X-43.416 Y46.984 I26.511 J-9.24
G1 X-42.871 Y46.117
G3 X-32.506 Y36.402 I25.296 J16.601
X-23.042 Y32.569 I18.659 J32.476
X-13.974 Y30.967 I14.446 J55.321
X-3.753 Y30.348 I12.53 J122.186
X2.392 Y30.231 I7.613 J237.064
X12.632 Y30.381 I2.614 J171.222
X20.763 Y31.345 I-3.255 J62.193
X29.534 Y34.12 I-7.684 J39.536
X38.777 Y40.465 I-13.459 J29.514
X45.102 Y49.709 I-21.002 J21.155
X45.56 Y71.687 I-26.887 J11.555
X37.65 Y83.496 I-29.15 J-10.973
X27.42 Y90.196 I-24.114 J-25.66
G1 X26.48 Y90.603
G3 X15.637 Y93.573 I-18.353 J-45.733
X6.477 Y94.566 I-13.572 J-82.469
X-10.928 Y94.837 I-11.693 J-191.764
X-19.084 Y94.085 I2.893 J-75.979
X-23.102 Y93.286 I8.618 J-53.856
X-34.443 Y88.676 I9.058 J-38.536
X-42.259 Y82.113 I17.928 J-29.287
X-49.694 Y66.607 I23.831 J-20.963
X-49.724 Y56.41 I30.72 J-5.189
X-40.169 Y38.705 I30.736 J5.158
X-30.854 Y32.454 I23.621 J25.135
X-21.146 Y29.261 I18.581 J40.128
X-13.049 Y28.038 I13.998 J65.278
X-0.777 Y27.416 I13.809 J151.006
X11.512 Y27.479 I5.162 J190.027
X19.661 Y28.305 I-3.292 J73.073
X29.494 Y31.095 I-7.349 J44.621
X35.792 Y34.499 I-14.481 J34.328
X46.139 Y45.672 I-18.503 J27.511
X48.204 Y72.395 I-27.903 J15.597
X45.043 Y78.814 I-30.127 J-10.845
X33.415 Y90.158 I-30.053 J-19.174
X23.144 Y94.706 I-22.091 J-36.018
X13.126 Y96.781 I-17.118 J-57.438
X1.896 Y97.638 I-14.323 J-113.656
G1 X0.873 Y97.681
G3 X-11.416 Y97.661 I-5.864 J-168.28
X-20.576 Y96.675 I3.327 J-73.948
X-30.395 Y93.827 I8.465 J-47.544
X-40.819 Y87.407 I15.156 J-36.28
X-45.092 Y82.999 I24.247 J-27.781
X-52.867 Y61.251 I26.403 J-21.704
X-43.442 Y38.098 I33.744 J0.242
G1 X-42.731 Y37.361
G3 X-30.877 Y29.442 I26.697 J27.133
X-20.111 Y26.203 I19.526 J45.386
X-10.975 Y25.017 I14.568 J76.455
X2.328 Y24.501 I13.821 J184.58
G1 X3.352 Y24.486
X4.377 Y24.483
G3 X15.63 Y24.934 I0.869 J118.946
X23.706 Y26.287 I-6.102 J61.211
X34.201 Y30.304 I-10.393 J42.87
X45.176 Y39.397 I-17.836 J32.696
X48.096 Y43.6 I-28.247 J22.745
X51.156 Y72.241 I-29.825 J17.67
X42.036 Y86.881 I-34.621 J-11.407
G1 X41.306 Y87.599
X40.551 Y88.291
X39.777 Y88.962
G3 X27.454 Y96.162 I-27.368 J-32.695
X16.596 Y99.096 I-19.759 J-51.563
X6.425 Y100.261 I-15.337 J-88.951
X-7.906 Y100.616 I-11.437 J-172.271
X-19.133 Y99.761 I1.049 J-87.949
X-28.096 Y97.647 I8.449 J-55.865
X-40.742 Y91.023 I13.521 J-41.201
X-50.793 Y79.535 I23.551 J-30.746
X-54.311 Y51.806 I31.755 J-18.117
X-43.002 Y33.861 I35.738 J9.986
X-30.827 Y26.42 I27.396 J31.146
X-20.013 Y23.333 I20.109 J49.965
X-9.852 Y22.088 I15.52 J84.55
X4.477 Y21.626 I13.448 J194.481
X16.748 Y22.215 I0.832 J110.686
X25.794 Y23.949 I-7.053 J61.263
X37.063 Y28.765 I-12.256 J44.276
X48.964 Y39.863 I-20.484 J33.896
X53.072 Y75.033 I-30.798 J21.422
X46.253 Y86.394 I-36.165 J-13.979
X33.466 Y96.481 I-32.142 J-27.597
X21.995 Y100.811 I-23.592 J-45.14
X21.015 Y101.003 I-1.213 J-3.585
G1 X-23.616 Y101
G3 X-28.862 Y100.157 I0.673 J-20.929
X-38.214 Y96.053 I10.894 J-37.535
X-53.669 Y80.033 I21.081 J-35.802
X-57.712 Y68.476 I35.33 J-18.846
X-49.567 Y36.746 I38.448 J-7.041
X-37.056 Y26.323 I32.561 J26.364
X-25.678 Y21.757 I24.045 J43.464
X-24.002 Y21.323 I6.847 J22.997
G1 X-23.845 Y21.306
X-23.687 Y21.3
X23.616
G3 X28.832 Y22.136 I-0.666 J20.86
X38.188 Y26.233 I-10.927 J37.679
X53.656 Y42.242 I-21.093 J35.856
X57.739 Y53.786 I-35.954 J19.213
X53.056 Y81.485 I-40.053 J7.472
X41.685 Y94.516 I-37.577 J-21.311
X38.336 Y96.874 I-25.951 J-33.303
X30.714 Y100.851 I-26.771 J-42.012
G1 X30.469 Y100.933
X30.215 Y100.983
X29.956 Y101
X21.015
G3 X20.362 Y100.621 I0.028 J-0.8
G1 X20.307 Y100.533 Z-5.993
X20.253 Y100.445 Z-5.973
X20.201 Y100.361 Z-5.939
X20.152 Y100.281 Z-5.893
X20.106 Y100.207 Z-5.835
X20.065 Y100.14 Z-5.766
X20.028 Y100.082 Z-5.687
X19.998 Y100.032 Z-5.6
X19.973 Y99.993 Z-5.506
X19.956 Y99.964 Z-5.407
X19.945 Y99.947 Z-5.304
X19.941 Y99.941 Z-5.2
G0 Z-4.1
X22.175 Y21.93
Z-4.4
G1 Z-5.2 F1000
X22.181 Y21.927 Z-5.304
X22.198 Y21.916 Z-5.407
X22.227 Y21.899 Z-5.506
X22.267 Y21.875 Z-5.6
X22.317 Y21.846 Z-5.687
X22.376 Y21.81 Z-5.766
X22.444 Y21.77 Z-5.835
X22.519 Y21.726 Z-5.893
X22.599 Y21.678 Z-5.939
X22.684 Y21.627 Z-5.973
X22.773 Y21.575 Z-5.993
X22.862 Y21.521 Z-6
G3 X23.616 Y21.3 I0.809 J1.36
G1 X31.528
G3 X35.617 Y22.129 I-0.477 J12.856
X40.884 Y24.704 I-8.941 J24.965
X53.998 Y37.464 I-22.829 J36.579
X59.88 Y50.7 I-35.705 J23.794
G1 X59.894 Y50.861
X59.9 Y51.022
Y68.746
G3 X58.889 Y74.889 I-22.701 J-0.583
X54.127 Y85.059 I-38.027 J-11.607
X39.651 Y99.322 I-39.268 J-25.376
G1 X38.785 Y99.869
X37.904 Y100.391
X37.287 Y100.741
X36.975 Y100.883
X36.643 Y100.971
X36.302 Y101
X29.956
G3 X29.304 Y100.621 I0.028 J-0.8
G1 X29.249 Y100.533 Z-5.993
X29.195 Y100.445 Z-5.973
X29.143 Y100.361 Z-5.939
X29.094 Y100.281 Z-5.893
X29.048 Y100.207 Z-5.835
X29.006 Y100.14 Z-5.766
X28.97 Y100.082 Z-5.687
X28.939 Y100.032 Z-5.6
X28.915 Y99.993 Z-5.506
X28.897 Y99.964 Z-5.407
X28.887 Y99.947 Z-5.304
X28.883 Y99.941 Z-5.2
G0 Z-4.1
X59.27 Y67.305
Z-4.4
G1 Z-5.2 F1000
X59.273 Y67.311 Z-5.304
X59.284 Y67.329 Z-5.407
X59.301 Y67.358 Z-5.506
X59.325 Y67.397 Z-5.6
X59.354 Y67.447 Z-5.687
X59.39 Y67.507 Z-5.766
X59.43 Y67.574 Z-5.835
X59.474 Y67.649 Z-5.893
X59.522 Y67.73 Z-5.939
X59.573 Y67.815 Z-5.973
X59.625 Y67.903 Z-5.993
X59.679 Y67.993 Z-6
G3 X59.9 Y68.746 I-1.36 J0.809
G1 Y77.144
G3 X59.177 Y80.827 I-12.602 J-0.56
X56.717 Y86.038 I-24.467 J-8.369
X48.998 Y95.554 I-38.598 J-23.416
X42.468 Y100.803 I-33.01 J-34.386
G1 X42.18 Y100.908
X41.883 Y100.977
X41.58 Y101
X36.302
G3 X35.53 Y100.173 Z-5.8 I0.028 J-0.8
X35.761 Y99.638 I0.8 J0.027
G1 X58.532 Y76.61
G3 X59.073 Y76.373 I0.569 J0.563
X59.9 Y77.144 Z-6 I0.027 J0.8
G1 Y82.903
G3 X59.196 Y86.195 I-9.83 J-0.381
X57.4 Y89.779 I-18.505 J-7.031
X52.307 Y96.179 I-32.204 J-20.402
X47.496 Y100.563 I-35.19 J-33.778
X46.249 Y101 I-1.247 J-1.562
G1 X41.58
G3 X40.808 Y100.173 Z-5.8 I0.028 J-0.8
X41.046 Y99.631 I0.8 J0.027
G1 X58.538 Y82.362
G3 X59.073 Y82.131 I0.562 J0.569
X59.9 Y82.903 Z-6 I0.027 J0.8
G1 Y87.942
G3 X59.002 Y91.366 I-8.92 J-0.508
X57.079 Y94.673 I-16.702 J-7.503
X51.866 Y100.462 I-30.029 J-21.803
X50.508 Y100.999 I-1.345 J-1.413
G1 X46.249 Y101
G3 X45.478 Y100.173 Z-5.8 I0.028 J-0.8
X45.725 Y99.622 I0.8 J0.027
G1 X58.548 Y87.391
G3 X59.073 Y87.17 I0.552 J0.579
X59.9 Y87.942 Z-6 I0.027 J0.8
G1 Y92.261
G3 X59.001 Y95.644 I-8.098 J-0.342
X57.248 Y98.529 I-14.457 J-6.808
G1 X56.654 Y99.305
X56.122 Y99.945
X55.859 Y100.207
X55.553 Y100.416
X55.213 Y100.564
G3 X54.221 Y100.022 Z-5.8 I-0.225 J-0.768
X54.287 Y99.412 I0.768 J-0.225
G1 X58.399 Y91.904
G3 X59.073 Y91.489 I0.702 J0.384
X59.9 Y92.261 Z-6 I0.027 J0.8
X59.768 Y95.26 I-20.83 J0.585
X58.915 Y97.539 I-8.75 J-1.976
G1 X58.411 Y98.259
G3 X56.342 Y100.07 I-5.924 J-4.683
G1 X55.503 Y100.463
G3 X54.065 Y100.882 I-3.756 J-10.22
X52.147 Y101.002 I-2.293 J-21.34
G1 X50.508 Y101
G3 X49.856 Y100.621 I0.028 J-0.8
G1 X49.801 Y100.533 Z-5.993
X49.747 Y100.445 Z-5.973
X49.695 Y100.361 Z-5.939
X49.646 Y100.281 Z-5.893
X49.6 Y100.207 Z-5.835
X49.558 Y100.14 Z-5.766
X49.522 Y100.082 Z-5.687
X49.491 Y100.032 Z-5.6
X49.467 Y99.993 Z-5.506
X49.449 Y99.964 Z-5.407
X49.439 Y99.947 Z-5.304
X49.435 Y99.941 Z-5.2
G0 Z-4.1
X30.087 Y21.93
Z-4.4
G1 Z-5.2 F1000
X30.092 Y21.927 Z-5.304
X30.11 Y21.916 Z-5.407
X30.139 Y21.899 Z-5.506
X30.179 Y21.875 Z-5.6
X30.229 Y21.846 Z-5.687
X30.288 Y21.81 Z-5.766
X30.356 Y21.77 Z-5.835
X30.43 Y21.726 Z-5.893
X30.511 Y21.678 Z-5.939
X30.596 Y21.627 Z-5.973
X30.684 Y21.575 Z-5.993
X30.774 Y21.521 Z-6
G3 X31.528 Y21.3 I0.809 J1.36
G1 X37.414
G3 X40.734 Y22.026 I-0.411 J9.84
X44.259 Y23.812 I-6.988 J18.161
X50.605 Y28.968 I-19.472 J30.448
X59.72 Y42.03 I-31.915 J31.982
G1 X59.819 Y42.297
X59.88 Y42.575
X59.9 Y42.859
Y51.022
G3 X59.073 Y51.793 Z-5.8 I-0.8 J-0.028
X58.46 Y51.474 I0.027 J-0.8
G1 X36.802 Y22.579
G3 X36.642 Y22.127 I0.64 J-0.48
X37.414 Y21.3 Z-6 I0.8 J-0.027
G1 X42.317
G3 X45.573 Y22.095 I-0.375 J8.603
X48.603 Y23.789 I-6.626 J15.403
X53.948 Y28.486 I-18.446 J26.38
X59.613 Y35.952 I-33.186 J31.063
G1 X59.771 Y36.276
X59.867 Y36.624
X59.9 Y36.983
Y42.859
G3 X59.073 Y43.63 Z-5.8 I-0.8 J-0.028
X58.478 Y43.334 I0.027 J-0.8
G1 X41.723 Y22.602
G3 X41.545 Y22.127 I0.622 J-0.503
X42.317 Y21.3 Z-6 I0.8 J-0.027
G1 X46.632
G3 X49.878 Y22.128 I-0.272 J7.841
X53.25 Y24.246 I-6.828 J14.614
X58.274 Y29.285 I-19.924 J24.89
G1 X58.92 Y30.081
X59.49 Y30.828
G3 X59.9 Y32.042 I-1.59 J1.213
G1 Y36.983
G3 X59.073 Y37.755 Z-5.8 I-0.8 J-0.028
X58.487 Y37.469 I0.027 J-0.8
G1 X46.047 Y22.613
G3 X45.861 Y22.127 I0.613 J-0.514
X46.632 Y21.3 Z-6 I0.8 J-0.027
G1 X50.708
G3 X53.714 Y22.073 I-0.249 J7.202
X56.644 Y23.925 I-5.983 J12.709
X59.488 Y26.606 I-13.123 J16.768
G1 X59.648 Y26.907
X59.762 Y27.226
X59.82 Y27.56
X59.876 Y28.196
X59.893 Y28.436
X59.9 Y29.156
Y32.042
G3 X59.073 Y32.813 Z-5.8 I-0.8 J-0.028
X58.489 Y32.53 I0.027 J-0.8
G1 X50.125 Y22.615
G3 X49.937 Y22.127 I0.611 J-0.516
X50.708 Y21.3 Z-6 I0.8 J-0.027
G1 X52.147
G3 X54.065 Y21.418 I-0.274 J20.019
X56.464 Y22.297 I-1.85 J8.774
G1 X56.702 Y22.468
X57.421 Y23.007
X57.598 Y23.157
X58.141 Y23.7
X58.297 Y23.877
X58.465 Y24.117
X58.943 Y24.837
G3 X59.686 Y26.757 I-5.691 J3.304
X59.82 Y27.56 I-2.313 J0.8
X59.5 Y28.243 I-0.799 J0.042
G1 X59.416 Y28.306 Z-5.993
X59.334 Y28.367 Z-5.973
X59.254 Y28.427 Z-5.939
X59.179 Y28.483 Z-5.893
X59.11 Y28.535 Z-5.835
X59.047 Y28.582 Z-5.766
X58.991 Y28.623 Z-5.687
X58.945 Y28.658 Z-5.6
X58.908 Y28.686 Z-5.506
X58.881 Y28.706 Z-5.407
X58.864 Y28.718 Z-5.304
X58.859 Y28.722 Z-5.2
G0 Z-4.1
X-22.175 Y100.37
Z-4.4
G1 Z-5.2 F1000
X-22.181 Y100.373 Z-5.304
X-22.198 Y100.384 Z-5.407
X-22.227 Y100.401 Z-5.506
X-22.267 Y100.425 Z-5.6
X-22.317 Y100.454 Z-5.687
X-22.376 Y100.49 Z-5.766
X-22.444 Y100.53 Z-5.835
X-22.519 Y100.574 Z-5.893
X-22.599 Y100.622 Z-5.939
X-22.684 Y100.673 Z-5.973
X-22.773 Y100.725 Z-5.993
X-22.862 Y100.779 Z-6
G3 X-23.616 Y101 I-0.809 J-1.36
G1 X-31.528
G3 X-35.606 Y100.177 I0.469 J-12.835
X-40.864 Y97.608 I8.894 J-24.876
X-56.089 Y81.343 I22.812 J-36.611
X-59.881 Y71.496 I36.914 J-19.868
G1 X-59.894 Y71.337
X-59.9 Y71.179
Y54.35
G3 X-59.13 Y49.145 I21.793 J0.566
X-55.057 Y39.784 I35.158 J9.729
X-43.348 Y27.056 I36.993 J22.283
X-33.14 Y21.359 I27.989 J38.158
G1 X-32.88 Y21.317
X-32.62 Y21.3
X-23.687
G3 X-23.035 Y21.679 I-0.028 J0.8
G1 X-22.98 Y21.767 Z-5.993
X-22.926 Y21.855 Z-5.973
X-22.874 Y21.939 Z-5.939
X-22.824 Y22.019 Z-5.893
X-22.778 Y22.093 Z-5.835
X-22.737 Y22.16 Z-5.766
X-22.701 Y22.218 Z-5.687
X-22.67 Y22.268 Z-5.6
X-22.646 Y22.307 Z-5.506
X-22.628 Y22.336 Z-5.407
X-22.617 Y22.353 Z-5.304
X-22.614 Y22.359 Z-5.2
G0 Z-4.1
X-59.27 Y55.791
Z-4.4
G1 Z-5.2 F1000
X-59.273 Y55.785 Z-5.304
X-59.284 Y55.768 Z-5.407
X-59.301 Y55.739 Z-5.506
X-59.325 Y55.699 Z-5.6
X-59.354 Y55.649 Z-5.687
X-59.39 Y55.59 Z-5.766
X-59.43 Y55.522 Z-5.835
X-59.474 Y55.447 Z-5.893
X-59.522 Y55.367 Z-5.939
X-59.573 Y55.281 Z-5.973
X-59.625 Y55.193 Z-5.993
X-59.679 Y55.103 Z-6
G3 X-59.9 Y54.35 I1.36 J-0.809
G1 Y46.192
G3 X-59.082 Y42.19 I12.509 J0.473
X-56.513 Y37.002 I24.208 J8.754
X-48.551 Y27.694 I36.287 J22.983
X-39.929 Y21.554 I31.974 J35.777
G1 X-39.621 Y21.414
X-39.293 Y21.329
X-38.955 Y21.3
X-32.62
G3 X-31.848 Y22.127 Z-5.8 I-0.028 J0.8
X-32.11 Y22.691 I-0.8 J-0.027
G1 X-58.562 Y46.756
G3 X-59.073 Y46.963 I-0.538 J-0.592
X-59.9 Y46.192 Z-6 I-0.027 J-0.8
G1 Y40.433
G3 X-59.2 Y37.197 I9.598 J0.382
X-57.481 Y33.793 I17.515 J6.708
X-52.323 Y27.449 I30.267 J19.338
X-45.106 Y21.498 I33.401 J33.155
G1 X-44.818 Y21.392
X-44.521 Y21.323
X-44.217 Y21.3
X-38.955
G3 X-38.184 Y22.127 Z-5.8 I-0.028 J0.8
X-38.445 Y22.691 I-0.8 J-0.027
G1 X-58.562 Y40.997
G3 X-59.073 Y41.205 I-0.538 J-0.592
X-59.9 Y40.433 Z-6 I-0.027 J-0.8
G1 Y35.634
G3 X-59.156 Y32.469 I8.415 J0.307
X-57.007 Y28.772 I16.135 J6.908
X-52.163 Y23.503 I27.87 J20.757
G1 X-51.401 Y22.818
X-50.621 Y22.155
X-50.124 Y21.75
G3 X-48.86 Y21.3 I1.264 J1.55
G1 X-44.217
G3 X-43.446 Y22.127 Z-5.8 I-0.028 J0.8
X-43.707 Y22.691 I-0.8 J-0.027
G1 X-58.562 Y36.198
G3 X-59.073 Y36.406 I-0.538 J-0.592
X-59.9 Y35.634 Z-6 I-0.027 J-0.8
G1 Y31.315
G3 X-59.082 Y28.094 I7.786 J0.262
X-56.977 Y24.736 I14.531 J6.771
X-54.429 Y21.917 I21.108 J16.512
X-53.173 Y21.341 I1.406 J1.41
G1 X-53.106 Y21.336
X-52.387 Y21.301
X-52.147 Y21.3
X-48.86
G3 X-48.089 Y22.127 Z-5.8 I-0.028 J0.8
X-48.353 Y22.694 I-0.8 J-0.027
G1 X-58.565 Y31.882
G3 X-59.073 Y32.087 I-0.535 J-0.595
X-59.9 Y31.315 Z-6 I-0.027 J-0.8
G1 Y29.156
X-59.893 Y28.436
G3 X-59.759 Y26.996 I15.734 J0.739
X-59.41 Y25.796 I57.871 J16.173
G1 X-59.298 Y25.557
X-59.074 Y25.077
X-58.943 Y24.837
X-58.465 Y24.117
X-58.297 Y23.877
X-58.141 Y23.7
X-57.598 Y23.157
G3 X-56.37 Y22.242 I7.622 J8.941
X-54.065 Y21.417 I4.282 J8.337
G1 X-53.346 Y21.354
X-53.173 Y21.341
G3 X-52.494 Y21.669 I0.033 J0.799
G1 X-52.432 Y21.753 Z-5.993
X-52.372 Y21.836 Z-5.973
X-52.313 Y21.916 Z-5.939
X-52.258 Y21.992 Z-5.893
X-52.207 Y22.062 Z-5.835
X-52.16 Y22.126 Z-5.766
X-52.12 Y22.182 Z-5.687
X-52.086 Y22.229 Z-5.6
X-52.058 Y22.266 Z-5.506
X-52.038 Y22.293 Z-5.407
X-52.026 Y22.31 Z-5.304
X-52.022 Y22.315 Z-5.2
G0 Z-4.1
X-30.087 Y100.37
Z-4.4
G1 Z-5.2 F1000
X-30.092 Y100.373 Z-5.304
X-30.11 Y100.384 Z-5.407
X-30.139 Y100.401 Z-5.506
X-30.179 Y100.425 Z-5.6
X-30.229 Y100.454 Z-5.687
X-30.288 Y100.49 Z-5.766
X-30.356 Y100.53 Z-5.835
X-30.43 Y100.574 Z-5.893
X-30.511 Y100.622 Z-5.939
X-30.596 Y100.673 Z-5.973
X-30.684 Y100.725 Z-5.993
X-30.774 Y100.779 Z-6
G3 X-31.528 Y101 I-0.809 J-1.36
G1 X-37.414
G3 X-40.734 Y100.274 I0.411 J-9.837
X-44.265 Y98.485 I7.004 J-18.202
X-50.611 Y93.33 I19.46 J-30.439
X-59.722 Y80.258 I31.869 J-31.922
G1 X-59.82 Y79.992
X-59.88 Y79.715
X-59.9 Y79.432
Y71.179
G3 X-59.073 Y70.407 Z-5.8 I0.8 J0.028
X-58.46 Y70.728 I-0.027 J0.8
G1 X-36.801 Y99.722
G3 X-36.642 Y100.173 I-0.641 J0.479
X-37.414 Y101 Z-6 I-0.8 J0.027
G1 X-42.317
G3 X-45.574 Y100.206 I0.374 J-8.608
X-48.605 Y98.512 I6.625 J-15.408
X-53.949 Y93.815 I18.405 J-26.335
X-59.613 Y86.346 I33.157 J-31.028
G1 X-59.771 Y86.023
X-59.868 Y85.675
X-59.9 Y85.316
Y79.432
G3 X-59.073 Y78.661 Z-5.8 I0.8 J0.028
X-58.478 Y78.957 I-0.027 J0.8
G1 X-41.722 Y99.698
G3 X-41.545 Y100.173 I-0.622 J0.503
X-42.317 Y101 Z-6 I-0.8 J0.027
G1 X-46.632
G3 X-49.876 Y100.174 I0.269 J-7.838
X-53.242 Y98.063 I6.808 J-14.591
X-58.265 Y93.028 I19.87 J-24.848
G1 X-58.911 Y92.232
X-59.49 Y91.473
G3 X-59.9 Y90.26 I1.59 J-1.214
G1 Y85.316
G3 X-59.073 Y84.545 Z-5.8 I0.8 J0.028
X-58.487 Y84.831 I-0.027 J0.8
G1 X-46.047 Y99.687
G3 X-45.861 Y100.173 I-0.613 J0.514
X-46.632 Y101 Z-6 I-0.8 J0.027
G1 X-50.708
G3 X-53.709 Y100.231 I0.245 J-7.196
X-56.634 Y98.385 I5.961 J-12.685
X-59.267 Y95.955 I14.535 J-18.393
X-59.82 Y94.742 I1.434 J-1.386
X-59.9 Y93.46 I21.435 J-1.99
G1 Y90.26
G3 X-59.073 Y89.488 Z-5.8 I0.8 J0.028
X-58.489 Y89.772 I-0.027 J0.8
G1 X-50.125 Y99.685
G3 X-49.937 Y100.173 I-0.611 J0.516
X-50.708 Y101 Z-6 I-0.8 J0.027
G1 X-52.147
G3 X-54.065 Y100.882 I0.278 J-20.118
X-56.464 Y100.003 I1.642 J-8.202
X-58.004 Y98.742 I4.578 J-7.158
X-59.044 Y97.302 I5.61 J-5.15
X-59.788 Y95.141 I8.11 J-4.001
G1 X-59.82 Y94.742
X-59.821 Y94.7 Z-5.999
X-59.807 Y94.615 Z-5.989
X-59.794 Y94.532 Z-5.971
X-59.782 Y94.452 Z-5.943
X-59.74 Y94.371 Z-5.899
X-59.702 Y94.296 Z-5.844
X-59.667 Y94.228 Z-5.779
X-59.618 Y94.179 Z-5.701
X-59.576 Y94.137 Z-5.615
X-59.543 Y94.103 Z-5.521
X-59.519 Y94.079 Z-5.422
X-59.504 Y94.064 Z-5.32
X-59.5 Y94.059 Z-5.215
G0 Z-3.2
X-19.041 Y62.284
Z-3.5
G3 X-20.891 Y62.119 Z-3.577 I-0.874 J-0.659 F333.3
X-19.931 Y60.532 Z-3.655 I0.975 J-0.494
X-18.929 Y62.091 Z-3.732 I0.015 J1.092
X-20.767 Y62.305 Z-3.81 I-0.986 J-0.466
X-20.151 Y60.562 Z-3.887 I0.852 J-0.679
X-18.859 Y61.88 Z-3.965 I0.235 J1.062
X-20.609 Y62.46 Z-4.042 I-1.056 J-0.256
X-20.361 Y60.635 Z-4.12 I0.693 J-0.835
X-18.833 Y61.66 Z-4.197 I0.444 J0.989
X-20.423 Y62.58 Z-4.275 I-1.082 J-0.036
X-20.55 Y60.749 Z-4.352 I0.508 J-0.955
X-18.852 Y61.44 Z-4.43 I0.633 J0.875
X-20.218 Y62.659 Z-4.507 I-1.063 J0.184
X-20.711 Y60.899 Z-4.585 I0.302 J-1.034
X-18.915 Y61.23 Z-4.662 I0.794 J0.725
X-20.001 Y62.695 Z-4.739 I-1 J0.394
X-20.838 Y61.077 Z-4.817 I0.086 J-1.07
X-19.02 Y61.037 Z-4.894 I0.922 J0.547
X-19.783 Y62.686 Z-4.972 I-0.896 J0.586
X-20.926 Y61.277 Z-5.049 I-0.132 J-1.061
X-19.16 Y60.871 Z-5.127 I1.01 J0.347
X-19.572 Y62.633 Z-5.204 I-0.755 J0.753
X-20.971 Y61.49 Z-5.282 I-0.344 J-1.008
X-19.331 Y60.737 Z-5.359 I1.055 J0.135
X-19.376 Y62.539 Z-5.437 I-0.584 J0.887
X-20.973 Y61.707 Z-5.514 I-0.539 J-0.914
X-19.525 Y60.64 Z-5.592 I1.056 J-0.082
X-19.205 Y62.407 Z-5.669 I-0.391 J0.983
X-20.93 Y61.918 Z-5.746 I-0.71 J-0.783
X-19.733 Y60.585 Z-5.824 I1.014 J-0.293
X-19.064 Y62.244 Z-5.901 I-0.183 J1.038
X-20.846 Y62.116 Z-5.979 I-0.851 J-0.62
X-19.948 Y60.574 Z-6.056 I0.93 J-0.491
X-18.959 Y62.057 Z-6.134 I0.032 J1.05
X-20.724 Y62.292 Z-6.211 I-0.955 J-0.433
X-20.159 Y60.606 Z-6.289 I0.808 J-0.667
X-18.896 Y61.853 Z-6.366 I0.243 J1.017
X-20.569 Y62.439 Z-6.444 I-1.019 J-0.229
X-20.359 Y60.681 Z-6.521 I0.653 J-0.814
X-18.874 Y61.641 Z-6.599 I0.443 J0.943
X-20.388 Y62.551 Z-6.676 I-1.041 J-0.017
X-20.539 Y60.794 Z-6.754 I0.473 J-0.926
X-18.897 Y61.43 Z-6.831 I0.623 J0.831
X-20.189 Y62.624 Z-6.908 I-1.018 J0.193
X-20.691 Y60.94 Z-6.986 I0.274 J-0.998
X-18.961 Y61.229 Z-7.063 I0.775 J0.684
X-19.981 Y62.654 Z-7.141 I-0.954 J0.394
X-20.811 Y61.114 Z-7.218 I0.065 J-1.029
X-19.064 Y61.046 Z-7.296 I0.894 J0.511
X-19.771 Y62.642 Z-7.373 I-0.851 J0.578
X-20.892 Y61.307 Z-7.451 I-0.144 J-1.017
X-19.202 Y60.888 Z-7.528 I0.975 J0.318
X-19.569 Y62.588 Z-7.606 I-0.713 J0.735
X-20.932 Y61.512 Z-7.683 I-0.346 J-0.963
X-19.368 Y60.762 Z-7.761 I1.016 J0.113
X-19.383 Y62.494 Z-7.838 I-0.547 J0.861
X-20.93 Y61.72 Z-7.915 I-0.532 J-0.869
X-19.556 Y60.673 Z-7.993 I1.013 J-0.095
X-19.22 Y62.365 Z-8.07 I-0.36 J0.951
X-20.885 Y61.923 Z-8.148 I-0.695 J-0.74
X-19.757 Y60.624 Z-8.225 I0.969 J-0.298
X-19.088 Y62.206 Z-8.303 I-0.159 J1
X-20.801 Y62.111 Z-8.38 I-0.827 J-0.582
X-19.963 Y60.617 Z-8.458 I0.885 J-0.486
X-18.991 Y62.024 Z-8.535 I0.047 J1.007
X-20.681 Y62.278 Z-8.613 I-0.924 J-0.4
X-20.166 Y60.651 Z-8.69 I0.765 J-0.653
X-18.933 Y61.828 Z-8.768 I0.25 J0.973
X-20.53 Y62.416 Z-8.845 I-0.982 J-0.203
X-20.356 Y60.726 Z-8.923 I0.614 J-0.791
X-18.916 Y61.624 Z-9 I0.44 J0.898
X-20.916 Y61.624 I-1 J0
X-18.916 Y61.624 I1 J0
G1 X-18.888 Y62.135 F1000
G3 X-19.096 Y62.968 I-0.81 J0.24
X-20.879 Y63.297 I-1.108 J-1.005
X-21.774 Y60.636 I0.799 J-1.75
X-18.359 Y60.128 I1.885 J0.938
X-19.407 Y64.69 I-1.784 J1.991
X-22.938 Y63.379 I-0.908 J-2.964
X-22.254 Y58.776 I2.898 J-1.921
X-18.272 Y58.25 I2.393 J2.782
X-16.451 Y64.483 I-1.751 J3.894
X-17.979 Y65.956 I-3.522 J-2.127
G1 X-18.258 Y66.062
X-18.548 Y66.128
X-18.845 Y66.15
X-19.915
G3 X-23.754 Y64.353 I0.02 J-5.043
X-24.916 Y61.144 I3.923 J-3.236
X-24.523 Y59.224 I4.976 J0.017
X-21.353 Y56.366 I4.604 J1.92
X-19.435 Y56.153 I1.579 J5.465
X-14.509 Y59.253 I-0.169 J5.731
X-14.45 Y65.04 I-5.456 J2.949
X-16.237 Y66.149 I-1.779 J-0.871
G1 X-18.845 Y66.15
G3 X-19.615 Y65.407 Z-8.813 I0.028 J-0.8
G1 X-19.621 Y65.323 Z-8.8
X-20.205 Y57.006
X-20.206 Y56.991
X-20.207 Y56.977
G3 X-19.435 Y56.15 Z-9 I0.8 J-0.027
G1 X-16.476
G3 X-14.077 Y57.089 I-0.157 J3.934
X-11.963 Y60.348 I-3.844 J4.808
X-12.101 Y64.935 I-6.971 J2.087
G1 X-12.294 Y65.274
G3 X-13.949 Y66.15 I-1.654 J-1.124
G1 X-16.237
G3 X-17.008 Y65.373 Z-8.808 I0.028 J-0.8
G1 X-17.01 Y65.323 Z-8.8
X-17.248 Y56.977
Y56.972 Z-8.801
G3 X-16.476 Y56.15 Z-9 I0.8 J-0.023
G1 X-14.254
G3 X-12.075 Y56.972 I-0.104 J3.573
X-10.068 Y59.721 I-3.716 J4.821
X-9.734 Y64.522 I-7.084 J2.905
X-10.189 Y65.432 I-2.776 J-0.819
X-11.727 Y66.15 I-1.544 J-1.299
G1 X-13.949
G3 X-14.72 Y65.38 Z-8.809 I0.028 J-0.8
G1 X-14.722 Y65.323 Z-8.8
X-15.025 Y56.977
G3 X-14.254 Y56.15 Z-9 I0.8 J-0.027
G1 X-12.092
G3 X-9.91 Y57.015 I-0.154 J3.575
X-8.089 Y59.365 I-3.766 J4.798
X-7.458 Y64.208 I-7.014 J3.376
X-7.802 Y65.166 I-4.088 J-0.927
X-9.528 Y66.15 I-1.731 J-1.03
G1 X-11.727
G3 X-12.499 Y65.385 Z-8.81 I0.028 J-0.8
G1 X-12.501 Y65.323 Z-8.8
X-12.863 Y56.984
Y56.977
G3 X-12.092 Y56.15 Z-9 I0.8 J-0.027
G1 X-9.935
G3 X-7.892 Y56.931 I-0.191 J3.561
X-5.884 Y59.482 I-3.725 J4.998
X-5.286 Y64.273 I-6.946 J3.299
X-5.787 Y65.416 I-3.12 J-0.685
X-7.341 Y66.151 I-1.564 J-1.297
G1 X-9.528 Y66.15
G3 X-10.299 Y65.389 Z-8.811 I0.028 J-0.8
G1 X-10.302 Y65.323 Z-8.8
X-10.706 Y56.988
Y56.977
G3 X-9.935 Y56.15 Z-9 I0.8 J-0.027
G1 X-7.838
G3 X-5.626 Y57.024 I-0.169 J3.663
X-3.749 Y59.42 I-3.836 J4.94
X-3.09 Y64.206 I-6.909 J3.388
X-3.428 Y65.159 I-4.085 J-0.912
X-5.158 Y66.15 I-1.735 J-1.022
G1 X-7.341
G3 X-8.112 Y65.398 Z-8.812 I0.028 J-0.8
G1 X-8.116 Y65.323 Z-8.8
X-8.609 Y56.997
X-8.61 Y56.977
G3 X-7.838 Y56.15 Z-9 I0.8 J-0.027
G1 X-5.735
G3 X-3.52 Y56.983 I-0.109 J3.649
X-1.493 Y59.608 I-3.839 J5.06
X-0.898 Y64.135 I-6.941 J3.215
X-1.237 Y65.136 I-4.262 J-0.885
X-2.98 Y66.15 I-1.747 J-0.998
G1 X-5.158
G3 X-5.929 Y65.405 Z-8.813 I0.028 J-0.8
G1 X-5.934 Y65.323 Z-8.8
X-6.505 Y57.004
X-6.506 Y56.991
Y56.977
G3 X-5.735 Y56.15 Z-9 I0.8 J-0.027
G1 X-3.519
G3 X-1.297 Y57.025 I-0.174 J3.701
X0.598 Y59.428 I-3.843 J4.98
X1.267 Y64.201 I-6.885 J3.399
X0.931 Y65.155 I-4.108 J-0.911
X-0.801 Y66.15 I-1.738 J-1.018
G1 X-2.98
G3 X-3.75 Y65.402 Z-8.813 I0.028 J-0.8
G1 X-3.755 Y65.323 Z-8.8
X-4.29 Y57.001
X-4.291 Y56.977
G3 X-3.519 Y56.15 Z-9 I0.8 J-0.027
G1 X-1.35
G3 X0.875 Y57.025 I-0.173 J3.707
X2.77 Y59.423 I-3.841 J4.982
X3.444 Y64.2 I-6.882 J3.408
X3.109 Y65.153 I-4.127 J-0.916
X1.376 Y66.15 I-1.738 J-1.017
G1 X-0.801
G3 X-1.572 Y65.403 Z-8.813 I0.028 J-0.8
G1 X-1.577 Y65.323 Z-8.8
X-2.121 Y57.002
X-2.122 Y56.977
G3 X-1.35 Y56.15 Z-9 I0.8 J-0.027
G1 X0.8
G3 X3.022 Y57.005 I-0.144 J3.691
X4.924 Y59.379 I-3.793 J4.986
X5.628 Y64.165 I-6.872 J3.457
X5.291 Y65.143 I-4.249 J-0.917
X3.552 Y66.15 I-1.744 J-1.006
G1 X1.376
G3 X0.606 Y65.405 Z-8.813 I0.028 J-0.8
G1 X0.6 Y65.323 Z-8.8
X0.029 Y57.004
Y56.991
X0.028 Y56.977
G3 X0.8 Y56.15 Z-9 I0.8 J-0.027
G1 X3.022
G3 X5.25 Y57.045 I-0.203 J3.729
X7.145 Y59.473 I-3.893 J4.992
X7.791 Y64.232 I-6.88 J3.356
X7.457 Y65.162 I-4.195 J-0.98
X5.73 Y66.15 I-1.731 J-1.023
G1 X3.552
G3 X2.782 Y65.401 Z-8.812 I0.028 J-0.8
G1 X2.777 Y65.323 Z-8.8
X2.252 Y57
X2.25 Y56.977
G3 X3.022 Y56.15 Z-9 I0.8 J-0.027
G1 X5.184
G3 X7.411 Y57.033 I-0.186 J3.72
X9.307 Y59.442 I-3.862 J4.988
X9.972 Y64.214 I-6.879 J3.39
X9.638 Y65.157 I-4.082 J-0.916
X7.906 Y66.15 I-1.737 J-1.02
G1 X5.73
G3 X4.959 Y65.402 Z-8.813 I0.028 J-0.8
G1 X4.954 Y65.323 Z-8.8
X4.413 Y57.001
X4.412 Y56.977
G3 X5.184 Y56.15 Z-9 I0.8 J-0.027
G1 X7.341
G3 X9.566 Y57.017 I-0.162 J3.705
X11.466 Y59.407 I-3.824 J4.99
X12.154 Y64.186 I-6.874 J3.429
X11.818 Y65.149 I-4.177 J-0.917
X10.082 Y66.15 I-1.741 J-1.012
G1 X7.906
G3 X7.136 Y65.404 Z-8.813 I0.028 J-0.8
G1 X7.13 Y65.323 Z-8.8
X6.571 Y57.003
X6.57 Y56.99
X6.569 Y56.977
G3 X7.341 Y56.15 Z-9 I0.8 J-0.027
G1 X9.503
G3 X11.727 Y57.006 I-0.145 J3.695
X13.63 Y59.381 I-3.796 J4.991
X14.335 Y64.165 I-6.87 J3.456
X13.997 Y65.143 I-4.246 J-0.916
X12.258 Y66.15 I-1.744 J-1.006
G1 X10.082
G3 X9.312 Y65.406 Z-8.813 I0.028 J-0.8
G1 X9.307 Y65.323 Z-8.8
X8.733 Y57.005
X8.732 Y56.991
X8.731 Y56.977
G3 X9.503 Y56.15 Z-9 I0.8 J-0.027
G1 X11.66
G3 X13.882 Y56.99 I-0.121 J3.682
X15.918 Y59.622 I-3.855 J5.085
X16.515 Y64.137 I-6.919 J3.213
X16.178 Y65.135 I-4.25 J-0.88
X14.434 Y66.15 I-1.748 J-0.997
G1 X12.258
G3 X11.488 Y65.407 Z-8.813 I0.028 J-0.8
G1 X11.482 Y65.323 Z-8.8
X10.89 Y57.006
X10.889 Y56.992
X10.888 Y56.977
G3 X11.66 Y56.15 Z-9 I0.8 J-0.027
G1 X13.822
G3 X16.042 Y56.978 I-0.104 J3.671
X18.082 Y59.595 I-3.826 J5.085
X18.695 Y64.116 I-6.919 J3.241
X18.357 Y65.13 I-4.321 J-0.88
X16.61 Y66.15 I-1.751 J-0.991
G1 X14.434
G3 X13.664 Y65.409 Z-8.814 I0.028 J-0.8
G1 X13.658 Y65.323 Z-8.8
X13.052 Y57.008
X13.051 Y56.992
X13.05 Y56.977
G3 X13.822 Y56.15 Z-9 I0.8 J-0.027
G1 X16.076
G3 X18.303 Y57.041 I-0.2 J3.729
X20.2 Y59.467 I-3.885 J4.993
X20.851 Y64.224 I-6.874 J3.363
X20.516 Y65.161 I-4.21 J-0.976
X18.788 Y66.15 I-1.732 J-1.022
G1 X16.61
G3 X15.84 Y65.401 Z-8.812 I0.028 J-0.8
G1 X15.835 Y65.323 Z-8.8
X15.305 Y57
X15.304 Y56.977
G3 X16.076 Y56.15 Z-9 I0.8 J-0.027
G1 X18.259
G3 X20.326 Y56.924 I-0.185 J3.642
X22.505 Y59.758 I-3.806 J5.182
X23.023 Y64.239 I-6.904 J3.067
X22.447 Y65.343 I-2.25 J-0.472
G1 X22.187 Y65.559
X21.896 Y65.729
G3 X19.915 Y66.148 I-1.949 J-4.323
G1 X18.788 Y66.15
G3 X18.017 Y65.401 Z-8.812 I0.028 J-0.8
G1 X18.012 Y65.323 Z-8.8
X17.489 Y57
X17.488 Y56.977
G3 X18.259 Y56.15 Z-9 I0.8 J-0.027
G1 X19.915
X20.395 Y56.175
X20.875 Y56.247
G3 X23.544 Y57.938 I-1.087 J4.669
X24.813 Y60.137 I-4.906 J4.297
G1 X24.82 Y60.208 Z-8.989
X24.814 Y60.279 Z-8.978
X24.794 Y60.348 Z-8.966
X24.762 Y60.412 Z-8.955
X24.719 Y60.469 Z-8.944
X24.667 Y60.517 Z-8.933
X24.606 Y60.554 Z-8.921
X24.54 Y60.58 Z-8.91
X24.47 Y60.592 Z-8.899
X24.4 Z-8.888
X24.33 Y60.579 Z-8.876
X24.27 Y60.556 Z-8.866
X24.214 Y60.524 Z-8.856
X24.165 Y60.482 Z-8.846
X23.962 Y60.28 Z-8.8
X20.787 Y57.117
X20.563 Y56.894 Z-8.85
G3 X20.875 Y56.247 Z-9 I0.268 J-0.269
X24.697 Y59.705 I-0.961 J4.904
X23.995 Y64.025 I-4.735 J1.447
X21.896 Y65.728 I-3.938 J-2.708
G1 X21.952 Y65.845
G3 X21.315 Y66.83 I-1.627 J-0.353
X19.2 Y67.936 I-3.678 J-4.46
X16.926 Y68.488 I-4.245 J-12.531
X11.869 Y68.918 I-5.706 J-37.162
X2.652 Y69.026 I-7.749 J-267.851
G1 X-0.421 Y69.035
X-5.542 Y69.037
X-16.809 Y69.038
G3 X-19.609 Y68.887 I-0.409 J-18.484
X-23.762 Y67.326 I1.251 J-9.632
X-25.858 Y65.148 I4.721 J-6.641
X-21.896 Y54.331 I6.023 J-3.928
X-18.514 Y53.644 I5.193 J16.896
X-12.38 Y53.326 I6.246 J61.199
X-2.137 Y53.265 I8.41 J549.226
G1 X4.009 Y53.263
X15.276 Y53.262
G3 X18.823 Y53.322 I0.917 J50.879
X22.788 Y54.389 I-0.799 J10.866
X26.668 Y58.841 I-3.56 J7.019
X26.149 Y64.54 I-6.933 J2.242
X24.762 Y66.721 I-15.307 J-8.199
X20.421 Y69.993 I-8.275 J-6.463
X17.127 Y71.021 I-6.535 J-15.14
X12.073 Y71.662 I-6.732 J-32.824
X2.859 Y71.894 I-8.419 J-151.561
X-2.262 Y71.919 I-4.542 J-405.862
G1 X-5.335 Y71.923
X-11.481 Y71.925
G3 X-16.602 Y71.892 I-1.505 J-164.323
X-21.019 Y71.275 I0.465 J-19.445
X-25.977 Y68.624 I3.172 J-11.896
X-29.276 Y62.139 I6.782 J-7.531
X-24.14 Y52.784 I9.488 J-0.878
X-20.076 Y51.327 I7.053 J13.281
G1 X-19.142 Y51.131
X-18.131 Y50.965
X-17.115 Y50.834
G3 X-8.934 Y50.44 I8.095 J83.037
X1.309 Y50.378 I8.545 J567.314
G1 X6.43 Y50.375
X13.6
G3 X17.669 Y50.467 I0.747 J57.107
X22.079 Y51.363 I-1.139 J16.898
X26.865 Y54.583 I-3.911 J10.98
X29.105 Y59.065 I-7.683 J6.641
X28.55 Y64.877 I-9.822 J1.994
X23.013 Y71.431 I-11.991 J-4.514
X18.377 Y73.385 I-9.053 J-15.006
X13.392 Y74.298 I-7.797 J-28.5
X5.212 Y74.724 I-8.674 J-87.812
X-11.176 Y74.804 I-11.931 J-767.659
G1 X-12.2 Y74.811
G3 X-17.318 Y74.646 I-0.598 J-61.127
X-22.126 Y73.685 I1.807 J-21.532
X-27.661 Y70.456 I4.733 J-14.471
X-31.645 Y62.701 I8.683 J-9.361
X-26.727 Y51.55 I11.928 J-1.399
X-22.166 Y49.244 I9.356 J12.837
X-17.457 Y48.167 I7.954 J23.955
G1 X-16.442 Y48.033
X-15.423 Y47.926
G3 X-6.215 Y47.549 I9.181 J111.558
X5.052 Y47.49 I9.358 J712.243
G1 X10.173 Y47.488
G3 X16.317 Y47.576 I1.311 J122.421
X20.781 Y48.224 I-1.4 J25.342
X26.424 Y50.817 I-3.838 J15.787
X30.98 Y56.822 I-7.795 J10.647
X31.119 Y64.974 I-12.021 J4.282
X25.721 Y72.646 I-14.363 J-4.371
X20.291 Y75.535 I-11.509 J-15.083
X14.368 Y76.932 I-9.544 J-27.221
X6.201 Y77.541 I-9.418 J-71.16
X-5.064 Y77.682 I-9.862 J-338.588
G1 X-6.089 Y77.691
G3 X-14.283 Y77.645 I-2.438 J-292.288
X-19.376 Y77.144 I1.285 J-39.254
X-24.94 Y75.387 I3.756 J-21.573
X-31.081 Y70.463 I7.372 J-15.489
X-34.169 Y60.048 I11.954 J-9.209
X-28.468 Y49.721 I14.614 J1.331
X-23.399 Y46.915 I11.37 J14.557
X-17.586 Y45.443 I9.614 J25.743
X-10.448 Y44.813 I9.006 J61.315
X-0.208 Y44.627 I9.608 J247.746
X13.108 Y44.622 I6.994 J880.999
X18.215 Y44.973 I-0.787 J48.751
G1 X19.227 Y45.133
X20.196 Y45.32
X21.076 Y45.525
G3 X26.465 Y47.741 I-4.892 J19.561
X32.513 Y54.081 I-8.376 J14.046
X33.676 Y65.239 I-13.667 J7.064
X28.281 Y73.881 I-16.805 J-4.487
X22.628 Y77.461 I-13.806 J-15.548
X15.816 Y79.468 I-11.523 J-26.54
X8.694 Y80.259 I-9.833 J-56.068
X-2.568 Y80.546 I-10.74 J-200.707
X-12.81 Y80.536 I-4.787 J-346.544
X-18.929 Y80.01 I1.13 J-49.015
X-24.585 Y78.46 I4.24 J-26.564
X-31.321 Y74.103 I7.796 J-19.437
G1 X-31.836 Y73.57
X-32.329 Y73.026
G3 X-36.783 Y61.162 I13.382 J-11.792
X-31.064 Y48.546 I17.283 J0.231
X-25.597 Y44.97 I13.732 J15.022
X-18.832 Y42.888 I11.558 J25.531
X-11.715 Y42.059 I9.883 J53.881
G1 X-10.693 Y41.994
X-9.669 Y41.945
G3 X3.643 Y41.736 I11.725 J322.698
X13.885 Y41.799 I3.541 J254.916
X18.98 Y42.299 I-2.029 J46.949
X24.656 Y43.871 I-4.315 J26.61
X31.363 Y48.242 I-7.831 J19.348
X35.634 Y54.756 I-12.957 J13.153
X35.526 Y67.926 I-17.207 J6.443
X29.46 Y76.338 I-18.973 J-7.288
X22.853 Y80.278 I-15.599 J-18.646
X15.969 Y82.234 I-12.478 J-30.838
X7.831 Y83.133 I-11.041 J-62.619
G1 X6.808 Y83.195
X5.785 Y83.241
X4.761 Y83.281
G3 X-11.625 Y83.418 I-11.333 J-373.366
X-17.753 Y82.985 I1.411 J-63.478
X-24.711 Y81.312 I4.068 J-32.226
X-31.296 Y77.649 I8.516 J-23.058
X-37.823 Y69.141 I13.276 J-16.943
G1 X-38.111 Y68.398
X-38.374 Y67.65
X-38.607 Y66.894
G3 X-33.257 Y47.016 I19.113 J-5.515
X-27.268 Y42.807 I15.998 J16.396
X-20.515 Y40.448 I13.084 J26.612
X-12.412 Y39.292 I11.431 J51.175
X-6.274 Y38.983 I8.652 J110.485
X11.137 Y38.868 I11.937 J490.233
X18.284 Y39.387 I-0.885 J61.633
X24.251 Y40.823 I-4.702 J32.663
X31.678 Y44.96 I-8.095 J23.266
X37.985 Y53.566 I-13.53 J16.531
X37.789 Y69.377 I-19.698 J7.663
X31.411 Y78.18 I-21.349 J-8.758
X23.587 Y82.903 I-17.708 J-20.488
X15.705 Y85.085 I-13.911 J-34.926
X9.609 Y85.84 I-10.624 J-60.778
X-1.647 Y86.279 I-11.923 J-161.294
X-12.913 Y86.221 I-4.589 J-203.352
X-19.025 Y85.608 I2.813 J-58.821
X-25.94 Y83.757 I5.469 J-34.273
X-33.758 Y79.1 I9.845 J-25.419
X-37.626 Y74.89 I16.322 J-18.877
X-41.828 Y64.457 I18.952 J-13.696
X-35.696 Y45.699 I22.405 J-3.057
X-28.486 Y40.405 I18.468 J17.592
X-20.776 Y37.692 I14.716 J29.51
G1 X-19.777 Y37.469
X-18.771 Y37.274
G3 X-8.59 Y36.232 I12.685 J73.703
X0.625 Y35.997 I9.955 J209.136
X11.891 Y36.033 I4.704 J285.375
X19.027 Y36.689 I-2.013 J61.066
X25.941 Y38.545 I-5.64 J34.817
X30.518 Y40.828 I-10.447 J26.671
X38.648 Y48.947 I-13.032 J21.179
X40.601 Y69.507 I-20.254 J12.296
X34.003 Y79.463 I-23.996 J-8.738
X29.989 Y82.631 I-19.053 J-20.012
X20.668 Y86.782 I-18.136 J-28.182
X12.636 Y88.354 I-13.545 J-47.919
X2.421 Y89.052 I-12.372 J-105.893
X-10.893 Y89.141 I-8.259 J-239.592
X-19.051 Y88.429 I1.799 J-67.642
X-26.949 Y86.3 I6.017 J-38.036
X-34.887 Y81.682 I11.156 J-28.314
X-42.37 Y72.082 I17.101 J-21.044
X-44.252 Y56.555 I23.224 J-10.692
X-42.842 Y51.852 I25.301 J5.022
X-34.638 Y41.112 I24.278 J10.042
X-26.632 Y36.613 I18.694 J23.894
X-17.731 Y34.286 I15.101 J39.58
X-8.561 Y33.387 I12.349 J78.707
X0.653 Y33.124 I10.518 J207.19
X11.918 Y33.188 I4.327 J229.862
X19.052 Y33.872 I-2.702 J65.711
X26.949 Y36.002 I-6.022 J38.029
X34.888 Y40.619 I-11.133 J28.276
X42.375 Y50.237 I-17.133 J21.06
G1 X42.781 Y51.176
X43.153 Y52.128
G3 X42.862 Y71.145 I-24.922 J9.13
X36.047 Y81.258 I-26.299 J-10.372
X26.732 Y87.493 I-22.148 J-23.012
X19.966 Y89.837 I-16.275 J-36.03
X9.866 Y91.469 I-14.886 J-60.075
X-0.361 Y91.987 I-12.15 J-138.499
X-12.649 Y91.914 I-5.117 J-170.658
X-19.774 Y91.136 I3.611 J-66.115
X-28.613 Y88.586 I6.941 J-40.649
G1 X-29.549 Y88.168
G3 X-40.861 Y79.554 I13.092 J-28.928
X-45.851 Y70.666 I22.921 J-18.714
X-43.416 Y46.984 I26.511 J-9.24
G1 X-42.871 Y46.117
G3 X-32.506 Y36.402 I25.296 J16.601
X-23.042 Y32.569 I18.659 J32.476
X-13.974 Y30.967 I14.446 J55.321
X-3.753 Y30.348 I12.53 J122.186
X2.392 Y30.231 I7.613 J237.064
X12.632 Y30.381 I2.614 J171.222
X20.763 Y31.345 I-3.255 J62.193
X29.534 Y34.12 I-7.684 J39.536
X38.777 Y40.465 I-13.459 J29.514
X45.102 Y49.709 I-21.002 J21.155
X45.56 Y71.687 I-26.887 J11.555
X37.65 Y83.496 I-29.15 J-10.973
X27.42 Y90.196 I-24.114 J-25.66
G1 X26.48 Y90.603
G3 X15.637 Y93.573 I-18.353 J-45.733
X6.477 Y94.566 I-13.572 J-82.469
X-10.928 Y94.837 I-11.693 J-191.764
X-19.084 Y94.085 I2.893 J-75.979
X-23.102 Y93.286 I8.618 J-53.856
X-34.443 Y88.676 I9.058 J-38.536
X-42.259 Y82.113 I17.928 J-29.287
X-49.694 Y66.607 I23.831 J-20.963
X-49.724 Y56.41 I30.72 J-5.189
X-40.169 Y38.705 I30.736 J5.158
X-30.854 Y32.454 I23.621 J25.135
X-21.146 Y29.261 I18.581 J40.128
X-13.049 Y28.038 I13.998 J65.278
X-0.777 Y27.416 I13.809 J151.006
X11.512 Y27.479 I5.162 J190.027
X19.661 Y28.305 I-3.292 J73.073
X29.494 Y31.095 I-7.349 J44.621
X35.792 Y34.499 I-14.481 J34.328
X46.139 Y45.672 I-18.503 J27.511
X48.204 Y72.395 I-27.903 J15.597
X45.043 Y78.814 I-30.127 J-10.845
X33.415 Y90.158 I-30.053 J-19.174
X23.144 Y94.706 I-22.091 J-36.018
X13.126 Y96.781 I-17.118 J-57.438
X1.896 Y97.638 I-14.323 J-113.656
G1 X0.873 Y97.681
G3 X-11.416 Y97.661 I-5.864 J-168.28
X-20.576 Y96.675 I3.327 J-73.948
X-30.395 Y93.827 I8.465 J-47.544
X-40.819 Y87.407 I15.156 J-36.28
X-45.092 Y82.999 I24.247 J-27.781
X-52.867 Y61.251 I26.403 J-21.704
X-43.442 Y38.098 I33.744 J0.242
G1 X-42.731 Y37.361
G3 X-30.877 Y29.442 I26.697 J27.133
X-20.111 Y26.203 I19.526 J45.386
X-10.975 Y25.017 I14.568 J76.455
X2.328 Y24.501 I13.821 J184.58
G1 X3.352 Y24.486
X4.377 Y24.483
G3 X15.63 Y24.934 I0.869 J118.946
X23.706 Y26.287 I-6.102 J61.211
X34.201 Y30.304 I-10.393 J42.87
X45.176 Y39.397 I-17.836 J32.696
X48.096 Y43.6 I-28.247 J22.745
X51.156 Y72.241 I-29.825 J17.67
X42.036 Y86.881 I-34.621 J-11.407
G1 X41.306 Y87.599
X40.551 Y88.291
X39.777 Y88.962
G3 X27.454 Y96.162 I-27.368 J-32.695
X16.596 Y99.096 I-19.759 J-51.563
X6.425 Y100.261 I-15.337 J-88.951
X-7.906 Y100.616 I-11.437 J-172.271
X-19.133 Y99.761 I1.049 J-87.949
X-28.096 Y97.647 I8.449 J-55.865
X-40.742 Y91.023 I13.521 J-41.201
X-50.793 Y79.535 I23.551 J-30.746
X-54.311 Y51.806 I31.755 J-18.117
X-43.002 Y33.861 I35.738 J9.986
X-30.827 Y26.42 I27.396 J31.146
X-20.013 Y23.333 I20.109 J49.965
X-9.852 Y22.088 I15.52 J84.55
X4.477 Y21.626 I13.448 J194.481
X16.748 Y22.215 I0.832 J110.686
X25.794 Y23.949 I-7.053 J61.263
X37.063 Y28.765 I-12.256 J44.276
X48.964 Y39.863 I-20.484 J33.896
X53.072 Y75.033 I-30.798 J21.422
X46.253 Y86.394 I-36.165 J-13.979
X33.466 Y96.481 I-32.142 J-27.597
X21.995 Y100.811 I-23.592 J-45.14
X21.015 Y101.003 I-1.213 J-3.585
G1 X-23.616 Y101
G3 X-28.862 Y100.157 I0.673 J-20.929
X-38.214 Y96.053 I10.894 J-37.535
X-53.669 Y80.033 I21.081 J-35.802
X-57.712 Y68.476 I35.33 J-18.846
X-49.567 Y36.746 I38.448 J-7.041
X-37.056 Y26.323 I32.561 J26.364
X-25.678 Y21.757 I24.045 J43.464
X-24.002 Y21.323 I6.847 J22.997
G1 X-23.845 Y21.306
X-23.687 Y21.3
X23.616
G3 X28.832 Y22.136 I-0.666 J20.86
X38.188 Y26.233 I-10.927 J37.679
X53.656 Y42.242 I-21.093 J35.856
X57.739 Y53.786 I-35.954 J19.213
X53.056 Y81.485 I-40.053 J7.472
X41.685 Y94.516 I-37.577 J-21.311
X38.336 Y96.874 I-25.951 J-33.303
X30.714 Y100.851 I-26.771 J-42.012
G1 X30.469 Y100.933
X30.215 Y100.983
X29.956 Y101
X21.015
G3 X20.362 Y100.621 I0.028 J-0.8
G1 X20.307 Y100.533 Z-8.993
X20.253 Y100.445 Z-8.973
X20.201 Y100.361 Z-8.939
X20.152 Y100.281 Z-8.893
X20.106 Y100.207 Z-8.835
X20.065 Y100.14 Z-8.766
X20.028 Y100.082 Z-8.687
X19.998 Y100.032 Z-8.6
X19.973 Y99.993 Z-8.506
X19.956 Y99.964 Z-8.407
X19.945 Y99.947 Z-8.304
X19.941 Y99.941 Z-8.2
G0 Z-7.1
X22.175 Y21.93
Z-7.4
G1 Z-8.2 F1000
X22.181 Y21.927 Z-8.304
X22.198 Y21.916 Z-8.407
X22.227 Y21.899 Z-8.506
X22.267 Y21.875 Z-8.6
X22.317 Y21.846 Z-8.687
X22.376 Y21.81 Z-8.766
X22.444 Y21.77 Z-8.835
X22.519 Y21.726 Z-8.893
X22.599 Y21.678 Z-8.939
X22.684 Y21.627 Z-8.973
X22.773 Y21.575 Z-8.993
X22.862 Y21.521 Z-9
G3 X23.616 Y21.3 I0.809 J1.36
G1 X31.528
G3 X35.617 Y22.129 I-0.477 J12.856
X40.884 Y24.704 I-8.941 J24.965
X53.998 Y37.464 I-22.829 J36.579
X59.88 Y50.7 I-35.705 J23.794
G1 X59.894 Y50.861
X59.9 Y51.022
Y68.746
G3 X58.889 Y74.889 I-22.701 J-0.583
X54.127 Y85.059 I-38.027 J-11.607
X39.651 Y99.322 I-39.268 J-25.376
G1 X38.785 Y99.869
X37.904 Y100.391
X37.287 Y100.741
X36.975 Y100.883
X36.643 Y100.971
X36.302 Y101
X29.956
G3 X29.304 Y100.621 I0.028 J-0.8
G1 X29.249 Y100.533 Z-8.993
X29.195 Y100.445 Z-8.973
X29.143 Y100.361 Z-8.939
X29.094 Y100.281 Z-8.893
X29.048 Y100.207 Z-8.835
X29.006 Y100.14 Z-8.766
X28.97 Y100.082 Z-8.687
X28.939 Y100.032 Z-8.6
X28.915 Y99.993 Z-8.506
X28.897 Y99.964 Z-8.407
X28.887 Y99.947 Z-8.304
X28.883 Y99.941 Z-8.2
G0 Z-7.1
X59.27 Y67.305
Z-7.4
G1 Z-8.2 F1000
X59.273 Y67.311 Z-8.304
X59.284 Y67.329 Z-8.407
X59.301 Y67.358 Z-8.506
X59.325 Y67.397 Z-8.6
X59.354 Y67.447 Z-8.687
X59.39 Y67.507 Z-8.766
X59.43 Y67.574 Z-8.835
X59.474 Y67.649 Z-8.893
X59.522 Y67.73 Z-8.939
X59.573 Y67.815 Z-8.973
X59.625 Y67.903 Z-8.993
X59.679 Y67.993 Z-9
G3 X59.9 Y68.746 I-1.36 J0.809
G1 Y77.144
G3 X59.177 Y80.827 I-12.602 J-0.56
X56.717 Y86.038 I-24.467 J-8.369
X48.998 Y95.554 I-38.598 J-23.416
X42.468 Y100.803 I-33.01 J-34.386
G1 X42.18 Y100.908
X41.883 Y100.977
X41.58 Y101
X36.302
G3 X35.53 Y100.173 Z-8.8 I0.028 J-0.8
X35.761 Y99.638 I0.8 J0.027
G1 X58.532 Y76.61
G3 X59.073 Y76.373 I0.569 J0.563
X59.9 Y77.144 Z-9 I0.027 J0.8
G1 Y82.903
G3 X59.196 Y86.195 I-9.83 J-0.381
X57.4 Y89.779 I-18.505 J-7.031
X52.307 Y96.179 I-32.204 J-20.402
X47.496 Y100.563 I-35.19 J-33.778
X46.249 Y101 I-1.247 J-1.562
G1 X41.58
G3 X40.808 Y100.173 Z-8.8 I0.028 J-0.8
X41.046 Y99.631 I0.8 J0.027
G1 X58.538 Y82.362
G3 X59.073 Y82.131 I0.562 J0.569
X59.9 Y82.903 Z-9 I0.027 J0.8
G1 Y87.942
G3 X59.002 Y91.366 I-8.92 J-0.508
X57.079 Y94.673 I-16.702 J-7.503
X51.866 Y100.462 I-30.029 J-21.803
X50.508 Y100.999 I-1.345 J-1.413
G1 X46.249 Y101
G3 X45.478 Y100.173 Z-8.8 I0.028 J-0.8
X45.725 Y99.622 I0.8 J0.027
G1 X58.548 Y87.391
G3 X59.073 Y87.17 I0.552 J0.579
X59.9 Y87.942 Z-9 I0.027 J0.8
G1 Y92.261
G3 X59.001 Y95.644 I-8.098 J-0.342
X57.248 Y98.529 I-14.457 J-6.808
G1 X56.654 Y99.305
X56.122 Y99.945
X55.859 Y100.207
X55.553 Y100.416
X55.213 Y100.564
G3 X54.221 Y100.022 Z-8.8 I-0.225 J-0.768
X54.287 Y99.412 I0.768 J-0.225
G1 X58.399 Y91.904
G3 X59.073 Y91.489 I0.702 J0.384
X59.9 Y92.261 Z-9 I0.027 J0.8
X59.768 Y95.26 I-20.83 J0.585
X58.915 Y97.539 I-8.75 J-1.976
G1 X58.411 Y98.259
G3 X56.342 Y100.07 I-5.924 J-4.683
G1 X55.503 Y100.463
G3 X54.065 Y100.882 I-3.756 J-10.22
X52.147 Y101.002 I-2.293 J-21.34
G1 X50.508 Y101
G3 X49.856 Y100.621 I0.028 J-0.8
G1 X49.801 Y100.533 Z-8.993
X49.747 Y100.445 Z-8.973
X49.695 Y100.361 Z-8.939
X49.646 Y100.281 Z-8.893
X49.6 Y100.207 Z-8.835
X49.558 Y100.14 Z-8.766
X49.522 Y100.082 Z-8.687
X49.491 Y100.032 Z-8.6
X49.467 Y99.993 Z-8.506
X49.449 Y99.964 Z-8.407
X49.439 Y99.947 Z-8.304
X49.435 Y99.941 Z-8.2
G0 Z-7.1
X30.087 Y21.93
Z-7.4
G1 Z-8.2 F1000
X30.092 Y21.927 Z-8.304
X30.11 Y21.916 Z-8.407
X30.139 Y21.899 Z-8.506
X30.179 Y21.875 Z-8.6
X30.229 Y21.846 Z-8.687
X30.288 Y21.81 Z-8.766
X30.356 Y21.77 Z-8.835
X30.43 Y21.726 Z-8.893
X30.511 Y21.678 Z-8.939
X30.596 Y21.627 Z-8.973
X30.684 Y21.575 Z-8.993
X30.774 Y21.521 Z-9
G3 X31.528 Y21.3 I0.809 J1.36
G1 X37.414
G3 X40.734 Y22.026 I-0.411 J9.84
X44.259 Y23.812 I-6.988 J18.161
X50.605 Y28.968 I-19.472 J30.448
X59.72 Y42.03 I-31.915 J31.982
G1 X59.819 Y42.297
X59.88 Y42.575
X59.9 Y42.859
Y51.022
G3 X59.073 Y51.793 Z-8.8 I-0.8 J-0.028
X58.46 Y51.474 I0.027 J-0.8
G1 X36.802 Y22.579
G3 X36.642 Y22.127 I0.64 J-0.48
X37.414 Y21.3 Z-9 I0.8 J-0.027
G1 X42.317
G3 X45.573 Y22.095 I-0.375 J8.603
X48.603 Y23.789 I-6.626 J15.403
X53.948 Y28.486 I-18.446 J26.38
X59.613 Y35.952 I-33.186 J31.063
G1 X59.771 Y36.276
X59.867 Y36.624
X59.9 Y36.983
Y42.859
G3 X59.073 Y43.63 Z-8.8 I-0.8 J-0.028
X58.478 Y43.334 I0.027 J-0.8
G1 X41.723 Y22.602
G3 X41.545 Y22.127 I0.622 J-0.503
X42.317 Y21.3 Z-9 I0.8 J-0.027
G1 X46.632
G3 X49.878 Y22.128 I-0.272 J7.841
X53.25 Y24.246 I-6.828 J14.614
X58.274 Y29.285 I-19.924 J24.89
G1 X58.92 Y30.081
X59.49 Y30.828
G3 X59.9 Y32.042 I-1.59 J1.213
G1 Y36.983
G3 X59.073 Y37.755 Z-8.8 I-0.8 J-0.028
X58.487 Y37.469 I0.027 J-0.8
G1 X46.047 Y22.613
G3 X45.861 Y22.127 I0.613 J-0.514
X46.632 Y21.3 Z-9 I0.8 J-0.027
G1 X50.708
G3 X53.714 Y22.073 I-0.249 J7.202
X56.644 Y23.925 I-5.983 J12.709
X59.488 Y26.606 I-13.123 J16.768
G1 X59.648 Y26.907
X59.762 Y27.226
X59.82 Y27.56
X59.876 Y28.196
X59.893 Y28.436
X59.9 Y29.156
Y32.042
G3 X59.073 Y32.813 Z-8.8 I-0.8 J-0.028
X58.489 Y32.53 I0.027 J-0.8
G1 X50.125 Y22.615
G3 X49.937 Y22.127 I0.611 J-0.516
X50.708 Y21.3 Z-9 I0.8 J-0.027
G1 X52.147
G3 X54.065 Y21.418 I-0.274 J20.019
X56.464 Y22.297 I-1.85 J8.774
G1 X56.702 Y22.468
X57.421 Y23.007
X57.598 Y23.157
X58.141 Y23.7
X58.297 Y23.877
X58.465 Y24.117
X58.943 Y24.837
G3 X59.686 Y26.757 I-5.691 J3.304
X59.82 Y27.56 I-2.313 J0.8
X59.5 Y28.243 I-0.799 J0.042
G1 X59.416 Y28.306 Z-8.993
X59.334 Y28.367 Z-8.973
X59.254 Y28.427 Z-8.939
X59.179 Y28.483 Z-8.893
X59.11 Y28.535 Z-8.835
X59.047 Y28.582 Z-8.766
X58.991 Y28.623 Z-8.687
X58.945 Y28.658 Z-8.6
X58.908 Y28.686 Z-8.506
X58.881 Y28.706 Z-8.407
X58.864 Y28.718 Z-8.304
X58.859 Y28.722 Z-8.2
G0 Z-7.1
X-22.175 Y100.37
Z-7.4
G1 Z-8.2 F1000
X-22.181 Y100.373 Z-8.304
X-22.198 Y100.384 Z-8.407
X-22.227 Y100.401 Z-8.506
X-22.267 Y100.425 Z-8.6
X-22.317 Y100.454 Z-8.687
X-22.376 Y100.49 Z-8.766
X-22.444 Y100.53 Z-8.835
X-22.519 Y100.574 Z-8.893
X-22.599 Y100.622 Z-8.939
X-22.684 Y100.673 Z-8.973
X-22.773 Y100.725 Z-8.993
X-22.862 Y100.779 Z-9
G3 X-23.616 Y101 I-0.809 J-1.36
G1 X-31.528
G3 X-35.606 Y100.177 I0.469 J-12.835
X-40.864 Y97.608 I8.894 J-24.876
X-56.089 Y81.343 I22.812 J-36.611
X-59.881 Y71.496 I36.914 J-19.868
G1 X-59.894 Y71.337
X-59.9 Y71.179
Y54.35
G3 X-59.13 Y49.145 I21.793 J0.566
X-55.057 Y39.784 I35.158 J9.729
X-43.348 Y27.056 I36.993 J22.283
X-33.14 Y21.359 I27.989 J38.158
G1 X-32.88 Y21.317
X-32.62 Y21.3
X-23.687
G3 X-23.035 Y21.679 I-0.028 J0.8
G1 X-22.98 Y21.767 Z-8.993
X-22.926 Y21.855 Z-8.973
X-22.874 Y21.939 Z-8.939
X-22.824 Y22.019 Z-8.893
X-22.778 Y22.093 Z-8.835
X-22.737 Y22.16 Z-8.766
X-22.701 Y22.218 Z-8.687
X-22.67 Y22.268 Z-8.6
X-22.646 Y22.307 Z-8.506
X-22.628 Y22.336 Z-8.407
X-22.617 Y22.353 Z-8.304
X-22.614 Y22.359 Z-8.2
G0 Z-7.1
X-59.27 Y55.791
Z-7.4
G1 Z-8.2 F1000
X-59.273 Y55.785 Z-8.304
X-59.284 Y55.768 Z-8.407
X-59.301 Y55.739 Z-8.506
X-59.325 Y55.699 Z-8.6
X-59.354 Y55.649 Z-8.687
X-59.39 Y55.59 Z-8.766
X-59.43 Y55.522 Z-8.835
X-59.474 Y55.447 Z-8.893
X-59.522 Y55.367 Z-8.939
X-59.573 Y55.281 Z-8.973
X-59.625 Y55.193 Z-8.993
X-59.679 Y55.103 Z-9
G3 X-59.9 Y54.35 I1.36 J-0.809
G1 Y46.192
G3 X-59.082 Y42.19 I12.509 J0.473
X-56.513 Y37.002 I24.208 J8.754
X-48.551 Y27.694 I36.287 J22.983
X-39.929 Y21.554 I31.974 J35.777
G1 X-39.621 Y21.414
X-39.293 Y21.329
X-38.955 Y21.3
X-32.62
G3 X-31.848 Y22.127 Z-8.8 I-0.028 J0.8
X-32.11 Y22.691 I-0.8 J-0.027
G1 X-58.562 Y46.756
G3 X-59.073 Y46.963 I-0.538 J-0.592
X-59.9 Y46.192 Z-9 I-0.027 J-0.8
G1 Y40.433
G3 X-59.2 Y37.197 I9.598 J0.382
X-57.481 Y33.793 I17.515 J6.708
X-52.323 Y27.449 I30.267 J19.338
X-45.106 Y21.498 I33.401 J33.155
G1 X-44.818 Y21.392
X-44.521 Y21.323
X-44.217 Y21.3
X-38.955
G3 X-38.184 Y22.127 Z-8.8 I-0.028 J0.8
X-38.445 Y22.691 I-0.8 J-0.027
G1 X-58.562 Y40.997
G3 X-59.073 Y41.205 I-0.538 J-0.592
X-59.9 Y40.433 Z-9 I-0.027 J-0.8
G1 Y35.634
G3 X-59.156 Y32.469 I8.415 J0.307
X-57.007 Y28.772 I16.135 J6.908
X-52.163 Y23.503 I27.87 J20.757
G1 X-51.401 Y22.818
X-50.621 Y22.155
X-50.124 Y21.75
G3 X-48.86 Y21.3 I1.264 J1.55
G1 X-44.217
G3 X-43.446 Y22.127 Z-8.8 I-0.028 J0.8
X-43.707 Y22.691 I-0.8 J-0.027
G1 X-58.562 Y36.198
G3 X-59.073 Y36.406 I-0.538 J-0.592
X-59.9 Y35.634 Z-9 I-0.027 J-0.8
G1 Y31.315
G3 X-59.082 Y28.094 I7.786 J0.262
X-56.977 Y24.736 I14.531 J6.771
X-54.429 Y21.917 I21.108 J16.512
X-53.173 Y21.341 I1.406 J1.41
G1 X-53.106 Y21.336
X-52.387 Y21.301
X-52.147 Y21.3
X-48.86
G3 X-48.089 Y22.127 Z-8.8 I-0.028 J0.8
X-48.353 Y22.694 I-0.8 J-0.027
G1 X-58.565 Y31.882
G3 X-59.073 Y32.087 I-0.535 J-0.595
X-59.9 Y31.315 Z-9 I-0.027 J-0.8
G1 Y29.156
X-59.893 Y28.436
G3 X-59.759 Y26.996 I15.734 J0.739
X-59.41 Y25.796 I57.871 J16.173
G1 X-59.298 Y25.557
X-59.074 Y25.077
X-58.943 Y24.837
X-58.465 Y24.117
X-58.297 Y23.877
X-58.141 Y23.7
X-57.598 Y23.157
G3 X-56.37 Y22.242 I7.622 J8.941
X-54.065 Y21.417 I4.282 J8.337
G1 X-53.346 Y21.354
X-53.173 Y21.341
G3 X-52.494 Y21.669 I0.033 J0.799
G1 X-52.432 Y21.753 Z-8.993
X-52.372 Y21.836 Z-8.973
X-52.313 Y21.916 Z-8.939
X-52.258 Y21.992 Z-8.893
X-52.207 Y22.062 Z-8.835
X-52.16 Y22.126 Z-8.766
X-52.12 Y22.182 Z-8.687
X-52.086 Y22.229 Z-8.6
X-52.058 Y22.266 Z-8.506
X-52.038 Y22.293 Z-8.407
X-52.026 Y22.31 Z-8.304
X-52.022 Y22.315 Z-8.2
G0 Z-7.1
X-30.087 Y100.37
Z-7.4
G1 Z-8.2 F1000
X-30.092 Y100.373 Z-8.304
X-30.11 Y100.384 Z-8.407
X-30.139 Y100.401 Z-8.506
X-30.179 Y100.425 Z-8.6
X-30.229 Y100.454 Z-8.687
X-30.288 Y100.49 Z-8.766
X-30.356 Y100.53 Z-8.835
X-30.43 Y100.574 Z-8.893
X-30.511 Y100.622 Z-8.939
X-30.596 Y100.673 Z-8.973
X-30.684 Y100.725 Z-8.993
X-30.774 Y100.779 Z-9
G3 X-31.528 Y101 I-0.809 J-1.36
G1 X-37.414
G3 X-40.734 Y100.274 I0.411 J-9.837
X-44.265 Y98.485 I7.004 J-18.202
X-50.611 Y93.33 I19.46 J-30.439
X-59.722 Y80.258 I31.869 J-31.922
G1 X-59.82 Y79.992
X-59.88 Y79.715
X-59.9 Y79.432
Y71.179
G3 X-59.073 Y70.407 Z-8.8 I0.8 J0.028
X-58.46 Y70.728 I-0.027 J0.8
G1 X-36.801 Y99.722
G3 X-36.642 Y100.173 I-0.641 J0.479
X-37.414 Y101 Z-9 I-0.8 J0.027
G1 X-42.317
G3 X-45.574 Y100.206 I0.374 J-8.608
X-48.605 Y98.512 I6.625 J-15.408
X-53.949 Y93.815 I18.405 J-26.335
X-59.613 Y86.346 I33.157 J-31.028
G1 X-59.771 Y86.023
X-59.868 Y85.675
X-59.9 Y85.316
Y79.432
G3 X-59.073 Y78.661 Z-8.8 I0.8 J0.028
X-58.478 Y78.957 I-0.027 J0.8
G1 X-41.722 Y99.698
G3 X-41.545 Y100.173 I-0.622 J0.503
X-42.317 Y101 Z-9 I-0.8 J0.027
G1 X-46.632
G3 X-49.876 Y100.174 I0.269 J-7.838
X-53.242 Y98.063 I6.808 J-14.591
X-58.265 Y93.028 I19.87 J-24.848
G1 X-58.911 Y92.232
X-59.49 Y91.473
G3 X-59.9 Y90.26 I1.59 J-1.214
G1 Y85.316
G3 X-59.073 Y84.545 Z-8.8 I0.8 J0.028
X-58.487 Y84.831 I-0.027 J0.8
G1 X-46.047 Y99.687
G3 X-45.861 Y100.173 I-0.613 J0.514
X-46.632 Y101 Z-9 I-0.8 J0.027
G1 X-50.708
G3 X-53.709 Y100.231 I0.245 J-7.196
X-56.634 Y98.385 I5.961 J-12.685
X-59.267 Y95.955 I14.535 J-18.393
X-59.82 Y94.742 I1.434 J-1.386
X-59.9 Y93.46 I21.435 J-1.99
G1 Y90.26
G3 X-59.073 Y89.488 Z-8.8 I0.8 J0.028
X-58.489 Y89.772 I-0.027 J0.8
G1 X-50.125 Y99.685
G3 X-49.937 Y100.173 I-0.611 J0.516
X-50.708 Y101 Z-9 I-0.8 J0.027
G1 X-52.147
G3 X-54.065 Y100.882 I0.278 J-20.118
X-56.464 Y100.003 I1.642 J-8.202
X-58.004 Y98.742 I4.578 J-7.158
X-59.044 Y97.302 I5.61 J-5.15
X-59.788 Y95.141 I8.11 J-4.001
G1 X-59.82 Y94.742
X-59.821 Y94.7 Z-8.999
X-59.807 Y94.615 Z-8.989
X-59.794 Y94.532 Z-8.971
X-59.782 Y94.452 Z-8.943
X-59.74 Y94.371 Z-8.899
X-59.702 Y94.296 Z-8.844
X-59.667 Y94.228 Z-8.779
X-59.618 Y94.179 Z-8.701
X-59.576 Y94.137 Z-8.615
X-59.543 Y94.103 Z-8.521
X-59.519 Y94.079 Z-8.422
X-59.504 Y94.064 Z-8.32
X-59.5 Y94.059 Z-8.215
G0 Z-6.2
X-19.041 Y62.284
Z-6.5
G3 X-20.891 Y62.119 Z-6.577 I-0.874 J-0.659 F333.3
X-19.931 Y60.532 Z-6.655 I0.975 J-0.494
X-18.929 Y62.091 Z-6.732 I0.015 J1.092
X-20.767 Y62.305 Z-6.81 I-0.986 J-0.466
X-20.151 Y60.562 Z-6.887 I0.852 J-0.679
X-18.859 Y61.88 Z-6.965 I0.235 J1.062
X-20.609 Y62.46 Z-7.042 I-1.056 J-0.256
X-20.361 Y60.635 Z-7.12 I0.693 J-0.835
X-18.833 Y61.66 Z-7.197 I0.444 J0.989
X-20.423 Y62.58 Z-7.275 I-1.082 J-0.036
X-20.55 Y60.749 Z-7.352 I0.508 J-0.955
X-18.852 Y61.44 Z-7.43 I0.633 J0.875
X-20.218 Y62.659 Z-7.507 I-1.063 J0.184
X-20.711 Y60.899 Z-7.585 I0.302 J-1.034
X-18.915 Y61.23 Z-7.662 I0.794 J0.725
X-20.001 Y62.695 Z-7.739 I-1 J0.394
X-20.838 Y61.077 Z-7.817 I0.086 J-1.07
X-19.02 Y61.037 Z-7.894 I0.922 J0.547
X-19.783 Y62.686 Z-7.972 I-0.896 J0.586
X-20.926 Y61.277 Z-8.049 I-0.132 J-1.061
X-19.16 Y60.871 Z-8.127 I1.01 J0.347
X-19.572 Y62.633 Z-8.204 I-0.755 J0.753
X-20.971 Y61.49 Z-8.282 I-0.344 J-1.008
X-19.331 Y60.737 Z-8.359 I1.055 J0.135
X-19.376 Y62.539 Z-8.437 I-0.584 J0.887
X-20.973 Y61.707 Z-8.514 I-0.539 J-0.914
X-19.525 Y60.64 Z-8.592 I1.056 J-0.082
X-19.205 Y62.407 Z-8.669 I-0.391 J0.983
X-20.93 Y61.918 Z-8.746 I-0.71 J-0.783
X-19.733 Y60.585 Z-8.824 I1.014 J-0.293
X-19.064 Y62.244 Z-8.901 I-0.183 J1.038
X-20.846 Y62.116 Z-8.979 I-0.851 J-0.62
X-19.948 Y60.574 Z-9.056 I0.93 J-0.491
X-18.959 Y62.057 Z-9.134 I0.032 J1.05
X-20.724 Y62.292 Z-9.211 I-0.955 J-0.433
X-20.159 Y60.606 Z-9.289 I0.808 J-0.667
X-18.896 Y61.853 Z-9.366 I0.243 J1.017
X-20.569 Y62.439 Z-9.444 I-1.019 J-0.229
X-20.359 Y60.681 Z-9.521 I0.653 J-0.814
X-18.874 Y61.641 Z-9.599 I0.443 J0.943
X-20.388 Y62.551 Z-9.676 I-1.041 J-0.017
X-20.539 Y60.794 Z-9.754 I0.473 J-0.926
X-18.897 Y61.43 Z-9.831 I0.623 J0.831
X-20.189 Y62.624 Z-9.908 I-1.018 J0.193
X-20.691 Y60.94 Z-9.986 I0.274 J-0.998
X-18.961 Y61.229 Z-10.063 I0.775 J0.684
X-19.981 Y62.654 Z-10.141 I-0.954 J0.394
X-20.811 Y61.114 Z-10.218 I0.065 J-1.029
X-19.064 Y61.046 Z-10.296 I0.894 J0.511
X-19.771 Y62.642 Z-10.373 I-0.851 J0.578
X-20.892 Y61.307 Z-10.451 I-0.144 J-1.017
X-19.202 Y60.888 Z-10.528 I0.975 J0.318
X-19.569 Y62.588 Z-10.606 I-0.713 J0.735
X-20.932 Y61.512 Z-10.683 I-0.346 J-0.963
X-19.368 Y60.762 Z-10.761 I1.016 J0.113
X-19.383 Y62.494 Z-10.838 I-0.547 J0.861
X-20.93 Y61.72 Z-10.915 I-0.532 J-0.869
X-19.556 Y60.673 Z-10.993 I1.013 J-0.095
X-19.22 Y62.365 Z-11.07 I-0.36 J0.951
X-20.885 Y61.923 Z-11.148 I-0.695 J-0.74
X-19.757 Y60.624 Z-11.225 I0.969 J-0.298
X-19.088 Y62.206 Z-11.303 I-0.159 J1
X-20.801 Y62.111 Z-11.38 I-0.827 J-0.582
X-19.963 Y60.617 Z-11.458 I0.885 J-0.486
X-18.991 Y62.024 Z-11.535 I0.047 J1.007
X-20.681 Y62.278 Z-11.613 I-0.924 J-0.4
X-20.166 Y60.651 Z-11.69 I0.765 J-0.653
X-18.933 Y61.828 Z-11.768 I0.25 J0.973
X-20.53 Y62.416 Z-11.845 I-0.982 J-0.203
