(CamperFlaschenhalterRucksitz_patch)
(T4 D=5 CR=0 - ZMIN=-19 - flat end mill)
G90 G94
G17
G21
(-Attention- Property Safe Retracts is set to Clearance Height.)
(Ensure the clearance height will clear the part and or fixtures.)
(Raise the Z-axis to a safe height before starting the program.)

(2D Adaptive1)
T4
S5000 M3
G17 G90 G94
G54
M8
G0 X178.438 Y3.984
Z15
G0 Z5
Z-2
G1 Z-2.5 F1000
X178.43 Y3.986 Z-2.587
X178.408 Y3.992 Z-2.671
X178.373 Y4.001 Z-2.75
X178.324 Y4.013 Z-2.821
X178.265 Y4.029 Z-2.883
X178.195 Y4.047 Z-2.933
X178.119 Y4.066 Z-2.97
X178.037 Y4.087 Z-2.992
X177.953 Y4.109 Z-3
G3 X175.231 Y4.5 I-3.167 J-12.366
G1 X175.01
X174.973 Y4.498
X174.854 Y4.407
X174.742 Y4.303
X174.617 Y4.166
X174.48 Y3.989
X174.332 Y3.762
X174.173 Y3.471
X173.845 Y2.732
X173.386 Y2.067
X172.739 Y1.583
X172.006 Y1.241
X171.234 Y1.004
X170.442 Y0.841
X169.642 Y0.73
X168.837 Y0.655
X168.03 Y0.604
X167.223 Y0.57
X166.415 Y0.547
X165.607 Y0.531
X164.798 Y0.521
X163.99 Y0.514
X163.182 Y0.509
X162.374 Y0.506
X160.757 Y0.503
X157.524 Y0.501
X126.003 Y0.5
X116.304
X115.496 Y0.505
X114.688 Y0.519
X113.88 Y0.54
X113.072 Y0.565
X112.264 Y0.592
X111.457 Y0.622
X110.65 Y0.662
X109.844 Y0.722
X109.039 Y0.795
X108.235 Y0.877
X107.431 Y0.965
X106.628 Y1.057
X105.827 Y1.161
X105.028 Y1.285
X104.231 Y1.422
X103.437 Y1.569
X102.643 Y1.723
X101.85 Y1.88
X101.06 Y2.049
X100.274 Y2.238
X99.492 Y2.44
X98.712 Y2.652
X97.933 Y2.87
X97.156 Y3.092
X96.382 Y3.325
X95.615 Y3.578
X94.851 Y3.844
X94.092 Y4.119
X93.334 Y4.401
X92.578 Y4.686
X91.825 Y4.981
X91.081 Y5.296
X90.342 Y5.624
X89.608 Y5.961
X88.876 Y6.304
X88.146 Y6.651
X87.42 Y7.006
X86.704 Y7.381
X85.995 Y7.769
X85.29 Y8.165
X84.589 Y8.567
X83.89 Y8.973
X83.196 Y9.387
X82.513 Y9.819
X81.838 Y10.264
X81.169 Y10.717
X80.503 Y11.175
X79.84 Y11.637
X79.182 Y12.107
X78.537 Y12.593
X77.901 Y13.092
X77.271 Y13.599
X76.645 Y14.11
X76.022 Y14.626
X75.405 Y15.147
X74.802 Y15.685
X74.209 Y16.234
X73.623 Y16.791
X73.042 Y17.353
X72.463 Y17.917
X71.891 Y18.487
X71.334 Y19.073
X70.788 Y19.669
X70.25 Y20.272
X69.717 Y20.88
X69.187 Y21.49
X68.663 Y22.106
X68.156 Y22.735
X67.661 Y23.374
X67.174 Y24.019
X66.693 Y24.669
X66.215 Y25.321
X65.743 Y25.977
X65.289 Y26.646
X64.849 Y27.323
X64.417 Y28.006
X63.991 Y28.693
X63.569 Y29.382
X63.152 Y30.075
X62.754 Y30.778
X62.371 Y31.49
X61.997 Y32.206
X61.629 Y32.926
X61.265 Y33.648
X60.906 Y34.372
X60.568 Y35.106
X60.244 Y35.846
X59.93 Y36.591
X59.622 Y37.339
X59.319 Y38.088
X59.021 Y38.839
X58.744 Y39.598
X58.482 Y40.363
X58.23 Y41.131
X57.986 Y41.901
X57.745 Y42.673
X57.509 Y43.446
X57.295 Y44.225
X57.097 Y45.009
X56.91 Y45.795
X56.729 Y46.583
X56.554 Y47.372
X56.381 Y48.161
X56.232 Y48.956
X56.099 Y49.753
X55.977 Y50.552
X55.862 Y51.352
X55.752 Y52.153
X55.645 Y52.954
X55.562 Y53.758
X55.495 Y54.563
X55.439 Y55.37
X55.39 Y56.176
X55.346 Y56.983
X55.306 Y57.791
X55.28 Y58.598
X55.263 Y59.406
X55.253 Y60.215
X55.248 Y61.023
X55.245 Y61.831
Y62.639
X55.249 Y63.448
X55.255 Y64.256
X55.263 Y65.064
X55.282 Y66.68
X55.294 Y67.488
X55.308 Y68.297
X55.324 Y69.105
X55.359 Y70.721
X55.378 Y71.529
X55.399 Y72.337
X55.422 Y73.145
X55.447 Y73.952
X55.5 Y75.568
X55.528 Y76.376
X55.559 Y77.183
X55.592 Y77.991
X55.661 Y79.606
X55.697 Y80.413
X55.736 Y81.221
X55.777 Y82.028
X55.82 Y82.835
X55.908 Y84.449
X55.955 Y85.256
X56.005 Y86.063
X56.056 Y86.869
X56.162 Y88.482
X56.218 Y89.289
X56.277 Y90.095
X56.338 Y90.901
X56.463 Y92.512
X56.528 Y93.318
X56.597 Y94.123
X56.667 Y94.928
X56.811 Y96.538
X56.887 Y97.343
X56.965 Y98.147
X57.046 Y98.952
X57.21 Y100.56
X57.298 Y101.363
X57.389 Y102.166
X57.483 Y102.969
X57.579 Y103.772
X57.774 Y105.376
X58.07 Y107.783
X58.174 Y108.584
X58.283 Y109.385
X58.396 Y110.186
X58.511 Y110.986
X58.628 Y111.785
X58.864 Y113.384
X59.102 Y114.983
X59.227 Y115.782
X59.358 Y116.579
X59.491 Y117.376
X59.627 Y118.173
X59.764 Y118.97
X60.042 Y120.562
X60.181 Y121.358
X60.324 Y122.154
X60.472 Y122.948
X60.624 Y123.742
X60.779 Y124.535
X60.936 Y125.328
X61.252 Y126.913
X61.412 Y127.706
X61.573 Y128.498
X61.741 Y129.289
X61.912 Y130.078
X62.086 Y130.868
X62.262 Y131.657
X62.616 Y133.234
X62.794 Y134.022
X62.976 Y134.81
X63.162 Y135.596
X63.352 Y136.382
X63.545 Y137.167
X63.738 Y137.951
X64.129 Y139.52
X64.325 Y140.304
X64.526 Y141.087
X64.731 Y141.869
X64.938 Y142.65
X65.148 Y143.431
X65.569 Y144.991
X65.781 Y145.771
X65.995 Y146.55
X66.214 Y147.329
X66.434 Y148.106
X66.657 Y148.883
X67.105 Y150.436
X67.33 Y151.213
X67.557 Y151.988
X67.787 Y152.763
X68.019 Y153.537
X68.253 Y154.311
X68.722 Y155.858
X68.958 Y156.631
X69.195 Y157.403
X69.435 Y158.175
X69.677 Y158.946
X70.165 Y160.488
X70.899 Y162.798
X72.618 Y168.189
X75.081 Y175.886
X75.574 Y177.426
X75.818 Y178.197
X76.058 Y178.968
X76.296 Y179.741
X76.532 Y180.514
X77.002 Y182.06
X77.938 Y185.155
X78.638 Y187.476
X78.87 Y188.251
X79.096 Y189.027
X79.318 Y189.804
X79.539 Y190.581
X79.757 Y191.359
X80.192 Y192.916
X80.405 Y193.696
X80.614 Y194.477
X80.82 Y195.258
X81.025 Y196.04
X81.429 Y197.605
X81.631 Y198.388
X81.827 Y199.172
X82.019 Y199.957
X82.208 Y200.743
X82.395 Y201.529
X82.581 Y202.316
X82.95 Y203.89
X83.128 Y204.678
X83.302 Y205.467
X83.472 Y206.257
X83.64 Y207.048
X83.973 Y208.63
X84.139 Y209.421
X84.298 Y210.213
X84.453 Y211.006
X84.604 Y211.8
X84.753 Y212.595
X84.901 Y213.389
X85.193 Y214.979
X85.335 Y215.775
X85.471 Y216.572
X85.603 Y217.369
X85.733 Y218.167
X85.86 Y218.965
X86.113 Y220.561
X86.238 Y221.36
X86.356 Y222.16
X86.469 Y222.96
X86.58 Y223.76
X86.688 Y224.561
X86.902 Y226.164
X87.007 Y226.965
X87.11 Y227.767
X87.207 Y228.569
X87.3 Y229.372
X87.39 Y230.175
X87.479 Y230.978
X87.653 Y232.586
X87.739 Y233.389
X87.822 Y234.193
X87.899 Y234.998
X87.973 Y235.803
X88.044 Y236.608
X88.114 Y237.413
X88.252 Y239.023
X88.319 Y239.829
X88.385 Y240.634
X88.445 Y241.44
X88.501 Y242.247
X88.556 Y243.053
X88.609 Y243.86
X88.712 Y245.473
X88.812 Y247.086
X88.857 Y247.893
X88.899 Y248.7
X88.938 Y249.508
X88.975 Y250.315
X89.048 Y251.93
X89.118 Y253.545
X89.15 Y254.352
X89.179 Y255.16
X89.205 Y255.968
X89.229 Y256.776
X89.274 Y258.392
X89.338 Y260.815
X89.356 Y261.623
X89.371 Y262.432
X89.384 Y263.24
X89.407 Y264.856
X89.436 Y267.281
X89.445 Y268.089
X89.452 Y268.897
X89.456 Y269.705
X89.458 Y270.513
X89.46 Y272.13
X89.459 Y275.363
X89.456 Y276.171
X89.45 Y276.979
X89.443 Y277.787
X89.424 Y279.404
X89.393 Y281.828
X89.27 Y290.718
X89.257 Y291.526
X89.227 Y293.142
X89.177 Y295.567
X89.04 Y302.031
X88.953 Y306.071
X88.922 Y307.687
X88.88 Y310.112
X88.731 Y319.001
X88.692 Y321.426
X88.682 Y322.234
X88.674 Y323.042
X88.662 Y324.658
X88.649 Y327.083
X88.641 Y328.699
X88.64 Y329.508
X88.641 Y330.316
X88.645 Y331.124
X88.655 Y332.741
X88.674 Y335.165
X88.681 Y335.973
X88.69 Y336.782
X88.703 Y337.59
X88.719 Y338.398
X88.736 Y339.206
X88.775 Y340.822
X88.836 Y343.246
X88.859 Y344.054
X88.888 Y344.861
X88.92 Y345.669
X88.954 Y346.477
X88.99 Y347.284
X89.064 Y348.899
X89.141 Y350.513
X89.183 Y351.321
X89.231 Y352.127
X89.283 Y352.934
X89.339 Y353.74
X89.396 Y354.546
X89.514 Y356.159
X89.635 Y357.771
X89.701 Y358.576
X89.775 Y359.381
X89.853 Y360.185
X89.934 Y360.989
X90.018 Y361.793
X90.189 Y363.401
X90.276 Y364.204
X90.364 Y365.008
X90.463 Y365.81
X90.568 Y366.611
X90.679 Y367.412
X90.792 Y368.212
X90.908 Y369.012
X91.143 Y370.611
X91.261 Y371.411
X91.39 Y372.209
X91.528 Y373.005
X91.672 Y373.8
X91.821 Y374.595
X91.972 Y375.389
X92.126 Y376.182
X92.436 Y377.769
X92.599 Y378.56
X92.771 Y379.35
X92.949 Y380.139
X93.13 Y380.926
X93.32 Y381.712
X93.517 Y382.496
X93.719 Y383.278
X93.924 Y384.06
X94.139 Y384.839
X94.361 Y385.616
X94.588 Y386.392
X94.818 Y387.167
X95.059 Y387.938
X95.307 Y388.707
X95.561 Y389.475
X95.819 Y390.241
X96.088 Y391.003
X96.364 Y391.763
X96.645 Y392.52
X96.934 Y393.275
X97.233 Y394.026
X97.539 Y394.774
X97.85 Y395.52
X98.17 Y396.262
X98.501 Y397
X98.839 Y397.734
X99.181 Y398.466
X99.536 Y399.192
X99.9 Y399.914
X100.27 Y400.632
X100.648 Y401.347
X101.038 Y402.055
X101.436 Y402.758
X101.84 Y403.458
X102.255 Y404.152
X102.681 Y404.839
X103.114 Y405.521
X103.554 Y406.199
X104.006 Y406.869
X104.468 Y407.532
X104.936 Y408.191
X105.414 Y408.843
X105.904 Y409.486
X106.401 Y410.123
X106.904 Y410.756
X107.42 Y411.378
X107.946 Y411.992
X108.478 Y412.6
X109.019 Y413.201
X109.571 Y413.791
X110.131 Y414.373
X110.697 Y414.951
X111.273 Y415.517
X111.86 Y416.073
X112.453 Y416.623
X113.051 Y417.166
X113.661 Y417.696
X114.279 Y418.217
X114.902 Y418.732
X115.533 Y419.237
X116.174 Y419.73
X116.82 Y420.215
X117.471 Y420.694
X118.131 Y421.16
X118.799 Y421.616
X119.472 Y422.064
X120.148 Y422.507
X120.833 Y422.935
X121.525 Y423.352
X122.221 Y423.763
X122.921 Y424.168
X123.629 Y424.558
X124.342 Y424.939
X125.058 Y425.313
X125.778 Y425.681
X126.505 Y426.034
X127.236 Y426.379
X127.97 Y426.716
X128.707 Y427.049
X129.45 Y427.367
X130.196 Y427.676
X130.946 Y427.979
X131.697 Y428.277
X132.453 Y428.563
X133.213 Y428.838
X133.975 Y429.107
X134.739 Y429.372
X135.506 Y429.626
X136.277 Y429.87
X137.049 Y430.108
X137.823 Y430.34
X138.599 Y430.567
X139.378 Y430.782
X140.16 Y430.989
X140.942 Y431.19
X141.726 Y431.388
X142.512 Y431.577
X143.3 Y431.757
X144.089 Y431.93
X144.879 Y432.099
X145.67 Y432.266
X146.464 Y432.42
X147.258 Y432.568
X148.054 Y432.71
X148.85 Y432.849
X149.647 Y432.984
X150.446 Y433.109
X151.245 Y433.227
X152.045 Y433.341
X152.846 Y433.452
X153.647 Y433.56
X154.449 Y433.658
X155.252 Y433.749
X156.056 Y433.837
X156.859 Y433.921
X157.663 Y434.004
X158.468 Y434.077
X159.274 Y434.145
X160.08 Y434.208
X160.886 Y434.268
X161.692 Y434.326
X162.498 Y434.379
X163.305 Y434.424
X164.112 Y434.465
X164.92 Y434.503
X165.727 Y434.539
X166.535 Y434.573
X167.343 Y434.599
X168.15 Y434.62
X168.959 Y434.637
X169.767 Y434.652
X170.373 Y434.662
X170.772 Y434.603
X171.132 Y434.418
X171.76 Y433.909
X172.214 Y433.241
X172.533 Y432.498
X172.754 Y431.721
X172.785 Y431.56
X172.865 Y431.304
X173.002 Y431.073
X173.187 Y430.88
X173.412 Y430.734
X173.664 Y430.643
X173.931 Y430.612
G3 X174.413 Y431.129 I-0.017 J0.5
G1 X174.41 Y431.216 Z-2.992
X174.407 Y431.3 Z-2.97
X174.404 Y431.379 Z-2.933
X174.402 Y431.45 Z-2.883
X174.4 Y431.512 Z-2.821
X174.398 Y431.562 Z-2.75
X174.397 Y431.599 Z-2.671
X174.396 Y431.621 Z-2.587
Y431.629 Z-2.5
G0 Z5
X176.194 Y4.023
Z-2
G1 Z-2.5 F1000
X176.187 Y4.027 Z-2.587
X176.168 Y4.039 Z-2.671
X176.136 Y4.057 Z-2.75
X176.093 Y4.083 Z-2.821
X176.04 Y4.114 Z-2.883
X175.979 Y4.151 Z-2.933
X175.911 Y4.191 Z-2.97
X175.839 Y4.234 Z-2.992
X175.764 Y4.279 Z-3
G3 X175.01 Y4.5 I-0.809 J-1.36
G1 X174.313
X174.163 Y4.492
X173.899 Y4.389
X173.173 Y4.034
X172.438 Y3.697
X171.682 Y3.411
X170.907 Y3.183
X170.118 Y3.005
X169.321 Y2.87
X168.519 Y2.769
X167.715 Y2.694
X166.908 Y2.639
X166.101 Y2.6
X165.293 Y2.571
X164.485 Y2.55
X163.677 Y2.535
X162.869 Y2.525
X162.061 Y2.518
X161.253 Y2.512
X160.444 Y2.509
X158.828 Y2.504
X156.403 Y2.501
X149.129 Y2.5
X124.074
X118.416
X117.608 Y2.501
X116.8 Y2.504
X115.991 Y2.512
X115.183 Y2.525
X114.375 Y2.542
X113.567 Y2.563
X112.76 Y2.589
X111.952 Y2.623
X111.145 Y2.669
X110.339 Y2.726
X109.533 Y2.792
X108.728 Y2.866
X107.924 Y2.949
X107.122 Y3.044
X106.321 Y3.152
X105.522 Y3.273
X104.724 Y3.404
X103.928 Y3.544
X103.134 Y3.693
X102.342 Y3.855
X101.553 Y4.031
X100.767 Y4.219
X99.983 Y4.417
X99.202 Y4.624
X98.423 Y4.84
X97.648 Y5.07
X96.877 Y5.312
X96.11 Y5.566
X95.346 Y5.83
X94.585 Y6.102
X93.828 Y6.384
X93.075 Y6.679
X92.328 Y6.986
X91.585 Y7.304
X90.845 Y7.631
X90.11 Y7.967
X89.38 Y8.313
X88.655 Y8.671
X87.937 Y9.041
X87.223 Y9.421
X86.514 Y9.809
X85.81 Y10.206
X85.112 Y10.613
X84.421 Y11.032
X83.736 Y11.462
X83.058 Y11.901
X82.384 Y12.348
X81.716 Y12.802
X81.055 Y13.268
X80.403 Y13.745
X79.758 Y14.231
X79.119 Y14.727
X78.486 Y15.229
X77.859 Y15.739
X77.24 Y16.26
X76.631 Y16.79
X76.029 Y17.33
X75.435 Y17.878
X74.846 Y18.432
X74.265 Y18.994
X73.694 Y19.565
X73.132 Y20.146
X72.578 Y20.735
X72.032 Y21.331
X71.493 Y21.933
X70.962 Y22.542
X70.441 Y23.16
X69.931 Y23.787
X69.43 Y24.421
X68.936 Y25.061
X68.449 Y25.706
X67.972 Y26.358
X67.506 Y27.019
X67.051 Y27.687
X66.606 Y28.361
X66.168 Y29.041
X65.737 Y29.725
X65.318 Y30.416
X64.911 Y31.114
X64.514 Y31.818
X64.128 Y32.528
X63.749 Y33.242
X63.378 Y33.96
X63.02 Y34.685
X62.674 Y35.415
X62.339 Y36.151
X62.014 Y36.891
X61.697 Y37.634
X61.389 Y38.381
X61.094 Y39.134
X60.811 Y39.891
X60.54 Y40.652
X60.279 Y41.417
X60.025 Y42.185
X59.782 Y42.955
X59.552 Y43.73
X59.336 Y44.509
X59.13 Y45.291
X58.935 Y46.075
X58.746 Y46.861
X58.57 Y47.65
X58.408 Y48.441
X58.258 Y49.236
X58.12 Y50.032
X57.992 Y50.83
X57.871 Y51.629
X57.763 Y52.43
X57.67 Y53.233
X57.589 Y54.037
X57.519 Y54.842
X57.458 Y55.648
X57.405 Y56.455
X57.362 Y57.262
X57.328 Y58.07
X57.303 Y58.877
X57.284 Y59.685
X57.271 Y60.494
X57.263 Y61.302
X57.259 Y62.11
Y62.918
X57.261 Y63.726
X57.266 Y64.535
X57.273 Y65.343
X57.282 Y66.151
X57.293 Y66.959
X57.305 Y67.767
X57.319 Y68.575
X57.335 Y69.384
X57.352 Y70.192
X57.371 Y71
X57.391 Y71.808
X57.413 Y72.616
X57.437 Y73.423
X57.461 Y74.231
X57.488 Y75.039
X57.516 Y75.847
X57.546 Y76.654
X57.577 Y77.462
X57.61 Y78.27
X57.644 Y79.077
X57.68 Y79.885
X57.718 Y80.692
X57.758 Y81.499
X57.799 Y82.306
X57.842 Y83.114
X57.887 Y83.921
X57.933 Y84.727
X57.982 Y85.534
X58.032 Y86.341
X58.083 Y87.147
X58.137 Y87.954
X58.193 Y88.76
X58.25 Y89.566
X58.309 Y90.372
X58.37 Y91.178
X58.433 Y91.984
X58.498 Y92.79
X58.566 Y93.595
X58.634 Y94.401
X58.705 Y95.206
X58.778 Y96.011
X58.853 Y96.815
X58.93 Y97.62
X59.009 Y98.424
X59.09 Y99.228
X59.174 Y100.032
X59.261 Y100.836
X59.351 Y101.639
X59.443 Y102.442
X59.537 Y103.245
X59.632 Y104.047
X59.826 Y105.652
X59.925 Y106.454
X60.027 Y107.256
X60.132 Y108.058
X60.24 Y108.859
X60.351 Y109.659
X60.464 Y110.459
X60.579 Y111.259
X60.695 Y112.059
X60.812 Y112.859
X60.931 Y113.658
X61.054 Y114.457
X61.18 Y115.256
X61.309 Y116.054
X61.44 Y116.851
X61.574 Y117.648
X61.71 Y118.445
X61.846 Y119.241
X61.985 Y120.038
X62.126 Y120.834
X62.271 Y121.629
X62.419 Y122.423
X62.57 Y123.217
X62.723 Y124.011
X62.878 Y124.804
X63.034 Y125.597
X63.192 Y126.39
X63.353 Y127.182
X63.517 Y127.973
X63.684 Y128.764
X63.854 Y129.554
X64.027 Y130.344
X64.201 Y131.133
X64.376 Y131.922
X64.553 Y132.711
X64.734 Y133.498
X64.917 Y134.286
X65.104 Y135.072
X65.292 Y135.858
X65.483 Y136.643
X65.675 Y137.428
X65.869 Y138.213
X66.065 Y138.997
X66.264 Y139.78
X66.466 Y140.563
X66.67 Y141.345
X66.876 Y142.127
X67.084 Y142.908
X67.293 Y143.688
X67.504 Y144.469
X67.718 Y145.248
X67.934 Y146.027
X68.152 Y146.805
X68.372 Y147.583
X68.593 Y148.36
X68.816 Y149.137
X69.04 Y149.914
X69.266 Y150.69
X69.495 Y151.465
X69.725 Y152.24
X69.956 Y153.014
X70.189 Y153.788
X70.422 Y154.562
X70.658 Y155.335
X70.894 Y156.108
X71.133 Y156.88
X71.373 Y157.652
X71.615 Y158.423
X71.857 Y159.194
X72.344 Y160.736
X73.078 Y163.046
X74.306 Y166.897
X76.029 Y172.286
X77.014 Y175.365
X77.259 Y176.135
X77.503 Y176.906
X77.745 Y177.677
X77.984 Y178.449
X78.223 Y179.221
X78.46 Y179.994
X78.931 Y181.54
X79.635 Y183.86
X80.102 Y185.408
X80.335 Y186.182
X80.566 Y186.956
X80.793 Y187.732
X81.019 Y188.508
X81.242 Y189.285
X81.463 Y190.062
X81.683 Y190.84
X81.901 Y191.618
X82.115 Y192.397
X82.327 Y193.177
X82.537 Y193.958
X82.744 Y194.739
X82.95 Y195.521
X83.154 Y196.303
X83.355 Y197.086
X83.554 Y197.869
X83.749 Y198.653
X83.942 Y199.438
X84.132 Y200.224
X84.321 Y201.01
X84.508 Y201.796
X84.692 Y202.583
X84.873 Y203.371
X85.05 Y204.159
X85.225 Y204.948
X85.397 Y205.738
X85.567 Y206.528
X85.736 Y207.319
X85.902 Y208.11
X86.064 Y208.902
X86.223 Y209.694
X86.379 Y210.487
X86.532 Y211.281
X86.683 Y212.075
X86.832 Y212.869
X86.979 Y213.664
X87.123 Y214.459
X87.263 Y215.255
X87.4 Y216.052
X87.534 Y216.849
X87.666 Y217.646
X87.796 Y218.444
X87.924 Y219.242
X88.049 Y220.04
X88.171 Y220.839
X88.29 Y221.639
X88.405 Y222.439
X88.518 Y223.239
X88.628 Y224.04
X88.738 Y224.841
X88.845 Y225.642
X88.949 Y226.443
X89.05 Y227.245
X89.148 Y228.047
X89.243 Y228.85
X89.336 Y229.653
X89.426 Y230.456
X89.516 Y231.259
X89.603 Y232.063
X89.688 Y232.866
X89.77 Y233.671
X89.848 Y234.475
X89.924 Y235.28
X89.998 Y236.084
X90.07 Y236.89
X90.141 Y237.695
X90.21 Y238.5
X90.277 Y239.305
X90.341 Y240.111
X90.402 Y240.917
X90.461 Y241.723
X90.518 Y242.529
X90.572 Y243.336
X90.626 Y244.142
X90.679 Y244.949
X90.729 Y245.755
X90.778 Y246.562
X90.823 Y247.369
X90.866 Y248.176
X90.908 Y248.983
X90.947 Y249.791
X91.023 Y251.405
X91.059 Y252.213
X91.093 Y253.02
X91.125 Y253.828
X91.155 Y254.636
X91.182 Y255.443
X91.208 Y256.251
X91.233 Y257.059
X91.28 Y258.675
X91.301 Y259.483
X91.322 Y260.291
X91.34 Y261.099
X91.356 Y261.907
X91.371 Y262.715
X91.384 Y263.523
X91.407 Y265.139
X91.428 Y266.756
X91.436 Y267.564
X91.443 Y268.372
X91.448 Y269.18
X91.452 Y269.989
X91.456 Y271.605
X91.458 Y273.221
Y274.03
X91.457 Y274.838
X91.453 Y275.646
X91.449 Y276.454
X91.443 Y277.263
X91.427 Y278.879
X91.408 Y280.495
X91.366 Y283.728
X91.288 Y289.385
X91.263 Y291.001
X91.234 Y292.618
X91.187 Y295.042
X91.103 Y299.082
X90.966 Y305.547
X90.934 Y307.163
X90.89 Y309.587
X90.821 Y313.628
X90.714 Y320.093
X90.703 Y320.901
X90.692 Y321.709
X90.683 Y322.517
X90.669 Y324.134
X90.658 Y325.75
X90.649 Y327.366
X90.646 Y328.175
X90.645 Y328.983
X90.646 Y329.791
X90.648 Y330.599
X90.655 Y332.216
X90.665 Y333.832
X90.672 Y334.641
X90.679 Y335.449
X90.689 Y336.257
X90.701 Y337.065
X90.716 Y337.873
X90.731 Y338.681
X90.748 Y339.489
X90.786 Y341.105
X90.805 Y341.913
X90.827 Y342.721
X90.852 Y343.529
X90.879 Y344.337
X90.909 Y345.145
X90.941 Y345.952
X90.975 Y346.76
X91.01 Y347.567
X91.046 Y348.375
X91.084 Y349.182
X91.124 Y349.989
X91.167 Y350.796
X91.214 Y351.603
X91.264 Y352.41
X91.317 Y353.216
X91.372 Y354.023
X91.428 Y354.829
X91.486 Y355.635
X91.545 Y356.441
X91.609 Y357.247
X91.677 Y358.052
X91.748 Y358.857
X91.824 Y359.662
X91.902 Y360.467
X91.983 Y361.271
X92.066 Y362.075
X92.15 Y362.879
X92.238 Y363.682
X92.331 Y364.485
X92.43 Y365.287
X92.533 Y366.089
X92.64 Y366.89
X92.75 Y367.69
X92.862 Y368.491
X92.977 Y369.291
X93.095 Y370.09
X93.22 Y370.889
X93.35 Y371.687
X93.487 Y372.483
X93.628 Y373.279
X93.773 Y374.074
X93.921 Y374.869
X94.072 Y375.663
X94.226 Y376.456
X94.386 Y377.248
X94.552 Y378.04
X94.722 Y378.83
X94.899 Y379.618
X95.083 Y380.405
X95.272 Y381.191
X95.467 Y381.975
X95.669 Y382.758
X95.878 Y383.539
X96.092 Y384.318
X96.312 Y385.096
X96.54 Y385.871
X96.775 Y386.645
X97.016 Y387.416
X97.263 Y388.186
X97.518 Y388.952
X97.781 Y389.717
X98.05 Y390.479
X98.327 Y391.238
X98.612 Y391.995
X98.905 Y392.748
X99.205 Y393.499
X99.513 Y394.246
X99.829 Y394.989
X100.154 Y395.73
X100.486 Y396.466
X100.828 Y397.199
X101.178 Y397.927
X101.536 Y398.652
X101.903 Y399.372
X102.28 Y400.087
X102.665 Y400.798
X103.059 Y401.503
X103.463 Y402.203
X103.876 Y402.898
X104.297 Y403.588
X104.728 Y404.272
X105.169 Y404.949
X105.619 Y405.621
X106.078 Y406.286
X106.547 Y406.944
X107.026 Y407.595
X107.513 Y408.24
X108.01 Y408.877
X108.518 Y409.506
X109.034 Y410.128
X109.559 Y410.743
X110.094 Y411.348
X110.638 Y411.946
X111.191 Y412.536
X111.752 Y413.117
X112.323 Y413.689
X112.903 Y414.253
X113.49 Y414.808
X114.087 Y415.353
X114.692 Y415.889
X115.304 Y416.416
X115.925 Y416.934
X116.554 Y417.441
X117.19 Y417.94
X117.833 Y418.43
X118.484 Y418.909
X119.142 Y419.378
X119.806 Y419.839
X120.477 Y420.29
X121.155 Y420.73
X121.839 Y421.16
X122.528 Y421.582
X123.224 Y421.993
X123.926 Y422.395
X124.633 Y422.786
X125.344 Y423.17
X126.061 Y423.543
X126.783 Y423.906
X127.51 Y424.26
X128.24 Y424.606
X128.975 Y424.942
X129.715 Y425.268
X130.458 Y425.586
X131.204 Y425.896
X131.955 Y426.197
X132.709 Y426.488
X133.465 Y426.771
X134.225 Y427.047
X134.988 Y427.313
X135.754 Y427.571
X136.523 Y427.822
X137.294 Y428.065
X138.067 Y428.3
X138.842 Y428.527
X139.62 Y428.746
X140.4 Y428.959
X141.182 Y429.164
X141.965 Y429.362
X142.751 Y429.552
X143.538 Y429.736
X144.327 Y429.914
X145.116 Y430.085
X145.908 Y430.249
X146.701 Y430.406
X147.495 Y430.557
X148.29 Y430.703
X149.086 Y430.842
X149.883 Y430.975
X150.681 Y431.101
X151.481 Y431.222
X152.28 Y431.339
X153.081 Y431.449
X153.882 Y431.554
X154.685 Y431.652
X155.487 Y431.746
X156.291 Y431.836
X157.094 Y431.921
X157.899 Y431.999
X158.704 Y432.073
X159.509 Y432.141
X160.315 Y432.207
X161.121 Y432.267
X161.927 Y432.322
X162.734 Y432.373
X163.541 Y432.419
X164.348 Y432.461
X165.155 Y432.501
X165.962 Y432.535
X166.77 Y432.565
X167.578 Y432.59
X167.982 Y432.58
X168.373 Y432.477
X169.1 Y432.125
X169.716 Y431.601
X170.336 Y430.963
X170.514 Y430.814
X170.718 Y430.703
X170.939 Y430.635
X171.17 Y430.612
X172.623
G3 X173.105 Y431.129 I-0.017 J0.5
G1 X173.102 Y431.216 Z-2.992
X173.099 Y431.3 Z-2.97
X173.096 Y431.379 Z-2.933
X173.094 Y431.45 Z-2.883
X173.092 Y431.512 Z-2.821
X173.09 Y431.562 Z-2.75
X173.089 Y431.599 Z-2.671
X173.088 Y431.621 Z-2.587
Y431.629 Z-2.5
G0 Z5
X175.496 Y4.023
Z-2
G1 Z-2.5 F1000
X175.49 Y4.027 Z-2.587
X175.47 Y4.039 Z-2.671
X175.439 Y4.057 Z-2.75
X175.396 Y4.083 Z-2.821
X175.343 Y4.114 Z-2.883
X175.281 Y4.151 Z-2.933
X175.214 Y4.191 Z-2.97
X175.141 Y4.234 Z-2.992
X175.067 Y4.279 Z-3
G3 X174.313 Y4.5 I-0.809 J-1.36
G1 X114.589
X114.222 Y4.505
X114.038 Y4.508
X113.855 Y4.514
X109.814 Y4.69
X109.631 Y4.7
X109.08 Y4.753
X104.856 Y5.309
X104.785 Y5.32
X104.305 Y5.416
X104.121 Y5.455
X100.588 Y6.238
X100.081 Y6.354
X99.897 Y6.4
X95.75 Y7.708
X95.673 Y7.733
X95.122 Y7.934
X91.449 Y9.455
X90.898 Y9.694
X90.83 Y9.727
X87.225 Y11.604
X86.858 Y11.797
X86.674 Y11.898
X86.619 Y11.931
X83.001 Y14.236
X82.877 Y14.318
X82.45 Y14.62
X82.36 Y14.686
X78.961 Y17.294
X78.777 Y17.45
X78.585 Y17.624
X75.655 Y20.309
X75.582 Y20.378
X75.104 Y20.854
X72.342 Y23.867
X72.166 Y24.062
X72.02 Y24.234
X71.455 Y24.969
X69.411 Y27.633
X69.044 Y28.147
X68.961 Y28.274
X66.656 Y31.892
X66.623 Y31.947
X66.522 Y32.131
X66.289 Y32.574
X64.452 Y36.102
X64.421 Y36.171
X64.179 Y36.721
X62.734 Y40.21
X62.66 Y40.394
X62.456 Y40.945
X61.124 Y45.169
X61.079 Y45.352
X60.963 Y45.853
X60.178 Y49.392
X60.14 Y49.576
X60.045 Y50.036
X60.032 Y50.127
X59.494 Y54.211
X59.477 Y54.35
X59.42 Y54.901
X59.236 Y59.125
X59.228 Y59.492
X59.225 Y59.676
X59.224 Y59.859
X59.252 Y64.817
X59.255 Y65.184
X59.267 Y65.919
X59.341 Y70.143
X59.352 Y70.693
X59.499 Y75.652
X59.528 Y76.386
X59.708 Y80.61
X59.735 Y81.161
X59.969 Y85.384
X60.003 Y85.935
X60.045 Y86.556
X60.306 Y90.342
X60.365 Y91.077
X60.655 Y94.566
X60.702 Y95.117
X60.737 Y95.484
X61.112 Y99.34
X61.13 Y99.524
X61.603 Y103.747
X62.091 Y107.604
X62.139 Y107.971
X62.268 Y108.889
X62.658 Y111.644
X62.769 Y112.378
X63.259 Y115.5
X63.317 Y115.867
X63.351 Y116.066
X63.948 Y119.54
X63.981 Y119.723
X64.089 Y120.524
X64.394 Y122.112
X64.702 Y123.699
X64.858 Y124.492
X65.016 Y125.284
X65.176 Y126.077
X65.338 Y126.868
X65.503 Y127.66
X65.671 Y128.45
X65.841 Y129.24
X66.012 Y130.03
X66.186 Y130.82
X66.362 Y131.608
X66.541 Y132.397
X66.723 Y133.184
X66.907 Y133.971
X67.093 Y134.758
X67.282 Y135.544
X67.472 Y136.329
X67.664 Y137.114
X67.859 Y137.898
X68.057 Y138.682
X68.256 Y139.465
X68.459 Y140.248
X68.663 Y141.03
X68.869 Y141.811
X69.077 Y142.593
X69.287 Y143.373
X69.499 Y144.153
X69.713 Y144.932
X69.929 Y145.711
X70.148 Y146.489
X70.367 Y147.267
X70.589 Y148.044
X70.812 Y148.821
X71.037 Y149.597
X71.264 Y150.373
X71.493 Y151.148
X71.723 Y151.923
X71.954 Y152.697
X72.187 Y153.471
X72.421 Y154.245
X72.657 Y155.018
X72.895 Y155.79
X73.134 Y156.563
X73.374 Y157.334
X73.858 Y158.877
X74.344 Y160.418
X75.078 Y162.729
X76.059 Y165.81
X76.796 Y168.12
X78.52 Y173.508
X78.766 Y174.278
X79.01 Y175.049
X79.254 Y175.819
X79.496 Y176.591
X79.736 Y177.362
X79.976 Y178.134
X80.214 Y178.906
X80.688 Y180.452
X81.159 Y181.998
X81.628 Y183.545
X81.861 Y184.319
X82.093 Y185.093
X82.324 Y185.868
X82.552 Y186.643
X82.779 Y187.419
X83.003 Y188.195
X83.226 Y188.972
X83.447 Y189.75
X83.666 Y190.528
X83.882 Y191.307
X84.095 Y192.086
X84.307 Y192.866
X84.516 Y193.647
X84.723 Y194.428
X84.929 Y195.21
X85.131 Y195.992
X85.332 Y196.775
X85.529 Y197.559
X85.724 Y198.343
X85.917 Y199.128
X86.107 Y199.914
X86.296 Y200.7
X86.481 Y201.486
X86.664 Y202.274
X86.844 Y203.062
X87.021 Y203.85
X87.196 Y204.639
X87.369 Y205.429
X87.539 Y206.219
X87.706 Y207.01
X87.871 Y207.801
X88.032 Y208.593
X88.191 Y209.385
X88.347 Y210.178
X88.501 Y210.972
X88.652 Y211.766
X88.801 Y212.56
X88.947 Y213.355
X89.09 Y214.151
X89.23 Y214.947
X89.367 Y215.743
X89.502 Y216.54
X89.634 Y217.338
X89.765 Y218.135
X89.892 Y218.933
X90.016 Y219.732
X90.138 Y220.531
X90.256 Y221.33
X90.372 Y222.13
X90.486 Y222.931
X90.598 Y223.731
X90.707 Y224.532
X90.814 Y225.333
X90.917 Y226.135
X91.018 Y226.936
X91.117 Y227.739
X91.212 Y228.541
X91.306 Y229.344
X91.398 Y230.147
X91.487 Y230.95
X91.574 Y231.754
X91.659 Y232.558
X91.74 Y233.362
X91.82 Y234.166
X91.897 Y234.971
X91.971 Y235.775
X92.045 Y236.58
X92.116 Y237.385
X92.185 Y238.191
X92.251 Y238.996
X92.315 Y239.802
X92.377 Y240.608
X92.437 Y241.414
X92.494 Y242.22
X92.55 Y243.026
X92.605 Y243.833
X92.657 Y244.639
X92.708 Y245.446
X92.756 Y246.253
X92.802 Y247.06
X92.846 Y247.867
X92.888 Y248.674
X92.929 Y249.481
X92.968 Y250.288
X93.006 Y251.096
X93.042 Y251.903
X93.076 Y252.711
X93.108 Y253.518
X93.139 Y254.326
X93.167 Y255.134
X93.194 Y255.941
X93.22 Y256.749
X93.245 Y257.557
X93.268 Y258.365
X93.29 Y259.173
X93.31 Y259.981
X93.328 Y260.789
X93.345 Y261.597
X93.361 Y262.405
X93.375 Y263.213
X93.4 Y264.829
X93.411 Y265.638
X93.421 Y266.446
X93.429 Y267.254
X93.436 Y268.062
X93.442 Y268.87
X93.447 Y269.679
X93.453 Y271.295
X93.455 Y272.912
Y273.72
X93.454 Y274.528
X93.451 Y275.336
X93.447 Y276.144
X93.441 Y276.953
X93.427 Y278.569
X93.41 Y280.185
X93.38 Y282.61
X93.326 Y286.651
X93.292 Y289.075
X93.266 Y290.692
X93.238 Y292.308
X93.192 Y294.732
X93.126 Y297.964
X92.99 Y304.429
X92.942 Y306.853
X92.897 Y309.277
X92.827 Y313.318
X92.773 Y316.55
X92.733 Y318.975
X92.71 Y320.591
X92.699 Y321.399
X92.682 Y323.016
X92.668 Y324.632
X92.657 Y326.248
X92.653 Y327.057
X92.651 Y327.865
X92.649 Y328.673
X92.65 Y329.481
X92.651 Y330.29
X92.657 Y331.906
X92.666 Y333.522
X92.673 Y334.331
X92.681 Y335.139
X92.691 Y335.947
X92.702 Y336.755
X92.716 Y337.563
X92.731 Y338.371
X92.747 Y339.18
X92.764 Y339.988
X92.783 Y340.796
X92.803 Y341.604
X92.825 Y342.412
X92.85 Y343.219
X92.877 Y344.027
X92.906 Y344.835
X92.937 Y345.643
X92.969 Y346.45
X93.003 Y347.258
X93.039 Y348.065
X93.077 Y348.872
X93.118 Y349.68
X93.162 Y350.487
X93.208 Y351.294
X93.257 Y352.1
X93.309 Y352.907
X93.362 Y353.713
X93.417 Y354.52
X93.475 Y355.326
X93.536 Y356.132
X93.6 Y356.938
X93.668 Y357.743
X93.74 Y358.548
X93.814 Y359.353
X93.891 Y360.157
X93.97 Y360.962
X94.052 Y361.766
X94.138 Y362.569
X94.228 Y363.373
X94.322 Y364.175
X94.42 Y364.978
X94.522 Y365.779
X94.628 Y366.581
X94.736 Y367.382
X94.848 Y368.182
X94.964 Y368.982
X95.085 Y369.781
X95.211 Y370.579
X95.343 Y371.377
X95.479 Y372.174
X95.619 Y372.97
X95.762 Y373.765
X95.91 Y374.56
X96.062 Y375.353
X96.218 Y376.146
X96.38 Y376.938
X96.547 Y377.729
X96.72 Y378.518
X96.899 Y379.307
X97.084 Y380.093
X97.275 Y380.879
X97.473 Y381.663
X97.677 Y382.445
X97.887 Y383.225
X98.103 Y384.004
X98.327 Y384.781
X98.557 Y385.555
X98.794 Y386.328
X99.038 Y387.099
X99.289 Y387.867
X99.548 Y388.632
X99.814 Y389.396
X100.088 Y390.156
X100.369 Y390.914
X100.658 Y391.668
X100.956 Y392.42
X101.261 Y393.168
X101.574 Y393.913
X101.896 Y394.655
X102.227 Y395.392
X102.566 Y396.126
X102.914 Y396.855
X103.271 Y397.58
X103.637 Y398.301
X104.012 Y399.017
X104.396 Y399.728
X104.79 Y400.434
X105.193 Y401.134
X105.606 Y401.829
X106.028 Y402.519
X106.46 Y403.202
X106.902 Y403.879
X107.353 Y404.549
X107.815 Y405.213
X108.286 Y405.87
X108.766 Y406.519
X109.257 Y407.161
X109.757 Y407.796
X110.268 Y408.423
X110.787 Y409.042
X111.317 Y409.652
X111.856 Y410.255
X112.404 Y410.849
X112.962 Y411.433
X113.529 Y412.01
X114.105 Y412.577
X114.69 Y413.134
X115.283 Y413.683
X115.886 Y414.222
X116.497 Y414.751
X117.116 Y415.271
X117.743 Y415.781
X118.378 Y416.281
X119.021 Y416.77
X119.671 Y417.25
X120.328 Y417.72
X120.993 Y418.18
X121.665 Y418.63
X122.343 Y419.07
X123.027 Y419.499
X123.718 Y419.919
X124.415 Y420.328
X125.118 Y420.728
X125.826 Y421.117
X126.539 Y421.497
X127.258 Y421.867
X127.981 Y422.228
X128.709 Y422.578
X129.442 Y422.92
X130.179 Y423.252
X130.92 Y423.575
X131.665 Y423.888
X132.414 Y424.193
X133.166 Y424.488
X133.921 Y424.775
X134.68 Y425.053
X135.442 Y425.323
X136.207 Y425.584
X136.975 Y425.837
X137.745 Y426.082
X138.518 Y426.319
X139.293 Y426.548
X140.07 Y426.769
X140.85 Y426.983
X141.631 Y427.189
X142.415 Y427.388
X143.2 Y427.58
X143.998 Y427.767
X144.157 Y427.804
X144.524 Y427.885
X144.708 Y427.925
X147.646 Y428.537
X148.197 Y428.641
X148.381 Y428.674
X151.319 Y429.17
X151.87 Y429.257
X152.054 Y429.283
X155.176 Y429.702
X155.543 Y429.75
X155.727 Y429.771
X159.216 Y430.128
X159.4 Y430.142
X159.767 Y430.168
X160.135 Y430.191
X166.562 Y430.581
X167.113 Y430.608
X167.297 Y430.612
X171.17
G3 X171.652 Y431.129 I-0.017 J0.5
G1 X171.649 Y431.216 Z-2.992
X171.646 Y431.3 Z-2.97
X171.643 Y431.379 Z-2.933
X171.641 Y431.45 Z-2.883
X171.639 Y431.512 Z-2.821
X171.637 Y431.562 Z-2.75
X171.636 Y431.599 Z-2.671
X171.635 Y431.621 Z-2.587
Y431.629 Z-2.5
G0 Z5
X63.296 Y118.647
Z-2
G1 Z-2.5 F1000
X63.301 Y118.653 Z-2.587
X63.316 Y118.67 Z-2.671
X63.34 Y118.698 Z-2.75
X63.373 Y118.735 Z-2.821
X63.414 Y118.781 Z-2.883
X63.461 Y118.835 Z-2.933
X63.513 Y118.894 Z-2.97
X63.568 Y118.958 Z-2.992
X63.626 Y119.023 Z-3
G3 X63.981 Y119.723 I-1.189 J1.044
G1 X64.636 Y123.226
X64.67 Y123.396
X64.822 Y124.131
X66.053 Y130.007
X66.171 Y130.558
X66.213 Y130.741
X67.758 Y137.23
X67.788 Y137.352
X69.411 Y143.488
X69.54 Y143.963
X69.595 Y144.159
X71.281 Y150.023
X71.335 Y150.206
X71.615 Y151.126
X73.187 Y156.266
X73.422 Y157.001
X79.514 Y175.915
X80.874 Y180.138
X81.157 Y181.057
X82.634 Y185.888
X82.728 Y186.198
X82.835 Y186.566
X84.362 Y191.891
X84.414 Y192.075
X84.515 Y192.442
X85.966 Y197.951
X86.107 Y198.502
X87.498 Y204.378
X87.541 Y204.562
X87.593 Y204.796
X88.842 Y210.805
X88.95 Y211.356
X89.147 Y212.458
X90.03 Y217.416
X90.125 Y217.967
X90.156 Y218.15
X90.613 Y221.089
X90.668 Y221.456
X90.722 Y221.823
X91.135 Y224.761
X91.16 Y224.945
X91.232 Y225.496
X91.623 Y228.617
X91.688 Y229.168
X92.034 Y232.29
X92.094 Y232.841
X92.448 Y236.514
X92.511 Y237.248
X92.799 Y240.737
X92.812 Y240.921
X93.307 Y248.817
X93.339 Y249.368
X93.653 Y257.385
X93.673 Y257.999
X93.827 Y265.895
X93.835 Y266.446
X93.837 Y266.813
X93.864 Y274.526
X93.863 Y275.076
X93.796 Y282.973
X93.786 Y283.707
X93.461 Y300.601
X93.121 Y316.945
X93.114 Y317.312
X93.019 Y325.208
X93.015 Y325.943
X93.013 Y333.288
X93.014 Y333.839
X93.144 Y341.735
X93.157 Y342.102
X93.446 Y349.631
X93.456 Y349.815
X93.931 Y356.977
X93.945 Y357.16
X93.974 Y357.527
X93.99 Y357.711
X94.661 Y364.322
X94.72 Y364.873
X94.741 Y365.056
X95.131 Y367.995
X95.207 Y368.545
X95.234 Y368.729
X95.694 Y371.667
X95.785 Y372.218
X95.817 Y372.402
X96.355 Y375.34
X96.465 Y375.891
X96.591 Y376.489
X97.127 Y379.013
X97.877 Y382.076
X98.038 Y382.685
X98.707 Y385.072
X98.865 Y385.623
X98.921 Y385.807
X99.863 Y388.745
X100.196 Y389.663
X100.933 Y391.683
X101.003 Y391.867
X101.305 Y392.601
X102.139 Y394.621
X102.22 Y394.805
X103.329 Y397.192
X103.386 Y397.31
X103.701 Y397.927
X104.558 Y399.579
X104.657 Y399.763
X104.967 Y400.314
X105.813 Y401.783
X105.958 Y402.032
X106.029 Y402.15
X107.078 Y403.803
X107.197 Y403.987
X107.568 Y404.537
X108.345 Y405.651
X108.467 Y405.823
X108.732 Y406.19
X108.868 Y406.374
X109.814 Y407.613
X109.998 Y407.85
X110.182 Y408.074
X111.209 Y409.312
X111.283 Y409.399
X111.538 Y409.679
X113.671 Y411.963
X114.038 Y412.339
X114.135 Y412.434
X116.73 Y414.821
X116.977 Y415.019
X117.419 Y415.372
X119.548 Y417.054
X119.731 Y417.199
X119.915 Y417.327
X122.716 Y419.228
X122.854 Y419.314
X123.318 Y419.595
X123.588 Y419.753
X125.792 Y421.033
X126.343 Y421.338
X126.527 Y421.432
X129.281 Y422.799
X129.465 Y422.889
X130.016 Y423.137
X132.954 Y424.377
X133.138 Y424.453
X133.322 Y424.525
X136.627 Y425.708
X136.811 Y425.77
X137.362 Y425.941
X140.3 Y426.826
X140.484 Y426.878
X140.718 Y426.941
X140.851 Y426.975
X143.998 Y427.767
G3 X144.238 Y427.913 I-0.13 J0.483
G1 X144.273 Y427.971 Z-2.995
X144.307 Y428.028 Z-2.981
X144.34 Y428.083 Z-2.959
X144.35 Y428.144 Z-2.926
X144.36 Y428.2 Z-2.886
X144.368 Y428.25 Z-2.837
X144.362 Y428.295 Z-2.779
X144.357 Y428.331 Z-2.715
X144.354 Y428.358 Z-2.646
X144.352 Y428.374 Z-2.574
X144.351 Y428.379 Z-2.5
G0 Z5
X178.438 Y3.984
Z-5
G1 Z-5.5 F1000
X178.43 Y3.986 Z-5.587
X178.408 Y3.992 Z-5.671
X178.373 Y4.001 Z-5.75
X178.324 Y4.013 Z-5.821
X178.265 Y4.029 Z-5.883
X178.195 Y4.047 Z-5.933
X178.119 Y4.066 Z-5.97
X178.037 Y4.087 Z-5.992
X177.953 Y4.109 Z-6
G3 X175.231 Y4.5 I-3.167 J-12.366
G1 X175.01
X174.973 Y4.498
X174.854 Y4.407
X174.742 Y4.303
X174.617 Y4.166
X174.48 Y3.989
X174.332 Y3.762
X174.173 Y3.471
X173.845 Y2.732
X173.386 Y2.067
X172.739 Y1.583
X172.006 Y1.241
X171.234 Y1.004
X170.442 Y0.841
X169.642 Y0.73
X168.837 Y0.655
X168.03 Y0.604
X167.223 Y0.57
X166.415 Y0.547
X165.607 Y0.531
X164.798 Y0.521
X163.99 Y0.514
X163.182 Y0.509
X162.374 Y0.506
X160.757 Y0.503
X157.524 Y0.501
X126.003 Y0.5
X116.304
X115.496 Y0.505
X114.688 Y0.519
X113.88 Y0.54
X113.072 Y0.565
X112.264 Y0.592
X111.457 Y0.622
X110.65 Y0.662
X109.844 Y0.722
X109.039 Y0.795
X108.235 Y0.877
X107.431 Y0.965
X106.628 Y1.057
X105.827 Y1.161
X105.028 Y1.285
X104.231 Y1.422
X103.437 Y1.569
X102.643 Y1.723
X101.85 Y1.88
X101.06 Y2.049
X100.274 Y2.238
X99.492 Y2.44
X98.712 Y2.652
X97.933 Y2.87
X97.156 Y3.092
X96.382 Y3.325
X95.615 Y3.578
X94.851 Y3.844
X94.092 Y4.119
X93.334 Y4.401
X92.578 Y4.686
X91.825 Y4.981
X91.081 Y5.296
X90.342 Y5.624
X89.608 Y5.961
X88.876 Y6.304
X88.146 Y6.651
X87.42 Y7.006
X86.704 Y7.381
X85.995 Y7.769
X85.29 Y8.165
X84.589 Y8.567
X83.89 Y8.973
X83.196 Y9.387
X82.513 Y9.819
X81.838 Y10.264
X81.169 Y10.717
X80.503 Y11.175
X79.84 Y11.637
X79.182 Y12.107
X78.537 Y12.593
X77.901 Y13.092
X77.271 Y13.599
X76.645 Y14.11
X76.022 Y14.626
X75.405 Y15.147
X74.802 Y15.685
X74.209 Y16.234
X73.623 Y16.791
X73.042 Y17.353
X72.463 Y17.917
X71.891 Y18.487
X71.334 Y19.073
X70.788 Y19.669
X70.25 Y20.272
X69.717 Y20.88
X69.187 Y21.49
X68.663 Y22.106
X68.156 Y22.735
X67.661 Y23.374
X67.174 Y24.019
X66.693 Y24.669
X66.215 Y25.321
X65.743 Y25.977
X65.289 Y26.646
X64.849 Y27.323
X64.417 Y28.006
X63.991 Y28.693
X63.569 Y29.382
X63.152 Y30.075
X62.754 Y30.778
X62.371 Y31.49
X61.997 Y32.206
X61.629 Y32.926
X61.265 Y33.648
X60.906 Y34.372
X60.568 Y35.106
X60.244 Y35.846
X59.93 Y36.591
X59.622 Y37.339
X59.319 Y38.088
X59.021 Y38.839
X58.744 Y39.598
X58.482 Y40.363
X58.23 Y41.131
X57.986 Y41.901
X57.745 Y42.673
X57.509 Y43.446
X57.295 Y44.225
X57.097 Y45.009
X56.91 Y45.795
X56.729 Y46.583
X56.554 Y47.372
X56.381 Y48.161
X56.232 Y48.956
X56.099 Y49.753
X55.977 Y50.552
X55.862 Y51.352
X55.752 Y52.153
X55.645 Y52.954
X55.562 Y53.758
X55.495 Y54.563
X55.439 Y55.37
X55.39 Y56.176
X55.346 Y56.983
X55.306 Y57.791
X55.28 Y58.598
X55.263 Y59.406
X55.253 Y60.215
X55.248 Y61.023
X55.245 Y61.831
Y62.639
X55.249 Y63.448
X55.255 Y64.256
X55.263 Y65.064
X55.282 Y66.68
X55.294 Y67.488
X55.308 Y68.297
X55.324 Y69.105
X55.359 Y70.721
X55.378 Y71.529
X55.399 Y72.337
X55.422 Y73.145
X55.447 Y73.952
X55.5 Y75.568
X55.528 Y76.376
X55.559 Y77.183
X55.592 Y77.991
X55.661 Y79.606
X55.697 Y80.413
X55.736 Y81.221
X55.777 Y82.028
X55.82 Y82.835
X55.908 Y84.449
X55.955 Y85.256
X56.005 Y86.063
X56.056 Y86.869
X56.162 Y88.482
X56.218 Y89.289
X56.277 Y90.095
X56.338 Y90.901
X56.463 Y92.512
X56.528 Y93.318
X56.597 Y94.123
X56.667 Y94.928
X56.811 Y96.538
X56.887 Y97.343
X56.965 Y98.147
X57.046 Y98.952
X57.21 Y100.56
X57.298 Y101.363
X57.389 Y102.166
X57.483 Y102.969
X57.579 Y103.772
X57.774 Y105.376
X58.07 Y107.783
X58.174 Y108.584
X58.283 Y109.385
X58.396 Y110.186
X58.511 Y110.986
X58.628 Y111.785
X58.864 Y113.384
X59.102 Y114.983
X59.227 Y115.782
X59.358 Y116.579
X59.491 Y117.376
X59.627 Y118.173
X59.764 Y118.97
X60.042 Y120.562
X60.181 Y121.358
X60.324 Y122.154
X60.472 Y122.948
X60.624 Y123.742
X60.779 Y124.535
X60.936 Y125.328
X61.252 Y126.913
X61.412 Y127.706
X61.573 Y128.498
X61.741 Y129.289
X61.912 Y130.078
X62.086 Y130.868
X62.262 Y131.657
X62.616 Y133.234
X62.794 Y134.022
X62.976 Y134.81
X63.162 Y135.596
X63.352 Y136.382
X63.545 Y137.167
X63.738 Y137.951
X64.129 Y139.52
X64.325 Y140.304
X64.526 Y141.087
X64.731 Y141.869
X64.938 Y142.65
X65.148 Y143.431
X65.569 Y144.991
X65.781 Y145.771
X65.995 Y146.55
X66.214 Y147.329
X66.434 Y148.106
X66.657 Y148.883
X67.105 Y150.436
X67.33 Y151.213
X67.557 Y151.988
X67.787 Y152.763
X68.019 Y153.537
X68.253 Y154.311
X68.722 Y155.858
X68.958 Y156.631
X69.195 Y157.403
X69.435 Y158.175
X69.677 Y158.946
X70.165 Y160.488
X70.899 Y162.798
X72.618 Y168.189
X75.081 Y175.886
X75.574 Y177.426
X75.818 Y178.197
X76.058 Y178.968
X76.296 Y179.741
X76.532 Y180.514
X77.002 Y182.06
X77.938 Y185.155
X78.638 Y187.476
X78.87 Y188.251
X79.096 Y189.027
X79.318 Y189.804
X79.539 Y190.581
X79.757 Y191.359
X80.192 Y192.916
X80.405 Y193.696
X80.614 Y194.477
X80.82 Y195.258
X81.025 Y196.04
X81.429 Y197.605
X81.631 Y198.388
X81.827 Y199.172
X82.019 Y199.957
X82.208 Y200.743
X82.395 Y201.529
X82.581 Y202.316
X82.95 Y203.89
X83.128 Y204.678
X83.302 Y205.467
X83.472 Y206.257
X83.64 Y207.048
X83.973 Y208.63
X84.139 Y209.421
X84.298 Y210.213
X84.453 Y211.006
X84.604 Y211.8
X84.753 Y212.595
X84.901 Y213.389
X85.193 Y214.979
X85.335 Y215.775
X85.471 Y216.572
X85.603 Y217.369
X85.733 Y218.167
X85.86 Y218.965
X86.113 Y220.561
X86.238 Y221.36
X86.356 Y222.16
X86.469 Y222.96
X86.58 Y223.76
X86.688 Y224.561
X86.902 Y226.164
X87.007 Y226.965
X87.11 Y227.767
X87.207 Y228.569
X87.3 Y229.372
X87.39 Y230.175
X87.479 Y230.978
X87.653 Y232.586
X87.739 Y233.389
X87.822 Y234.193
X87.899 Y234.998
X87.973 Y235.803
X88.044 Y236.608
X88.114 Y237.413
X88.252 Y239.023
X88.319 Y239.829
X88.385 Y240.634
X88.445 Y241.44
X88.501 Y242.247
X88.556 Y243.053
X88.609 Y243.86
X88.712 Y245.473
X88.812 Y247.086
X88.857 Y247.893
X88.899 Y248.7
X88.938 Y249.508
X88.975 Y250.315
X89.048 Y251.93
X89.118 Y253.545
X89.15 Y254.352
X89.179 Y255.16
X89.205 Y255.968
X89.229 Y256.776
X89.274 Y258.392
X89.338 Y260.815
X89.356 Y261.623
X89.371 Y262.432
X89.384 Y263.24
X89.407 Y264.856
X89.436 Y267.281
X89.445 Y268.089
X89.452 Y268.897
X89.456 Y269.705
X89.458 Y270.513
X89.46 Y272.13
X89.459 Y275.363
X89.456 Y276.171
X89.45 Y276.979
X89.443 Y277.787
X89.424 Y279.404
X89.393 Y281.828
X89.27 Y290.718
X89.257 Y291.526
X89.227 Y293.142
X89.177 Y295.567
X89.04 Y302.031
X88.953 Y306.071
X88.922 Y307.687
X88.88 Y310.112
X88.731 Y319.001
X88.692 Y321.426
X88.682 Y322.234
X88.674 Y323.042
X88.662 Y324.658
X88.649 Y327.083
X88.641 Y328.699
X88.64 Y329.508
X88.641 Y330.316
X88.645 Y331.124
X88.655 Y332.741
X88.674 Y335.165
X88.681 Y335.973
X88.69 Y336.782
X88.703 Y337.59
X88.719 Y338.398
X88.736 Y339.206
X88.775 Y340.822
X88.836 Y343.246
X88.859 Y344.054
X88.888 Y344.861
X88.92 Y345.669
X88.954 Y346.477
X88.99 Y347.284
X89.064 Y348.899
X89.141 Y350.513
X89.183 Y351.321
X89.231 Y352.127
X89.283 Y352.934
X89.339 Y353.74
X89.396 Y354.546
X89.514 Y356.159
X89.635 Y357.771
X89.701 Y358.576
X89.775 Y359.381
X89.853 Y360.185
X89.934 Y360.989
X90.018 Y361.793
X90.189 Y363.401
X90.276 Y364.204
X90.364 Y365.008
X90.463 Y365.81
X90.568 Y366.611
X90.679 Y367.412
X90.792 Y368.212
X90.908 Y369.012
X91.143 Y370.611
X91.261 Y371.411
X91.39 Y372.209
X91.528 Y373.005
X91.672 Y373.8
X91.821 Y374.595
X91.972 Y375.389
X92.126 Y376.182
X92.436 Y377.769
X92.599 Y378.56
X92.771 Y379.35
X92.949 Y380.139
X93.13 Y380.926
X93.32 Y381.712
X93.517 Y382.496
X93.719 Y383.278
X93.924 Y384.06
X94.139 Y384.839
X94.361 Y385.616
X94.588 Y386.392
X94.818 Y387.167
X95.059 Y387.938
X95.307 Y388.707
X95.561 Y389.475
X95.819 Y390.241
X96.088 Y391.003
X96.364 Y391.763
X96.645 Y392.52
X96.934 Y393.275
X97.233 Y394.026
X97.539 Y394.774
X97.85 Y395.52
X98.17 Y396.262
X98.501 Y397
X98.839 Y397.734
X99.181 Y398.466
X99.536 Y399.192
X99.9 Y399.914
X100.27 Y400.632
X100.648 Y401.347
X101.038 Y402.055
X101.436 Y402.758
X101.84 Y403.458
X102.255 Y404.152
X102.681 Y404.839
X103.114 Y405.521
X103.554 Y406.199
X104.006 Y406.869
X104.468 Y407.532
X104.936 Y408.191
X105.414 Y408.843
X105.904 Y409.486
X106.401 Y410.123
X106.904 Y410.756
X107.42 Y411.378
X107.946 Y411.992
X108.478 Y412.6
X109.019 Y413.201
X109.571 Y413.791
X110.131 Y414.373
X110.697 Y414.951
X111.273 Y415.517
X111.86 Y416.073
X112.453 Y416.623
X113.051 Y417.166
X113.661 Y417.696
X114.279 Y418.217
X114.902 Y418.732
X115.533 Y419.237
X116.174 Y419.73
X116.82 Y420.215
X117.471 Y420.694
X118.131 Y421.16
X118.799 Y421.616
X119.472 Y422.064
X120.148 Y422.507
X120.833 Y422.935
X121.525 Y423.352
X122.221 Y423.763
X122.921 Y424.168
X123.629 Y424.558
X124.342 Y424.939
X125.058 Y425.313
X125.778 Y425.681
X126.505 Y426.034
X127.236 Y426.379
X127.97 Y426.716
X128.707 Y427.049
X129.45 Y427.367
X130.196 Y427.676
X130.946 Y427.979
X131.697 Y428.277
X132.453 Y428.563
X133.213 Y428.838
X133.975 Y429.107
X134.739 Y429.372
X135.506 Y429.626
X136.277 Y429.87
X137.049 Y430.108
X137.823 Y430.34
X138.599 Y430.567
X139.378 Y430.782
X140.16 Y430.989
X140.942 Y431.19
X141.726 Y431.388
X142.512 Y431.577
X143.3 Y431.757
X144.089 Y431.93
X144.879 Y432.099
X145.67 Y432.266
X146.464 Y432.42
X147.258 Y432.568
X148.054 Y432.71
X148.85 Y432.849
X149.647 Y432.984
X150.446 Y433.109
X151.245 Y433.227
X152.045 Y433.341
X152.846 Y433.452
X153.647 Y433.56
X154.449 Y433.658
X155.252 Y433.749
X156.056 Y433.837
X156.859 Y433.921
X157.663 Y434.004
X158.468 Y434.077
X159.274 Y434.145
X160.08 Y434.208
X160.886 Y434.268
X161.692 Y434.326
X162.498 Y434.379
X163.305 Y434.424
X164.112 Y434.465
X164.92 Y434.503
X165.727 Y434.539
X166.535 Y434.573
X167.343 Y434.599
X168.15 Y434.62
X168.959 Y434.637
X169.767 Y434.652
X170.373 Y434.662
X170.772 Y434.603
X171.132 Y434.418
X171.76 Y433.909
X172.214 Y433.241
X172.533 Y432.498
X172.754 Y431.721
X172.785 Y431.56
X172.865 Y431.304
X173.002 Y431.073
X173.187 Y430.88
X173.412 Y430.734
X173.664 Y430.643
X173.931 Y430.612
G3 X174.413 Y431.129 I-0.017 J0.5
G1 X174.41 Y431.216 Z-5.992
X174.407 Y431.3 Z-5.97
X174.404 Y431.379 Z-5.933
X174.402 Y431.45 Z-5.883
X174.4 Y431.512 Z-5.821
X174.398 Y431.562 Z-5.75
X174.397 Y431.599 Z-5.671
X174.396 Y431.621 Z-5.587
Y431.629 Z-5.5
G0 Z5
X176.194 Y4.023
Z-5
G1 Z-5.5 F1000
X176.187 Y4.027 Z-5.587
X176.168 Y4.039 Z-5.671
X176.136 Y4.057 Z-5.75
X176.093 Y4.083 Z-5.821
X176.04 Y4.114 Z-5.883
X175.979 Y4.151 Z-5.933
X175.911 Y4.191 Z-5.97
X175.839 Y4.234 Z-5.992
X175.764 Y4.279 Z-6
G3 X175.01 Y4.5 I-0.809 J-1.36
G1 X174.313
X174.163 Y4.492
X173.899 Y4.389
X173.173 Y4.034
X172.438 Y3.697
X171.682 Y3.411
X170.907 Y3.183
X170.118 Y3.005
X169.321 Y2.87
X168.519 Y2.769
X167.715 Y2.694
X166.908 Y2.639
X166.101 Y2.6
X165.293 Y2.571
X164.485 Y2.55
X163.677 Y2.535
X162.869 Y2.525
X162.061 Y2.518
X161.253 Y2.512
X160.444 Y2.509
X158.828 Y2.504
X156.403 Y2.501
X149.129 Y2.5
X124.074
X118.416
X117.608 Y2.501
X116.8 Y2.504
X115.991 Y2.512
X115.183 Y2.525
X114.375 Y2.542
X113.567 Y2.563
X112.76 Y2.589
X111.952 Y2.623
X111.145 Y2.669
X110.339 Y2.726
X109.533 Y2.792
X108.728 Y2.866
X107.924 Y2.949
X107.122 Y3.044
X106.321 Y3.152
X105.522 Y3.273
X104.724 Y3.404
X103.928 Y3.544
X103.134 Y3.693
X102.342 Y3.855
X101.553 Y4.031
X100.767 Y4.219
X99.983 Y4.417
X99.202 Y4.624
X98.423 Y4.84
X97.648 Y5.07
X96.877 Y5.312
X96.11 Y5.566
X95.346 Y5.83
X94.585 Y6.102
X93.828 Y6.384
X93.075 Y6.679
X92.328 Y6.986
X91.585 Y7.304
X90.845 Y7.631
X90.11 Y7.967
X89.38 Y8.313
X88.655 Y8.671
X87.937 Y9.041
X87.223 Y9.421
X86.514 Y9.809
X85.81 Y10.206
X85.112 Y10.613
X84.421 Y11.032
X83.736 Y11.462
X83.058 Y11.901
X82.384 Y12.348
X81.716 Y12.802
X81.055 Y13.268
X80.403 Y13.745
X79.758 Y14.231
X79.119 Y14.727
X78.486 Y15.229
X77.859 Y15.739
X77.24 Y16.26
X76.631 Y16.79
X76.029 Y17.33
X75.435 Y17.878
X74.846 Y18.432
X74.265 Y18.994
X73.694 Y19.565
X73.132 Y20.146
X72.578 Y20.735
X72.032 Y21.331
X71.493 Y21.933
X70.962 Y22.542
X70.441 Y23.16
X69.931 Y23.787
X69.43 Y24.421
X68.936 Y25.061
X68.449 Y25.706
X67.972 Y26.358
X67.506 Y27.019
X67.051 Y27.687
X66.606 Y28.361
X66.168 Y29.041
X65.737 Y29.725
X65.318 Y30.416
X64.911 Y31.114
X64.514 Y31.818
X64.128 Y32.528
X63.749 Y33.242
X63.378 Y33.96
X63.02 Y34.685
X62.674 Y35.415
X62.339 Y36.151
X62.014 Y36.891
X61.697 Y37.634
X61.389 Y38.381
X61.094 Y39.134
X60.811 Y39.891
X60.54 Y40.652
X60.279 Y41.417
X60.025 Y42.185
X59.782 Y42.955
X59.552 Y43.73
X59.336 Y44.509
X59.13 Y45.291
X58.935 Y46.075
X58.746 Y46.861
X58.57 Y47.65
X58.408 Y48.441
X58.258 Y49.236
X58.12 Y50.032
X57.992 Y50.83
X57.871 Y51.629
X57.763 Y52.43
X57.67 Y53.233
X57.589 Y54.037
X57.519 Y54.842
X57.458 Y55.648
X57.405 Y56.455
X57.362 Y57.262
X57.328 Y58.07
X57.303 Y58.877
X57.284 Y59.685
X57.271 Y60.494
X57.263 Y61.302
X57.259 Y62.11
Y62.918
X57.261 Y63.726
X57.266 Y64.535
X57.273 Y65.343
X57.282 Y66.151
X57.293 Y66.959
X57.305 Y67.767
X57.319 Y68.575
X57.335 Y69.384
X57.352 Y70.192
X57.371 Y71
X57.391 Y71.808
X57.413 Y72.616
X57.437 Y73.423
X57.461 Y74.231
X57.488 Y75.039
X57.516 Y75.847
X57.546 Y76.654
X57.577 Y77.462
X57.61 Y78.27
X57.644 Y79.077
X57.68 Y79.885
X57.718 Y80.692
X57.758 Y81.499
X57.799 Y82.306
X57.842 Y83.114
X57.887 Y83.921
X57.933 Y84.727
X57.982 Y85.534
X58.032 Y86.341
X58.083 Y87.147
X58.137 Y87.954
X58.193 Y88.76
X58.25 Y89.566
X58.309 Y90.372
X58.37 Y91.178
X58.433 Y91.984
X58.498 Y92.79
X58.566 Y93.595
X58.634 Y94.401
X58.705 Y95.206
X58.778 Y96.011
X58.853 Y96.815
X58.93 Y97.62
X59.009 Y98.424
X59.09 Y99.228
X59.174 Y100.032
X59.261 Y100.836
X59.351 Y101.639
X59.443 Y102.442
X59.537 Y103.245
X59.632 Y104.047
X59.826 Y105.652
X59.925 Y106.454
X60.027 Y107.256
X60.132 Y108.058
X60.24 Y108.859
X60.351 Y109.659
X60.464 Y110.459
X60.579 Y111.259
X60.695 Y112.059
X60.812 Y112.859
X60.931 Y113.658
X61.054 Y114.457
X61.18 Y115.256
X61.309 Y116.054
X61.44 Y116.851
X61.574 Y117.648
X61.71 Y118.445
X61.846 Y119.241
X61.985 Y120.038
X62.126 Y120.834
X62.271 Y121.629
X62.419 Y122.423
X62.57 Y123.217
X62.723 Y124.011
X62.878 Y124.804
X63.034 Y125.597
X63.192 Y126.39
X63.353 Y127.182
X63.517 Y127.973
X63.684 Y128.764
X63.854 Y129.554
X64.027 Y130.344
X64.201 Y131.133
X64.376 Y131.922
X64.553 Y132.711
X64.734 Y133.498
X64.917 Y134.286
X65.104 Y135.072
X65.292 Y135.858
X65.483 Y136.643
X65.675 Y137.428
X65.869 Y138.213
X66.065 Y138.997
X66.264 Y139.78
X66.466 Y140.563
X66.67 Y141.345
X66.876 Y142.127
X67.084 Y142.908
X67.293 Y143.688
X67.504 Y144.469
X67.718 Y145.248
X67.934 Y146.027
X68.152 Y146.805
X68.372 Y147.583
X68.593 Y148.36
X68.816 Y149.137
X69.04 Y149.914
X69.266 Y150.69
X69.495 Y151.465
X69.725 Y152.24
X69.956 Y153.014
X70.189 Y153.788
X70.422 Y154.562
X70.658 Y155.335
X70.894 Y156.108
X71.133 Y156.88
X71.373 Y157.652
X71.615 Y158.423
X71.857 Y159.194
X72.344 Y160.736
X73.078 Y163.046
X74.306 Y166.897
X76.029 Y172.286
X77.014 Y175.365
X77.259 Y176.135
X77.503 Y176.906
X77.745 Y177.677
X77.984 Y178.449
X78.223 Y179.221
X78.46 Y179.994
X78.931 Y181.54
X79.635 Y183.86
X80.102 Y185.408
X80.335 Y186.182
X80.566 Y186.956
X80.793 Y187.732
X81.019 Y188.508
X81.242 Y189.285
X81.463 Y190.062
X81.683 Y190.84
X81.901 Y191.618
X82.115 Y192.397
X82.327 Y193.177
X82.537 Y193.958
X82.744 Y194.739
X82.95 Y195.521
X83.154 Y196.303
X83.355 Y197.086
X83.554 Y197.869
X83.749 Y198.653
X83.942 Y199.438
X84.132 Y200.224
X84.321 Y201.01
X84.508 Y201.796
X84.692 Y202.583
X84.873 Y203.371
X85.05 Y204.159
X85.225 Y204.948
X85.397 Y205.738
X85.567 Y206.528
X85.736 Y207.319
X85.902 Y208.11
X86.064 Y208.902
X86.223 Y209.694
X86.379 Y210.487
X86.532 Y211.281
X86.683 Y212.075
X86.832 Y212.869
X86.979 Y213.664
X87.123 Y214.459
X87.263 Y215.255
X87.4 Y216.052
X87.534 Y216.849
X87.666 Y217.646
X87.796 Y218.444
X87.924 Y219.242
X88.049 Y220.04
X88.171 Y220.839
X88.29 Y221.639
X88.405 Y222.439
X88.518 Y223.239
X88.628 Y224.04
X88.738 Y224.841
X88.845 Y225.642
X88.949 Y226.443
X89.05 Y227.245
X89.148 Y228.047
X89.243 Y228.85
X89.336 Y229.653
X89.426 Y230.456
X89.516 Y231.259
X89.603 Y232.063
X89.688 Y232.866
X89.77 Y233.671
X89.848 Y234.475
X89.924 Y235.28
X89.998 Y236.084
X90.07 Y236.89
X90.141 Y237.695
X90.21 Y238.5
X90.277 Y239.305
X90.341 Y240.111
X90.402 Y240.917
X90.461 Y241.723
X90.518 Y242.529
X90.572 Y243.336
X90.626 Y244.142
X90.679 Y244.949
X90.729 Y245.755
X90.778 Y246.562
X90.823 Y247.369
X90.866 Y248.176
X90.908 Y248.983
X90.947 Y249.791
X91.023 Y251.405
X91.059 Y252.213
X91.093 Y253.02
X91.125 Y253.828
X91.155 Y254.636
X91.182 Y255.443
X91.208 Y256.251
X91.233 Y257.059
X91.28 Y258.675
X91.301 Y259.483
X91.322 Y260.291
X91.34 Y261.099
X91.356 Y261.907
X91.371 Y262.715
X91.384 Y263.523
X91.407 Y265.139
X91.428 Y266.756
X91.436 Y267.564
X91.443 Y268.372
X91.448 Y269.18
X91.452 Y269.989
X91.456 Y271.605
X91.458 Y273.221
Y274.03
X91.457 Y274.838
X91.453 Y275.646
X91.449 Y276.454
X91.443 Y277.263
X91.427 Y278.879
X91.408 Y280.495
X91.366 Y283.728
X91.288 Y289.385
X91.263 Y291.001
X91.234 Y292.618
X91.187 Y295.042
X91.103 Y299.082
X90.966 Y305.547
X90.934 Y307.163
X90.89 Y309.587
X90.821 Y313.628
X90.714 Y320.093
X90.703 Y320.901
X90.692 Y321.709
X90.683 Y322.517
X90.669 Y324.134
X90.658 Y325.75
X90.649 Y327.366
X90.646 Y328.175
X90.645 Y328.983
X90.646 Y329.791
X90.648 Y330.599
X90.655 Y332.216
X90.665 Y333.832
X90.672 Y334.641
X90.679 Y335.449
X90.689 Y336.257
X90.701 Y337.065
X90.716 Y337.873
X90.731 Y338.681
X90.748 Y339.489
X90.786 Y341.105
X90.805 Y341.913
X90.827 Y342.721
X90.852 Y343.529
X90.879 Y344.337
X90.909 Y345.145
X90.941 Y345.952
X90.975 Y346.76
X91.01 Y347.567
X91.046 Y348.375
X91.084 Y349.182
X91.124 Y349.989
X91.167 Y350.796
X91.214 Y351.603
X91.264 Y352.41
X91.317 Y353.216
X91.372 Y354.023
X91.428 Y354.829
X91.486 Y355.635
X91.545 Y356.441
X91.609 Y357.247
X91.677 Y358.052
X91.748 Y358.857
X91.824 Y359.662
X91.902 Y360.467
X91.983 Y361.271
X92.066 Y362.075
X92.15 Y362.879
X92.238 Y363.682
X92.331 Y364.485
X92.43 Y365.287
X92.533 Y366.089
X92.64 Y366.89
X92.75 Y367.69
X92.862 Y368.491
X92.977 Y369.291
X93.095 Y370.09
X93.22 Y370.889
X93.35 Y371.687
X93.487 Y372.483
X93.628 Y373.279
X93.773 Y374.074
X93.921 Y374.869
X94.072 Y375.663
X94.226 Y376.456
X94.386 Y377.248
X94.552 Y378.04
X94.722 Y378.83
X94.899 Y379.618
X95.083 Y380.405
X95.272 Y381.191
X95.467 Y381.975
X95.669 Y382.758
X95.878 Y383.539
X96.092 Y384.318
X96.312 Y385.096
X96.54 Y385.871
X96.775 Y386.645
X97.016 Y387.416
X97.263 Y388.186
X97.518 Y388.952
X97.781 Y389.717
X98.05 Y390.479
X98.327 Y391.238
X98.612 Y391.995
X98.905 Y392.748
X99.205 Y393.499
X99.513 Y394.246
X99.829 Y394.989
X100.154 Y395.73
X100.486 Y396.466
X100.828 Y397.199
X101.178 Y397.927
X101.536 Y398.652
X101.903 Y399.372
X102.28 Y400.087
X102.665 Y400.798
X103.059 Y401.503
X103.463 Y402.203
X103.876 Y402.898
X104.297 Y403.588
X104.728 Y404.272
X105.169 Y404.949
X105.619 Y405.621
X106.078 Y406.286
X106.547 Y406.944
X107.026 Y407.595
X107.513 Y408.24
X108.01 Y408.877
X108.518 Y409.506
X109.034 Y410.128
X109.559 Y410.743
X110.094 Y411.348
X110.638 Y411.946
X111.191 Y412.536
X111.752 Y413.117
X112.323 Y413.689
X112.903 Y414.253
X113.49 Y414.808
X114.087 Y415.353
X114.692 Y415.889
X115.304 Y416.416
X115.925 Y416.934
X116.554 Y417.441
X117.19 Y417.94
X117.833 Y418.43
X118.484 Y418.909
X119.142 Y419.378
X119.806 Y419.839
X120.477 Y420.29
X121.155 Y420.73
X121.839 Y421.16
X122.528 Y421.582
X123.224 Y421.993
X123.926 Y422.395
X124.633 Y422.786
X125.344 Y423.17
X126.061 Y423.543
X126.783 Y423.906
X127.51 Y424.26
X128.24 Y424.606
X128.975 Y424.942
X129.715 Y425.268
X130.458 Y425.586
X131.204 Y425.896
X131.955 Y426.197
X132.709 Y426.488
X133.465 Y426.771
X134.225 Y427.047
X134.988 Y427.313
X135.754 Y427.571
X136.523 Y427.822
X137.294 Y428.065
X138.067 Y428.3
X138.842 Y428.527
X139.62 Y428.746
X140.4 Y428.959
X141.182 Y429.164
X141.965 Y429.362
X142.751 Y429.552
X143.538 Y429.736
X144.327 Y429.914
X145.116 Y430.085
X145.908 Y430.249
X146.701 Y430.406
X147.495 Y430.557
X148.29 Y430.703
X149.086 Y430.842
X149.883 Y430.975
X150.681 Y431.101
X151.481 Y431.222
X152.28 Y431.339
X153.081 Y431.449
X153.882 Y431.554
X154.685 Y431.652
X155.487 Y431.746
X156.291 Y431.836
X157.094 Y431.921
X157.899 Y431.999
X158.704 Y432.073
X159.509 Y432.141
X160.315 Y432.207
X161.121 Y432.267
X161.927 Y432.322
X162.734 Y432.373
X163.541 Y432.419
X164.348 Y432.461
X165.155 Y432.501
X165.962 Y432.535
X166.77 Y432.565
X167.578 Y432.59
X167.982 Y432.58
X168.373 Y432.477
X169.1 Y432.125
X169.716 Y431.601
X170.336 Y430.963
X170.514 Y430.814
X170.718 Y430.703
X170.939 Y430.635
X171.17 Y430.612
X172.623
G3 X173.105 Y431.129 I-0.017 J0.5
G1 X173.102 Y431.216 Z-5.992
X173.099 Y431.3 Z-5.97
X173.096 Y431.379 Z-5.933
X173.094 Y431.45 Z-5.883
X173.092 Y431.512 Z-5.821
X173.09 Y431.562 Z-5.75
X173.089 Y431.599 Z-5.671
X173.088 Y431.621 Z-5.587
Y431.629 Z-5.5
G0 Z5
X175.496 Y4.023
Z-5
G1 Z-5.5 F1000
X175.49 Y4.027 Z-5.587
X175.47 Y4.039 Z-5.671
X175.439 Y4.057 Z-5.75
X175.396 Y4.083 Z-5.821
X175.343 Y4.114 Z-5.883
X175.281 Y4.151 Z-5.933
X175.214 Y4.191 Z-5.97
X175.141 Y4.234 Z-5.992
X175.067 Y4.279 Z-6
G3 X174.313 Y4.5 I-0.809 J-1.36
G1 X114.589
X114.222 Y4.505
X114.038 Y4.508
X113.855 Y4.514
X109.814 Y4.69
X109.631 Y4.7
X109.08 Y4.753
X104.856 Y5.309
X104.785 Y5.32
X104.305 Y5.416
X104.121 Y5.455
X100.588 Y6.238
X100.081 Y6.354
X99.897 Y6.4
X95.75 Y7.708
X95.673 Y7.733
X95.122 Y7.934
X91.449 Y9.455
X90.898 Y9.694
X90.83 Y9.727
X87.225 Y11.604
X86.858 Y11.797
X86.674 Y11.898
X86.619 Y11.931
X83.001 Y14.236
X82.877 Y14.318
X82.45 Y14.62
X82.36 Y14.686
X78.961 Y17.294
X78.777 Y17.45
X78.585 Y17.624
X75.655 Y20.309
X75.582 Y20.378
X75.104 Y20.854
X72.342 Y23.867
X72.166 Y24.062
X72.02 Y24.234
X71.455 Y24.969
X69.411 Y27.633
X69.044 Y28.147
X68.961 Y28.274
X66.656 Y31.892
X66.623 Y31.947
X66.522 Y32.131
X66.289 Y32.574
X64.452 Y36.102
X64.421 Y36.171
X64.179 Y36.721
X62.734 Y40.21
X62.66 Y40.394
X62.456 Y40.945
X61.124 Y45.169
X61.079 Y45.352
X60.963 Y45.853
X60.178 Y49.392
X60.14 Y49.576
X60.045 Y50.036
X60.032 Y50.127
X59.494 Y54.211
X59.477 Y54.35
X59.42 Y54.901
X59.236 Y59.125
X59.228 Y59.492
X59.225 Y59.676
X59.224 Y59.859
X59.252 Y64.817
X59.255 Y65.184
X59.267 Y65.919
X59.341 Y70.143
X59.352 Y70.693
X59.499 Y75.652
X59.528 Y76.386
X59.708 Y80.61
X59.735 Y81.161
X59.969 Y85.384
X60.003 Y85.935
X60.045 Y86.556
X60.306 Y90.342
X60.365 Y91.077
X60.655 Y94.566
X60.702 Y95.117
X60.737 Y95.484
X61.112 Y99.34
X61.13 Y99.524
X61.603 Y103.747
X62.091 Y107.604
X62.139 Y107.971
X62.268 Y108.889
X62.658 Y111.644
X62.769 Y112.378
X63.259 Y115.5
X63.317 Y115.867
X63.351 Y116.066
X63.948 Y119.54
X63.981 Y119.723
X64.089 Y120.524
X64.394 Y122.112
X64.702 Y123.699
X64.858 Y124.492
X65.016 Y125.284
X65.176 Y126.077
X65.338 Y126.868
X65.503 Y127.66
X65.671 Y128.45
X65.841 Y129.24
X66.012 Y130.03
X66.186 Y130.82
X66.362 Y131.608
X66.541 Y132.397
X66.723 Y133.184
X66.907 Y133.971
X67.093 Y134.758
X67.282 Y135.544
X67.472 Y136.329
X67.664 Y137.114
X67.859 Y137.898
X68.057 Y138.682
X68.256 Y139.465
X68.459 Y140.248
X68.663 Y141.03
X68.869 Y141.811
X69.077 Y142.593
X69.287 Y143.373
X69.499 Y144.153
X69.713 Y144.932
X69.929 Y145.711
X70.148 Y146.489
X70.367 Y147.267
X70.589 Y148.044
X70.812 Y148.821
X71.037 Y149.597
X71.264 Y150.373
X71.493 Y151.148
X71.723 Y151.923
X71.954 Y152.697
X72.187 Y153.471
X72.421 Y154.245
X72.657 Y155.018
X72.895 Y155.79
X73.134 Y156.563
X73.374 Y157.334
X73.858 Y158.877
X74.344 Y160.418
X75.078 Y162.729
X76.059 Y165.81
X76.796 Y168.12
X78.52 Y173.508
X78.766 Y174.278
X79.01 Y175.049
X79.254 Y175.819
X79.496 Y176.591
X79.736 Y177.362
X79.976 Y178.134
X80.214 Y178.906
X80.688 Y180.452
X81.159 Y181.998
X81.628 Y183.545
X81.861 Y184.319
X82.093 Y185.093
X82.324 Y185.868
X82.552 Y186.643
X82.779 Y187.419
X83.003 Y188.195
X83.226 Y188.972
X83.447 Y189.75
X83.666 Y190.528
X83.882 Y191.307
X84.095 Y192.086
X84.307 Y192.866
X84.516 Y193.647
X84.723 Y194.428
X84.929 Y195.21
X85.131 Y195.992
X85.332 Y196.775
X85.529 Y197.559
X85.724 Y198.343
X85.917 Y199.128
X86.107 Y199.914
X86.296 Y200.7
X86.481 Y201.486
X86.664 Y202.274
X86.844 Y203.062
X87.021 Y203.85
X87.196 Y204.639
X87.369 Y205.429
X87.539 Y206.219
X87.706 Y207.01
X87.871 Y207.801
X88.032 Y208.593
X88.191 Y209.385
X88.347 Y210.178
X88.501 Y210.972
X88.652 Y211.766
X88.801 Y212.56
X88.947 Y213.355
X89.09 Y214.151
X89.23 Y214.947
X89.367 Y215.743
X89.502 Y216.54
X89.634 Y217.338
X89.765 Y218.135
X89.892 Y218.933
X90.016 Y219.732
X90.138 Y220.531
X90.256 Y221.33
X90.372 Y222.13
X90.486 Y222.931
X90.598 Y223.731
X90.707 Y224.532
X90.814 Y225.333
X90.917 Y226.135
X91.018 Y226.936
X91.117 Y227.739
X91.212 Y228.541
X91.306 Y229.344
X91.398 Y230.147
X91.487 Y230.95
X91.574 Y231.754
X91.659 Y232.558
X91.74 Y233.362
X91.82 Y234.166
X91.897 Y234.971
X91.971 Y235.775
X92.045 Y236.58
X92.116 Y237.385
X92.185 Y238.191
X92.251 Y238.996
X92.315 Y239.802
X92.377 Y240.608
X92.437 Y241.414
X92.494 Y242.22
X92.55 Y243.026
X92.605 Y243.833
X92.657 Y244.639
X92.708 Y245.446
X92.756 Y246.253
X92.802 Y247.06
X92.846 Y247.867
X92.888 Y248.674
X92.929 Y249.481
X92.968 Y250.288
X93.006 Y251.096
X93.042 Y251.903
X93.076 Y252.711
X93.108 Y253.518
X93.139 Y254.326
X93.167 Y255.134
X93.194 Y255.941
X93.22 Y256.749
X93.245 Y257.557
X93.268 Y258.365
X93.29 Y259.173
X93.31 Y259.981
X93.328 Y260.789
X93.345 Y261.597
X93.361 Y262.405
X93.375 Y263.213
X93.4 Y264.829
X93.411 Y265.638
X93.421 Y266.446
X93.429 Y267.254
X93.436 Y268.062
X93.442 Y268.87
X93.447 Y269.679
X93.453 Y271.295
X93.455 Y272.912
Y273.72
X93.454 Y274.528
X93.451 Y275.336
X93.447 Y276.144
X93.441 Y276.953
X93.427 Y278.569
X93.41 Y280.185
X93.38 Y282.61
X93.326 Y286.651
X93.292 Y289.075
X93.266 Y290.692
X93.238 Y292.308
X93.192 Y294.732
X93.126 Y297.964
X92.99 Y304.429
X92.942 Y306.853
X92.897 Y309.277
X92.827 Y313.318
X92.773 Y316.55
X92.733 Y318.975
X92.71 Y320.591
X92.699 Y321.399
X92.682 Y323.016
X92.668 Y324.632
X92.657 Y326.248
X92.653 Y327.057
X92.651 Y327.865
X92.649 Y328.673
X92.65 Y329.481
X92.651 Y330.29
X92.657 Y331.906
X92.666 Y333.522
X92.673 Y334.331
X92.681 Y335.139
X92.691 Y335.947
X92.702 Y336.755
X92.716 Y337.563
X92.731 Y338.371
X92.747 Y339.18
X92.764 Y339.988
X92.783 Y340.796
X92.803 Y341.604
X92.825 Y342.412
X92.85 Y343.219
X92.877 Y344.027
X92.906 Y344.835
X92.937 Y345.643
X92.969 Y346.45
X93.003 Y347.258
X93.039 Y348.065
X93.077 Y348.872
X93.118 Y349.68
X93.162 Y350.487
X93.208 Y351.294
X93.257 Y352.1
X93.309 Y352.907
X93.362 Y353.713
X93.417 Y354.52
X93.475 Y355.326
X93.536 Y356.132
X93.6 Y356.938
X93.668 Y357.743
X93.74 Y358.548
X93.814 Y359.353
X93.891 Y360.157
X93.97 Y360.962
X94.052 Y361.766
X94.138 Y362.569
X94.228 Y363.373
X94.322 Y364.175
X94.42 Y364.978
X94.522 Y365.779
X94.628 Y366.581
X94.736 Y367.382
X94.848 Y368.182
X94.964 Y368.982
X95.085 Y369.781
X95.211 Y370.579
X95.343 Y371.377
X95.479 Y372.174
X95.619 Y372.97
X95.762 Y373.765
X95.91 Y374.56
X96.062 Y375.353
X96.218 Y376.146
X96.38 Y376.938
X96.547 Y377.729
X96.72 Y378.518
X96.899 Y379.307
X97.084 Y380.093
X97.275 Y380.879
X97.473 Y381.663
X97.677 Y382.445
X97.887 Y383.225
X98.103 Y384.004
X98.327 Y384.781
X98.557 Y385.555
X98.794 Y386.328
X99.038 Y387.099
X99.289 Y387.867
X99.548 Y388.632
X99.814 Y389.396
X100.088 Y390.156
X100.369 Y390.914
X100.658 Y391.668
X100.956 Y392.42
X101.261 Y393.168
X101.574 Y393.913
X101.896 Y394.655
X102.227 Y395.392
X102.566 Y396.126
X102.914 Y396.855
X103.271 Y397.58
X103.637 Y398.301
X104.012 Y399.017
X104.396 Y399.728
X104.79 Y400.434
X105.193 Y401.134
X105.606 Y401.829
X106.028 Y402.519
X106.46 Y403.202
X106.902 Y403.879
X107.353 Y404.549
X107.815 Y405.213
X108.286 Y405.87
X108.766 Y406.519
X109.257 Y407.161
X109.757 Y407.796
X110.268 Y408.423
X110.787 Y409.042
X111.317 Y409.652
X111.856 Y410.255
X112.404 Y410.849
X112.962 Y411.433
X113.529 Y412.01
X114.105 Y412.577
X114.69 Y413.134
X115.283 Y413.683
X115.886 Y414.222
X116.497 Y414.751
X117.116 Y415.271
X117.743 Y415.781
X118.378 Y416.281
X119.021 Y416.77
X119.671 Y417.25
X120.328 Y417.72
X120.993 Y418.18
X121.665 Y418.63
X122.343 Y419.07
X123.027 Y419.499
X123.718 Y419.919
X124.415 Y420.328
X125.118 Y420.728
X125.826 Y421.117
X126.539 Y421.497
X127.258 Y421.867
X127.981 Y422.228
X128.709 Y422.578
X129.442 Y422.92
X130.179 Y423.252
X130.92 Y423.575
X131.665 Y423.888
X132.414 Y424.193
X133.166 Y424.488
X133.921 Y424.775
X134.68 Y425.053
X135.442 Y425.323
X136.207 Y425.584
X136.975 Y425.837
X137.745 Y426.082
X138.518 Y426.319
X139.293 Y426.548
X140.07 Y426.769
X140.85 Y426.983
X141.631 Y427.189
X142.415 Y427.388
X143.2 Y427.58
X143.998 Y427.767
X144.157 Y427.804
X144.524 Y427.885
X144.708 Y427.925
X147.646 Y428.537
X148.197 Y428.641
X148.381 Y428.674
X151.319 Y429.17
X151.87 Y429.257
X152.054 Y429.283
X155.176 Y429.702
X155.543 Y429.75
X155.727 Y429.771
X159.216 Y430.128
X159.4 Y430.142
X159.767 Y430.168
X160.135 Y430.191
X166.562 Y430.581
X167.113 Y430.608
X167.297 Y430.612
X171.17
G3 X171.652 Y431.129 I-0.017 J0.5
G1 X171.649 Y431.216 Z-5.992
X171.646 Y431.3 Z-5.97
X171.643 Y431.379 Z-5.933
X171.641 Y431.45 Z-5.883
X171.639 Y431.512 Z-5.821
X171.637 Y431.562 Z-5.75
X171.636 Y431.599 Z-5.671
X171.635 Y431.621 Z-5.587
Y431.629 Z-5.5
G0 Z5
X63.296 Y118.647
Z-5
G1 Z-5.5 F1000
X63.301 Y118.653 Z-5.587
X63.316 Y118.67 Z-5.671
X63.34 Y118.698 Z-5.75
X63.373 Y118.735 Z-5.821
X63.414 Y118.781 Z-5.883
X63.461 Y118.835 Z-5.933
X63.513 Y118.894 Z-5.97
X63.568 Y118.958 Z-5.992
X63.626 Y119.023 Z-6
G3 X63.981 Y119.723 I-1.189 J1.044
G1 X64.636 Y123.226
X64.67 Y123.396
X64.822 Y124.131
X66.053 Y130.007
X66.171 Y130.558
X66.213 Y130.741
X67.758 Y137.23
X67.788 Y137.352
X69.411 Y143.488
X69.54 Y143.963
X69.595 Y144.159
X71.281 Y150.023
X71.335 Y150.206
X71.615 Y151.126
X73.187 Y156.266
X73.422 Y157.001
X79.514 Y175.915
X80.874 Y180.138
X81.157 Y181.057
X82.634 Y185.888
X82.728 Y186.198
X82.835 Y186.566
X84.362 Y191.891
X84.414 Y192.075
X84.515 Y192.442
X85.966 Y197.951
X86.107 Y198.502
X87.498 Y204.378
X87.541 Y204.562
X87.593 Y204.796
X88.842 Y210.805
X88.95 Y211.356
X89.147 Y212.458
X90.03 Y217.416
X90.125 Y217.967
X90.156 Y218.15
X90.613 Y221.089
X90.668 Y221.456
X90.722 Y221.823
X91.135 Y224.761
X91.16 Y224.945
X91.232 Y225.496
X91.623 Y228.617
X91.688 Y229.168
X92.034 Y232.29
X92.094 Y232.841
X92.448 Y236.514
X92.511 Y237.248
X92.799 Y240.737
X92.812 Y240.921
X93.307 Y248.817
X93.339 Y249.368
X93.653 Y257.385
X93.673 Y257.999
X93.827 Y265.895
X93.835 Y266.446
X93.837 Y266.813
X93.864 Y274.526
X93.863 Y275.076
X93.796 Y282.973
X93.786 Y283.707
X93.461 Y300.601
X93.121 Y316.945
X93.114 Y317.312
X93.019 Y325.208
X93.015 Y325.943
X93.013 Y333.288
X93.014 Y333.839
X93.144 Y341.735
X93.157 Y342.102
X93.446 Y349.631
X93.456 Y349.815
X93.931 Y356.977
X93.945 Y357.16
X93.974 Y357.527
X93.99 Y357.711
X94.661 Y364.322
X94.72 Y364.873
X94.741 Y365.056
X95.131 Y367.995
X95.207 Y368.545
X95.234 Y368.729
X95.694 Y371.667
X95.785 Y372.218
X95.817 Y372.402
X96.355 Y375.34
X96.465 Y375.891
X96.591 Y376.489
X97.127 Y379.013
X97.877 Y382.076
X98.038 Y382.685
X98.707 Y385.072
X98.865 Y385.623
X98.921 Y385.807
X99.863 Y388.745
X100.196 Y389.663
X100.933 Y391.683
X101.003 Y391.867
X101.305 Y392.601
X102.139 Y394.621
X102.22 Y394.805
X103.329 Y397.192
X103.386 Y397.31
X103.701 Y397.927
X104.558 Y399.579
X104.657 Y399.763
X104.967 Y400.314
X105.813 Y401.783
X105.958 Y402.032
X106.029 Y402.15
X107.078 Y403.803
X107.197 Y403.987
X107.568 Y404.537
X108.345 Y405.651
X108.467 Y405.823
X108.732 Y406.19
X108.868 Y406.374
X109.814 Y407.613
X109.998 Y407.85
X110.182 Y408.074
X111.209 Y409.312
X111.283 Y409.399
X111.538 Y409.679
X113.671 Y411.963
X114.038 Y412.339
X114.135 Y412.434
X116.73 Y414.821
X116.977 Y415.019
X117.419 Y415.372
X119.548 Y417.054
X119.731 Y417.199
X119.915 Y417.327
X122.716 Y419.228
X122.854 Y419.314
X123.318 Y419.595
X123.588 Y419.753
X125.792 Y421.033
X126.343 Y421.338
X126.527 Y421.432
X129.281 Y422.799
X129.465 Y422.889
X130.016 Y423.137
X132.954 Y424.377
X133.138 Y424.453
X133.322 Y424.525
X136.627 Y425.708
X136.811 Y425.77
X137.362 Y425.941
X140.3 Y426.826
X140.484 Y426.878
X140.718 Y426.941
X140.851 Y426.975
X143.998 Y427.767
G3 X144.238 Y427.913 I-0.13 J0.483
G1 X144.273 Y427.971 Z-5.995
X144.307 Y428.028 Z-5.981
X144.34 Y428.083 Z-5.959
X144.35 Y428.144 Z-5.926
X144.36 Y428.2 Z-5.886
X144.368 Y428.25 Z-5.837
X144.362 Y428.295 Z-5.779
X144.357 Y428.331 Z-5.715
X144.354 Y428.358 Z-5.646
X144.352 Y428.374 Z-5.574
X144.351 Y428.379 Z-5.5
G0 Z5
X178.438 Y3.984
Z-8
G1 Z-8.5 F1000
X178.43 Y3.986 Z-8.587
X178.408 Y3.992 Z-8.671
X178.373 Y4.001 Z-8.75
X178.324 Y4.013 Z-8.821
X178.265 Y4.029 Z-8.883
X178.195 Y4.047 Z-8.933
X178.119 Y4.066 Z-8.97
X178.037 Y4.087 Z-8.992
X177.953 Y4.109 Z-9
G3 X175.231 Y4.5 I-3.167 J-12.366
G1 X175.01
X174.973 Y4.498
X174.854 Y4.407
X174.742 Y4.303
X174.617 Y4.166
X174.48 Y3.989
X174.332 Y3.762
X174.173 Y3.471
X173.845 Y2.732
X173.386 Y2.067
X172.739 Y1.583
X172.006 Y1.241
X171.234 Y1.004
X170.442 Y0.841
X169.642 Y0.73
X168.837 Y0.655
X168.03 Y0.604
X167.223 Y0.57
X166.415 Y0.547
X165.607 Y0.531
X164.798 Y0.521
X163.99 Y0.514
X163.182 Y0.509
X162.374 Y0.506
X160.757 Y0.503
X157.524 Y0.501
X126.003 Y0.5
X116.304
X115.496 Y0.505
X114.688 Y0.519
X113.88 Y0.54
X113.072 Y0.565
X112.264 Y0.592
X111.457 Y0.622
X110.65 Y0.662
X109.844 Y0.722
X109.039 Y0.795
X108.235 Y0.877
X107.431 Y0.965
X106.628 Y1.057
X105.827 Y1.161
X105.028 Y1.285
X104.231 Y1.422
X103.437 Y1.569
X102.643 Y1.723
X101.85 Y1.88
X101.06 Y2.049
X100.274 Y2.238
X99.492 Y2.44
X98.712 Y2.652
X97.933 Y2.87
X97.156 Y3.092
X96.382 Y3.325
X95.615 Y3.578
X94.851 Y3.844
X94.092 Y4.119
X93.334 Y4.401
X92.578 Y4.686
X91.825 Y4.981
X91.081 Y5.296
X90.342 Y5.624
X89.608 Y5.961
X88.876 Y6.304
X88.146 Y6.651
X87.42 Y7.006
X86.704 Y7.381
X85.995 Y7.769
X85.29 Y8.165
X84.589 Y8.567
X83.89 Y8.973
X83.196 Y9.387
X82.513 Y9.819
X81.838 Y10.264
X81.169 Y10.717
X80.503 Y11.175
X79.84 Y11.637
X79.182 Y12.107
X78.537 Y12.593
X77.901 Y13.092
X77.271 Y13.599
X76.645 Y14.11
X76.022 Y14.626
X75.405 Y15.147
X74.802 Y15.685
X74.209 Y16.234
X73.623 Y16.791
X73.042 Y17.353
X72.463 Y17.917
X71.891 Y18.487
X71.334 Y19.073
X70.788 Y19.669
X70.25 Y20.272
X69.717 Y20.88
X69.187 Y21.49
X68.663 Y22.106
X68.156 Y22.735
X67.661 Y23.374
X67.174 Y24.019
X66.693 Y24.669
X66.215 Y25.321
X65.743 Y25.977
X65.289 Y26.646
X64.849 Y27.323
X64.417 Y28.006
X63.991 Y28.693
X63.569 Y29.382
X63.152 Y30.075
X62.754 Y30.778
X62.371 Y31.49
X61.997 Y32.206
X61.629 Y32.926
X61.265 Y33.648
X60.906 Y34.372
X60.568 Y35.106
X60.244 Y35.846
X59.93 Y36.591
X59.622 Y37.339
X59.319 Y38.088
X59.021 Y38.839
X58.744 Y39.598
X58.482 Y40.363
X58.23 Y41.131
X57.986 Y41.901
X57.745 Y42.673
X57.509 Y43.446
X57.295 Y44.225
X57.097 Y45.009
X56.91 Y45.795
X56.729 Y46.583
X56.554 Y47.372
X56.381 Y48.161
X56.232 Y48.956
X56.099 Y49.753
X55.977 Y50.552
X55.862 Y51.352
X55.752 Y52.153
X55.645 Y52.954
X55.562 Y53.758
X55.495 Y54.563
X55.439 Y55.37
X55.39 Y56.176
X55.346 Y56.983
X55.306 Y57.791
X55.28 Y58.598
X55.263 Y59.406
X55.253 Y60.215
X55.248 Y61.023
X55.245 Y61.831
Y62.639
X55.249 Y63.448
X55.255 Y64.256
X55.263 Y65.064
X55.282 Y66.68
X55.294 Y67.488
X55.308 Y68.297
X55.324 Y69.105
X55.359 Y70.721
X55.378 Y71.529
X55.399 Y72.337
X55.422 Y73.145
X55.447 Y73.952
X55.5 Y75.568
X55.528 Y76.376
X55.559 Y77.183
X55.592 Y77.991
X55.661 Y79.606
X55.697 Y80.413
X55.736 Y81.221
X55.777 Y82.028
X55.82 Y82.835
X55.908 Y84.449
X55.955 Y85.256
X56.005 Y86.063
X56.056 Y86.869
X56.162 Y88.482
X56.218 Y89.289
X56.277 Y90.095
X56.338 Y90.901
X56.463 Y92.512
X56.528 Y93.318
X56.597 Y94.123
X56.667 Y94.928
X56.811 Y96.538
X56.887 Y97.343
X56.965 Y98.147
X57.046 Y98.952
X57.21 Y100.56
X57.298 Y101.363
X57.389 Y102.166
X57.483 Y102.969
X57.579 Y103.772
X57.774 Y105.376
X58.07 Y107.783
X58.174 Y108.584
X58.283 Y109.385
X58.396 Y110.186
X58.511 Y110.986
X58.628 Y111.785
X58.864 Y113.384
X59.102 Y114.983
X59.227 Y115.782
X59.358 Y116.579
X59.491 Y117.376
X59.627 Y118.173
X59.764 Y118.97
X60.042 Y120.562
X60.181 Y121.358
X60.324 Y122.154
X60.472 Y122.948
X60.624 Y123.742
X60.779 Y124.535
X60.936 Y125.328
X61.252 Y126.913
X61.412 Y127.706
X61.573 Y128.498
X61.741 Y129.289
X61.912 Y130.078
X62.086 Y130.868
X62.262 Y131.657
X62.616 Y133.234
X62.794 Y134.022
X62.976 Y134.81
X63.162 Y135.596
X63.352 Y136.382
X63.545 Y137.167
X63.738 Y137.951
X64.129 Y139.52
X64.325 Y140.304
X64.526 Y141.087
X64.731 Y141.869
X64.938 Y142.65
X65.148 Y143.431
X65.569 Y144.991
X65.781 Y145.771
X65.995 Y146.55
X66.214 Y147.329
X66.434 Y148.106
X66.657 Y148.883
X67.105 Y150.436
X67.33 Y151.213
X67.557 Y151.988
X67.787 Y152.763
X68.019 Y153.537
X68.253 Y154.311
X68.722 Y155.858
X68.958 Y156.631
X69.195 Y157.403
X69.435 Y158.175
X69.677 Y158.946
X70.165 Y160.488
X70.899 Y162.798
X72.618 Y168.189
X75.081 Y175.886
X75.574 Y177.426
X75.818 Y178.197
X76.058 Y178.968
X76.296 Y179.741
X76.532 Y180.514
X77.002 Y182.06
X77.938 Y185.155
X78.638 Y187.476
X78.87 Y188.251
X79.096 Y189.027
X79.318 Y189.804
X79.539 Y190.581
X79.757 Y191.359
X80.192 Y192.916
X80.405 Y193.696
X80.614 Y194.477
X80.82 Y195.258
X81.025 Y196.04
X81.429 Y197.605
X81.631 Y198.388
X81.827 Y199.172
X82.019 Y199.957
X82.208 Y200.743
X82.395 Y201.529
X82.581 Y202.316
X82.95 Y203.89
X83.128 Y204.678
X83.302 Y205.467
X83.472 Y206.257
X83.64 Y207.048
X83.973 Y208.63
X84.139 Y209.421
X84.298 Y210.213
X84.453 Y211.006
X84.604 Y211.8
X84.753 Y212.595
X84.901 Y213.389
X85.193 Y214.979
X85.335 Y215.775
X85.471 Y216.572
X85.603 Y217.369
X85.733 Y218.167
X85.86 Y218.965
X86.113 Y220.561
X86.238 Y221.36
X86.356 Y222.16
X86.469 Y222.96
X86.58 Y223.76
X86.688 Y224.561
X86.902 Y226.164
X87.007 Y226.965
X87.11 Y227.767
X87.207 Y228.569
X87.3 Y229.372
X87.39 Y230.175
X87.479 Y230.978
X87.653 Y232.586
X87.739 Y233.389
X87.822 Y234.193
X87.899 Y234.998
X87.973 Y235.803
X88.044 Y236.608
X88.114 Y237.413
X88.252 Y239.023
X88.319 Y239.829
X88.385 Y240.634
X88.445 Y241.44
X88.501 Y242.247
X88.556 Y243.053
X88.609 Y243.86
X88.712 Y245.473
X88.812 Y247.086
X88.857 Y247.893
X88.899 Y248.7
X88.938 Y249.508
X88.975 Y250.315
X89.048 Y251.93
X89.118 Y253.545
X89.15 Y254.352
X89.179 Y255.16
X89.205 Y255.968
X89.229 Y256.776
X89.274 Y258.392
X89.338 Y260.815
X89.356 Y261.623
X89.371 Y262.432
X89.384 Y263.24
X89.407 Y264.856
X89.436 Y267.281
X89.445 Y268.089
X89.452 Y268.897
X89.456 Y269.705
X89.458 Y270.513
X89.46 Y272.13
X89.459 Y275.363
X89.456 Y276.171
X89.45 Y276.979
X89.443 Y277.787
X89.424 Y279.404
X89.393 Y281.828
X89.27 Y290.718
X89.257 Y291.526
X89.227 Y293.142
X89.177 Y295.567
X89.04 Y302.031
X88.953 Y306.071
X88.922 Y307.687
X88.88 Y310.112
X88.731 Y319.001
X88.692 Y321.426
X88.682 Y322.234
X88.674 Y323.042
X88.662 Y324.658
X88.649 Y327.083
X88.641 Y328.699
X88.64 Y329.508
X88.641 Y330.316
X88.645 Y331.124
X88.655 Y332.741
X88.674 Y335.165
X88.681 Y335.973
X88.69 Y336.782
X88.703 Y337.59
X88.719 Y338.398
X88.736 Y339.206
X88.775 Y340.822
X88.836 Y343.246
X88.859 Y344.054
X88.888 Y344.861
X88.92 Y345.669
X88.954 Y346.477
X88.99 Y347.284
X89.064 Y348.899
X89.141 Y350.513
X89.183 Y351.321
X89.231 Y352.127
X89.283 Y352.934
X89.339 Y353.74
X89.396 Y354.546
X89.514 Y356.159
X89.635 Y357.771
X89.701 Y358.576
X89.775 Y359.381
X89.853 Y360.185
X89.934 Y360.989
X90.018 Y361.793
X90.189 Y363.401
X90.276 Y364.204
X90.364 Y365.008
X90.463 Y365.81
X90.568 Y366.611
X90.679 Y367.412
X90.792 Y368.212
X90.908 Y369.012
X91.143 Y370.611
X91.261 Y371.411
X91.39 Y372.209
X91.528 Y373.005
X91.672 Y373.8
X91.821 Y374.595
X91.972 Y375.389
X92.126 Y376.182
X92.436 Y377.769
X92.599 Y378.56
X92.771 Y379.35
X92.949 Y380.139
X93.13 Y380.926
X93.32 Y381.712
X93.517 Y382.496
X93.719 Y383.278
X93.924 Y384.06
X94.139 Y384.839
X94.361 Y385.616
X94.588 Y386.392
X94.818 Y387.167
X95.059 Y387.938
X95.307 Y388.707
X95.561 Y389.475
X95.819 Y390.241
X96.088 Y391.003
X96.364 Y391.763
X96.645 Y392.52
X96.934 Y393.275
X97.233 Y394.026
X97.539 Y394.774
X97.85 Y395.52
X98.17 Y396.262
X98.501 Y397
X98.839 Y397.734
X99.181 Y398.466
X99.536 Y399.192
X99.9 Y399.914
X100.27 Y400.632
X100.648 Y401.347
X101.038 Y402.055
X101.436 Y402.758
X101.84 Y403.458
X102.255 Y404.152
X102.681 Y404.839
X103.114 Y405.521
X103.554 Y406.199
X104.006 Y406.869
X104.468 Y407.532
X104.936 Y408.191
X105.414 Y408.843
X105.904 Y409.486
X106.401 Y410.123
X106.904 Y410.756
X107.42 Y411.378
X107.946 Y411.992
X108.478 Y412.6
X109.019 Y413.201
X109.571 Y413.791
X110.131 Y414.373
X110.697 Y414.951
X111.273 Y415.517
X111.86 Y416.073
X112.453 Y416.623
X113.051 Y417.166
X113.661 Y417.696
X114.279 Y418.217
X114.902 Y418.732
X115.533 Y419.237
X116.174 Y419.73
X116.82 Y420.215
X117.471 Y420.694
X118.131 Y421.16
X118.799 Y421.616
X119.472 Y422.064
X120.148 Y422.507
X120.833 Y422.935
X121.525 Y423.352
X122.221 Y423.763
X122.921 Y424.168
X123.629 Y424.558
X124.342 Y424.939
X125.058 Y425.313
X125.778 Y425.681
X126.505 Y426.034
X127.236 Y426.379
X127.97 Y426.716
X128.707 Y427.049
X129.45 Y427.367
X130.196 Y427.676
X130.946 Y427.979
X131.697 Y428.277
X132.453 Y428.563
X133.213 Y428.838
X133.975 Y429.107
X134.739 Y429.372
X135.506 Y429.626
X136.277 Y429.87
X137.049 Y430.108
X137.823 Y430.34
X138.599 Y430.567
X139.378 Y430.782
X140.16 Y430.989
X140.942 Y431.19
X141.726 Y431.388
X142.512 Y431.577
X143.3 Y431.757
X144.089 Y431.93
X144.879 Y432.099
X145.67 Y432.266
X146.464 Y432.42
X147.258 Y432.568
X148.054 Y432.71
X148.85 Y432.849
X149.647 Y432.984
X150.446 Y433.109
X151.245 Y433.227
X152.045 Y433.341
X152.846 Y433.452
X153.647 Y433.56
X154.449 Y433.658
X155.252 Y433.749
X156.056 Y433.837
X156.859 Y433.921
X157.663 Y434.004
X158.468 Y434.077
X159.274 Y434.145
X160.08 Y434.208
X160.886 Y434.268
X161.692 Y434.326
X162.498 Y434.379
X163.305 Y434.424
X164.112 Y434.465
X164.92 Y434.503
X165.727 Y434.539
X166.535 Y434.573
X167.343 Y434.599
X168.15 Y434.62
X168.959 Y434.637
X169.767 Y434.652
X170.373 Y434.662
X170.772 Y434.603
X171.132 Y434.418
X171.76 Y433.909
X172.214 Y433.241
X172.533 Y432.498
X172.754 Y431.721
X172.785 Y431.56
X172.865 Y431.304
X173.002 Y431.073
X173.187 Y430.88
X173.412 Y430.734
X173.664 Y430.643
X173.931 Y430.612
G3 X174.413 Y431.129 I-0.017 J0.5
G1 X174.41 Y431.216 Z-8.992
X174.407 Y431.3 Z-8.97
X174.404 Y431.379 Z-8.933
X174.402 Y431.45 Z-8.883
X174.4 Y431.512 Z-8.821
X174.398 Y431.562 Z-8.75
X174.397 Y431.599 Z-8.671
X174.396 Y431.621 Z-8.587
Y431.629 Z-8.5
G0 Z5
X176.194 Y4.023
Z-8
G1 Z-8.5 F1000
X176.187 Y4.027 Z-8.587
X176.168 Y4.039 Z-8.671
X176.136 Y4.057 Z-8.75
X176.093 Y4.083 Z-8.821
X176.04 Y4.114 Z-8.883
X175.979 Y4.151 Z-8.933
X175.911 Y4.191 Z-8.97
X175.839 Y4.234 Z-8.992
X175.764 Y4.279 Z-9
G3 X175.01 Y4.5 I-0.809 J-1.36
G1 X174.313
X174.163 Y4.492
X173.899 Y4.389
X173.173 Y4.034
X172.438 Y3.697
X171.682 Y3.411
X170.907 Y3.183
X170.118 Y3.005
X169.321 Y2.87
X168.519 Y2.769
X167.715 Y2.694
X166.908 Y2.639
X166.101 Y2.6
X165.293 Y2.571
X164.485 Y2.55
X163.677 Y2.535
X162.869 Y2.525
X162.061 Y2.518
X161.253 Y2.512
X160.444 Y2.509
X158.828 Y2.504
X156.403 Y2.501
X149.129 Y2.5
X124.074
X118.416
X117.608 Y2.501
X116.8 Y2.504
X115.991 Y2.512
X115.183 Y2.525
X114.375 Y2.542
X113.567 Y2.563
X112.76 Y2.589
X111.952 Y2.623
X111.145 Y2.669
X110.339 Y2.726
X109.533 Y2.792
X108.728 Y2.866
X107.924 Y2.949
X107.122 Y3.044
X106.321 Y3.152
X105.522 Y3.273
X104.724 Y3.404
X103.928 Y3.544
X103.134 Y3.693
X102.342 Y3.855
X101.553 Y4.031
X100.767 Y4.219
X99.983 Y4.417
X99.202 Y4.624
X98.423 Y4.84
X97.648 Y5.07
X96.877 Y5.312
X96.11 Y5.566
X95.346 Y5.83
X94.585 Y6.102
X93.828 Y6.384
X93.075 Y6.679
X92.328 Y6.986
X91.585 Y7.304
X90.845 Y7.631
X90.11 Y7.967
X89.38 Y8.313
X88.655 Y8.671
X87.937 Y9.041
X87.223 Y9.421
X86.514 Y9.809
X85.81 Y10.206
X85.112 Y10.613
X84.421 Y11.032
X83.736 Y11.462
X83.058 Y11.901
X82.384 Y12.348
X81.716 Y12.802
X81.055 Y13.268
X80.403 Y13.745
X79.758 Y14.231
X79.119 Y14.727
X78.486 Y15.229
X77.859 Y15.739
X77.24 Y16.26
X76.631 Y16.79
X76.029 Y17.33
X75.435 Y17.878
X74.846 Y18.432
X74.265 Y18.994
X73.694 Y19.565
X73.132 Y20.146
X72.578 Y20.735
X72.032 Y21.331
X71.493 Y21.933
X70.962 Y22.542
X70.441 Y23.16
X69.931 Y23.787
X69.43 Y24.421
X68.936 Y25.061
X68.449 Y25.706
X67.972 Y26.358
X67.506 Y27.019
X67.051 Y27.687
X66.606 Y28.361
X66.168 Y29.041
X65.737 Y29.725
X65.318 Y30.416
X64.911 Y31.114
X64.514 Y31.818
X64.128 Y32.528
X63.749 Y33.242
X63.378 Y33.96
X63.02 Y34.685
X62.674 Y35.415
X62.339 Y36.151
X62.014 Y36.891
X61.697 Y37.634
X61.389 Y38.381
X61.094 Y39.134
X60.811 Y39.891
X60.54 Y40.652
X60.279 Y41.417
X60.025 Y42.185
X59.782 Y42.955
X59.552 Y43.73
X59.336 Y44.509
X59.13 Y45.291
X58.935 Y46.075
X58.746 Y46.861
X58.57 Y47.65
X58.408 Y48.441
X58.258 Y49.236
X58.12 Y50.032
X57.992 Y50.83
X57.871 Y51.629
X57.763 Y52.43
X57.67 Y53.233
X57.589 Y54.037
X57.519 Y54.842
X57.458 Y55.648
X57.405 Y56.455
X57.362 Y57.262
X57.328 Y58.07
X57.303 Y58.877
X57.284 Y59.685
X57.271 Y60.494
X57.263 Y61.302
X57.259 Y62.11
Y62.918
X57.261 Y63.726
X57.266 Y64.535
X57.273 Y65.343
X57.282 Y66.151
X57.293 Y66.959
X57.305 Y67.767
X57.319 Y68.575
X57.335 Y69.384
X57.352 Y70.192
X57.371 Y71
X57.391 Y71.808
X57.413 Y72.616
X57.437 Y73.423
X57.461 Y74.231
X57.488 Y75.039
X57.516 Y75.847
X57.546 Y76.654
X57.577 Y77.462
X57.61 Y78.27
X57.644 Y79.077
X57.68 Y79.885
X57.718 Y80.692
X57.758 Y81.499
X57.799 Y82.306
X57.842 Y83.114
X57.887 Y83.921
X57.933 Y84.727
X57.982 Y85.534
X58.032 Y86.341
X58.083 Y87.147
X58.137 Y87.954
X58.193 Y88.76
X58.25 Y89.566
X58.309 Y90.372
X58.37 Y91.178
X58.433 Y91.984
X58.498 Y92.79
X58.566 Y93.595
X58.634 Y94.401
X58.705 Y95.206
X58.778 Y96.011
X58.853 Y96.815
X58.93 Y97.62
X59.009 Y98.424
X59.09 Y99.228
X59.174 Y100.032
X59.261 Y100.836
X59.351 Y101.639
X59.443 Y102.442
X59.537 Y103.245
X59.632 Y104.047
X59.826 Y105.652
X59.925 Y106.454
X60.027 Y107.256
X60.132 Y108.058
X60.24 Y108.859
X60.351 Y109.659
X60.464 Y110.459
X60.579 Y111.259
X60.695 Y112.059
X60.812 Y112.859
X60.931 Y113.658
X61.054 Y114.457
X61.18 Y115.256
X61.309 Y116.054
X61.44 Y116.851
X61.574 Y117.648
X61.71 Y118.445
X61.846 Y119.241
X61.985 Y120.038
X62.126 Y120.834
X62.271 Y121.629
X62.419 Y122.423
X62.57 Y123.217
X62.723 Y124.011
X62.878 Y124.804
X63.034 Y125.597
X63.192 Y126.39
X63.353 Y127.182
X63.517 Y127.973
X63.684 Y128.764
X63.854 Y129.554
X64.027 Y130.344
X64.201 Y131.133
X64.376 Y131.922
X64.553 Y132.711
X64.734 Y133.498
X64.917 Y134.286
X65.104 Y135.072
X65.292 Y135.858
X65.483 Y136.643
X65.675 Y137.428
X65.869 Y138.213
X66.065 Y138.997
X66.264 Y139.78
X66.466 Y140.563
X66.67 Y141.345
X66.876 Y142.127
X67.084 Y142.908
X67.293 Y143.688
X67.504 Y144.469
X67.718 Y145.248
X67.934 Y146.027
X68.152 Y146.805
X68.372 Y147.583
X68.593 Y148.36
X68.816 Y149.137
X69.04 Y149.914
X69.266 Y150.69
X69.495 Y151.465
X69.725 Y152.24
X69.956 Y153.014
X70.189 Y153.788
X70.422 Y154.562
X70.658 Y155.335
X70.894 Y156.108
X71.133 Y156.88
X71.373 Y157.652
X71.615 Y158.423
X71.857 Y159.194
X72.344 Y160.736
X73.078 Y163.046
X74.306 Y166.897
X76.029 Y172.286
X77.014 Y175.365
X77.259 Y176.135
X77.503 Y176.906
X77.745 Y177.677
X77.984 Y178.449
X78.223 Y179.221
X78.46 Y179.994
X78.931 Y181.54
X79.635 Y183.86
X80.102 Y185.408
X80.335 Y186.182
X80.566 Y186.956
X80.793 Y187.732
X81.019 Y188.508
X81.242 Y189.285
X81.463 Y190.062
X81.683 Y190.84
X81.901 Y191.618
X82.115 Y192.397
X82.327 Y193.177
X82.537 Y193.958
X82.744 Y194.739
X82.95 Y195.521
X83.154 Y196.303
X83.355 Y197.086
X83.554 Y197.869
X83.749 Y198.653
X83.942 Y199.438
X84.132 Y200.224
X84.321 Y201.01
X84.508 Y201.796
X84.692 Y202.583
X84.873 Y203.371
X85.05 Y204.159
X85.225 Y204.948
X85.397 Y205.738
X85.567 Y206.528
X85.736 Y207.319
X85.902 Y208.11
X86.064 Y208.902
X86.223 Y209.694
X86.379 Y210.487
X86.532 Y211.281
X86.683 Y212.075
X86.832 Y212.869
X86.979 Y213.664
X87.123 Y214.459
X87.263 Y215.255
X87.4 Y216.052
X87.534 Y216.849
X87.666 Y217.646
X87.796 Y218.444
X87.924 Y219.242
X88.049 Y220.04
X88.171 Y220.839
X88.29 Y221.639
X88.405 Y222.439
X88.518 Y223.239
X88.628 Y224.04
X88.738 Y224.841
X88.845 Y225.642
X88.949 Y226.443
X89.05 Y227.245
X89.148 Y228.047
X89.243 Y228.85
X89.336 Y229.653
X89.426 Y230.456
X89.516 Y231.259
X89.603 Y232.063
X89.688 Y232.866
X89.77 Y233.671
X89.848 Y234.475
X89.924 Y235.28
X89.998 Y236.084
X90.07 Y236.89
X90.141 Y237.695
X90.21 Y238.5
X90.277 Y239.305
X90.341 Y240.111
X90.402 Y240.917
X90.461 Y241.723
X90.518 Y242.529
X90.572 Y243.336
X90.626 Y244.142
X90.679 Y244.949
X90.729 Y245.755
X90.778 Y246.562
X90.823 Y247.369
X90.866 Y248.176
X90.908 Y248.983
X90.947 Y249.791
X91.023 Y251.405
X91.059 Y252.213
X91.093 Y253.02
X91.125 Y253.828
X91.155 Y254.636
X91.182 Y255.443
X91.208 Y256.251
X91.233 Y257.059
X91.28 Y258.675
X91.301 Y259.483
X91.322 Y260.291
X91.34 Y261.099
X91.356 Y261.907
X91.371 Y262.715
X91.384 Y263.523
X91.407 Y265.139
X91.428 Y266.756
X91.436 Y267.564
X91.443 Y268.372
X91.448 Y269.18
X91.452 Y269.989
X91.456 Y271.605
X91.458 Y273.221
Y274.03
X91.457 Y274.838
X91.453 Y275.646
X91.449 Y276.454
X91.443 Y277.263
X91.427 Y278.879
X91.408 Y280.495
X91.366 Y283.728
X91.288 Y289.385
X91.263 Y291.001
X91.234 Y292.618
X91.187 Y295.042
X91.103 Y299.082
X90.966 Y305.547
X90.934 Y307.163
X90.89 Y309.587
X90.821 Y313.628
X90.714 Y320.093
X90.703 Y320.901
X90.692 Y321.709
X90.683 Y322.517
X90.669 Y324.134
X90.658 Y325.75
X90.649 Y327.366
X90.646 Y328.175
X90.645 Y328.983
X90.646 Y329.791
X90.648 Y330.599
X90.655 Y332.216
X90.665 Y333.832
X90.672 Y334.641
X90.679 Y335.449
X90.689 Y336.257
X90.701 Y337.065
X90.716 Y337.873
X90.731 Y338.681
X90.748 Y339.489
X90.786 Y341.105
X90.805 Y341.913
X90.827 Y342.721
X90.852 Y343.529
X90.879 Y344.337
X90.909 Y345.145
X90.941 Y345.952
X90.975 Y346.76
X91.01 Y347.567
X91.046 Y348.375
X91.084 Y349.182
X91.124 Y349.989
X91.167 Y350.796
X91.214 Y351.603
X91.264 Y352.41
X91.317 Y353.216
X91.372 Y354.023
X91.428 Y354.829
X91.486 Y355.635
X91.545 Y356.441
X91.609 Y357.247
X91.677 Y358.052
X91.748 Y358.857
X91.824 Y359.662
X91.902 Y360.467
X91.983 Y361.271
X92.066 Y362.075
X92.15 Y362.879
X92.238 Y363.682
X92.331 Y364.485
X92.43 Y365.287
X92.533 Y366.089
X92.64 Y366.89
X92.75 Y367.69
X92.862 Y368.491
X92.977 Y369.291
X93.095 Y370.09
X93.22 Y370.889
X93.35 Y371.687
X93.487 Y372.483
X93.628 Y373.279
X93.773 Y374.074
X93.921 Y374.869
X94.072 Y375.663
X94.226 Y376.456
X94.386 Y377.248
X94.552 Y378.04
X94.722 Y378.83
X94.899 Y379.618
X95.083 Y380.405
X95.272 Y381.191
X95.467 Y381.975
X95.669 Y382.758
X95.878 Y383.539
X96.092 Y384.318
X96.312 Y385.096
X96.54 Y385.871
X96.775 Y386.645
X97.016 Y387.416
X97.263 Y388.186
X97.518 Y388.952
X97.781 Y389.717
X98.05 Y390.479
X98.327 Y391.238
X98.612 Y391.995
X98.905 Y392.748
X99.205 Y393.499
X99.513 Y394.246
X99.829 Y394.989
X100.154 Y395.73
X100.486 Y396.466
X100.828 Y397.199
X101.178 Y397.927
X101.536 Y398.652
X101.903 Y399.372
X102.28 Y400.087
X102.665 Y400.798
X103.059 Y401.503
X103.463 Y402.203
X103.876 Y402.898
X104.297 Y403.588
X104.728 Y404.272
X105.169 Y404.949
X105.619 Y405.621
X106.078 Y406.286
X106.547 Y406.944
X107.026 Y407.595
X107.513 Y408.24
X108.01 Y408.877
X108.518 Y409.506
X109.034 Y410.128
X109.559 Y410.743
X110.094 Y411.348
X110.638 Y411.946
X111.191 Y412.536
X111.752 Y413.117
X112.323 Y413.689
X112.903 Y414.253
X113.49 Y414.808
X114.087 Y415.353
X114.692 Y415.889
X115.304 Y416.416
X115.925 Y416.934
X116.554 Y417.441
X117.19 Y417.94
X117.833 Y418.43
X118.484 Y418.909
X119.142 Y419.378
X119.806 Y419.839
X120.477 Y420.29
X121.155 Y420.73
X121.839 Y421.16
X122.528 Y421.582
X123.224 Y421.993
X123.926 Y422.395
X124.633 Y422.786
X125.344 Y423.17
X126.061 Y423.543
X126.783 Y423.906
X127.51 Y424.26
X128.24 Y424.606
X128.975 Y424.942
X129.715 Y425.268
X130.458 Y425.586
X131.204 Y425.896
X131.955 Y426.197
X132.709 Y426.488
X133.465 Y426.771
X134.225 Y427.047
X134.988 Y427.313
X135.754 Y427.571
X136.523 Y427.822
X137.294 Y428.065
X138.067 Y428.3
X138.842 Y428.527
X139.62 Y428.746
X140.4 Y428.959
X141.182 Y429.164
X141.965 Y429.362
X142.751 Y429.552
X143.538 Y429.736
X144.327 Y429.914
X145.116 Y430.085
X145.908 Y430.249
X146.701 Y430.406
X147.495 Y430.557
X148.29 Y430.703
X149.086 Y430.842
X149.883 Y430.975
X150.681 Y431.101
X151.481 Y431.222
X152.28 Y431.339
X153.081 Y431.449
X153.882 Y431.554
X154.685 Y431.652
X155.487 Y431.746
X156.291 Y431.836
X157.094 Y431.921
X157.899 Y431.999
X158.704 Y432.073
X159.509 Y432.141
X160.315 Y432.207
X161.121 Y432.267
X161.927 Y432.322
X162.734 Y432.373
X163.541 Y432.419
X164.348 Y432.461
X165.155 Y432.501
X165.962 Y432.535
X166.77 Y432.565
X167.578 Y432.59
X167.982 Y432.58
X168.373 Y432.477
X169.1 Y432.125
X169.716 Y431.601
X170.336 Y430.963
X170.514 Y430.814
X170.718 Y430.703
X170.939 Y430.635
X171.17 Y430.612
X172.623
G3 X173.105 Y431.129 I-0.017 J0.5
G1 X173.102 Y431.216 Z-8.992
X173.099 Y431.3 Z-8.97
X173.096 Y431.379 Z-8.933
X173.094 Y431.45 Z-8.883
X173.092 Y431.512 Z-8.821
X173.09 Y431.562 Z-8.75
X173.089 Y431.599 Z-8.671
X173.088 Y431.621 Z-8.587
Y431.629 Z-8.5
G0 Z5
X175.496 Y4.023
Z-8
G1 Z-8.5 F1000
X175.49 Y4.027 Z-8.587
X175.47 Y4.039 Z-8.671
X175.439 Y4.057 Z-8.75
X175.396 Y4.083 Z-8.821
X175.343 Y4.114 Z-8.883
X175.281 Y4.151 Z-8.933
X175.214 Y4.191 Z-8.97
X175.141 Y4.234 Z-8.992
X175.067 Y4.279 Z-9
G3 X174.313 Y4.5 I-0.809 J-1.36
G1 X114.589
X114.222 Y4.505
X114.038 Y4.508
X113.855 Y4.514
X109.814 Y4.69
X109.631 Y4.7
X109.08 Y4.753
X104.856 Y5.309
X104.785 Y5.32
X104.305 Y5.416
X104.121 Y5.455
X100.588 Y6.238
X100.081 Y6.354
X99.897 Y6.4
X95.75 Y7.708
X95.673 Y7.733
X95.122 Y7.934
X91.449 Y9.455
X90.898 Y9.694
X90.83 Y9.727
X87.225 Y11.604
X86.858 Y11.797
X86.674 Y11.898
X86.619 Y11.931
X83.001 Y14.236
X82.877 Y14.318
X82.45 Y14.62
X82.36 Y14.686
X78.961 Y17.294
X78.777 Y17.45
X78.585 Y17.624
X75.655 Y20.309
X75.582 Y20.378
X75.104 Y20.854
X72.342 Y23.867
X72.166 Y24.062
X72.02 Y24.234
X71.455 Y24.969
X69.411 Y27.633
X69.044 Y28.147
X68.961 Y28.274
X66.656 Y31.892
X66.623 Y31.947
X66.522 Y32.131
X66.289 Y32.574
X64.452 Y36.102
X64.421 Y36.171
X64.179 Y36.721
X62.734 Y40.21
X62.66 Y40.394
X62.456 Y40.945
X61.124 Y45.169
X61.079 Y45.352
X60.963 Y45.853
X60.178 Y49.392
X60.14 Y49.576
X60.045 Y50.036
X60.032 Y50.127
X59.494 Y54.211
X59.477 Y54.35
X59.42 Y54.901
X59.236 Y59.125
X59.228 Y59.492
X59.225 Y59.676
X59.224 Y59.859
X59.252 Y64.817
X59.255 Y65.184
X59.267 Y65.919
X59.341 Y70.143
X59.352 Y70.693
X59.499 Y75.652
X59.528 Y76.386
X59.708 Y80.61
X59.735 Y81.161
X59.969 Y85.384
X60.003 Y85.935
X60.045 Y86.556
X60.306 Y90.342
X60.365 Y91.077
X60.655 Y94.566
X60.702 Y95.117
X60.737 Y95.484
X61.112 Y99.34
X61.13 Y99.524
X61.603 Y103.747
X62.091 Y107.604
X62.139 Y107.971
X62.268 Y108.889
X62.658 Y111.644
X62.769 Y112.378
X63.259 Y115.5
X63.317 Y115.867
X63.351 Y116.066
X63.948 Y119.54
X63.981 Y119.723
X64.089 Y120.524
X64.394 Y122.112
X64.702 Y123.699
X64.858 Y124.492
X65.016 Y125.284
X65.176 Y126.077
X65.338 Y126.868
X65.503 Y127.66
X65.671 Y128.45
X65.841 Y129.24
X66.012 Y130.03
X66.186 Y130.82
X66.362 Y131.608
X66.541 Y132.397
X66.723 Y133.184
X66.907 Y133.971
X67.093 Y134.758
X67.282 Y135.544
X67.472 Y136.329
X67.664 Y137.114
X67.859 Y137.898
X68.057 Y138.682
X68.256 Y139.465
X68.459 Y140.248
X68.663 Y141.03
X68.869 Y141.811
X69.077 Y142.593
X69.287 Y143.373
X69.499 Y144.153
X69.713 Y144.932
X69.929 Y145.711
X70.148 Y146.489
X70.367 Y147.267
X70.589 Y148.044
X70.812 Y148.821
X71.037 Y149.597
X71.264 Y150.373
X71.493 Y151.148
X71.723 Y151.923
X71.954 Y152.697
X72.187 Y153.471
X72.421 Y154.245
X72.657 Y155.018
X72.895 Y155.79
X73.134 Y156.563
X73.374 Y157.334
X73.858 Y158.877
X74.344 Y160.418
X75.078 Y162.729
X76.059 Y165.81
X76.796 Y168.12
X78.52 Y173.508
X78.766 Y174.278
X79.01 Y175.049
X79.254 Y175.819
X79.496 Y176.591
X79.736 Y177.362
X79.976 Y178.134
X80.214 Y178.906
X80.688 Y180.452
X81.159 Y181.998
X81.628 Y183.545
X81.861 Y184.319
X82.093 Y185.093
X82.324 Y185.868
X82.552 Y186.643
X82.779 Y187.419
X83.003 Y188.195
X83.226 Y188.972
X83.447 Y189.75
X83.666 Y190.528
X83.882 Y191.307
X84.095 Y192.086
X84.307 Y192.866
X84.516 Y193.647
X84.723 Y194.428
X84.929 Y195.21
X85.131 Y195.992
X85.332 Y196.775
X85.529 Y197.559
X85.724 Y198.343
X85.917 Y199.128
X86.107 Y199.914
X86.296 Y200.7
X86.481 Y201.486
X86.664 Y202.274
X86.844 Y203.062
X87.021 Y203.85
X87.196 Y204.639
X87.369 Y205.429
X87.539 Y206.219
X87.706 Y207.01
X87.871 Y207.801
X88.032 Y208.593
X88.191 Y209.385
X88.347 Y210.178
X88.501 Y210.972
X88.652 Y211.766
X88.801 Y212.56
X88.947 Y213.355
X89.09 Y214.151
X89.23 Y214.947
X89.367 Y215.743
X89.502 Y216.54
X89.634 Y217.338
X89.765 Y218.135
X89.892 Y218.933
X90.016 Y219.732
X90.138 Y220.531
X90.256 Y221.33
X90.372 Y222.13
X90.486 Y222.931
X90.598 Y223.731
X90.707 Y224.532
X90.814 Y225.333
X90.917 Y226.135
X91.018 Y226.936
X91.117 Y227.739
X91.212 Y228.541
X91.306 Y229.344
X91.398 Y230.147
X91.487 Y230.95
X91.574 Y231.754
X91.659 Y232.558
X91.74 Y233.362
X91.82 Y234.166
X91.897 Y234.971
X91.971 Y235.775
X92.045 Y236.58
X92.116 Y237.385
X92.185 Y238.191
X92.251 Y238.996
X92.315 Y239.802
X92.377 Y240.608
X92.437 Y241.414
X92.494 Y242.22
X92.55 Y243.026
X92.605 Y243.833
X92.657 Y244.639
X92.708 Y245.446
X92.756 Y246.253
X92.802 Y247.06
X92.846 Y247.867
X92.888 Y248.674
X92.929 Y249.481
X92.968 Y250.288
X93.006 Y251.096
X93.042 Y251.903
X93.076 Y252.711
X93.108 Y253.518
X93.139 Y254.326
X93.167 Y255.134
X93.194 Y255.941
X93.22 Y256.749
X93.245 Y257.557
X93.268 Y258.365
X93.29 Y259.173
X93.31 Y259.981
X93.328 Y260.789
X93.345 Y261.597
X93.361 Y262.405
X93.375 Y263.213
X93.4 Y264.829
X93.411 Y265.638
X93.421 Y266.446
X93.429 Y267.254
X93.436 Y268.062
X93.442 Y268.87
X93.447 Y269.679
X93.453 Y271.295
X93.455 Y272.912
Y273.72
X93.454 Y274.528
X93.451 Y275.336
X93.447 Y276.144
X93.441 Y276.953
X93.427 Y278.569
X93.41 Y280.185
X93.38 Y282.61
X93.326 Y286.651
X93.292 Y289.075
X93.266 Y290.692
X93.238 Y292.308
X93.192 Y294.732
X93.126 Y297.964
X92.99 Y304.429
X92.942 Y306.853
X92.897 Y309.277
X92.827 Y313.318
X92.773 Y316.55
X92.733 Y318.975
X92.71 Y320.591
X92.699 Y321.399
X92.682 Y323.016
X92.668 Y324.632
X92.657 Y326.248
X92.653 Y327.057
X92.651 Y327.865
X92.649 Y328.673
X92.65 Y329.481
X92.651 Y330.29
X92.657 Y331.906
X92.666 Y333.522
X92.673 Y334.331
X92.681 Y335.139
X92.691 Y335.947
X92.702 Y336.755
X92.716 Y337.563
X92.731 Y338.371
X92.747 Y339.18
X92.764 Y339.988
X92.783 Y340.796
X92.803 Y341.604
X92.825 Y342.412
X92.85 Y343.219
X92.877 Y344.027
X92.906 Y344.835
X92.937 Y345.643
X92.969 Y346.45
X93.003 Y347.258
X93.039 Y348.065
X93.077 Y348.872
X93.118 Y349.68
X93.162 Y350.487
X93.208 Y351.294
X93.257 Y352.1
X93.309 Y352.907
X93.362 Y353.713
X93.417 Y354.52
X93.475 Y355.326
X93.536 Y356.132
X93.6 Y356.938
X93.668 Y357.743
X93.74 Y358.548
X93.814 Y359.353
X93.891 Y360.157
X93.97 Y360.962
X94.052 Y361.766
X94.138 Y362.569
X94.228 Y363.373
X94.322 Y364.175
X94.42 Y364.978
X94.522 Y365.779
X94.628 Y366.581
X94.736 Y367.382
X94.848 Y368.182
X94.964 Y368.982
X95.085 Y369.781
X95.211 Y370.579
X95.343 Y371.377
X95.479 Y372.174
X95.619 Y372.97
X95.762 Y373.765
X95.91 Y374.56
X96.062 Y375.353
X96.218 Y376.146
X96.38 Y376.938
X96.547 Y377.729
X96.72 Y378.518
X96.899 Y379.307
X97.084 Y380.093
X97.275 Y380.879
X97.473 Y381.663
X97.677 Y382.445
X97.887 Y383.225
X98.103 Y384.004
X98.327 Y384.781
X98.557 Y385.555
X98.794 Y386.328
X99.038 Y387.099
X99.289 Y387.867
X99.548 Y388.632
X99.814 Y389.396
X100.088 Y390.156
X100.369 Y390.914
X100.658 Y391.668
X100.956 Y392.42
X101.261 Y393.168
X101.574 Y393.913
X101.896 Y394.655
X102.227 Y395.392
X102.566 Y396.126
X102.914 Y396.855
X103.271 Y397.58
X103.637 Y398.301
X104.012 Y399.017
X104.396 Y399.728
X104.79 Y400.434
X105.193 Y401.134
X105.606 Y401.829
X106.028 Y402.519
X106.46 Y403.202
X106.902 Y403.879
X107.353 Y404.549
X107.815 Y405.213
X108.286 Y405.87
X108.766 Y406.519
X109.257 Y407.161
X109.757 Y407.796
X110.268 Y408.423
X110.787 Y409.042
X111.317 Y409.652
X111.856 Y410.255
X112.404 Y410.849
X112.962 Y411.433
X113.529 Y412.01
X114.105 Y412.577
X114.69 Y413.134
X115.283 Y413.683
X115.886 Y414.222
X116.497 Y414.751
X117.116 Y415.271
X117.743 Y415.781
X118.378 Y416.281
X119.021 Y416.77
X119.671 Y417.25
X120.328 Y417.72
X120.993 Y418.18
X121.665 Y418.63
X122.343 Y419.07
X123.027 Y419.499
X123.718 Y419.919
X124.415 Y420.328
X125.118 Y420.728
X125.826 Y421.117
X126.539 Y421.497
X127.258 Y421.867
X127.981 Y422.228
X128.709 Y422.578
X129.442 Y422.92
X130.179 Y423.252
X130.92 Y423.575
X131.665 Y423.888
X132.414 Y424.193
X133.166 Y424.488
X133.921 Y424.775
X134.68 Y425.053
X135.442 Y425.323
X136.207 Y425.584
X136.975 Y425.837
X137.745 Y426.082
X138.518 Y426.319
X139.293 Y426.548
X140.07 Y426.769
X140.85 Y426.983
X141.631 Y427.189
X142.415 Y427.388
X143.2 Y427.58
X143.998 Y427.767
X144.157 Y427.804
X144.524 Y427.885
X144.708 Y427.925
X147.646 Y428.537
X148.197 Y428.641
X148.381 Y428.674
X151.319 Y429.17
X151.87 Y429.257
X152.054 Y429.283
X155.176 Y429.702
X155.543 Y429.75
X155.727 Y429.771
X159.216 Y430.128
X159.4 Y430.142
X159.767 Y430.168
X160.135 Y430.191
X166.562 Y430.581
X167.113 Y430.608
X167.297 Y430.612
X171.17
G3 X171.652 Y431.129 I-0.017 J0.5
G1 X171.649 Y431.216 Z-8.992
X171.646 Y431.3 Z-8.97
X171.643 Y431.379 Z-8.933
X171.641 Y431.45 Z-8.883
X171.639 Y431.512 Z-8.821
X171.637 Y431.562 Z-8.75
X171.636 Y431.599 Z-8.671
X171.635 Y431.621 Z-8.587
Y431.629 Z-8.5
G0 Z5
X63.296 Y118.647
Z-8
G1 Z-8.5 F1000
X63.301 Y118.653 Z-8.587
X63.316 Y118.67 Z-8.671
X63.34 Y118.698 Z-8.75
X63.373 Y118.735 Z-8.821
X63.414 Y118.781 Z-8.883
X63.461 Y118.835 Z-8.933
X63.513 Y118.894 Z-8.97
X63.568 Y118.958 Z-8.992
X63.626 Y119.023 Z-9
G3 X63.981 Y119.723 I-1.189 J1.044
G1 X64.636 Y123.226
X64.67 Y123.396
X64.822 Y124.131
X66.053 Y130.007
X66.171 Y130.558
X66.213 Y130.741
X67.758 Y137.23
X67.788 Y137.352
X69.411 Y143.488
X69.54 Y143.963
X69.595 Y144.159
X71.281 Y150.023
X71.335 Y150.206
X71.615 Y151.126
X73.187 Y156.266
X73.422 Y157.001
X79.514 Y175.915
X80.874 Y180.138
X81.157 Y181.057
X82.634 Y185.888
X82.728 Y186.198
X82.835 Y186.566
X84.362 Y191.891
X84.414 Y192.075
X84.515 Y192.442
X85.966 Y197.951
X86.107 Y198.502
X87.498 Y204.378
X87.541 Y204.562
X87.593 Y204.796
X88.842 Y210.805
X88.95 Y211.356
X89.147 Y212.458
X90.03 Y217.416
X90.125 Y217.967
X90.156 Y218.15
X90.613 Y221.089
X90.668 Y221.456
X90.722 Y221.823
X91.135 Y224.761
X91.16 Y224.945
X91.232 Y225.496
X91.623 Y228.617
X91.688 Y229.168
X92.034 Y232.29
X92.094 Y232.841
X92.448 Y236.514
X92.511 Y237.248
X92.799 Y240.737
X92.812 Y240.921
X93.307 Y248.817
X93.339 Y249.368
X93.653 Y257.385
X93.673 Y257.999
X93.827 Y265.895
X93.835 Y266.446
X93.837 Y266.813
X93.864 Y274.526
X93.863 Y275.076
X93.796 Y282.973
X93.786 Y283.707
X93.461 Y300.601
X93.121 Y316.945
X93.114 Y317.312
X93.019 Y325.208
X93.015 Y325.943
X93.013 Y333.288
X93.014 Y333.839
X93.144 Y341.735
X93.157 Y342.102
X93.446 Y349.631
X93.456 Y349.815
X93.931 Y356.977
X93.945 Y357.16
X93.974 Y357.527
X93.99 Y357.711
X94.661 Y364.322
X94.72 Y364.873
X94.741 Y365.056
X95.131 Y367.995
X95.207 Y368.545
X95.234 Y368.729
X95.694 Y371.667
X95.785 Y372.218
X95.817 Y372.402
X96.355 Y375.34
X96.465 Y375.891
X96.591 Y376.489
X97.127 Y379.013
X97.877 Y382.076
X98.038 Y382.685
X98.707 Y385.072
X98.865 Y385.623
X98.921 Y385.807
X99.863 Y388.745
X100.196 Y389.663
X100.933 Y391.683
X101.003 Y391.867
X101.305 Y392.601
X102.139 Y394.621
X102.22 Y394.805
X103.329 Y397.192
X103.386 Y397.31
X103.701 Y397.927
X104.558 Y399.579
X104.657 Y399.763
X104.967 Y400.314
X105.813 Y401.783
X105.958 Y402.032
X106.029 Y402.15
X107.078 Y403.803
X107.197 Y403.987
X107.568 Y404.537
X108.345 Y405.651
X108.467 Y405.823
X108.732 Y406.19
X108.868 Y406.374
X109.814 Y407.613
X109.998 Y407.85
X110.182 Y408.074
X111.209 Y409.312
X111.283 Y409.399
X111.538 Y409.679
X113.671 Y411.963
X114.038 Y412.339
X114.135 Y412.434
X116.73 Y414.821
X116.977 Y415.019
X117.419 Y415.372
X119.548 Y417.054
X119.731 Y417.199
X119.915 Y417.327
X122.716 Y419.228
X122.854 Y419.314
X123.318 Y419.595
X123.588 Y419.753
X125.792 Y421.033
X126.343 Y421.338
X126.527 Y421.432
X129.281 Y422.799
X129.465 Y422.889
X130.016 Y423.137
X132.954 Y424.377
X133.138 Y424.453
X133.322 Y424.525
X136.627 Y425.708
X136.811 Y425.77
X137.362 Y425.941
X140.3 Y426.826
X140.484 Y426.878
X140.718 Y426.941
X140.851 Y426.975
X143.998 Y427.767
G3 X144.238 Y427.913 I-0.13 J0.483
G1 X144.273 Y427.971 Z-8.995
X144.307 Y428.028 Z-8.981
X144.34 Y428.083 Z-8.959
X144.35 Y428.144 Z-8.926
X144.36 Y428.2 Z-8.886
X144.368 Y428.25 Z-8.837
X144.362 Y428.295 Z-8.779
X144.357 Y428.331 Z-8.715
X144.354 Y428.358 Z-8.646
X144.352 Y428.374 Z-8.574
X144.351 Y428.379 Z-8.5
G0 Z5
X178.438 Y3.984
Z-9
G1 Z-9.5 F1000
X178.43 Y3.986 Z-9.587
X178.408 Y3.992 Z-9.671
X178.373 Y4.001 Z-9.75
X178.324 Y4.013 Z-9.821
X178.265 Y4.029 Z-9.883
X178.195 Y4.047 Z-9.933
X178.119 Y4.066 Z-9.97
X178.037 Y4.087 Z-9.992
X177.953 Y4.109 Z-10
G3 X175.231 Y4.5 I-3.167 J-12.366
G1 X175.01
X174.973 Y4.498
X174.854 Y4.407
X174.742 Y4.303
X174.617 Y4.166
X174.48 Y3.989
X174.332 Y3.762
X174.173 Y3.471
X173.845 Y2.732
X173.386 Y2.067
X172.739 Y1.583
X172.006 Y1.241
X171.234 Y1.004
X170.442 Y0.841
X169.642 Y0.73
X168.837 Y0.655
X168.03 Y0.604
X167.223 Y0.57
X166.415 Y0.547
X165.607 Y0.531
X164.798 Y0.521
X163.99 Y0.514
X163.182 Y0.509
X162.374 Y0.506
X160.757 Y0.503
X157.524 Y0.501
X126.003 Y0.5
X116.304
X115.496 Y0.505
X114.688 Y0.519
X113.88 Y0.54
X113.072 Y0.565
X112.264 Y0.592
X111.457 Y0.622
X110.65 Y0.662
X109.844 Y0.722
X109.039 Y0.795
X108.235 Y0.877
X107.431 Y0.965
X106.628 Y1.057
X105.827 Y1.161
X105.028 Y1.285
X104.231 Y1.422
X103.437 Y1.569
X102.643 Y1.723
X101.85 Y1.88
X101.06 Y2.049
X100.274 Y2.238
X99.492 Y2.44
X98.712 Y2.652
X97.933 Y2.87
X97.156 Y3.092
X96.382 Y3.325
X95.615 Y3.578
X94.851 Y3.844
X94.092 Y4.119
X93.334 Y4.401
X92.578 Y4.686
X91.825 Y4.981
X91.081 Y5.296
X90.342 Y5.624
X89.608 Y5.961
X88.876 Y6.304
X88.146 Y6.651
X87.42 Y7.006
X86.704 Y7.381
X85.995 Y7.769
X85.29 Y8.165
X84.589 Y8.567
X83.89 Y8.973
X83.196 Y9.387
X82.513 Y9.819
X81.838 Y10.264
X81.169 Y10.717
X80.503 Y11.175
X79.84 Y11.637
X79.182 Y12.107
X78.537 Y12.593
X77.901 Y13.092
X77.271 Y13.599
X76.645 Y14.11
X76.022 Y14.626
X75.405 Y15.147
X74.802 Y15.685
X74.209 Y16.234
X73.623 Y16.791
X73.042 Y17.353
X72.463 Y17.917
X71.891 Y18.487
X71.334 Y19.073
X70.788 Y19.669
X70.25 Y20.272
X69.717 Y20.88
X69.187 Y21.49
X68.663 Y22.106
X68.156 Y22.735
X67.661 Y23.374
X67.174 Y24.019
X66.693 Y24.669
X66.215 Y25.321
X65.743 Y25.977
X65.289 Y26.646
X64.849 Y27.323
X64.417 Y28.006
X63.991 Y28.693
X63.569 Y29.382
X63.152 Y30.075
X62.754 Y30.778
X62.371 Y31.49
X61.997 Y32.206
X61.629 Y32.926
X61.265 Y33.648
X60.906 Y34.372
X60.568 Y35.106
X60.244 Y35.846
X59.93 Y36.591
X59.622 Y37.339
X59.319 Y38.088
X59.021 Y38.839
X58.744 Y39.598
X58.482 Y40.363
X58.23 Y41.131
X57.986 Y41.901
X57.745 Y42.673
X57.509 Y43.446
X57.295 Y44.225
X57.097 Y45.009
X56.91 Y45.795
X56.729 Y46.583
X56.554 Y47.372
X56.381 Y48.161
X56.232 Y48.956
X56.099 Y49.753
X55.977 Y50.552
X55.862 Y51.352
X55.752 Y52.153
X55.645 Y52.954
X55.562 Y53.758
X55.495 Y54.563
X55.439 Y55.37
X55.39 Y56.176
X55.346 Y56.983
X55.306 Y57.791
X55.28 Y58.598
X55.263 Y59.406
X55.253 Y60.215
X55.248 Y61.023
X55.245 Y61.831
Y62.639
X55.249 Y63.448
X55.255 Y64.256
X55.263 Y65.064
X55.282 Y66.68
X55.294 Y67.488
X55.308 Y68.297
X55.324 Y69.105
X55.359 Y70.721
X55.378 Y71.529
X55.399 Y72.337
X55.422 Y73.145
X55.447 Y73.952
X55.5 Y75.568
X55.528 Y76.376
X55.559 Y77.183
X55.592 Y77.991
X55.661 Y79.606
X55.697 Y80.413
X55.736 Y81.221
X55.777 Y82.028
X55.82 Y82.835
X55.908 Y84.449
X55.955 Y85.256
X56.005 Y86.063
X56.056 Y86.869
X56.162 Y88.482
X56.218 Y89.289
X56.277 Y90.095
X56.338 Y90.901
X56.463 Y92.512
X56.528 Y93.318
X56.597 Y94.123
X56.667 Y94.928
X56.811 Y96.538
X56.887 Y97.343
X56.965 Y98.147
X57.046 Y98.952
X57.21 Y100.56
X57.298 Y101.363
X57.389 Y102.166
X57.483 Y102.969
X57.579 Y103.772
X57.774 Y105.376
X58.07 Y107.783
X58.174 Y108.584
X58.283 Y109.385
X58.396 Y110.186
X58.511 Y110.986
X58.628 Y111.785
X58.864 Y113.384
X59.102 Y114.983
X59.227 Y115.782
X59.358 Y116.579
X59.491 Y117.376
X59.627 Y118.173
X59.764 Y118.97
X60.042 Y120.562
X60.181 Y121.358
X60.324 Y122.154
X60.472 Y122.948
X60.624 Y123.742
X60.779 Y124.535
X60.936 Y125.328
X61.252 Y126.913
X61.412 Y127.706
X61.573 Y128.498
X61.741 Y129.289
X61.912 Y130.078
X62.086 Y130.868
X62.262 Y131.657
X62.616 Y133.234
X62.794 Y134.022
X62.976 Y134.81
X63.162 Y135.596
X63.352 Y136.382
X63.545 Y137.167
X63.738 Y137.951
X64.129 Y139.52
X64.325 Y140.304
X64.526 Y141.087
X64.731 Y141.869
X64.938 Y142.65
X65.148 Y143.431
X65.569 Y144.991
X65.781 Y145.771
X65.995 Y146.55
X66.214 Y147.329
X66.434 Y148.106
X66.657 Y148.883
X67.105 Y150.436
X67.33 Y151.213
