(Camping_Lochgitter_kuehlschrank)
(T4 D=5 CR=0 - ZMIN=-8 - flat end mill)
G90 G94
G17
G21
(-Attention- Property Safe Retracts is set to Clearance Height.)
(Ensure the clearance height will clear the part and or fixtures.)
(Raise the Z-axis to a safe height before starting the program.)

(Circular1)
T4
S5000 M3
G17 G90 G94
G54
M8
G0 X38 Y7.75
Z15
G0 Z-0.5
G1 Z-2 F1000
X38.25
G3 X38.5 Y8 I0 J0.25
X37.5 Y8 I-0.5 J0
X38.5 Y8 I0.5 J0
X38.25 Y8.25 I-0.25 J0
G1 X38
G0 Z5
Y7.75
Z-2.5
G1 Z-4 F1000
X38.25
G3 X38.5 Y8 I0 J0.25
X37.5 Y8 I-0.5 J0
X38.5 Y8 I0.5 J0
X38.25 Y8.25 I-0.25 J0
G1 X38
G0 Z5
Y7.75
Z-4.5
G1 Z-6 F1000
X38.25
G3 X38.5 Y8 I0 J0.25
X37.5 Y8 I-0.5 J0
X38.5 Y8 I0.5 J0
X38.25 Y8.25 I-0.25 J0
G1 X38
G0 Z5
Y7.75
Z-6.5
G1 Z-8 F1000
X38.25
G3 X38.5 Y8 I0 J0.25
X37.5 Y8 I-0.5 J0
X38.5 Y8 I0.5 J0
X38.25 Y8.25 I-0.25 J0
G1 X38
G0 Z5
X28 Y7.75
Z-0.5
G1 Z-2 F1000
X28.25
G3 X28.5 Y8 I0 J0.25
X27.5 Y8 I-0.5 J0
X28.5 Y8 I0.5 J0
X28.25 Y8.25 I-0.25 J0
G1 X28
G0 Z5
Y7.75
Z-2.5
G1 Z-4 F1000
X28.25
G3 X28.5 Y8 I0 J0.25
X27.5 Y8 I-0.5 J0
X28.5 Y8 I0.5 J0
X28.25 Y8.25 I-0.25 J0
G1 X28
G0 Z5
Y7.75
Z-4.5
G1 Z-6 F1000
X28.25
G3 X28.5 Y8 I0 J0.25
X27.5 Y8 I-0.5 J0
X28.5 Y8 I0.5 J0
X28.25 Y8.25 I-0.25 J0
G1 X28
G0 Z5
Y7.75
Z-6.5
G1 Z-8 F1000
X28.25
G3 X28.5 Y8 I0 J0.25
X27.5 Y8 I-0.5 J0
X28.5 Y8 I0.5 J0
X28.25 Y8.25 I-0.25 J0
G1 X28
G0 Z5
X18 Y7.75
Z-0.5
G1 Z-2 F1000
X18.25
G3 X18.5 Y8 I0 J0.25
X17.5 Y8 I-0.5 J0
X18.5 Y8 I0.5 J0
X18.25 Y8.25 I-0.25 J0
G1 X18
G0 Z5
Y7.75
Z-2.5
G1 Z-4 F1000
X18.25
G3 X18.5 Y8 I0 J0.25
X17.5 Y8 I-0.5 J0
X18.5 Y8 I0.5 J0
X18.25 Y8.25 I-0.25 J0
G1 X18
G0 Z5
Y7.75
Z-4.5
G1 Z-6 F1000
X18.25
G3 X18.5 Y8 I0 J0.25
X17.5 Y8 I-0.5 J0
X18.5 Y8 I0.5 J0
X18.25 Y8.25 I-0.25 J0
G1 X18
G0 Z5
Y7.75
Z-6.5
G1 Z-8 F1000
X18.25
G3 X18.5 Y8 I0 J0.25
X17.5 Y8 I-0.5 J0
X18.5 Y8 I0.5 J0
X18.25 Y8.25 I-0.25 J0
G1 X18
G0 Z5
X8 Y7.75
Z-0.5
G1 Z-2 F1000
X8.25
G3 X8.5 Y8 I0 J0.25
X7.5 Y8 I-0.5 J0
X8.5 Y8 I0.5 J0
X8.25 Y8.25 I-0.25 J0
G1 X8
G0 Z5
Y7.75
Z-2.5
G1 Z-4 F1000
X8.25
G3 X8.5 Y8 I0 J0.25
X7.5 Y8 I-0.5 J0
X8.5 Y8 I0.5 J0
X8.25 Y8.25 I-0.25 J0
G1 X8
G0 Z5
Y7.75
Z-4.5
G1 Z-6 F1000
X8.25
G3 X8.5 Y8 I0 J0.25
X7.5 Y8 I-0.5 J0
X8.5 Y8 I0.5 J0
X8.25 Y8.25 I-0.25 J0
G1 X8
G0 Z5
Y7.75
Z-6.5
G1 Z-8 F1000
X8.25
G3 X8.5 Y8 I0 J0.25
X7.5 Y8 I-0.5 J0
X8.5 Y8 I0.5 J0
X8.25 Y8.25 I-0.25 J0
G1 X8
G0 Z5
Y17.75
Z-0.5
G1 Z-2 F1000
X8.25
G3 X8.5 Y18 I0 J0.25
X7.5 Y18 I-0.5 J0
X8.5 Y18 I0.5 J0
X8.25 Y18.25 I-0.25 J0
G1 X8
G0 Z5
Y17.75
Z-2.5
G1 Z-4 F1000
X8.25
G3 X8.5 Y18 I0 J0.25
X7.5 Y18 I-0.5 J0
X8.5 Y18 I0.5 J0
X8.25 Y18.25 I-0.25 J0
G1 X8
G0 Z5
Y17.75
Z-4.5
G1 Z-6 F1000
X8.25
G3 X8.5 Y18 I0 J0.25
X7.5 Y18 I-0.5 J0
X8.5 Y18 I0.5 J0
X8.25 Y18.25 I-0.25 J0
G1 X8
G0 Z5
Y17.75
Z-6.5
G1 Z-8 F1000
X8.25
G3 X8.5 Y18 I0 J0.25
X7.5 Y18 I-0.5 J0
X8.5 Y18 I0.5 J0
X8.25 Y18.25 I-0.25 J0
G1 X8
G0 Z5
X18 Y17.75
Z-0.5
G1 Z-2 F1000
X18.25
G3 X18.5 Y18 I0 J0.25
X17.5 Y18 I-0.5 J0
X18.5 Y18 I0.5 J0
X18.25 Y18.25 I-0.25 J0
G1 X18
G0 Z5
Y17.75
Z-2.5
G1 Z-4 F1000
X18.25
G3 X18.5 Y18 I0 J0.25
X17.5 Y18 I-0.5 J0
X18.5 Y18 I0.5 J0
X18.25 Y18.25 I-0.25 J0
G1 X18
G0 Z5
Y17.75
Z-4.5
G1 Z-6 F1000
X18.25
G3 X18.5 Y18 I0 J0.25
X17.5 Y18 I-0.5 J0
X18.5 Y18 I0.5 J0
X18.25 Y18.25 I-0.25 J0
G1 X18
G0 Z5
Y17.75
Z-6.5
G1 Z-8 F1000
X18.25
G3 X18.5 Y18 I0 J0.25
X17.5 Y18 I-0.5 J0
X18.5 Y18 I0.5 J0
X18.25 Y18.25 I-0.25 J0
G1 X18
G0 Z5
X28 Y17.75
Z-0.5
G1 Z-2 F1000
X28.25
G3 X28.5 Y18 I0 J0.25
X27.5 Y18 I-0.5 J0
X28.5 Y18 I0.5 J0
X28.25 Y18.25 I-0.25 J0
G1 X28
G0 Z5
Y17.75
Z-2.5
G1 Z-4 F1000
X28.25
G3 X28.5 Y18 I0 J0.25
X27.5 Y18 I-0.5 J0
X28.5 Y18 I0.5 J0
X28.25 Y18.25 I-0.25 J0
G1 X28
G0 Z5
Y17.75
Z-4.5
G1 Z-6 F1000
X28.25
G3 X28.5 Y18 I0 J0.25
X27.5 Y18 I-0.5 J0
X28.5 Y18 I0.5 J0
X28.25 Y18.25 I-0.25 J0
G1 X28
G0 Z5
Y17.75
Z-6.5
G1 Z-8 F1000
X28.25
G3 X28.5 Y18 I0 J0.25
X27.5 Y18 I-0.5 J0
X28.5 Y18 I0.5 J0
X28.25 Y18.25 I-0.25 J0
G1 X28
G0 Z5
X38 Y17.75
Z-0.5
G1 Z-2 F1000
X38.25
G3 X38.5 Y18 I0 J0.25
X37.5 Y18 I-0.5 J0
X38.5 Y18 I0.5 J0
X38.25 Y18.25 I-0.25 J0
G1 X38
G0 Z5
Y17.75
Z-2.5
G1 Z-4 F1000
X38.25
G3 X38.5 Y18 I0 J0.25
X37.5 Y18 I-0.5 J0
X38.5 Y18 I0.5 J0
X38.25 Y18.25 I-0.25 J0
G1 X38
G0 Z5
Y17.75
Z-4.5
G1 Z-6 F1000
X38.25
G3 X38.5 Y18 I0 J0.25
X37.5 Y18 I-0.5 J0
X38.5 Y18 I0.5 J0
X38.25 Y18.25 I-0.25 J0
G1 X38
G0 Z5
Y17.75
Z-6.5
G1 Z-8 F1000
X38.25
G3 X38.5 Y18 I0 J0.25
X37.5 Y18 I-0.5 J0
X38.5 Y18 I0.5 J0
X38.25 Y18.25 I-0.25 J0
G1 X38
G0 Z5
Y27.75
Z-0.5
G1 Z-2 F1000
X38.25
G3 X38.5 Y28 I0 J0.25
X37.5 Y28 I-0.5 J0
X38.5 Y28 I0.5 J0
X38.25 Y28.25 I-0.25 J0
G1 X38
G0 Z5
Y27.75
Z-2.5
G1 Z-4 F1000
X38.25
G3 X38.5 Y28 I0 J0.25
X37.5 Y28 I-0.5 J0
X38.5 Y28 I0.5 J0
X38.25 Y28.25 I-0.25 J0
G1 X38
G0 Z5
Y27.75
Z-4.5
G1 Z-6 F1000
X38.25
G3 X38.5 Y28 I0 J0.25
X37.5 Y28 I-0.5 J0
X38.5 Y28 I0.5 J0
X38.25 Y28.25 I-0.25 J0
G1 X38
G0 Z5
Y27.75
Z-6.5
G1 Z-8 F1000
X38.25
G3 X38.5 Y28 I0 J0.25
X37.5 Y28 I-0.5 J0
X38.5 Y28 I0.5 J0
X38.25 Y28.25 I-0.25 J0
G1 X38
G0 Z5
X28 Y27.75
Z-0.5
G1 Z-2 F1000
X28.25
G3 X28.5 Y28 I0 J0.25
X27.5 Y28 I-0.5 J0
X28.5 Y28 I0.5 J0
X28.25 Y28.25 I-0.25 J0
G1 X28
G0 Z5
Y27.75
Z-2.5
G1 Z-4 F1000
X28.25
G3 X28.5 Y28 I0 J0.25
X27.5 Y28 I-0.5 J0
X28.5 Y28 I0.5 J0
X28.25 Y28.25 I-0.25 J0
G1 X28
G0 Z5
Y27.75
Z-4.5
G1 Z-6 F1000
X28.25
G3 X28.5 Y28 I0 J0.25
X27.5 Y28 I-0.5 J0
X28.5 Y28 I0.5 J0
X28.25 Y28.25 I-0.25 J0
G1 X28
G0 Z5
Y27.75
Z-6.5
G1 Z-8 F1000
X28.25
G3 X28.5 Y28 I0 J0.25
X27.5 Y28 I-0.5 J0
X28.5 Y28 I0.5 J0
X28.25 Y28.25 I-0.25 J0
G1 X28
G0 Z5
X18 Y27.75
Z-0.5
G1 Z-2 F1000
X18.25
G3 X18.5 Y28 I0 J0.25
X17.5 Y28 I-0.5 J0
X18.5 Y28 I0.5 J0
X18.25 Y28.25 I-0.25 J0
G1 X18
G0 Z5
Y27.75
Z-2.5
G1 Z-4 F1000
X18.25
G3 X18.5 Y28 I0 J0.25
X17.5 Y28 I-0.5 J0
X18.5 Y28 I0.5 J0
X18.25 Y28.25 I-0.25 J0
G1 X18
G0 Z5
Y27.75
Z-4.5
G1 Z-6 F1000
X18.25
G3 X18.5 Y28 I0 J0.25
X17.5 Y28 I-0.5 J0
X18.5 Y28 I0.5 J0
X18.25 Y28.25 I-0.25 J0
G1 X18
G0 Z5
Y27.75
Z-6.5
G1 Z-8 F1000
X18.25
G3 X18.5 Y28 I0 J0.25
X17.5 Y28 I-0.5 J0
X18.5 Y28 I0.5 J0
X18.25 Y28.25 I-0.25 J0
G1 X18
G0 Z5
X8 Y27.75
Z-0.5
G1 Z-2 F1000
X8.25
G3 X8.5 Y28 I0 J0.25
X7.5 Y28 I-0.5 J0
X8.5 Y28 I0.5 J0
X8.25 Y28.25 I-0.25 J0
G1 X8
G0 Z5
Y27.75
Z-2.5
G1 Z-4 F1000
X8.25
G3 X8.5 Y28 I0 J0.25
X7.5 Y28 I-0.5 J0
X8.5 Y28 I0.5 J0
X8.25 Y28.25 I-0.25 J0
G1 X8
G0 Z5
Y27.75
Z-4.5
G1 Z-6 F1000
X8.25
G3 X8.5 Y28 I0 J0.25
X7.5 Y28 I-0.5 J0
X8.5 Y28 I0.5 J0
X8.25 Y28.25 I-0.25 J0
G1 X8
G0 Z5
Y27.75
Z-6.5
G1 Z-8 F1000
X8.25
G3 X8.5 Y28 I0 J0.25
X7.5 Y28 I-0.5 J0
X8.5 Y28 I0.5 J0
X8.25 Y28.25 I-0.25 J0
G1 X8
G0 Z5
Y37.75
Z-0.5
G1 Z-2 F1000
X8.25
G3 X8.5 Y38 I0 J0.25
X7.5 Y38 I-0.5 J0
X8.5 Y38 I0.5 J0
X8.25 Y38.25 I-0.25 J0
G1 X8
G0 Z5
Y37.75
Z-2.5
G1 Z-4 F1000
X8.25
G3 X8.5 Y38 I0 J0.25
X7.5 Y38 I-0.5 J0
X8.5 Y38 I0.5 J0
X8.25 Y38.25 I-0.25 J0
G1 X8
G0 Z5
Y37.75
Z-4.5
G1 Z-6 F1000
X8.25
G3 X8.5 Y38 I0 J0.25
X7.5 Y38 I-0.5 J0
X8.5 Y38 I0.5 J0
X8.25 Y38.25 I-0.25 J0
G1 X8
G0 Z5
Y37.75
Z-6.5
G1 Z-8 F1000
X8.25
G3 X8.5 Y38 I0 J0.25
X7.5 Y38 I-0.5 J0
X8.5 Y38 I0.5 J0
X8.25 Y38.25 I-0.25 J0
G1 X8
G0 Z5
X18 Y37.75
Z-0.5
G1 Z-2 F1000
X18.25
G3 X18.5 Y38 I0 J0.25
X17.5 Y38 I-0.5 J0
X18.5 Y38 I0.5 J0
X18.25 Y38.25 I-0.25 J0
G1 X18
G0 Z5
Y37.75
Z-2.5
G1 Z-4 F1000
X18.25
G3 X18.5 Y38 I0 J0.25
X17.5 Y38 I-0.5 J0
X18.5 Y38 I0.5 J0
X18.25 Y38.25 I-0.25 J0
G1 X18
G0 Z5
Y37.75
Z-4.5
G1 Z-6 F1000
X18.25
G3 X18.5 Y38 I0 J0.25
X17.5 Y38 I-0.5 J0
X18.5 Y38 I0.5 J0
X18.25 Y38.25 I-0.25 J0
G1 X18
G0 Z5
Y37.75
Z-6.5
G1 Z-8 F1000
X18.25
G3 X18.5 Y38 I0 J0.25
X17.5 Y38 I-0.5 J0
X18.5 Y38 I0.5 J0
X18.25 Y38.25 I-0.25 J0
G1 X18
G0 Z5
X28 Y37.75
Z-0.5
G1 Z-2 F1000
X28.25
G3 X28.5 Y38 I0 J0.25
X27.5 Y38 I-0.5 J0
X28.5 Y38 I0.5 J0
X28.25 Y38.25 I-0.25 J0
G1 X28
G0 Z5
Y37.75
Z-2.5
G1 Z-4 F1000
X28.25
G3 X28.5 Y38 I0 J0.25
X27.5 Y38 I-0.5 J0
X28.5 Y38 I0.5 J0
X28.25 Y38.25 I-0.25 J0
G1 X28
G0 Z5
Y37.75
Z-4.5
G1 Z-6 F1000
X28.25
G3 X28.5 Y38 I0 J0.25
X27.5 Y38 I-0.5 J0
X28.5 Y38 I0.5 J0
X28.25 Y38.25 I-0.25 J0
G1 X28
G0 Z5
Y37.75
Z-6.5
G1 Z-8 F1000
X28.25
G3 X28.5 Y38 I0 J0.25
X27.5 Y38 I-0.5 J0
X28.5 Y38 I0.5 J0
X28.25 Y38.25 I-0.25 J0
G1 X28
G0 Z5
X38 Y37.75
Z-0.5
G1 Z-2 F1000
X38.25
G3 X38.5 Y38 I0 J0.25
X37.5 Y38 I-0.5 J0
X38.5 Y38 I0.5 J0
X38.25 Y38.25 I-0.25 J0
G1 X38
G0 Z5
Y37.75
Z-2.5
G1 Z-4 F1000
X38.25
G3 X38.5 Y38 I0 J0.25
X37.5 Y38 I-0.5 J0
X38.5 Y38 I0.5 J0
X38.25 Y38.25 I-0.25 J0
G1 X38
G0 Z5
Y37.75
Z-4.5
G1 Z-6 F1000
X38.25
G3 X38.5 Y38 I0 J0.25
X37.5 Y38 I-0.5 J0
X38.5 Y38 I0.5 J0
X38.25 Y38.25 I-0.25 J0
G1 X38
G0 Z5
Y37.75
Z-6.5
G1 Z-8 F1000
X38.25
G3 X38.5 Y38 I0 J0.25
X37.5 Y38 I-0.5 J0
X38.5 Y38 I0.5 J0
X38.25 Y38.25 I-0.25 J0
G1 X38
G0 Z5
Y47.75
Z-0.5
G1 Z-2 F1000
X38.25
G3 X38.5 Y48 I0 J0.25
X37.5 Y48 I-0.5 J0
X38.5 Y48 I0.5 J0
X38.25 Y48.25 I-0.25 J0
G1 X38
G0 Z5
Y47.75
Z-2.5
G1 Z-4 F1000
X38.25
G3 X38.5 Y48 I0 J0.25
X37.5 Y48 I-0.5 J0
X38.5 Y48 I0.5 J0
X38.25 Y48.25 I-0.25 J0
G1 X38
G0 Z5
Y47.75
Z-4.5
G1 Z-6 F1000
X38.25
G3 X38.5 Y48 I0 J0.25
X37.5 Y48 I-0.5 J0
X38.5 Y48 I0.5 J0
X38.25 Y48.25 I-0.25 J0
G1 X38
G0 Z5
Y47.75
Z-6.5
G1 Z-8 F1000
X38.25
G3 X38.5 Y48 I0 J0.25
X37.5 Y48 I-0.5 J0
X38.5 Y48 I0.5 J0
X38.25 Y48.25 I-0.25 J0
G1 X38
G0 Z5
X28 Y47.75
Z-0.5
G1 Z-2 F1000
X28.25
G3 X28.5 Y48 I0 J0.25
X27.5 Y48 I-0.5 J0
X28.5 Y48 I0.5 J0
X28.25 Y48.25 I-0.25 J0
G1 X28
G0 Z5
Y47.75
Z-2.5
G1 Z-4 F1000
X28.25
G3 X28.5 Y48 I0 J0.25
X27.5 Y48 I-0.5 J0
X28.5 Y48 I0.5 J0
X28.25 Y48.25 I-0.25 J0
G1 X28
G0 Z5
Y47.75
Z-4.5
G1 Z-6 F1000
X28.25
G3 X28.5 Y48 I0 J0.25
X27.5 Y48 I-0.5 J0
X28.5 Y48 I0.5 J0
X28.25 Y48.25 I-0.25 J0
G1 X28
G0 Z5
Y47.75
Z-6.5
G1 Z-8 F1000
X28.25
G3 X28.5 Y48 I0 J0.25
X27.5 Y48 I-0.5 J0
X28.5 Y48 I0.5 J0
X28.25 Y48.25 I-0.25 J0
G1 X28
G0 Z5
X18 Y47.75
Z-0.5
G1 Z-2 F1000
X18.25
G3 X18.5 Y48 I0 J0.25
X17.5 Y48 I-0.5 J0
X18.5 Y48 I0.5 J0
X18.25 Y48.25 I-0.25 J0
G1 X18
G0 Z5
Y47.75
Z-2.5
G1 Z-4 F1000
X18.25
G3 X18.5 Y48 I0 J0.25
X17.5 Y48 I-0.5 J0
X18.5 Y48 I0.5 J0
X18.25 Y48.25 I-0.25 J0
G1 X18
G0 Z5
Y47.75
Z-4.5
G1 Z-6 F1000
X18.25
G3 X18.5 Y48 I0 J0.25
X17.5 Y48 I-0.5 J0
X18.5 Y48 I0.5 J0
X18.25 Y48.25 I-0.25 J0
G1 X18
G0 Z5
Y47.75
Z-6.5
G1 Z-8 F1000
X18.25
G3 X18.5 Y48 I0 J0.25
X17.5 Y48 I-0.5 J0
X18.5 Y48 I0.5 J0
X18.25 Y48.25 I-0.25 J0
G1 X18
G0 Z5
X8 Y47.75
Z-0.5
G1 Z-2 F1000
X8.25
G3 X8.5 Y48 I0 J0.25
X7.5 Y48 I-0.5 J0
X8.5 Y48 I0.5 J0
X8.25 Y48.25 I-0.25 J0
G1 X8
G0 Z5
Y47.75
Z-2.5
G1 Z-4 F1000
X8.25
G3 X8.5 Y48 I0 J0.25
X7.5 Y48 I-0.5 J0
X8.5 Y48 I0.5 J0
X8.25 Y48.25 I-0.25 J0
G1 X8
G0 Z5
Y47.75
Z-4.5
G1 Z-6 F1000
X8.25
G3 X8.5 Y48 I0 J0.25
X7.5 Y48 I-0.5 J0
X8.5 Y48 I0.5 J0
X8.25 Y48.25 I-0.25 J0
G1 X8
G0 Z5
Y47.75
Z-6.5
G1 Z-8 F1000
X8.25
G3 X8.5 Y48 I0 J0.25
X7.5 Y48 I-0.5 J0
X8.5 Y48 I0.5 J0
X8.25 Y48.25 I-0.25 J0
G1 X8
G0 Z5
Y57.75
Z-0.5
G1 Z-2 F1000
X8.25
G3 X8.5 Y58 I0 J0.25
X7.5 Y58 I-0.5 J0
X8.5 Y58 I0.5 J0
X8.25 Y58.25 I-0.25 J0
G1 X8
G0 Z5
Y57.75
Z-2.5
G1 Z-4 F1000
X8.25
G3 X8.5 Y58 I0 J0.25
X7.5 Y58 I-0.5 J0
X8.5 Y58 I0.5 J0
X8.25 Y58.25 I-0.25 J0
G1 X8
G0 Z5
Y57.75
Z-4.5
G1 Z-6 F1000
X8.25
G3 X8.5 Y58 I0 J0.25
X7.5 Y58 I-0.5 J0
X8.5 Y58 I0.5 J0
X8.25 Y58.25 I-0.25 J0
G1 X8
G0 Z5
Y57.75
Z-6.5
G1 Z-8 F1000
X8.25
G3 X8.5 Y58 I0 J0.25
X7.5 Y58 I-0.5 J0
X8.5 Y58 I0.5 J0
X8.25 Y58.25 I-0.25 J0
G1 X8
G0 Z5
X18 Y57.75
Z-0.5
G1 Z-2 F1000
X18.25
G3 X18.5 Y58 I0 J0.25
X17.5 Y58 I-0.5 J0
X18.5 Y58 I0.5 J0
X18.25 Y58.25 I-0.25 J0
G1 X18
G0 Z5
Y57.75
Z-2.5
G1 Z-4 F1000
X18.25
G3 X18.5 Y58 I0 J0.25
X17.5 Y58 I-0.5 J0
X18.5 Y58 I0.5 J0
X18.25 Y58.25 I-0.25 J0
G1 X18
G0 Z5
Y57.75
Z-4.5
G1 Z-6 F1000
X18.25
G3 X18.5 Y58 I0 J0.25
X17.5 Y58 I-0.5 J0
X18.5 Y58 I0.5 J0
X18.25 Y58.25 I-0.25 J0
G1 X18
G0 Z5
Y57.75
Z-6.5
G1 Z-8 F1000
X18.25
G3 X18.5 Y58 I0 J0.25
X17.5 Y58 I-0.5 J0
X18.5 Y58 I0.5 J0
X18.25 Y58.25 I-0.25 J0
G1 X18
G0 Z5
X28 Y57.75
Z-0.5
G1 Z-2 F1000
X28.25
G3 X28.5 Y58 I0 J0.25
X27.5 Y58 I-0.5 J0
X28.5 Y58 I0.5 J0
X28.25 Y58.25 I-0.25 J0
G1 X28
G0 Z5
Y57.75
Z-2.5
G1 Z-4 F1000
X28.25
G3 X28.5 Y58 I0 J0.25
X27.5 Y58 I-0.5 J0
X28.5 Y58 I0.5 J0
X28.25 Y58.25 I-0.25 J0
G1 X28
G0 Z5
Y57.75
Z-4.5
G1 Z-6 F1000
X28.25
G3 X28.5 Y58 I0 J0.25
X27.5 Y58 I-0.5 J0
X28.5 Y58 I0.5 J0
X28.25 Y58.25 I-0.25 J0
G1 X28
G0 Z5
Y57.75
Z-6.5
G1 Z-8 F1000
X28.25
G3 X28.5 Y58 I0 J0.25
X27.5 Y58 I-0.5 J0
X28.5 Y58 I0.5 J0
X28.25 Y58.25 I-0.25 J0
G1 X28
G0 Z5
X38 Y57.75
Z-0.5
G1 Z-2 F1000
X38.25
G3 X38.5 Y58 I0 J0.25
X37.5 Y58 I-0.5 J0
X38.5 Y58 I0.5 J0
X38.25 Y58.25 I-0.25 J0
G1 X38
G0 Z5
Y57.75
Z-2.5
G1 Z-4 F1000
X38.25
G3 X38.5 Y58 I0 J0.25
X37.5 Y58 I-0.5 J0
X38.5 Y58 I0.5 J0
X38.25 Y58.25 I-0.25 J0
G1 X38
G0 Z5
Y57.75
Z-4.5
G1 Z-6 F1000
X38.25
G3 X38.5 Y58 I0 J0.25
X37.5 Y58 I-0.5 J0
X38.5 Y58 I0.5 J0
X38.25 Y58.25 I-0.25 J0
G1 X38
G0 Z5
Y57.75
Z-6.5
G1 Z-8 F1000
X38.25
G3 X38.5 Y58 I0 J0.25
X37.5 Y58 I-0.5 J0
X38.5 Y58 I0.5 J0
X38.25 Y58.25 I-0.25 J0
G1 X38
G0 Z5
Y67.75
Z-0.5
G1 Z-2 F1000
X38.25
G3 X38.5 Y68 I0 J0.25
X37.5 Y68 I-0.5 J0
X38.5 Y68 I0.5 J0
X38.25 Y68.25 I-0.25 J0
G1 X38
G0 Z5
Y67.75
Z-2.5
G1 Z-4 F1000
X38.25
G3 X38.5 Y68 I0 J0.25
X37.5 Y68 I-0.5 J0
X38.5 Y68 I0.5 J0
X38.25 Y68.25 I-0.25 J0
G1 X38
G0 Z5
Y67.75
Z-4.5
G1 Z-6 F1000
X38.25
G3 X38.5 Y68 I0 J0.25
X37.5 Y68 I-0.5 J0
X38.5 Y68 I0.5 J0
X38.25 Y68.25 I-0.25 J0
G1 X38
G0 Z5
Y67.75
Z-6.5
G1 Z-8 F1000
X38.25
G3 X38.5 Y68 I0 J0.25
X37.5 Y68 I-0.5 J0
X38.5 Y68 I0.5 J0
X38.25 Y68.25 I-0.25 J0
G1 X38
G0 Z5
X28 Y67.75
Z-0.5
G1 Z-2 F1000
X28.25
G3 X28.5 Y68 I0 J0.25
X27.5 Y68 I-0.5 J0
X28.5 Y68 I0.5 J0
X28.25 Y68.25 I-0.25 J0
G1 X28
G0 Z5
Y67.75
Z-2.5
G1 Z-4 F1000
X28.25
G3 X28.5 Y68 I0 J0.25
X27.5 Y68 I-0.5 J0
X28.5 Y68 I0.5 J0
X28.25 Y68.25 I-0.25 J0
G1 X28
G0 Z5
Y67.75
Z-4.5
G1 Z-6 F1000
X28.25
G3 X28.5 Y68 I0 J0.25
X27.5 Y68 I-0.5 J0
X28.5 Y68 I0.5 J0
X28.25 Y68.25 I-0.25 J0
G1 X28
G0 Z5
Y67.75
Z-6.5
G1 Z-8 F1000
X28.25
G3 X28.5 Y68 I0 J0.25
X27.5 Y68 I-0.5 J0
X28.5 Y68 I0.5 J0
X28.25 Y68.25 I-0.25 J0
G1 X28
G0 Z5
X18 Y67.75
Z-0.5
G1 Z-2 F1000
X18.25
G3 X18.5 Y68 I0 J0.25
X17.5 Y68 I-0.5 J0
X18.5 Y68 I0.5 J0
X18.25 Y68.25 I-0.25 J0
G1 X18
G0 Z5
Y67.75
Z-2.5
G1 Z-4 F1000
X18.25
G3 X18.5 Y68 I0 J0.25
X17.5 Y68 I-0.5 J0
X18.5 Y68 I0.5 J0
X18.25 Y68.25 I-0.25 J0
G1 X18
G0 Z5
Y67.75
Z-4.5
G1 Z-6 F1000
X18.25
G3 X18.5 Y68 I0 J0.25
X17.5 Y68 I-0.5 J0
X18.5 Y68 I0.5 J0
X18.25 Y68.25 I-0.25 J0
G1 X18
G0 Z5
Y67.75
Z-6.5
G1 Z-8 F1000
X18.25
G3 X18.5 Y68 I0 J0.25
X17.5 Y68 I-0.5 J0
X18.5 Y68 I0.5 J0
X18.25 Y68.25 I-0.25 J0
G1 X18
G0 Z5
X8 Y67.75
Z-0.5
G1 Z-2 F1000
X8.25
G3 X8.5 Y68 I0 J0.25
X7.5 Y68 I-0.5 J0
X8.5 Y68 I0.5 J0
X8.25 Y68.25 I-0.25 J0
G1 X8
G0 Z5
Y67.75
Z-2.5
G1 Z-4 F1000
X8.25
G3 X8.5 Y68 I0 J0.25
X7.5 Y68 I-0.5 J0
X8.5 Y68 I0.5 J0
X8.25 Y68.25 I-0.25 J0
G1 X8
G0 Z5
Y67.75
Z-4.5
G1 Z-6 F1000
X8.25
G3 X8.5 Y68 I0 J0.25
X7.5 Y68 I-0.5 J0
X8.5 Y68 I0.5 J0
X8.25 Y68.25 I-0.25 J0
G1 X8
G0 Z5
Y67.75
Z-6.5
G1 Z-8 F1000
X8.25
G3 X8.5 Y68 I0 J0.25
X7.5 Y68 I-0.5 J0
X8.5 Y68 I0.5 J0
X8.25 Y68.25 I-0.25 J0
G1 X8
G0 Z5
Y77.75
Z-0.5
G1 Z-2 F1000
X8.25
G3 X8.5 Y78 I0 J0.25
X7.5 Y78 I-0.5 J0
X8.5 Y78 I0.5 J0
X8.25 Y78.25 I-0.25 J0
G1 X8
G0 Z5
Y77.75
Z-2.5
G1 Z-4 F1000
X8.25
G3 X8.5 Y78 I0 J0.25
X7.5 Y78 I-0.5 J0
X8.5 Y78 I0.5 J0
X8.25 Y78.25 I-0.25 J0
G1 X8
G0 Z5
Y77.75
Z-4.5
G1 Z-6 F1000
X8.25
G3 X8.5 Y78 I0 J0.25
X7.5 Y78 I-0.5 J0
X8.5 Y78 I0.5 J0
X8.25 Y78.25 I-0.25 J0
G1 X8
G0 Z5
Y77.75
Z-6.5
G1 Z-8 F1000
X8.25
G3 X8.5 Y78 I0 J0.25
X7.5 Y78 I-0.5 J0
X8.5 Y78 I0.5 J0
X8.25 Y78.25 I-0.25 J0
G1 X8
G0 Z5
X18 Y77.75
Z-0.5
G1 Z-2 F1000
X18.25
G3 X18.5 Y78 I0 J0.25
X17.5 Y78 I-0.5 J0
X18.5 Y78 I0.5 J0
X18.25 Y78.25 I-0.25 J0
G1 X18
G0 Z5
Y77.75
Z-2.5
G1 Z-4 F1000
X18.25
G3 X18.5 Y78 I0 J0.25
X17.5 Y78 I-0.5 J0
X18.5 Y78 I0.5 J0
X18.25 Y78.25 I-0.25 J0
G1 X18
G0 Z5
Y77.75
Z-4.5
G1 Z-6 F1000
X18.25
G3 X18.5 Y78 I0 J0.25
X17.5 Y78 I-0.5 J0
X18.5 Y78 I0.5 J0
X18.25 Y78.25 I-0.25 J0
G1 X18
G0 Z5
Y77.75
Z-6.5
G1 Z-8 F1000
X18.25
G3 X18.5 Y78 I0 J0.25
X17.5 Y78 I-0.5 J0
X18.5 Y78 I0.5 J0
X18.25 Y78.25 I-0.25 J0
G1 X18
G0 Z5
X28 Y77.75
Z-0.5
G1 Z-2 F1000
X28.25
G3 X28.5 Y78 I0 J0.25
X27.5 Y78 I-0.5 J0
X28.5 Y78 I0.5 J0
X28.25 Y78.25 I-0.25 J0
G1 X28
G0 Z5
Y77.75
Z-2.5
G1 Z-4 F1000
X28.25
G3 X28.5 Y78 I0 J0.25
X27.5 Y78 I-0.5 J0
X28.5 Y78 I0.5 J0
X28.25 Y78.25 I-0.25 J0
G1 X28
G0 Z5
Y77.75
Z-4.5
G1 Z-6 F1000
X28.25
G3 X28.5 Y78 I0 J0.25
X27.5 Y78 I-0.5 J0
X28.5 Y78 I0.5 J0
X28.25 Y78.25 I-0.25 J0
G1 X28
G0 Z5
Y77.75
Z-6.5
G1 Z-8 F1000
X28.25
G3 X28.5 Y78 I0 J0.25
X27.5 Y78 I-0.5 J0
X28.5 Y78 I0.5 J0
X28.25 Y78.25 I-0.25 J0
G1 X28
G0 Z5
X38 Y77.75
Z-0.5
G1 Z-2 F1000
X38.25
G3 X38.5 Y78 I0 J0.25
X37.5 Y78 I-0.5 J0
X38.5 Y78 I0.5 J0
X38.25 Y78.25 I-0.25 J0
G1 X38
G0 Z5
Y77.75
Z-2.5
G1 Z-4 F1000
X38.25
G3 X38.5 Y78 I0 J0.25
X37.5 Y78 I-0.5 J0
X38.5 Y78 I0.5 J0
X38.25 Y78.25 I-0.25 J0
G1 X38
G0 Z5
Y77.75
Z-4.5
G1 Z-6 F1000
X38.25
G3 X38.5 Y78 I0 J0.25
X37.5 Y78 I-0.5 J0
X38.5 Y78 I0.5 J0
X38.25 Y78.25 I-0.25 J0
G1 X38
G0 Z5
Y77.75
Z-6.5
G1 Z-8 F1000
X38.25
G3 X38.5 Y78 I0 J0.25
X37.5 Y78 I-0.5 J0
X38.5 Y78 I0.5 J0
X38.25 Y78.25 I-0.25 J0
G1 X38
G0 Z5
Y87.75
Z-0.5
G1 Z-2 F1000
X38.25
G3 X38.5 Y88 I0 J0.25
X37.5 Y88 I-0.5 J0
X38.5 Y88 I0.5 J0
X38.25 Y88.25 I-0.25 J0
G1 X38
G0 Z5
Y87.75
Z-2.5
G1 Z-4 F1000
X38.25
G3 X38.5 Y88 I0 J0.25
X37.5 Y88 I-0.5 J0
X38.5 Y88 I0.5 J0
X38.25 Y88.25 I-0.25 J0
G1 X38
G0 Z5
Y87.75
Z-4.5
G1 Z-6 F1000
X38.25
G3 X38.5 Y88 I0 J0.25
X37.5 Y88 I-0.5 J0
X38.5 Y88 I0.5 J0
X38.25 Y88.25 I-0.25 J0
G1 X38
G0 Z5
Y87.75
Z-6.5
G1 Z-8 F1000
X38.25
G3 X38.5 Y88 I0 J0.25
X37.5 Y88 I-0.5 J0
X38.5 Y88 I0.5 J0
X38.25 Y88.25 I-0.25 J0
G1 X38
G0 Z5
X28 Y87.75
Z-0.5
G1 Z-2 F1000
X28.25
G3 X28.5 Y88 I0 J0.25
X27.5 Y88 I-0.5 J0
X28.5 Y88 I0.5 J0
X28.25 Y88.25 I-0.25 J0
G1 X28
G0 Z5
Y87.75
Z-2.5
G1 Z-4 F1000
X28.25
G3 X28.5 Y88 I0 J0.25
X27.5 Y88 I-0.5 J0
X28.5 Y88 I0.5 J0
X28.25 Y88.25 I-0.25 J0
G1 X28
G0 Z5
Y87.75
Z-4.5
G1 Z-6 F1000
X28.25
G3 X28.5 Y88 I0 J0.25
X27.5 Y88 I-0.5 J0
X28.5 Y88 I0.5 J0
X28.25 Y88.25 I-0.25 J0
G1 X28
G0 Z5
Y87.75
Z-6.5
G1 Z-8 F1000
X28.25
G3 X28.5 Y88 I0 J0.25
X27.5 Y88 I-0.5 J0
X28.5 Y88 I0.5 J0
X28.25 Y88.25 I-0.25 J0
G1 X28
G0 Z5
X18 Y87.75
Z-0.5
G1 Z-2 F1000
X18.25
G3 X18.5 Y88 I0 J0.25
X17.5 Y88 I-0.5 J0
X18.5 Y88 I0.5 J0
X18.25 Y88.25 I-0.25 J0
G1 X18
G0 Z5
Y87.75
Z-2.5
G1 Z-4 F1000
X18.25
G3 X18.5 Y88 I0 J0.25
X17.5 Y88 I-0.5 J0
X18.5 Y88 I0.5 J0
X18.25 Y88.25 I-0.25 J0
G1 X18
G0 Z5
Y87.75
Z-4.5
G1 Z-6 F1000
X18.25
G3 X18.5 Y88 I0 J0.25
X17.5 Y88 I-0.5 J0
X18.5 Y88 I0.5 J0
X18.25 Y88.25 I-0.25 J0
G1 X18
G0 Z5
Y87.75
Z-6.5
G1 Z-8 F1000
X18.25
G3 X18.5 Y88 I0 J0.25
X17.5 Y88 I-0.5 J0
X18.5 Y88 I0.5 J0
X18.25 Y88.25 I-0.25 J0
G1 X18
G0 Z5
X8 Y87.75
Z-0.5
G1 Z-2 F1000
X8.25
G3 X8.5 Y88 I0 J0.25
X7.5 Y88 I-0.5 J0
X8.5 Y88 I0.5 J0
X8.25 Y88.25 I-0.25 J0
G1 X8
G0 Z5
Y87.75
Z-2.5
G1 Z-4 F1000
X8.25
G3 X8.5 Y88 I0 J0.25
X7.5 Y88 I-0.5 J0
X8.5 Y88 I0.5 J0
X8.25 Y88.25 I-0.25 J0
G1 X8
G0 Z5
Y87.75
Z-4.5
G1 Z-6 F1000
X8.25
G3 X8.5 Y88 I0 J0.25
X7.5 Y88 I-0.5 J0
X8.5 Y88 I0.5 J0
X8.25 Y88.25 I-0.25 J0
G1 X8
G0 Z5
Y87.75
Z-6.5
G1 Z-8 F1000
X8.25
G3 X8.5 Y88 I0 J0.25
X7.5 Y88 I-0.5 J0
X8.5 Y88 I0.5 J0
X8.25 Y88.25 I-0.25 J0
G1 X8
G0 Z5
Y97.75
Z-0.5
G1 Z-2 F1000
X8.25
G3 X8.5 Y98 I0 J0.25
X7.5 Y98 I-0.5 J0
X8.5 Y98 I0.5 J0
X8.25 Y98.25 I-0.25 J0
G1 X8
G0 Z5
Y97.75
Z-2.5
G1 Z-4 F1000
X8.25
G3 X8.5 Y98 I0 J0.25
X7.5 Y98 I-0.5 J0
X8.5 Y98 I0.5 J0
X8.25 Y98.25 I-0.25 J0
G1 X8
G0 Z5
Y97.75
Z-4.5
G1 Z-6 F1000
X8.25
G3 X8.5 Y98 I0 J0.25
X7.5 Y98 I-0.5 J0
X8.5 Y98 I0.5 J0
X8.25 Y98.25 I-0.25 J0
G1 X8
G0 Z5
Y97.75
Z-6.5
G1 Z-8 F1000
X8.25
G3 X8.5 Y98 I0 J0.25
X7.5 Y98 I-0.5 J0
X8.5 Y98 I0.5 J0
X8.25 Y98.25 I-0.25 J0
G1 X8
G0 Z5
X18 Y97.75
Z-0.5
G1 Z-2 F1000
X18.25
G3 X18.5 Y98 I0 J0.25
X17.5 Y98 I-0.5 J0
X18.5 Y98 I0.5 J0
X18.25 Y98.25 I-0.25 J0
G1 X18
G0 Z5
Y97.75
Z-2.5
G1 Z-4 F1000
X18.25
G3 X18.5 Y98 I0 J0.25
X17.5 Y98 I-0.5 J0
X18.5 Y98 I0.5 J0
X18.25 Y98.25 I-0.25 J0
G1 X18
G0 Z5
Y97.75
Z-4.5
G1 Z-6 F1000
X18.25
G3 X18.5 Y98 I0 J0.25
X17.5 Y98 I-0.5 J0
X18.5 Y98 I0.5 J0
X18.25 Y98.25 I-0.25 J0
G1 X18
G0 Z5
Y97.75
Z-6.5
G1 Z-8 F1000
X18.25
G3 X18.5 Y98 I0 J0.25
X17.5 Y98 I-0.5 J0
X18.5 Y98 I0.5 J0
X18.25 Y98.25 I-0.25 J0
G1 X18
G0 Z5
X28 Y97.75
Z-0.5
G1 Z-2 F1000
X28.25
G3 X28.5 Y98 I0 J0.25
X27.5 Y98 I-0.5 J0
X28.5 Y98 I0.5 J0
X28.25 Y98.25 I-0.25 J0
G1 X28
G0 Z5
Y97.75
Z-2.5
G1 Z-4 F1000
X28.25
G3 X28.5 Y98 I0 J0.25
X27.5 Y98 I-0.5 J0
X28.5 Y98 I0.5 J0
X28.25 Y98.25 I-0.25 J0
G1 X28
G0 Z5
Y97.75
Z-4.5
G1 Z-6 F1000
X28.25
G3 X28.5 Y98 I0 J0.25
X27.5 Y98 I-0.5 J0
X28.5 Y98 I0.5 J0
X28.25 Y98.25 I-0.25 J0
G1 X28
G0 Z5
Y97.75
Z-6.5
G1 Z-8 F1000
X28.25
G3 X28.5 Y98 I0 J0.25
X27.5 Y98 I-0.5 J0
X28.5 Y98 I0.5 J0
X28.25 Y98.25 I-0.25 J0
G1 X28
G0 Z5
X38 Y97.75
Z-0.5
G1 Z-2 F1000
X38.25
G3 X38.5 Y98 I0 J0.25
X37.5 Y98 I-0.5 J0
X38.5 Y98 I0.5 J0
X38.25 Y98.25 I-0.25 J0
G1 X38
G0 Z5
Y97.75
Z-2.5
G1 Z-4 F1000
X38.25
G3 X38.5 Y98 I0 J0.25
X37.5 Y98 I-0.5 J0
X38.5 Y98 I0.5 J0
X38.25 Y98.25 I-0.25 J0
G1 X38
G0 Z5
Y97.75
Z-4.5
G1 Z-6 F1000
X38.25
G3 X38.5 Y98 I0 J0.25
X37.5 Y98 I-0.5 J0
X38.5 Y98 I0.5 J0
X38.25 Y98.25 I-0.25 J0
G1 X38
G0 Z5
Y97.75
Z-6.5
G1 Z-8 F1000
X38.25
G3 X38.5 Y98 I0 J0.25
X37.5 Y98 I-0.5 J0
X38.5 Y98 I0.5 J0
X38.25 Y98.25 I-0.25 J0
G1 X38
G0 Z5
Y107.75
Z-0.5
G1 Z-2 F1000
X38.25
G3 X38.5 Y108 I0 J0.25
X37.5 Y108 I-0.5 J0
X38.5 Y108 I0.5 J0
X38.25 Y108.25 I-0.25 J0
G1 X38
G0 Z5
Y107.75
Z-2.5
G1 Z-4 F1000
X38.25
G3 X38.5 Y108 I0 J0.25
X37.5 Y108 I-0.5 J0
X38.5 Y108 I0.5 J0
X38.25 Y108.25 I-0.25 J0
G1 X38
G0 Z5
Y107.75
Z-4.5
G1 Z-6 F1000
X38.25
G3 X38.5 Y108 I0 J0.25
X37.5 Y108 I-0.5 J0
X38.5 Y108 I0.5 J0
X38.25 Y108.25 I-0.25 J0
G1 X38
G0 Z5
Y107.75
Z-6.5
G1 Z-8 F1000
X38.25
G3 X38.5 Y108 I0 J0.25
X37.5 Y108 I-0.5 J0
X38.5 Y108 I0.5 J0
X38.25 Y108.25 I-0.25 J0
G1 X38
G0 Z5
X28 Y107.75
Z-0.5
G1 Z-2 F1000
X28.25
G3 X28.5 Y108 I0 J0.25
X27.5 Y108 I-0.5 J0
X28.5 Y108 I0.5 J0
X28.25 Y108.25 I-0.25 J0
G1 X28
G0 Z5
Y107.75
Z-2.5
G1 Z-4 F1000
X28.25
G3 X28.5 Y108 I0 J0.25
X27.5 Y108 I-0.5 J0
X28.5 Y108 I0.5 J0
X28.25 Y108.25 I-0.25 J0
G1 X28
G0 Z5
Y107.75
Z-4.5
G1 Z-6 F1000
X28.25
G3 X28.5 Y108 I0 J0.25
X27.5 Y108 I-0.5 J0
X28.5 Y108 I0.5 J0
X28.25 Y108.25 I-0.25 J0
G1 X28
G0 Z5
Y107.75
Z-6.5
G1 Z-8 F1000
X28.25
G3 X28.5 Y108 I0 J0.25
X27.5 Y108 I-0.5 J0
X28.5 Y108 I0.5 J0
X28.25 Y108.25 I-0.25 J0
G1 X28
G0 Z5
X18 Y107.75
Z-0.5
G1 Z-2 F1000
X18.25
G3 X18.5 Y108 I0 J0.25
X17.5 Y108 I-0.5 J0
X18.5 Y108 I0.5 J0
X18.25 Y108.25 I-0.25 J0
G1 X18
G0 Z5
Y107.75
Z-2.5
G1 Z-4 F1000
X18.25
G3 X18.5 Y108 I0 J0.25
X17.5 Y108 I-0.5 J0
X18.5 Y108 I0.5 J0
X18.25 Y108.25 I-0.25 J0
G1 X18
G0 Z5
Y107.75
Z-4.5
G1 Z-6 F1000
X18.25
G3 X18.5 Y108 I0 J0.25
X17.5 Y108 I-0.5 J0
X18.5 Y108 I0.5 J0
X18.25 Y108.25 I-0.25 J0
G1 X18
G0 Z5
Y107.75
Z-6.5
G1 Z-8 F1000
X18.25
G3 X18.5 Y108 I0 J0.25
X17.5 Y108 I-0.5 J0
X18.5 Y108 I0.5 J0
X18.25 Y108.25 I-0.25 J0
G1 X18
G0 Z5
X8 Y107.75
Z-0.5
G1 Z-2 F1000
X8.25
G3 X8.5 Y108 I0 J0.25
X7.5 Y108 I-0.5 J0
X8.5 Y108 I0.5 J0
X8.25 Y108.25 I-0.25 J0
G1 X8
G0 Z5
Y107.75
Z-2.5
G1 Z-4 F1000
X8.25
G3 X8.5 Y108 I0 J0.25
X7.5 Y108 I-0.5 J0
X8.5 Y108 I0.5 J0
X8.25 Y108.25 I-0.25 J0
G1 X8
G0 Z5
Y107.75
Z-4.5
G1 Z-6 F1000
X8.25
G3 X8.5 Y108 I0 J0.25
X7.5 Y108 I-0.5 J0
X8.5 Y108 I0.5 J0
X8.25 Y108.25 I-0.25 J0
G1 X8
G0 Z5
Y107.75
Z-6.5
G1 Z-8 F1000
X8.25
G3 X8.5 Y108 I0 J0.25
X7.5 Y108 I-0.5 J0
X8.5 Y108 I0.5 J0
X8.25 Y108.25 I-0.25 J0
G1 X8
G0 Z5
Y117.75
Z-0.5
G1 Z-2 F1000
X8.25
G3 X8.5 Y118 I0 J0.25
X7.5 Y118 I-0.5 J0
X8.5 Y118 I0.5 J0
X8.25 Y118.25 I-0.25 J0
G1 X8
G0 Z5
Y117.75
Z-2.5
G1 Z-4 F1000
X8.25
G3 X8.5 Y118 I0 J0.25
X7.5 Y118 I-0.5 J0
X8.5 Y118 I0.5 J0
X8.25 Y118.25 I-0.25 J0
G1 X8
G0 Z5
Y117.75
Z-4.5
G1 Z-6 F1000
X8.25
G3 X8.5 Y118 I0 J0.25
X7.5 Y118 I-0.5 J0
X8.5 Y118 I0.5 J0
X8.25 Y118.25 I-0.25 J0
G1 X8
G0 Z5
Y117.75
Z-6.5
G1 Z-8 F1000
X8.25
G3 X8.5 Y118 I0 J0.25
X7.5 Y118 I-0.5 J0
X8.5 Y118 I0.5 J0
X8.25 Y118.25 I-0.25 J0
G1 X8
G0 Z5
X18 Y117.75
Z-0.5
G1 Z-2 F1000
X18.25
G3 X18.5 Y118 I0 J0.25
X17.5 Y118 I-0.5 J0
X18.5 Y118 I0.5 J0
X18.25 Y118.25 I-0.25 J0
G1 X18
G0 Z5
Y117.75
Z-2.5
G1 Z-4 F1000
X18.25
G3 X18.5 Y118 I0 J0.25
X17.5 Y118 I-0.5 J0
X18.5 Y118 I0.5 J0
X18.25 Y118.25 I-0.25 J0
G1 X18
G0 Z5
Y117.75
Z-4.5
G1 Z-6 F1000
X18.25
G3 X18.5 Y118 I0 J0.25
X17.5 Y118 I-0.5 J0
X18.5 Y118 I0.5 J0
X18.25 Y118.25 I-0.25 J0
G1 X18
G0 Z5
Y117.75
Z-6.5
G1 Z-8 F1000
X18.25
G3 X18.5 Y118 I0 J0.25
X17.5 Y118 I-0.5 J0
X18.5 Y118 I0.5 J0
X18.25 Y118.25 I-0.25 J0
G1 X18
G0 Z5
X28 Y117.75
Z-0.5
G1 Z-2 F1000
X28.25
G3 X28.5 Y118 I0 J0.25
X27.5 Y118 I-0.5 J0
X28.5 Y118 I0.5 J0
X28.25 Y118.25 I-0.25 J0
G1 X28
G0 Z5
Y117.75
Z-2.5
G1 Z-4 F1000
X28.25
G3 X28.5 Y118 I0 J0.25
X27.5 Y118 I-0.5 J0
X28.5 Y118 I0.5 J0
X28.25 Y118.25 I-0.25 J0
G1 X28
G0 Z5
Y117.75
Z-4.5
G1 Z-6 F1000
X28.25
G3 X28.5 Y118 I0 J0.25
X27.5 Y118 I-0.5 J0
X28.5 Y118 I0.5 J0
X28.25 Y118.25 I-0.25 J0
G1 X28
G0 Z5
Y117.75
Z-6.5
G1 Z-8 F1000
X28.25
G3 X28.5 Y118 I0 J0.25
X27.5 Y118 I-0.5 J0
X28.5 Y118 I0.5 J0
X28.25 Y118.25 I-0.25 J0
G1 X28
G0 Z5
X38 Y117.75
Z-0.5
G1 Z-2 F1000
X38.25
G3 X38.5 Y118 I0 J0.25
X37.5 Y118 I-0.5 J0
X38.5 Y118 I0.5 J0
X38.25 Y118.25 I-0.25 J0
G1 X38
G0 Z5
Y117.75
Z-2.5
G1 Z-4 F1000
X38.25
G3 X38.5 Y118 I0 J0.25
X37.5 Y118 I-0.5 J0
X38.5 Y118 I0.5 J0
X38.25 Y118.25 I-0.25 J0
G1 X38
G0 Z5
Y117.75
Z-4.5
G1 Z-6 F1000
X38.25
G3 X38.5 Y118 I0 J0.25
X37.5 Y118 I-0.5 J0
X38.5 Y118 I0.5 J0
X38.25 Y118.25 I-0.25 J0
G1 X38
G0 Z5
Y117.75
Z-6.5
G1 Z-8 F1000
X38.25
G3 X38.5 Y118 I0 J0.25
X37.5 Y118 I-0.5 J0
X38.5 Y118 I0.5 J0
X38.25 Y118.25 I-0.25 J0
G1 X38
G0 Z5
Y127.75
Z-0.5
G1 Z-2 F1000
X38.25
G3 X38.5 Y128 I0 J0.25
X37.5 Y128 I-0.5 J0
X38.5 Y128 I0.5 J0
X38.25 Y128.25 I-0.25 J0
G1 X38
G0 Z5
Y127.75
Z-2.5
G1 Z-4 F1000
X38.25
G3 X38.5 Y128 I0 J0.25
X37.5 Y128 I-0.5 J0
X38.5 Y128 I0.5 J0
X38.25 Y128.25 I-0.25 J0
G1 X38
G0 Z5
Y127.75
Z-4.5
G1 Z-6 F1000
X38.25
G3 X38.5 Y128 I0 J0.25
X37.5 Y128 I-0.5 J0
X38.5 Y128 I0.5 J0
X38.25 Y128.25 I-0.25 J0
G1 X38
G0 Z5
Y127.75
Z-6.5
G1 Z-8 F1000
X38.25
G3 X38.5 Y128 I0 J0.25
X37.5 Y128 I-0.5 J0
X38.5 Y128 I0.5 J0
X38.25 Y128.25 I-0.25 J0
G1 X38
G0 Z5
X28 Y127.75
Z-0.5
G1 Z-2 F1000
X28.25
G3 X28.5 Y128 I0 J0.25
X27.5 Y128 I-0.5 J0
X28.5 Y128 I0.5 J0
X28.25 Y128.25 I-0.25 J0
G1 X28
G0 Z5
Y127.75
Z-2.5
G1 Z-4 F1000
X28.25
G3 X28.5 Y128 I0 J0.25
X27.5 Y128 I-0.5 J0
X28.5 Y128 I0.5 J0
X28.25 Y128.25 I-0.25 J0
G1 X28
G0 Z5
Y127.75
Z-4.5
G1 Z-6 F1000
X28.25
G3 X28.5 Y128 I0 J0.25
X27.5 Y128 I-0.5 J0
X28.5 Y128 I0.5 J0
X28.25 Y128.25 I-0.25 J0
G1 X28
G0 Z5
Y127.75
Z-6.5
G1 Z-8 F1000
X28.25
G3 X28.5 Y128 I0 J0.25
X27.5 Y128 I-0.5 J0
X28.5 Y128 I0.5 J0
X28.25 Y128.25 I-0.25 J0
G1 X28
G0 Z5
X18 Y127.75
Z-0.5
G1 Z-2 F1000
X18.25
G3 X18.5 Y128 I0 J0.25
X17.5 Y128 I-0.5 J0
X18.5 Y128 I0.5 J0
X18.25 Y128.25 I-0.25 J0
G1 X18
G0 Z5
Y127.75
Z-2.5
G1 Z-4 F1000
X18.25
G3 X18.5 Y128 I0 J0.25
X17.5 Y128 I-0.5 J0
X18.5 Y128 I0.5 J0
X18.25 Y128.25 I-0.25 J0
G1 X18
G0 Z5
Y127.75
Z-4.5
G1 Z-6 F1000
X18.25
G3 X18.5 Y128 I0 J0.25
X17.5 Y128 I-0.5 J0
X18.5 Y128 I0.5 J0
X18.25 Y128.25 I-0.25 J0
G1 X18
G0 Z5
Y127.75
Z-6.5
G1 Z-8 F1000
X18.25
G3 X18.5 Y128 I0 J0.25
X17.5 Y128 I-0.5 J0
X18.5 Y128 I0.5 J0
X18.25 Y128.25 I-0.25 J0
G1 X18
G0 Z5
X8 Y127.75
Z-0.5
G1 Z-2 F1000
X8.25
G3 X8.5 Y128 I0 J0.25
X7.5 Y128 I-0.5 J0
X8.5 Y128 I0.5 J0
X8.25 Y128.25 I-0.25 J0
G1 X8
G0 Z5
Y127.75
Z-2.5
G1 Z-4 F1000
X8.25
G3 X8.5 Y128 I0 J0.25
X7.5 Y128 I-0.5 J0
X8.5 Y128 I0.5 J0
X8.25 Y128.25 I-0.25 J0
G1 X8
G0 Z5
Y127.75
Z-4.5
G1 Z-6 F1000
X8.25
G3 X8.5 Y128 I0 J0.25
X7.5 Y128 I-0.5 J0
X8.5 Y128 I0.5 J0
X8.25 Y128.25 I-0.25 J0
G1 X8
G0 Z5
Y127.75
Z-6.5
G1 Z-8 F1000
X8.25
G3 X8.5 Y128 I0 J0.25
X7.5 Y128 I-0.5 J0
X8.5 Y128 I0.5 J0
X8.25 Y128.25 I-0.25 J0
G1 X8
G0 Z5
X38 Y137.75
Z-0.5
G1 Z-2 F1000
X38.25
G3 X38.5 Y138 I0 J0.25
X37.5 Y138 I-0.5 J0
X38.5 Y138 I0.5 J0
X38.25 Y138.25 I-0.25 J0
G1 X38
G0 Z5
Y137.75
Z-2.5
G1 Z-4 F1000
X38.25
G3 X38.5 Y138 I0 J0.25
X37.5 Y138 I-0.5 J0
X38.5 Y138 I0.5 J0
X38.25 Y138.25 I-0.25 J0
G1 X38
G0 Z5
Y137.75
Z-4.5
G1 Z-6 F1000
X38.25
G3 X38.5 Y138 I0 J0.25
X37.5 Y138 I-0.5 J0
X38.5 Y138 I0.5 J0
X38.25 Y138.25 I-0.25 J0
G1 X38
G0 Z5
Y137.75
Z-6.5
G1 Z-8 F1000
X38.25
G3 X38.5 Y138 I0 J0.25
X37.5 Y138 I-0.5 J0
X38.5 Y138 I0.5 J0
X38.25 Y138.25 I-0.25 J0
G1 X38
G0 Z5
X28 Y137.75
Z-0.5
G1 Z-2 F1000
X28.25
G3 X28.5 Y138 I0 J0.25
X27.5 Y138 I-0.5 J0
X28.5 Y138 I0.5 J0
X28.25 Y138.25 I-0.25 J0
G1 X28
G0 Z5
Y137.75
Z-2.5
G1 Z-4 F1000
X28.25
G3 X28.5 Y138 I0 J0.25
X27.5 Y138 I-0.5 J0
X28.5 Y138 I0.5 J0
X28.25 Y138.25 I-0.25 J0
G1 X28
G0 Z5
Y137.75
Z-4.5
G1 Z-6 F1000
X28.25
G3 X28.5 Y138 I0 J0.25
X27.5 Y138 I-0.5 J0
X28.5 Y138 I0.5 J0
X28.25 Y138.25 I-0.25 J0
G1 X28
G0 Z5
Y137.75
Z-6.5
G1 Z-8 F1000
X28.25
G3 X28.5 Y138 I0 J0.25
X27.5 Y138 I-0.5 J0
X28.5 Y138 I0.5 J0
X28.25 Y138.25 I-0.25 J0
G1 X28
G0 Z5
X18 Y137.75
Z-0.5
G1 Z-2 F1000
X18.25
G3 X18.5 Y138 I0 J0.25
X17.5 Y138 I-0.5 J0
X18.5 Y138 I0.5 J0
X18.25 Y138.25 I-0.25 J0
G1 X18
G0 Z5
Y137.75
Z-2.5
G1 Z-4 F1000
X18.25
G3 X18.5 Y138 I0 J0.25
X17.5 Y138 I-0.5 J0
X18.5 Y138 I0.5 J0
X18.25 Y138.25 I-0.25 J0
G1 X18
G0 Z5
Y137.75
Z-4.5
G1 Z-6 F1000
X18.25
G3 X18.5 Y138 I0 J0.25
X17.5 Y138 I-0.5 J0
X18.5 Y138 I0.5 J0
X18.25 Y138.25 I-0.25 J0
G1 X18
G0 Z5
Y137.75
Z-6.5
G1 Z-8 F1000
X18.25
G3 X18.5 Y138 I0 J0.25
X17.5 Y138 I-0.5 J0
X18.5 Y138 I0.5 J0
X18.25 Y138.25 I-0.25 J0
G1 X18
G0 Z5
X8 Y137.75
Z-0.5
G1 Z-2 F1000
X8.25
G3 X8.5 Y138 I0 J0.25
X7.5 Y138 I-0.5 J0
X8.5 Y138 I0.5 J0
X8.25 Y138.25 I-0.25 J0
G1 X8
G0 Z5
Y137.75
Z-2.5
G1 Z-4 F1000
X8.25
G3 X8.5 Y138 I0 J0.25
X7.5 Y138 I-0.5 J0
X8.5 Y138 I0.5 J0
X8.25 Y138.25 I-0.25 J0
G1 X8
G0 Z5
Y137.75
Z-4.5
G1 Z-6 F1000
X8.25
G3 X8.5 Y138 I0 J0.25
X7.5 Y138 I-0.5 J0
X8.5 Y138 I0.5 J0
X8.25 Y138.25 I-0.25 J0
G1 X8
G0 Z5
Y137.75
Z-6.5
G1 Z-8 F1000
X8.25
G3 X8.5 Y138 I0 J0.25
X7.5 Y138 I-0.5 J0
X8.5 Y138 I0.5 J0
X8.25 Y138.25 I-0.25 J0
G1 X8
G0 Z5
Y147.75
Z-0.5
G1 Z-2 F1000
X8.25
G3 X8.5 Y148 I0 J0.25
X7.5 Y148 I-0.5 J0
X8.5 Y148 I0.5 J0
X8.25 Y148.25 I-0.25 J0
G1 X8
G0 Z5
Y147.75
Z-2.5
G1 Z-4 F1000
X8.25
G3 X8.5 Y148 I0 J0.25
X7.5 Y148 I-0.5 J0
X8.5 Y148 I0.5 J0
X8.25 Y148.25 I-0.25 J0
G1 X8
G0 Z5
Y147.75
Z-4.5
G1 Z-6 F1000
X8.25
G3 X8.5 Y148 I0 J0.25
X7.5 Y148 I-0.5 J0
X8.5 Y148 I0.5 J0
X8.25 Y148.25 I-0.25 J0
G1 X8
G0 Z5
Y147.75
Z-6.5
G1 Z-8 F1000
X8.25
G3 X8.5 Y148 I0 J0.25
X7.5 Y148 I-0.5 J0
X8.5 Y148 I0.5 J0
X8.25 Y148.25 I-0.25 J0
G1 X8
G0 Z5
X18 Y147.75
Z-0.5
G1 Z-2 F1000
X18.25
G3 X18.5 Y148 I0 J0.25
X17.5 Y148 I-0.5 J0
X18.5 Y148 I0.5 J0
X18.25 Y148.25 I-0.25 J0
G1 X18
G0 Z5
Y147.75
Z-2.5
G1 Z-4 F1000
X18.25
G3 X18.5 Y148 I0 J0.25
X17.5 Y148 I-0.5 J0
X18.5 Y148 I0.5 J0
X18.25 Y148.25 I-0.25 J0
G1 X18
G0 Z5
Y147.75
Z-4.5
G1 Z-6 F1000
X18.25
G3 X18.5 Y148 I0 J0.25
X17.5 Y148 I-0.5 J0
X18.5 Y148 I0.5 J0
X18.25 Y148.25 I-0.25 J0
G1 X18
G0 Z5
Y147.75
Z-6.5
G1 Z-8 F1000
X18.25
G3 X18.5 Y148 I0 J0.25
X17.5 Y148 I-0.5 J0
X18.5 Y148 I0.5 J0
X18.25 Y148.25 I-0.25 J0
G1 X18
G0 Z5
X28 Y147.75
Z-0.5
G1 Z-2 F1000
X28.25
G3 X28.5 Y148 I0 J0.25
X27.5 Y148 I-0.5 J0
X28.5 Y148 I0.5 J0
X28.25 Y148.25 I-0.25 J0
G1 X28
G0 Z5
Y147.75
Z-2.5
G1 Z-4 F1000
X28.25
G3 X28.5 Y148 I0 J0.25
X27.5 Y148 I-0.5 J0
X28.5 Y148 I0.5 J0
X28.25 Y148.25 I-0.25 J0
G1 X28
G0 Z5
Y147.75
Z-4.5
G1 Z-6 F1000
X28.25
G3 X28.5 Y148 I0 J0.25
X27.5 Y148 I-0.5 J0
X28.5 Y148 I0.5 J0
X28.25 Y148.25 I-0.25 J0
G1 X28
G0 Z5
Y147.75
Z-6.5
G1 Z-8 F1000
X28.25
G3 X28.5 Y148 I0 J0.25
X27.5 Y148 I-0.5 J0
X28.5 Y148 I0.5 J0
X28.25 Y148.25 I-0.25 J0
G1 X28
G0 Z5
X38 Y147.75
Z-0.5
G1 Z-2 F1000
X38.25
G3 X38.5 Y148 I0 J0.25
X37.5 Y148 I-0.5 J0
X38.5 Y148 I0.5 J0
X38.25 Y148.25 I-0.25 J0
G1 X38
G0 Z5
Y147.75
Z-2.5
G1 Z-4 F1000
X38.25
G3 X38.5 Y148 I0 J0.25
X37.5 Y148 I-0.5 J0
X38.5 Y148 I0.5 J0
X38.25 Y148.25 I-0.25 J0
G1 X38
G0 Z5
Y147.75
Z-4.5
G1 Z-6 F1000
X38.25
G3 X38.5 Y148 I0 J0.25
X37.5 Y148 I-0.5 J0
X38.5 Y148 I0.5 J0
X38.25 Y148.25 I-0.25 J0
G1 X38
G0 Z5
Y147.75
Z-6.5
G1 Z-8 F1000
X38.25
G3 X38.5 Y148 I0 J0.25
X37.5 Y148 I-0.5 J0
X38.5 Y148 I0.5 J0
X38.25 Y148.25 I-0.25 J0
G1 X38
G0 Z5
Y157.75
Z-0.5
G1 Z-2 F1000
X38.25
G3 X38.5 Y158 I0 J0.25
X37.5 Y158 I-0.5 J0
X38.5 Y158 I0.5 J0
X38.25 Y158.25 I-0.25 J0
G1 X38
G0 Z5
Y157.75
Z-2.5
G1 Z-4 F1000
X38.25
G3 X38.5 Y158 I0 J0.25
X37.5 Y158 I-0.5 J0
X38.5 Y158 I0.5 J0
X38.25 Y158.25 I-0.25 J0
G1 X38
G0 Z5
Y157.75
Z-4.5
G1 Z-6 F1000
X38.25
G3 X38.5 Y158 I0 J0.25
X37.5 Y158 I-0.5 J0
X38.5 Y158 I0.5 J0
X38.25 Y158.25 I-0.25 J0
G1 X38
G0 Z5
Y157.75
Z-6.5
G1 Z-8 F1000
X38.25
G3 X38.5 Y158 I0 J0.25
X37.5 Y158 I-0.5 J0
X38.5 Y158 I0.5 J0
X38.25 Y158.25 I-0.25 J0
G1 X38
G0 Z5
X28 Y157.75
Z-0.5
G1 Z-2 F1000
X28.25
G3 X28.5 Y158 I0 J0.25
X27.5 Y158 I-0.5 J0
X28.5 Y158 I0.5 J0
X28.25 Y158.25 I-0.25 J0
G1 X28
G0 Z5
Y157.75
Z-2.5
G1 Z-4 F1000
X28.25
G3 X28.5 Y158 I0 J0.25
X27.5 Y158 I-0.5 J0
X28.5 Y158 I0.5 J0
X28.25 Y158.25 I-0.25 J0
G1 X28
G0 Z5
Y157.75
Z-4.5
G1 Z-6 F1000
X28.25
G3 X28.5 Y158 I0 J0.25
X27.5 Y158 I-0.5 J0
X28.5 Y158 I0.5 J0
X28.25 Y158.25 I-0.25 J0
G1 X28
G0 Z5
Y157.75
Z-6.5
G1 Z-8 F1000
X28.25
G3 X28.5 Y158 I0 J0.25
X27.5 Y158 I-0.5 J0
X28.5 Y158 I0.5 J0
X28.25 Y158.25 I-0.25 J0
G1 X28
G0 Z5
X18 Y157.75
Z-0.5
G1 Z-2 F1000
X18.25
G3 X18.5 Y158 I0 J0.25
X17.5 Y158 I-0.5 J0
X18.5 Y158 I0.5 J0
X18.25 Y158.25 I-0.25 J0
G1 X18
G0 Z5
Y157.75
Z-2.5
G1 Z-4 F1000
X18.25
G3 X18.5 Y158 I0 J0.25
X17.5 Y158 I-0.5 J0
X18.5 Y158 I0.5 J0
X18.25 Y158.25 I-0.25 J0
G1 X18
G0 Z5
Y157.75
Z-4.5
G1 Z-6 F1000
X18.25
G3 X18.5 Y158 I0 J0.25
X17.5 Y158 I-0.5 J0
X18.5 Y158 I0.5 J0
X18.25 Y158.25 I-0.25 J0
G1 X18
G0 Z5
Y157.75
Z-6.5
G1 Z-8 F1000
X18.25
G3 X18.5 Y158 I0 J0.25
X17.5 Y158 I-0.5 J0
X18.5 Y158 I0.5 J0
X18.25 Y158.25 I-0.25 J0
G1 X18
G0 Z5
X8 Y157.75
Z-0.5
G1 Z-2 F1000
X8.25
G3 X8.5 Y158 I0 J0.25
X7.5 Y158 I-0.5 J0
X8.5 Y158 I0.5 J0
X8.25 Y158.25 I-0.25 J0
G1 X8
G0 Z5
Y157.75
Z-2.5
G1 Z-4 F1000
X8.25
G3 X8.5 Y158 I0 J0.25
X7.5 Y158 I-0.5 J0
X8.5 Y158 I0.5 J0
X8.25 Y158.25 I-0.25 J0
G1 X8
G0 Z5
Y157.75
Z-4.5
G1 Z-6 F1000
X8.25
G3 X8.5 Y158 I0 J0.25
X7.5 Y158 I-0.5 J0
X8.5 Y158 I0.5 J0
X8.25 Y158.25 I-0.25 J0
G1 X8
G0 Z5
Y157.75
Z-6.5
G1 Z-8 F1000
X8.25
G3 X8.5 Y158 I0 J0.25
X7.5 Y158 I-0.5 J0
X8.5 Y158 I0.5 J0
X8.25 Y158.25 I-0.25 J0
G1 X8
G0 Z5
Y167.75
Z-0.5
G1 Z-2 F1000
X8.25
G3 X8.5 Y168 I0 J0.25
X7.5 Y168 I-0.5 J0
X8.5 Y168 I0.5 J0
X8.25 Y168.25 I-0.25 J0
G1 X8
G0 Z5
Y167.75
Z-2.5
G1 Z-4 F1000
X8.25
G3 X8.5 Y168 I0 J0.25
X7.5 Y168 I-0.5 J0
X8.5 Y168 I0.5 J0
X8.25 Y168.25 I-0.25 J0
G1 X8
G0 Z5
Y167.75
Z-4.5
G1 Z-6 F1000
X8.25
G3 X8.5 Y168 I0 J0.25
X7.5 Y168 I-0.5 J0
X8.5 Y168 I0.5 J0
X8.25 Y168.25 I-0.25 J0
G1 X8
G0 Z5
Y167.75
Z-6.5
G1 Z-8 F1000
X8.25
G3 X8.5 Y168 I0 J0.25
X7.5 Y168 I-0.5 J0
X8.5 Y168 I0.5 J0
X8.25 Y168.25 I-0.25 J0
G1 X8
G0 Z5
X18 Y167.75
Z-0.5
G1 Z-2 F1000
X18.25
G3 X18.5 Y168 I0 J0.25
X17.5 Y168 I-0.5 J0
X18.5 Y168 I0.5 J0
X18.25 Y168.25 I-0.25 J0
G1 X18
G0 Z5
Y167.75
Z-2.5
G1 Z-4 F1000
X18.25
G3 X18.5 Y168 I0 J0.25
X17.5 Y168 I-0.5 J0
X18.5 Y168 I0.5 J0
X18.25 Y168.25 I-0.25 J0
G1 X18
G0 Z5
Y167.75
Z-4.5
G1 Z-6 F1000
X18.25
G3 X18.5 Y168 I0 J0.25
X17.5 Y168 I-0.5 J0
X18.5 Y168 I0.5 J0
X18.25 Y168.25 I-0.25 J0
G1 X18
G0 Z5
Y167.75
Z-6.5
G1 Z-8 F1000
X18.25
G3 X18.5 Y168 I0 J0.25
X17.5 Y168 I-0.5 J0
X18.5 Y168 I0.5 J0
X18.25 Y168.25 I-0.25 J0
G1 X18
G0 Z5
X28 Y167.75
Z-0.5
G1 Z-2 F1000
X28.25
G3 X28.5 Y168 I0 J0.25
X27.5 Y168 I-0.5 J0
X28.5 Y168 I0.5 J0
X28.25 Y168.25 I-0.25 J0
G1 X28
G0 Z5
Y167.75
Z-2.5
G1 Z-4 F1000
X28.25
G3 X28.5 Y168 I0 J0.25
X27.5 Y168 I-0.5 J0
X28.5 Y168 I0.5 J0
X28.25 Y168.25 I-0.25 J0
G1 X28
G0 Z5
Y167.75
Z-4.5
G1 Z-6 F1000
X28.25
G3 X28.5 Y168 I0 J0.25
X27.5 Y168 I-0.5 J0
X28.5 Y168 I0.5 J0
X28.25 Y168.25 I-0.25 J0
G1 X28
G0 Z5
Y167.75
Z-6.5
G1 Z-8 F1000
X28.25
G3 X28.5 Y168 I0 J0.25
X27.5 Y168 I-0.5 J0
X28.5 Y168 I0.5 J0
X28.25 Y168.25 I-0.25 J0
G1 X28
G0 Z5
X38 Y167.75
Z-0.5
G1 Z-2 F1000
X38.25
G3 X38.5 Y168 I0 J0.25
X37.5 Y168 I-0.5 J0
X38.5 Y168 I0.5 J0
X38.25 Y168.25 I-0.25 J0
G1 X38
G0 Z5
Y167.75
Z-2.5
G1 Z-4 F1000
X38.25
G3 X38.5 Y168 I0 J0.25
X37.5 Y168 I-0.5 J0
X38.5 Y168 I0.5 J0
X38.25 Y168.25 I-0.25 J0
G1 X38
G0 Z5
Y167.75
Z-4.5
G1 Z-6 F1000
X38.25
G3 X38.5 Y168 I0 J0.25
X37.5 Y168 I-0.5 J0
X38.5 Y168 I0.5 J0
X38.25 Y168.25 I-0.25 J0
G1 X38
G0 Z5
Y167.75
Z-6.5
G1 Z-8 F1000
X38.25
G3 X38.5 Y168 I0 J0.25
X37.5 Y168 I-0.5 J0
X38.5 Y168 I0.5 J0
X38.25 Y168.25 I-0.25 J0
G1 X38
G0 Z5
Y177.75
Z-0.5
G1 Z-2 F1000
X38.25
G3 X38.5 Y178 I0 J0.25
X37.5 Y178 I-0.5 J0
X38.5 Y178 I0.5 J0
X38.25 Y178.25 I-0.25 J0
G1 X38
G0 Z5
Y177.75
Z-2.5
G1 Z-4 F1000
X38.25
G3 X38.5 Y178 I0 J0.25
X37.5 Y178 I-0.5 J0
X38.5 Y178 I0.5 J0
X38.25 Y178.25 I-0.25 J0
G1 X38
G0 Z5
Y177.75
Z-4.5
G1 Z-6 F1000
X38.25
G3 X38.5 Y178 I0 J0.25
X37.5 Y178 I-0.5 J0
X38.5 Y178 I0.5 J0
X38.25 Y178.25 I-0.25 J0
G1 X38
G0 Z5
Y177.75
Z-6.5
G1 Z-8 F1000
X38.25
G3 X38.5 Y178 I0 J0.25
X37.5 Y178 I-0.5 J0
X38.5 Y178 I0.5 J0
X38.25 Y178.25 I-0.25 J0
G1 X38
G0 Z5
X28 Y177.75
Z-0.5
G1 Z-2 F1000
X28.25
G3 X28.5 Y178 I0 J0.25
X27.5 Y178 I-0.5 J0
X28.5 Y178 I0.5 J0
X28.25 Y178.25 I-0.25 J0
G1 X28
G0 Z5
Y177.75
Z-2.5
G1 Z-4 F1000
X28.25
G3 X28.5 Y178 I0 J0.25
X27.5 Y178 I-0.5 J0
X28.5 Y178 I0.5 J0
X28.25 Y178.25 I-0.25 J0
G1 X28
G0 Z5
Y177.75
Z-4.5
G1 Z-6 F1000
X28.25
G3 X28.5 Y178 I0 J0.25
X27.5 Y178 I-0.5 J0
X28.5 Y178 I0.5 J0
X28.25 Y178.25 I-0.25 J0
G1 X28
G0 Z5
Y177.75
Z-6.5
G1 Z-8 F1000
X28.25
G3 X28.5 Y178 I0 J0.25
X27.5 Y178 I-0.5 J0
X28.5 Y178 I0.5 J0
X28.25 Y178.25 I-0.25 J0
G1 X28
G0 Z5
X18 Y177.75
Z-0.5
G1 Z-2 F1000
X18.25
G3 X18.5 Y178 I0 J0.25
X17.5 Y178 I-0.5 J0
X18.5 Y178 I0.5 J0
X18.25 Y178.25 I-0.25 J0
G1 X18
G0 Z5
Y177.75
Z-2.5
G1 Z-4 F1000
X18.25
G3 X18.5 Y178 I0 J0.25
X17.5 Y178 I-0.5 J0
X18.5 Y178 I0.5 J0
X18.25 Y178.25 I-0.25 J0
G1 X18
G0 Z5
Y177.75
Z-4.5
G1 Z-6 F1000
X18.25
G3 X18.5 Y178 I0 J0.25
X17.5 Y178 I-0.5 J0
X18.5 Y178 I0.5 J0
X18.25 Y178.25 I-0.25 J0
G1 X18
G0 Z5
Y177.75
Z-6.5
G1 Z-8 F1000
X18.25
G3 X18.5 Y178 I0 J0.25
X17.5 Y178 I-0.5 J0
X18.5 Y178 I0.5 J0
X18.25 Y178.25 I-0.25 J0
G1 X18
G0 Z5
X8 Y177.75
Z-0.5
G1 Z-2 F1000
X8.25
G3 X8.5 Y178 I0 J0.25
X7.5 Y178 I-0.5 J0
X8.5 Y178 I0.5 J0
X8.25 Y178.25 I-0.25 J0
G1 X8
G0 Z5
Y177.75
Z-2.5
G1 Z-4 F1000
X8.25
G3 X8.5 Y178 I0 J0.25
X7.5 Y178 I-0.5 J0
X8.5 Y178 I0.5 J0
X8.25 Y178.25 I-0.25 J0
G1 X8
G0 Z5
Y177.75
Z-4.5
G1 Z-6 F1000
X8.25
G3 X8.5 Y178 I0 J0.25
X7.5 Y178 I-0.5 J0
X8.5 Y178 I0.5 J0
X8.25 Y178.25 I-0.25 J0
G1 X8
G0 Z5
Y177.75
Z-6.5
G1 Z-8 F1000
X8.25
G3 X8.5 Y178 I0 J0.25
X7.5 Y178 I-0.5 J0
X8.5 Y178 I0.5 J0
X8.25 Y178.25 I-0.25 J0
G1 X8
G0 Z5
X38 Y187.75
Z-0.5
G1 Z-2 F1000
X38.25
G3 X38.5 Y188 I0 J0.25
X37.5 Y188 I-0.5 J0
X38.5 Y188 I0.5 J0
X38.25 Y188.25 I-0.25 J0
G1 X38
G0 Z5
Y187.75
Z-2.5
G1 Z-4 F1000
X38.25
G3 X38.5 Y188 I0 J0.25
X37.5 Y188 I-0.5 J0
X38.5 Y188 I0.5 J0
X38.25 Y188.25 I-0.25 J0
G1 X38
G0 Z5
Y187.75
Z-4.5
G1 Z-6 F1000
X38.25
G3 X38.5 Y188 I0 J0.25
X37.5 Y188 I-0.5 J0
X38.5 Y188 I0.5 J0
X38.25 Y188.25 I-0.25 J0
G1 X38
G0 Z5
Y187.75
Z-6.5
G1 Z-8 F1000
X38.25
G3 X38.5 Y188 I0 J0.25
X37.5 Y188 I-0.5 J0
X38.5 Y188 I0.5 J0
X38.25 Y188.25 I-0.25 J0
G1 X38
G0 Z5
X28 Y187.75
Z-0.5
G1 Z-2 F1000
X28.25
G3 X28.5 Y188 I0 J0.25
X27.5 Y188 I-0.5 J0
X28.5 Y188 I0.5 J0
X28.25 Y188.25 I-0.25 J0
G1 X28
G0 Z5
Y187.75
Z-2.5
G1 Z-4 F1000
X28.25
G3 X28.5 Y188 I0 J0.25
X27.5 Y188 I-0.5 J0
X28.5 Y188 I0.5 J0
X28.25 Y188.25 I-0.25 J0
G1 X28
G0 Z5
Y187.75
Z-4.5
G1 Z-6 F1000
X28.25
G3 X28.5 Y188 I0 J0.25
X27.5 Y188 I-0.5 J0
X28.5 Y188 I0.5 J0
X28.25 Y188.25 I-0.25 J0
G1 X28
G0 Z5
Y187.75
Z-6.5
G1 Z-8 F1000
X28.25
G3 X28.5 Y188 I0 J0.25
X27.5 Y188 I-0.5 J0
X28.5 Y188 I0.5 J0
X28.25 Y188.25 I-0.25 J0
G1 X28
G0 Z5
X18 Y187.75
Z-0.5
G1 Z-2 F1000
X18.25
G3 X18.5 Y188 I0 J0.25
X17.5 Y188 I-0.5 J0
X18.5 Y188 I0.5 J0
X18.25 Y188.25 I-0.25 J0
G1 X18
G0 Z5
Y187.75
Z-2.5
G1 Z-4 F1000
X18.25
G3 X18.5 Y188 I0 J0.25
X17.5 Y188 I-0.5 J0
X18.5 Y188 I0.5 J0
X18.25 Y188.25 I-0.25 J0
G1 X18
G0 Z5
Y187.75
Z-4.5
G1 Z-6 F1000
X18.25
G3 X18.5 Y188 I0 J0.25
X17.5 Y188 I-0.5 J0
X18.5 Y188 I0.5 J0
X18.25 Y188.25 I-0.25 J0
G1 X18
G0 Z5
Y187.75
Z-6.5
G1 Z-8 F1000
X18.25
G3 X18.5 Y188 I0 J0.25
X17.5 Y188 I-0.5 J0
X18.5 Y188 I0.5 J0
X18.25 Y188.25 I-0.25 J0
G1 X18
G0 Z5
X8 Y187.75
Z-0.5
G1 Z-2 F1000
X8.25
G3 X8.5 Y188 I0 J0.25
X7.5 Y188 I-0.5 J0
X8.5 Y188 I0.5 J0
X8.25 Y188.25 I-0.25 J0
G1 X8
G0 Z5
Y187.75
Z-2.5
G1 Z-4 F1000
X8.25
G3 X8.5 Y188 I0 J0.25
X7.5 Y188 I-0.5 J0
X8.5 Y188 I0.5 J0
X8.25 Y188.25 I-0.25 J0
G1 X8
G0 Z5
Y187.75
Z-4.5
G1 Z-6 F1000
X8.25
G3 X8.5 Y188 I0 J0.25
X7.5 Y188 I-0.5 J0
X8.5 Y188 I0.5 J0
X8.25 Y188.25 I-0.25 J0
G1 X8
G0 Z5
Y187.75
Z-6.5
G1 Z-8 F1000
X8.25
G3 X8.5 Y188 I0 J0.25
X7.5 Y188 I-0.5 J0
X8.5 Y188 I0.5 J0
X8.25 Y188.25 I-0.25 J0
G1 X8
G0 Z5
Y197.75
Z-0.5
G1 Z-2 F1000
X8.25
G3 X8.5 Y198 I0 J0.25
X7.5 Y198 I-0.5 J0
X8.5 Y198 I0.5 J0
X8.25 Y198.25 I-0.25 J0
G1 X8
G0 Z5
Y197.75
Z-2.5
G1 Z-4 F1000
X8.25
G3 X8.5 Y198 I0 J0.25
X7.5 Y198 I-0.5 J0
X8.5 Y198 I0.5 J0
X8.25 Y198.25 I-0.25 J0
G1 X8
G0 Z5
Y197.75
Z-4.5
G1 Z-6 F1000
X8.25
G3 X8.5 Y198 I0 J0.25
X7.5 Y198 I-0.5 J0
X8.5 Y198 I0.5 J0
X8.25 Y198.25 I-0.25 J0
G1 X8
G0 Z5
Y197.75
Z-6.5
G1 Z-8 F1000
X8.25
G3 X8.5 Y198 I0 J0.25
X7.5 Y198 I-0.5 J0
X8.5 Y198 I0.5 J0
X8.25 Y198.25 I-0.25 J0
G1 X8
G0 Z5
X18 Y197.75
Z-0.5
G1 Z-2 F1000
X18.25
G3 X18.5 Y198 I0 J0.25
X17.5 Y198 I-0.5 J0
X18.5 Y198 I0.5 J0
X18.25 Y198.25 I-0.25 J0
G1 X18
G0 Z5
Y197.75
Z-2.5
G1 Z-4 F1000
X18.25
G3 X18.5 Y198 I0 J0.25
X17.5 Y198 I-0.5 J0
X18.5 Y198 I0.5 J0
X18.25 Y198.25 I-0.25 J0
G1 X18
G0 Z5
Y197.75
Z-4.5
G1 Z-6 F1000
X18.25
G3 X18.5 Y198 I0 J0.25
X17.5 Y198 I-0.5 J0
X18.5 Y198 I0.5 J0
X18.25 Y198.25 I-0.25 J0
G1 X18
G0 Z5
Y197.75
Z-6.5
G1 Z-8 F1000
X18.25
G3 X18.5 Y198 I0 J0.25
X17.5 Y198 I-0.5 J0
X18.5 Y198 I0.5 J0
X18.25 Y198.25 I-0.25 J0
G1 X18
G0 Z5
X28 Y197.75
Z-0.5
G1 Z-2 F1000
X28.25
G3 X28.5 Y198 I0 J0.25
X27.5 Y198 I-0.5 J0
X28.5 Y198 I0.5 J0
X28.25 Y198.25 I-0.25 J0
G1 X28
G0 Z5
Y197.75
Z-2.5
G1 Z-4 F1000
X28.25
G3 X28.5 Y198 I0 J0.25
X27.5 Y198 I-0.5 J0
X28.5 Y198 I0.5 J0
X28.25 Y198.25 I-0.25 J0
G1 X28
G0 Z5
Y197.75
Z-4.5
G1 Z-6 F1000
X28.25
G3 X28.5 Y198 I0 J0.25
X27.5 Y198 I-0.5 J0
X28.5 Y198 I0.5 J0
X28.25 Y198.25 I-0.25 J0
G1 X28
G0 Z5
Y197.75
Z-6.5
G1 Z-8 F1000
X28.25
G3 X28.5 Y198 I0 J0.25
X27.5 Y198 I-0.5 J0
X28.5 Y198 I0.5 J0
X28.25 Y198.25 I-0.25 J0
G1 X28
G0 Z5
X38 Y197.75
Z-0.5
G1 Z-2 F1000
X38.25
G3 X38.5 Y198 I0 J0.25
X37.5 Y198 I-0.5 J0
X38.5 Y198 I0.5 J0
X38.25 Y198.25 I-0.25 J0
G1 X38
G0 Z5
Y197.75
Z-2.5
G1 Z-4 F1000
X38.25
G3 X38.5 Y198 I0 J0.25
X37.5 Y198 I-0.5 J0
X38.5 Y198 I0.5 J0
X38.25 Y198.25 I-0.25 J0
G1 X38
G0 Z5
Y197.75
Z-4.5
G1 Z-6 F1000
X38.25
G3 X38.5 Y198 I0 J0.25
X37.5 Y198 I-0.5 J0
X38.5 Y198 I0.5 J0
X38.25 Y198.25 I-0.25 J0
G1 X38
G0 Z5
Y197.75
Z-6.5
G1 Z-8 F1000
X38.25
G3 X38.5 Y198 I0 J0.25
X37.5 Y198 I-0.5 J0
X38.5 Y198 I0.5 J0
X38.25 Y198.25 I-0.25 J0
G1 X38
G0 Z5
Y207.75
Z-0.5
G1 Z-2 F1000
X38.25
G3 X38.5 Y208 I0 J0.25
X37.5 Y208 I-0.5 J0
X38.5 Y208 I0.5 J0
X38.25 Y208.25 I-0.25 J0
G1 X38
G0 Z5
Y207.75
Z-2.5
G1 Z-4 F1000
X38.25
G3 X38.5 Y208 I0 J0.25
X37.5 Y208 I-0.5 J0
X38.5 Y208 I0.5 J0
X38.25 Y208.25 I-0.25 J0
G1 X38
G0 Z5
Y207.75
Z-4.5
G1 Z-6 F1000
X38.25
G3 X38.5 Y208 I0 J0.25
X37.5 Y208 I-0.5 J0
X38.5 Y208 I0.5 J0
X38.25 Y208.25 I-0.25 J0
G1 X38
G0 Z5
Y207.75
Z-6.5
G1 Z-8 F1000
X38.25
G3 X38.5 Y208 I0 J0.25
X37.5 Y208 I-0.5 J0
X38.5 Y208 I0.5 J0
X38.25 Y208.25 I-0.25 J0
G1 X38
G0 Z5
X28 Y207.75
Z-0.5
G1 Z-2 F1000
X28.25
G3 X28.5 Y208 I0 J0.25
X27.5 Y208 I-0.5 J0
X28.5 Y208 I0.5 J0
X28.25 Y208.25 I-0.25 J0
G1 X28
G0 Z5
Y207.75
Z-2.5
G1 Z-4 F1000
X28.25
G3 X28.5 Y208 I0 J0.25
X27.5 Y208 I-0.5 J0
X28.5 Y208 I0.5 J0
X28.25 Y208.25 I-0.25 J0
G1 X28
G0 Z5
Y207.75
Z-4.5
G1 Z-6 F1000
X28.25
G3 X28.5 Y208 I0 J0.25
X27.5 Y208 I-0.5 J0
X28.5 Y208 I0.5 J0
X28.25 Y208.25 I-0.25 J0
G1 X28
G0 Z5
Y207.75
Z-6.5
G1 Z-8 F1000
X28.25
G3 X28.5 Y208 I0 J0.25
X27.5 Y208 I-0.5 J0
X28.5 Y208 I0.5 J0
X28.25 Y208.25 I-0.25 J0
G1 X28
G0 Z5
X18 Y207.75
Z-0.5
G1 Z-2 F1000
X18.25
G3 X18.5 Y208 I0 J0.25
X17.5 Y208 I-0.5 J0
X18.5 Y208 I0.5 J0
X18.25 Y208.25 I-0.25 J0
G1 X18
G0 Z5
Y207.75
Z-2.5
G1 Z-4 F1000
X18.25
G3 X18.5 Y208 I0 J0.25
X17.5 Y208 I-0.5 J0
X18.5 Y208 I0.5 J0
X18.25 Y208.25 I-0.25 J0
G1 X18
G0 Z5
Y207.75
Z-4.5
G1 Z-6 F1000
X18.25
G3 X18.5 Y208 I0 J0.25
X17.5 Y208 I-0.5 J0
X18.5 Y208 I0.5 J0
X18.25 Y208.25 I-0.25 J0
G1 X18
G0 Z5
Y207.75
Z-6.5
G1 Z-8 F1000
X18.25
G3 X18.5 Y208 I0 J0.25
X17.5 Y208 I-0.5 J0
X18.5 Y208 I0.5 J0
X18.25 Y208.25 I-0.25 J0
G1 X18
G0 Z5
X8 Y207.75
Z-0.5
G1 Z-2 F1000
X8.25
G3 X8.5 Y208 I0 J0.25
X7.5 Y208 I-0.5 J0
X8.5 Y208 I0.5 J0
X8.25 Y208.25 I-0.25 J0
G1 X8
G0 Z5
Y207.75
Z-2.5
G1 Z-4 F1000
X8.25
G3 X8.5 Y208 I0 J0.25
X7.5 Y208 I-0.5 J0
X8.5 Y208 I0.5 J0
X8.25 Y208.25 I-0.25 J0
G1 X8
G0 Z5
Y207.75
Z-4.5
G1 Z-6 F1000
X8.25
G3 X8.5 Y208 I0 J0.25
X7.5 Y208 I-0.5 J0
X8.5 Y208 I0.5 J0
X8.25 Y208.25 I-0.25 J0
G1 X8
G0 Z5
Y207.75
Z-6.5
G1 Z-8 F1000
X8.25
G3 X8.5 Y208 I0 J0.25
X7.5 Y208 I-0.5 J0
X8.5 Y208 I0.5 J0
X8.25 Y208.25 I-0.25 J0
G1 X8
G0 Z5
X38 Y217.75
Z-0.5
G1 Z-2 F1000
X38.25
G3 X38.5 Y218 I0 J0.25
X37.5 Y218 I-0.5 J0
X38.5 Y218 I0.5 J0
X38.25 Y218.25 I-0.25 J0
G1 X38
G0 Z5
Y217.75
Z-2.5
G1 Z-4 F1000
X38.25
G3 X38.5 Y218 I0 J0.25
X37.5 Y218 I-0.5 J0
X38.5 Y218 I0.5 J0
X38.25 Y218.25 I-0.25 J0
G1 X38
G0 Z5
Y217.75
Z-4.5
G1 Z-6 F1000
X38.25
G3 X38.5 Y218 I0 J0.25
X37.5 Y218 I-0.5 J0
X38.5 Y218 I0.5 J0
X38.25 Y218.25 I-0.25 J0
G1 X38
G0 Z5
Y217.75
Z-6.5
G1 Z-8 F1000
X38.25
G3 X38.5 Y218 I0 J0.25
X37.5 Y218 I-0.5 J0
X38.5 Y218 I0.5 J0
X38.25 Y218.25 I-0.25 J0
G1 X38
G0 Z5
X28 Y217.75
Z-0.5
G1 Z-2 F1000
X28.25
G3 X28.5 Y218 I0 J0.25
X27.5 Y218 I-0.5 J0
X28.5 Y218 I0.5 J0
X28.25 Y218.25 I-0.25 J0
G1 X28
G0 Z5
Y217.75
Z-2.5
G1 Z-4 F1000
X28.25
G3 X28.5 Y218 I0 J0.25
X27.5 Y218 I-0.5 J0
X28.5 Y218 I0.5 J0
X28.25 Y218.25 I-0.25 J0
G1 X28
G0 Z5
Y217.75
Z-4.5
G1 Z-6 F1000
X28.25
G3 X28.5 Y218 I0 J0.25
X27.5 Y218 I-0.5 J0
X28.5 Y218 I0.5 J0
X28.25 Y218.25 I-0.25 J0
G1 X28
G0 Z5
Y217.75
Z-6.5
G1 Z-8 F1000
X28.25
G3 X28.5 Y218 I0 J0.25
X27.5 Y218 I-0.5 J0
X28.5 Y218 I0.5 J0
X28.25 Y218.25 I-0.25 J0
G1 X28
G0 Z5
X18 Y217.75
Z-0.5
G1 Z-2 F1000
X18.25
G3 X18.5 Y218 I0 J0.25
X17.5 Y218 I-0.5 J0
X18.5 Y218 I0.5 J0
X18.25 Y218.25 I-0.25 J0
G1 X18
G0 Z5
Y217.75
Z-2.5
G1 Z-4 F1000
X18.25
G3 X18.5 Y218 I0 J0.25
X17.5 Y218 I-0.5 J0
X18.5 Y218 I0.5 J0
X18.25 Y218.25 I-0.25 J0
G1 X18
G0 Z5
Y217.75
Z-4.5
G1 Z-6 F1000
X18.25
G3 X18.5 Y218 I0 J0.25
X17.5 Y218 I-0.5 J0
X18.5 Y218 I0.5 J0
X18.25 Y218.25 I-0.25 J0
G1 X18
G0 Z5
Y217.75
Z-6.5
G1 Z-8 F1000
X18.25
G3 X18.5 Y218 I0 J0.25
X17.5 Y218 I-0.5 J0
X18.5 Y218 I0.5 J0
X18.25 Y218.25 I-0.25 J0
G1 X18
G0 Z5
X8 Y217.75
Z-0.5
G1 Z-2 F1000
X8.25
G3 X8.5 Y218 I0 J0.25
X7.5 Y218 I-0.5 J0
X8.5 Y218 I0.5 J0
X8.25 Y218.25 I-0.25 J0
G1 X8
G0 Z5
Y217.75
Z-2.5
G1 Z-4 F1000
X8.25
G3 X8.5 Y218 I0 J0.25
X7.5 Y218 I-0.5 J0
X8.5 Y218 I0.5 J0
X8.25 Y218.25 I-0.25 J0
G1 X8
G0 Z5
Y217.75
Z-4.5
G1 Z-6 F1000
X8.25
G3 X8.5 Y218 I0 J0.25
X7.5 Y218 I-0.5 J0
X8.5 Y218 I0.5 J0
X8.25 Y218.25 I-0.25 J0
G1 X8
G0 Z5
Y217.75
Z-6.5
G1 Z-8 F1000
X8.25
G3 X8.5 Y218 I0 J0.25
X7.5 Y218 I-0.5 J0
X8.5 Y218 I0.5 J0
X8.25 Y218.25 I-0.25 J0
G1 X8
G0 Z5
Y227.75
Z-0.5
G1 Z-2 F1000
X8.25
G3 X8.5 Y228 I0 J0.25
X7.5 Y228 I-0.5 J0
X8.5 Y228 I0.5 J0
X8.25 Y228.25 I-0.25 J0
G1 X8
G0 Z5
Y227.75
Z-2.5
G1 Z-4 F1000
X8.25
G3 X8.5 Y228 I0 J0.25
X7.5 Y228 I-0.5 J0
X8.5 Y228 I0.5 J0
X8.25 Y228.25 I-0.25 J0
G1 X8
G0 Z5
Y227.75
Z-4.5
G1 Z-6 F1000
X8.25
G3 X8.5 Y228 I0 J0.25
X7.5 Y228 I-0.5 J0
X8.5 Y228 I0.5 J0
X8.25 Y228.25 I-0.25 J0
G1 X8
G0 Z5
Y227.75
Z-6.5
G1 Z-8 F1000
X8.25
G3 X8.5 Y228 I0 J0.25
X7.5 Y228 I-0.5 J0
X8.5 Y228 I0.5 J0
X8.25 Y228.25 I-0.25 J0
G1 X8
G0 Z5
X18 Y227.75
Z-0.5
G1 Z-2 F1000
X18.25
G3 X18.5 Y228 I0 J0.25
X17.5 Y228 I-0.5 J0
X18.5 Y228 I0.5 J0
X18.25 Y228.25 I-0.25 J0
G1 X18
G0 Z5
Y227.75
Z-2.5
G1 Z-4 F1000
X18.25
G3 X18.5 Y228 I0 J0.25
X17.5 Y228 I-0.5 J0
X18.5 Y228 I0.5 J0
X18.25 Y228.25 I-0.25 J0
G1 X18
G0 Z5
Y227.75
Z-4.5
G1 Z-6 F1000
X18.25
G3 X18.5 Y228 I0 J0.25
X17.5 Y228 I-0.5 J0
X18.5 Y228 I0.5 J0
X18.25 Y228.25 I-0.25 J0
G1 X18
G0 Z5
Y227.75
Z-6.5
G1 Z-8 F1000
X18.25
G3 X18.5 Y228 I0 J0.25
X17.5 Y228 I-0.5 J0
X18.5 Y228 I0.5 J0
X18.25 Y228.25 I-0.25 J0
G1 X18
G0 Z5
X28 Y227.75
Z-0.5
G1 Z-2 F1000
X28.25
G3 X28.5 Y228 I0 J0.25
X27.5 Y228 I-0.5 J0
X28.5 Y228 I0.5 J0
X28.25 Y228.25 I-0.25 J0
G1 X28
G0 Z5
Y227.75
Z-2.5
G1 Z-4 F1000
X28.25
G3 X28.5 Y228 I0 J0.25
X27.5 Y228 I-0.5 J0
X28.5 Y228 I0.5 J0
X28.25 Y228.25 I-0.25 J0
G1 X28
G0 Z5
Y227.75
Z-4.5
G1 Z-6 F1000
X28.25
G3 X28.5 Y228 I0 J0.25
X27.5 Y228 I-0.5 J0
X28.5 Y228 I0.5 J0
X28.25 Y228.25 I-0.25 J0
G1 X28
G0 Z5
Y227.75
Z-6.5
G1 Z-8 F1000
X28.25
G3 X28.5 Y228 I0 J0.25
X27.5 Y228 I-0.5 J0
X28.5 Y228 I0.5 J0
X28.25 Y228.25 I-0.25 J0
G1 X28
G0 Z5
X38 Y227.75
Z-0.5
G1 Z-2 F1000
X38.25
G3 X38.5 Y228 I0 J0.25
X37.5 Y228 I-0.5 J0
X38.5 Y228 I0.5 J0
X38.25 Y228.25 I-0.25 J0
G1 X38
G0 Z5
Y227.75
Z-2.5
G1 Z-4 F1000
X38.25
G3 X38.5 Y228 I0 J0.25
X37.5 Y228 I-0.5 J0
X38.5 Y228 I0.5 J0
X38.25 Y228.25 I-0.25 J0
G1 X38
G0 Z5
Y227.75
Z-4.5
G1 Z-6 F1000
X38.25
G3 X38.5 Y228 I0 J0.25
X37.5 Y228 I-0.5 J0
X38.5 Y228 I0.5 J0
X38.25 Y228.25 I-0.25 J0
G1 X38
G0 Z5
Y227.75
Z-6.5
G1 Z-8 F1000
X38.25
G3 X38.5 Y228 I0 J0.25
X37.5 Y228 I-0.5 J0
X38.5 Y228 I0.5 J0
X38.25 Y228.25 I-0.25 J0
G1 X38
G0 Z5
Y237.75
Z-0.5
G1 Z-2 F1000
X38.25
G3 X38.5 Y238 I0 J0.25
X37.5 Y238 I-0.5 J0
X38.5 Y238 I0.5 J0
X38.25 Y238.25 I-0.25 J0
G1 X38
G0 Z5
Y237.75
Z-2.5
G1 Z-4 F1000
X38.25
G3 X38.5 Y238 I0 J0.25
X37.5 Y238 I-0.5 J0
X38.5 Y238 I0.5 J0
X38.25 Y238.25 I-0.25 J0
G1 X38
G0 Z5
Y237.75
Z-4.5
G1 Z-6 F1000
X38.25
G3 X38.5 Y238 I0 J0.25
X37.5 Y238 I-0.5 J0
X38.5 Y238 I0.5 J0
X38.25 Y238.25 I-0.25 J0
G1 X38
G0 Z5
Y237.75
Z-6.5
G1 Z-8 F1000
X38.25
G3 X38.5 Y238 I0 J0.25
X37.5 Y238 I-0.5 J0
X38.5 Y238 I0.5 J0
X38.25 Y238.25 I-0.25 J0
G1 X38
G0 Z5
X28 Y237.75
Z-0.5
G1 Z-2 F1000
X28.25
G3 X28.5 Y238 I0 J0.25
X27.5 Y238 I-0.5 J0
X28.5 Y238 I0.5 J0
X28.25 Y238.25 I-0.25 J0
G1 X28
G0 Z5
Y237.75
Z-2.5
G1 Z-4 F1000
X28.25
G3 X28.5 Y238 I0 J0.25
X27.5 Y238 I-0.5 J0
X28.5 Y238 I0.5 J0
X28.25 Y238.25 I-0.25 J0
G1 X28
G0 Z5
Y237.75
Z-4.5
G1 Z-6 F1000
X28.25
G3 X28.5 Y238 I0 J0.25
X27.5 Y238 I-0.5 J0
X28.5 Y238 I0.5 J0
X28.25 Y238.25 I-0.25 J0
G1 X28
G0 Z5
Y237.75
Z-6.5
G1 Z-8 F1000
X28.25
G3 X28.5 Y238 I0 J0.25
X27.5 Y238 I-0.5 J0
X28.5 Y238 I0.5 J0
X28.25 Y238.25 I-0.25 J0
G1 X28
G0 Z5
X18 Y237.75
Z-0.5
G1 Z-2 F1000
X18.25
G3 X18.5 Y238 I0 J0.25
X17.5 Y238 I-0.5 J0
X18.5 Y238 I0.5 J0
X18.25 Y238.25 I-0.25 J0
G1 X18
G0 Z5
Y237.75
Z-2.5
G1 Z-4 F1000
X18.25
G3 X18.5 Y238 I0 J0.25
X17.5 Y238 I-0.5 J0
X18.5 Y238 I0.5 J0
X18.25 Y238.25 I-0.25 J0
G1 X18
G0 Z5
Y237.75
Z-4.5
G1 Z-6 F1000
X18.25
G3 X18.5 Y238 I0 J0.25
X17.5 Y238 I-0.5 J0
X18.5 Y238 I0.5 J0
X18.25 Y238.25 I-0.25 J0
G1 X18
G0 Z5
Y237.75
Z-6.5
G1 Z-8 F1000
X18.25
G3 X18.5 Y238 I0 J0.25
X17.5 Y238 I-0.5 J0
X18.5 Y238 I0.5 J0
X18.25 Y238.25 I-0.25 J0
G1 X18
G0 Z5
X8 Y237.75
Z-0.5
G1 Z-2 F1000
X8.25
G3 X8.5 Y238 I0 J0.25
X7.5 Y238 I-0.5 J0
X8.5 Y238 I0.5 J0
X8.25 Y238.25 I-0.25 J0
G1 X8
G0 Z5
Y237.75
Z-2.5
G1 Z-4 F1000
X8.25
G3 X8.5 Y238 I0 J0.25
X7.5 Y238 I-0.5 J0
X8.5 Y238 I0.5 J0
X8.25 Y238.25 I-0.25 J0
G1 X8
G0 Z5
Y237.75
Z-4.5
G1 Z-6 F1000
X8.25
G3 X8.5 Y238 I0 J0.25
X7.5 Y238 I-0.5 J0
X8.5 Y238 I0.5 J0
X8.25 Y238.25 I-0.25 J0
G1 X8
G0 Z5
Y237.75
Z-6.5
G1 Z-8 F1000
X8.25
G3 X8.5 Y238 I0 J0.25
X7.5 Y238 I-0.5 J0
X8.5 Y238 I0.5 J0
X8.25 Y238.25 I-0.25 J0
G1 X8
G0 Z5
Y247.75
Z-0.5
G1 Z-2 F1000
X8.25
G3 X8.5 Y248 I0 J0.25
X7.5 Y248 I-0.5 J0
X8.5 Y248 I0.5 J0
X8.25 Y248.25 I-0.25 J0
G1 X8
G0 Z5
Y247.75
Z-2.5
G1 Z-4 F1000
X8.25
G3 X8.5 Y248 I0 J0.25
X7.5 Y248 I-0.5 J0
X8.5 Y248 I0.5 J0
X8.25 Y248.25 I-0.25 J0
G1 X8
G0 Z5
Y247.75
Z-4.5
G1 Z-6 F1000
X8.25
G3 X8.5 Y248 I0 J0.25
X7.5 Y248 I-0.5 J0
X8.5 Y248 I0.5 J0
X8.25 Y248.25 I-0.25 J0
G1 X8
G0 Z5
Y247.75
Z-6.5
G1 Z-8 F1000
X8.25
G3 X8.5 Y248 I0 J0.25
X7.5 Y248 I-0.5 J0
X8.5 Y248 I0.5 J0
X8.25 Y248.25 I-0.25 J0
G1 X8
G0 Z5
X18 Y247.75
Z-0.5
G1 Z-2 F1000
X18.25
G3 X18.5 Y248 I0 J0.25
X17.5 Y248 I-0.5 J0
X18.5 Y248 I0.5 J0
X18.25 Y248.25 I-0.25 J0
G1 X18
G0 Z5
Y247.75
Z-2.5
G1 Z-4 F1000
X18.25
G3 X18.5 Y248 I0 J0.25
X17.5 Y248 I-0.5 J0
X18.5 Y248 I0.5 J0
X18.25 Y248.25 I-0.25 J0
G1 X18
G0 Z5
Y247.75
Z-4.5
G1 Z-6 F1000
X18.25
G3 X18.5 Y248 I0 J0.25
X17.5 Y248 I-0.5 J0
X18.5 Y248 I0.5 J0
X18.25 Y248.25 I-0.25 J0
G1 X18
G0 Z5
Y247.75
Z-6.5
G1 Z-8 F1000
X18.25
G3 X18.5 Y248 I0 J0.25
X17.5 Y248 I-0.5 J0
X18.5 Y248 I0.5 J0
X18.25 Y248.25 I-0.25 J0
G1 X18
G0 Z5
X28 Y247.75
Z-0.5
G1 Z-2 F1000
X28.25
G3 X28.5 Y248 I0 J0.25
X27.5 Y248 I-0.5 J0
X28.5 Y248 I0.5 J0
X28.25 Y248.25 I-0.25 J0
G1 X28
G0 Z5
Y247.75
Z-2.5
G1 Z-4 F1000
X28.25
G3 X28.5 Y248 I0 J0.25
X27.5 Y248 I-0.5 J0
X28.5 Y248 I0.5 J0
X28.25 Y248.25 I-0.25 J0
G1 X28
G0 Z5
Y247.75
Z-4.5
G1 Z-6 F1000
X28.25
G3 X28.5 Y248 I0 J0.25
X27.5 Y248 I-0.5 J0
X28.5 Y248 I0.5 J0
X28.25 Y248.25 I-0.25 J0
G1 X28
G0 Z5
Y247.75
Z-6.5
G1 Z-8 F1000
X28.25
G3 X28.5 Y248 I0 J0.25
X27.5 Y248 I-0.5 J0
X28.5 Y248 I0.5 J0
X28.25 Y248.25 I-0.25 J0
G1 X28
G0 Z5
X38 Y247.75
Z-0.5
G1 Z-2 F1000
X38.25
G3 X38.5 Y248 I0 J0.25
X37.5 Y248 I-0.5 J0
X38.5 Y248 I0.5 J0
X38.25 Y248.25 I-0.25 J0
G1 X38
G0 Z5
Y247.75
Z-2.5
G1 Z-4 F1000
X38.25
G3 X38.5 Y248 I0 J0.25
X37.5 Y248 I-0.5 J0
X38.5 Y248 I0.5 J0
X38.25 Y248.25 I-0.25 J0
G1 X38
G0 Z5
Y247.75
Z-4.5
G1 Z-6 F1000
X38.25
G3 X38.5 Y248 I0 J0.25
X37.5 Y248 I-0.5 J0
X38.5 Y248 I0.5 J0
X38.25 Y248.25 I-0.25 J0
G1 X38
G0 Z5
Y247.75
Z-6.5
G1 Z-8 F1000
X38.25
G3 X38.5 Y248 I0 J0.25
X37.5 Y248 I-0.5 J0
X38.5 Y248 I0.5 J0
X38.25 Y248.25 I-0.25 J0
G1 X38
G0 Z5
X8 Y257.75
Z-0.5
G1 Z-2 F1000
X8.25
G3 X8.5 Y258 I0 J0.25
X7.5 Y258 I-0.5 J0
X8.5 Y258 I0.5 J0
X8.25 Y258.25 I-0.25 J0
G1 X8
G0 Z5
Y257.75
Z-2.5
G1 Z-4 F1000
X8.25
G3 X8.5 Y258 I0 J0.25
X7.5 Y258 I-0.5 J0
X8.5 Y258 I0.5 J0
X8.25 Y258.25 I-0.25 J0
G1 X8
G0 Z5
Y257.75
Z-4.5
G1 Z-6 F1000
X8.25
G3 X8.5 Y258 I0 J0.25
X7.5 Y258 I-0.5 J0
X8.5 Y258 I0.5 J0
X8.25 Y258.25 I-0.25 J0
G1 X8
G0 Z5
Y257.75
Z-6.5
G1 Z-8 F1000
X8.25
G3 X8.5 Y258 I0 J0.25
X7.5 Y258 I-0.5 J0
X8.5 Y258 I0.5 J0
X8.25 Y258.25 I-0.25 J0
G1 X8
G0 Z5
X18 Y257.75
Z-0.5
G1 Z-2 F1000
X18.25
G3 X18.5 Y258 I0 J0.25
X17.5 Y258 I-0.5 J0
X18.5 Y258 I0.5 J0
X18.25 Y258.25 I-0.25 J0
G1 X18
G0 Z5
Y257.75
Z-2.5
G1 Z-4 F1000
X18.25
G3 X18.5 Y258 I0 J0.25
X17.5 Y258 I-0.5 J0
X18.5 Y258 I0.5 J0
X18.25 Y258.25 I-0.25 J0
G1 X18
G0 Z5
Y257.75
Z-4.5
G1 Z-6 F1000
X18.25
G3 X18.5 Y258 I0 J0.25
X17.5 Y258 I-0.5 J0
X18.5 Y258 I0.5 J0
X18.25 Y258.25 I-0.25 J0
G1 X18
G0 Z5
Y257.75
Z-6.5
G1 Z-8 F1000
X18.25
G3 X18.5 Y258 I0 J0.25
X17.5 Y258 I-0.5 J0
X18.5 Y258 I0.5 J0
X18.25 Y258.25 I-0.25 J0
G1 X18
G0 Z5
X28 Y257.75
Z-0.5
G1 Z-2 F1000
X28.25
G3 X28.5 Y258 I0 J0.25
X27.5 Y258 I-0.5 J0
X28.5 Y258 I0.5 J0
X28.25 Y258.25 I-0.25 J0
G1 X28
G0 Z5
Y257.75
Z-2.5
G1 Z-4 F1000
X28.25
G3 X28.5 Y258 I0 J0.25
X27.5 Y258 I-0.5 J0
X28.5 Y258 I0.5 J0
X28.25 Y258.25 I-0.25 J0
G1 X28
G0 Z5
Y257.75
Z-4.5
G1 Z-6 F1000
X28.25
G3 X28.5 Y258 I0 J0.25
X27.5 Y258 I-0.5 J0
X28.5 Y258 I0.5 J0
X28.25 Y258.25 I-0.25 J0
G1 X28
G0 Z5
Y257.75
Z-6.5
G1 Z-8 F1000
X28.25
G3 X28.5 Y258 I0 J0.25
X27.5 Y258 I-0.5 J0
X28.5 Y258 I0.5 J0
X28.25 Y258.25 I-0.25 J0
G1 X28
G0 Z5
X38 Y257.75
Z-0.5
G1 Z-2 F1000
X38.25
G3 X38.5 Y258 I0 J0.25
X37.5 Y258 I-0.5 J0
X38.5 Y258 I0.5 J0
X38.25 Y258.25 I-0.25 J0
G1 X38
G0 Z5
Y257.75
Z-2.5
G1 Z-4 F1000
X38.25
G3 X38.5 Y258 I0 J0.25
X37.5 Y258 I-0.5 J0
X38.5 Y258 I0.5 J0
X38.25 Y258.25 I-0.25 J0
G1 X38
G0 Z5
Y257.75
Z-4.5
G1 Z-6 F1000
X38.25
G3 X38.5 Y258 I0 J0.25
X37.5 Y258 I-0.5 J0
X38.5 Y258 I0.5 J0
X38.25 Y258.25 I-0.25 J0
G1 X38
G0 Z5
Y257.75
Z-6.5
G1 Z-8 F1000
X38.25
G3 X38.5 Y258 I0 J0.25
X37.5 Y258 I-0.5 J0
X38.5 Y258 I0.5 J0
X38.25 Y258.25 I-0.25 J0
G1 X38
G0 Z5
Y267.75
Z-0.5
G1 Z-2 F1000
X38.25
G3 X38.5 Y268 I0 J0.25
X37.5 Y268 I-0.5 J0
X38.5 Y268 I0.5 J0
X38.25 Y268.25 I-0.25 J0
G1 X38
G0 Z5
Y267.75
Z-2.5
G1 Z-4 F1000
X38.25
G3 X38.5 Y268 I0 J0.25
X37.5 Y268 I-0.5 J0
X38.5 Y268 I0.5 J0
X38.25 Y268.25 I-0.25 J0
G1 X38
G0 Z5
Y267.75
Z-4.5
G1 Z-6 F1000
X38.25
G3 X38.5 Y268 I0 J0.25
X37.5 Y268 I-0.5 J0
X38.5 Y268 I0.5 J0
X38.25 Y268.25 I-0.25 J0
G1 X38
G0 Z5
Y267.75
Z-6.5
G1 Z-8 F1000
X38.25
G3 X38.5 Y268 I0 J0.25
X37.5 Y268 I-0.5 J0
X38.5 Y268 I0.5 J0
X38.25 Y268.25 I-0.25 J0
G1 X38
G0 Z5
X28 Y267.75
Z-0.5
G1 Z-2 F1000
X28.25
G3 X28.5 Y268 I0 J0.25
X27.5 Y268 I-0.5 J0
X28.5 Y268 I0.5 J0
X28.25 Y268.25 I-0.25 J0
G1 X28
G0 Z5
Y267.75
Z-2.5
G1 Z-4 F1000
X28.25
G3 X28.5 Y268 I0 J0.25
X27.5 Y268 I-0.5 J0
X28.5 Y268 I0.5 J0
X28.25 Y268.25 I-0.25 J0
G1 X28
G0 Z5
Y267.75
Z-4.5
G1 Z-6 F1000
X28.25
G3 X28.5 Y268 I0 J0.25
X27.5 Y268 I-0.5 J0
X28.5 Y268 I0.5 J0
X28.25 Y268.25 I-0.25 J0
G1 X28
G0 Z5
Y267.75
Z-6.5
G1 Z-8 F1000
X28.25
G3 X28.5 Y268 I0 J0.25
X27.5 Y268 I-0.5 J0
X28.5 Y268 I0.5 J0
X28.25 Y268.25 I-0.25 J0
G1 X28
G0 Z5
X18 Y267.75
Z-0.5
G1 Z-2 F1000
X18.25
G3 X18.5 Y268 I0 J0.25
X17.5 Y268 I-0.5 J0
X18.5 Y268 I0.5 J0
X18.25 Y268.25 I-0.25 J0
G1 X18
G0 Z5
Y267.75
Z-2.5
G1 Z-4 F1000
X18.25
G3 X18.5 Y268 I0 J0.25
X17.5 Y268 I-0.5 J0
X18.5 Y268 I0.5 J0
X18.25 Y268.25 I-0.25 J0
G1 X18
G0 Z5
Y267.75
Z-4.5
G1 Z-6 F1000
X18.25
G3 X18.5 Y268 I0 J0.25
X17.5 Y268 I-0.5 J0
X18.5 Y268 I0.5 J0
X18.25 Y268.25 I-0.25 J0
G1 X18
G0 Z5
Y267.75
Z-6.5
G1 Z-8 F1000
X18.25
G3 X18.5 Y268 I0 J0.25
X17.5 Y268 I-0.5 J0
X18.5 Y268 I0.5 J0
X18.25 Y268.25 I-0.25 J0
G1 X18
G0 Z5
X8 Y267.75
Z-0.5
G1 Z-2 F1000
X8.25
G3 X8.5 Y268 I0 J0.25
X7.5 Y268 I-0.5 J0
X8.5 Y268 I0.5 J0
X8.25 Y268.25 I-0.25 J0
G1 X8
G0 Z5
Y267.75
Z-2.5
G1 Z-4 F1000
X8.25
G3 X8.5 Y268 I0 J0.25
X7.5 Y268 I-0.5 J0
X8.5 Y268 I0.5 J0
X8.25 Y268.25 I-0.25 J0
G1 X8
G0 Z5
Y267.75
Z-4.5
G1 Z-6 F1000
X8.25
G3 X8.5 Y268 I0 J0.25
X7.5 Y268 I-0.5 J0
X8.5 Y268 I0.5 J0
X8.25 Y268.25 I-0.25 J0
G1 X8
G0 Z5
Y267.75
Z-6.5
G1 Z-8 F1000
X8.25
G3 X8.5 Y268 I0 J0.25
X7.5 Y268 I-0.5 J0
X8.5 Y268 I0.5 J0
X8.25 Y268.25 I-0.25 J0
G1 X8
G0 Z5
Y277.75
Z-0.5
G1 Z-2 F1000
X8.25
G3 X8.5 Y278 I0 J0.25
X7.5 Y278 I-0.5 J0
X8.5 Y278 I0.5 J0
X8.25 Y278.25 I-0.25 J0
G1 X8
G0 Z5
Y277.75
Z-2.5
G1 Z-4 F1000
X8.25
G3 X8.5 Y278 I0 J0.25
X7.5 Y278 I-0.5 J0
X8.5 Y278 I0.5 J0
X8.25 Y278.25 I-0.25 J0
G1 X8
G0 Z5
Y277.75
Z-4.5
G1 Z-6 F1000
X8.25
G3 X8.5 Y278 I0 J0.25
X7.5 Y278 I-0.5 J0
X8.5 Y278 I0.5 J0
X8.25 Y278.25 I-0.25 J0
G1 X8
G0 Z5
Y277.75
Z-6.5
G1 Z-8 F1000
X8.25
G3 X8.5 Y278 I0 J0.25
X7.5 Y278 I-0.5 J0
X8.5 Y278 I0.5 J0
X8.25 Y278.25 I-0.25 J0
G1 X8
G0 Z5
X18 Y277.75
Z-0.5
G1 Z-2 F1000
X18.25
G3 X18.5 Y278 I0 J0.25
X17.5 Y278 I-0.5 J0
X18.5 Y278 I0.5 J0
X18.25 Y278.25 I-0.25 J0
G1 X18
G0 Z5
Y277.75
Z-2.5
G1 Z-4 F1000
X18.25
G3 X18.5 Y278 I0 J0.25
X17.5 Y278 I-0.5 J0
X18.5 Y278 I0.5 J0
X18.25 Y278.25 I-0.25 J0
G1 X18
G0 Z5
Y277.75
Z-4.5
G1 Z-6 F1000
X18.25
G3 X18.5 Y278 I0 J0.25
X17.5 Y278 I-0.5 J0
X18.5 Y278 I0.5 J0
X18.25 Y278.25 I-0.25 J0
G1 X18
G0 Z5
Y277.75
Z-6.5
G1 Z-8 F1000
X18.25
G3 X18.5 Y278 I0 J0.25
X17.5 Y278 I-0.5 J0
X18.5 Y278 I0.5 J0
X18.25 Y278.25 I-0.25 J0
G1 X18
G0 Z5
X28 Y277.75
Z-0.5
G1 Z-2 F1000
X28.25
G3 X28.5 Y278 I0 J0.25
X27.5 Y278 I-0.5 J0
X28.5 Y278 I0.5 J0
X28.25 Y278.25 I-0.25 J0
G1 X28
G0 Z5
Y277.75
Z-2.5
G1 Z-4 F1000
X28.25
G3 X28.5 Y278 I0 J0.25
X27.5 Y278 I-0.5 J0
X28.5 Y278 I0.5 J0
X28.25 Y278.25 I-0.25 J0
G1 X28
G0 Z5
Y277.75
Z-4.5
G1 Z-6 F1000
X28.25
G3 X28.5 Y278 I0 J0.25
X27.5 Y278 I-0.5 J0
X28.5 Y278 I0.5 J0
X28.25 Y278.25 I-0.25 J0
G1 X28
G0 Z5
Y277.75
Z-6.5
G1 Z-8 F1000
X28.25
G3 X28.5 Y278 I0 J0.25
X27.5 Y278 I-0.5 J0
X28.5 Y278 I0.5 J0
X28.25 Y278.25 I-0.25 J0
G1 X28
G0 Z5
X38 Y277.75
Z-0.5
G1 Z-2 F1000
X38.25
G3 X38.5 Y278 I0 J0.25
X37.5 Y278 I-0.5 J0
X38.5 Y278 I0.5 J0
X38.25 Y278.25 I-0.25 J0
G1 X38
G0 Z5
Y277.75
Z-2.5
G1 Z-4 F1000
X38.25
G3 X38.5 Y278 I0 J0.25
X37.5 Y278 I-0.5 J0
X38.5 Y278 I0.5 J0
X38.25 Y278.25 I-0.25 J0
G1 X38
G0 Z5
Y277.75
Z-4.5
G1 Z-6 F1000
X38.25
G3 X38.5 Y278 I0 J0.25
X37.5 Y278 I-0.5 J0
X38.5 Y278 I0.5 J0
X38.25 Y278.25 I-0.25 J0
G1 X38
G0 Z5
Y277.75
Z-6.5
G1 Z-8 F1000
X38.25
G3 X38.5 Y278 I0 J0.25
X37.5 Y278 I-0.5 J0
X38.5 Y278 I0.5 J0
X38.25 Y278.25 I-0.25 J0
G1 X38
G0 Z5
Y287.75
Z-0.5
G1 Z-2 F1000
X38.25
G3 X38.5 Y288 I0 J0.25
X37.5 Y288 I-0.5 J0
X38.5 Y288 I0.5 J0
X38.25 Y288.25 I-0.25 J0
G1 X38
G0 Z5
Y287.75
Z-2.5
G1 Z-4 F1000
X38.25
G3 X38.5 Y288 I0 J0.25
X37.5 Y288 I-0.5 J0
X38.5 Y288 I0.5 J0
X38.25 Y288.25 I-0.25 J0
G1 X38
G0 Z5
Y287.75
Z-4.5
G1 Z-6 F1000
X38.25
G3 X38.5 Y288 I0 J0.25
X37.5 Y288 I-0.5 J0
X38.5 Y288 I0.5 J0
X38.25 Y288.25 I-0.25 J0
G1 X38
G0 Z5
Y287.75
Z-6.5
G1 Z-8 F1000
X38.25
G3 X38.5 Y288 I0 J0.25
X37.5 Y288 I-0.5 J0
X38.5 Y288 I0.5 J0
X38.25 Y288.25 I-0.25 J0
G1 X38
G0 Z5
X28 Y287.75
Z-0.5
G1 Z-2 F1000
X28.25
G3 X28.5 Y288 I0 J0.25
X27.5 Y288 I-0.5 J0
X28.5 Y288 I0.5 J0
X28.25 Y288.25 I-0.25 J0
G1 X28
G0 Z5
Y287.75
Z-2.5
G1 Z-4 F1000
X28.25
G3 X28.5 Y288 I0 J0.25
X27.5 Y288 I-0.5 J0
X28.5 Y288 I0.5 J0
X28.25 Y288.25 I-0.25 J0
G1 X28
G0 Z5
Y287.75
Z-4.5
G1 Z-6 F1000
X28.25
G3 X28.5 Y288 I0 J0.25
X27.5 Y288 I-0.5 J0
X28.5 Y288 I0.5 J0
X28.25 Y288.25 I-0.25 J0
G1 X28
G0 Z5
Y287.75
Z-6.5
G1 Z-8 F1000
X28.25
G3 X28.5 Y288 I0 J0.25
X27.5 Y288 I-0.5 J0
X28.5 Y288 I0.5 J0
X28.25 Y288.25 I-0.25 J0
G1 X28
G0 Z5
X18 Y287.75
Z-0.5
G1 Z-2 F1000
X18.25
G3 X18.5 Y288 I0 J0.25
X17.5 Y288 I-0.5 J0
X18.5 Y288 I0.5 J0
X18.25 Y288.25 I-0.25 J0
G1 X18
G0 Z5
Y287.75
Z-2.5
G1 Z-4 F1000
X18.25
G3 X18.5 Y288 I0 J0.25
X17.5 Y288 I-0.5 J0
X18.5 Y288 I0.5 J0
X18.25 Y288.25 I-0.25 J0
G1 X18
G0 Z5
Y287.75
Z-4.5
G1 Z-6 F1000
X18.25
G3 X18.5 Y288 I0 J0.25
X17.5 Y288 I-0.5 J0
X18.5 Y288 I0.5 J0
X18.25 Y288.25 I-0.25 J0
G1 X18
G0 Z5
Y287.75
Z-6.5
G1 Z-8 F1000
X18.25
G3 X18.5 Y288 I0 J0.25
X17.5 Y288 I-0.5 J0
X18.5 Y288 I0.5 J0
X18.25 Y288.25 I-0.25 J0
G1 X18
G0 Z5
X8 Y287.75
Z-0.5
G1 Z-2 F1000
X8.25
G3 X8.5 Y288 I0 J0.25
X7.5 Y288 I-0.5 J0
X8.5 Y288 I0.5 J0
X8.25 Y288.25 I-0.25 J0
G1 X8
G0 Z5
Y287.75
Z-2.5
G1 Z-4 F1000
X8.25
G3 X8.5 Y288 I0 J0.25
X7.5 Y288 I-0.5 J0
X8.5 Y288 I0.5 J0
X8.25 Y288.25 I-0.25 J0
G1 X8
G0 Z5
Y287.75
Z-4.5
G1 Z-6 F1000
X8.25
G3 X8.5 Y288 I0 J0.25
X7.5 Y288 I-0.5 J0
X8.5 Y288 I0.5 J0
X8.25 Y288.25 I-0.25 J0
G1 X8
G0 Z5
Y287.75
Z-6.5
G1 Z-8 F1000
X8.25
G3 X8.5 Y288 I0 J0.25
X7.5 Y288 I-0.5 J0
X8.5 Y288 I0.5 J0
X8.25 Y288.25 I-0.25 J0
G1 X8
G0 Z5
Y297.75
Z-0.5
G1 Z-2 F1000
X8.25
G3 X8.5 Y298 I0 J0.25
X7.5 Y298 I-0.5 J0
X8.5 Y298 I0.5 J0
X8.25 Y298.25 I-0.25 J0
G1 X8
G0 Z5
Y297.75
Z-2.5
G1 Z-4 F1000
X8.25
G3 X8.5 Y298 I0 J0.25
X7.5 Y298 I-0.5 J0
X8.5 Y298 I0.5 J0
X8.25 Y298.25 I-0.25 J0
G1 X8
G0 Z5
Y297.75
Z-4.5
G1 Z-6 F1000
X8.25
G3 X8.5 Y298 I0 J0.25
X7.5 Y298 I-0.5 J0
X8.5 Y298 I0.5 J0
X8.25 Y298.25 I-0.25 J0
G1 X8
G0 Z5
Y297.75
Z-6.5
G1 Z-8 F1000
X8.25
G3 X8.5 Y298 I0 J0.25
X7.5 Y298 I-0.5 J0
X8.5 Y298 I0.5 J0
X8.25 Y298.25 I-0.25 J0
G1 X8
G0 Z5
X18 Y297.75
Z-0.5
G1 Z-2 F1000
X18.25
G3 X18.5 Y298 I0 J0.25
X17.5 Y298 I-0.5 J0
X18.5 Y298 I0.5 J0
X18.25 Y298.25 I-0.25 J0
G1 X18
G0 Z5
Y297.75
Z-2.5
G1 Z-4 F1000
X18.25
G3 X18.5 Y298 I0 J0.25
X17.5 Y298 I-0.5 J0
X18.5 Y298 I0.5 J0
X18.25 Y298.25 I-0.25 J0
G1 X18
G0 Z5
Y297.75
Z-4.5
G1 Z-6 F1000
X18.25
G3 X18.5 Y298 I0 J0.25
X17.5 Y298 I-0.5 J0
X18.5 Y298 I0.5 J0
X18.25 Y298.25 I-0.25 J0
G1 X18
G0 Z5
Y297.75
Z-6.5
G1 Z-8 F1000
X18.25
G3 X18.5 Y298 I0 J0.25
X17.5 Y298 I-0.5 J0
X18.5 Y298 I0.5 J0
X18.25 Y298.25 I-0.25 J0
G1 X18
G0 Z5
X28 Y297.75
Z-0.5
G1 Z-2 F1000
X28.25
G3 X28.5 Y298 I0 J0.25
X27.5 Y298 I-0.5 J0
X28.5 Y298 I0.5 J0
X28.25 Y298.25 I-0.25 J0
G1 X28
G0 Z5
Y297.75
Z-2.5
G1 Z-4 F1000
X28.25
G3 X28.5 Y298 I0 J0.25
X27.5 Y298 I-0.5 J0
X28.5 Y298 I0.5 J0
X28.25 Y298.25 I-0.25 J0
G1 X28
G0 Z5
Y297.75
Z-4.5
G1 Z-6 F1000
X28.25
G3 X28.5 Y298 I0 J0.25
X27.5 Y298 I-0.5 J0
X28.5 Y298 I0.5 J0
X28.25 Y298.25 I-0.25 J0
G1 X28
G0 Z5
Y297.75
Z-6.5
G1 Z-8 F1000
X28.25
G3 X28.5 Y298 I0 J0.25
X27.5 Y298 I-0.5 J0
X28.5 Y298 I0.5 J0
X28.25 Y298.25 I-0.25 J0
G1 X28
G0 Z5
X38 Y297.75
Z-0.5
G1 Z-2 F1000
X38.25
G3 X38.5 Y298 I0 J0.25
X37.5 Y298 I-0.5 J0
X38.5 Y298 I0.5 J0
X38.25 Y298.25 I-0.25 J0
G1 X38
G0 Z5
Y297.75
Z-2.5
G1 Z-4 F1000
X38.25
G3 X38.5 Y298 I0 J0.25
X37.5 Y298 I-0.5 J0
X38.5 Y298 I0.5 J0
X38.25 Y298.25 I-0.25 J0
G1 X38
G0 Z5
Y297.75
Z-4.5
G1 Z-6 F1000
X38.25
G3 X38.5 Y298 I0 J0.25
X37.5 Y298 I-0.5 J0
X38.5 Y298 I0.5 J0
X38.25 Y298.25 I-0.25 J0
G1 X38
G0 Z5
Y297.75
Z-6.5
G1 Z-8 F1000
X38.25
G3 X38.5 Y298 I0 J0.25
X37.5 Y298 I-0.5 J0
X38.5 Y298 I0.5 J0
X38.25 Y298.25 I-0.25 J0
G1 X38
G0 Z5
X8 Y307.75
Z-0.5
G1 Z-2 F1000
X8.25
G3 X8.5 Y308 I0 J0.25
X7.5 Y308 I-0.5 J0
X8.5 Y308 I0.5 J0
X8.25 Y308.25 I-0.25 J0
G1 X8
G0 Z5
Y307.75
Z-2.5
G1 Z-4 F1000
X8.25
G3 X8.5 Y308 I0 J0.25
X7.5 Y308 I-0.5 J0
X8.5 Y308 I0.5 J0
X8.25 Y308.25 I-0.25 J0
G1 X8
G0 Z5
Y307.75
Z-4.5
G1 Z-6 F1000
X8.25
G3 X8.5 Y308 I0 J0.25
X7.5 Y308 I-0.5 J0
X8.5 Y308 I0.5 J0
X8.25 Y308.25 I-0.25 J0
G1 X8
G0 Z5
Y307.75
Z-6.5
G1 Z-8 F1000
X8.25
G3 X8.5 Y308 I0 J0.25
X7.5 Y308 I-0.5 J0
X8.5 Y308 I0.5 J0
X8.25 Y308.25 I-0.25 J0
G1 X8
G0 Z5
X18 Y307.75
Z-0.5
G1 Z-2 F1000
X18.25
G3 X18.5 Y308 I0 J0.25
X17.5 Y308 I-0.5 J0
X18.5 Y308 I0.5 J0
X18.25 Y308.25 I-0.25 J0
G1 X18
G0 Z5
Y307.75
Z-2.5
G1 Z-4 F1000
X18.25
G3 X18.5 Y308 I0 J0.25
X17.5 Y308 I-0.5 J0
X18.5 Y308 I0.5 J0
X18.25 Y308.25 I-0.25 J0
G1 X18
G0 Z5
Y307.75
Z-4.5
G1 Z-6 F1000
X18.25
G3 X18.5 Y308 I0 J0.25
X17.5 Y308 I-0.5 J0
X18.5 Y308 I0.5 J0
X18.25 Y308.25 I-0.25 J0
G1 X18
G0 Z5
Y307.75
Z-6.5
G1 Z-8 F1000
X18.25
G3 X18.5 Y308 I0 J0.25
X17.5 Y308 I-0.5 J0
X18.5 Y308 I0.5 J0
X18.25 Y308.25 I-0.25 J0
G1 X18
G0 Z5
X28 Y307.75
Z-0.5
G1 Z-2 F1000
X28.25
G3 X28.5 Y308 I0 J0.25
X27.5 Y308 I-0.5 J0
X28.5 Y308 I0.5 J0
X28.25 Y308.25 I-0.25 J0
G1 X28
G0 Z5
Y307.75
Z-2.5
G1 Z-4 F1000
X28.25
G3 X28.5 Y308 I0 J0.25
X27.5 Y308 I-0.5 J0
X28.5 Y308 I0.5 J0
X28.25 Y308.25 I-0.25 J0
G1 X28
G0 Z5
Y307.75
Z-4.5
G1 Z-6 F1000
X28.25
G3 X28.5 Y308 I0 J0.25
X27.5 Y308 I-0.5 J0
X28.5 Y308 I0.5 J0
X28.25 Y308.25 I-0.25 J0
G1 X28
G0 Z5
Y307.75
Z-6.5
G1 Z-8 F1000
X28.25
G3 X28.5 Y308 I0 J0.25
X27.5 Y308 I-0.5 J0
X28.5 Y308 I0.5 J0
X28.25 Y308.25 I-0.25 J0
G1 X28
G0 Z5
X38 Y307.75
Z-0.5
G1 Z-2 F1000
X38.25
G3 X38.5 Y308 I0 J0.25
X37.5 Y308 I-0.5 J0
X38.5 Y308 I0.5 J0
X38.25 Y308.25 I-0.25 J0
G1 X38
G0 Z5
Y307.75
Z-2.5
G1 Z-4 F1000
X38.25
G3 X38.5 Y308 I0 J0.25
X37.5 Y308 I-0.5 J0
X38.5 Y308 I0.5 J0
X38.25 Y308.25 I-0.25 J0
G1 X38
G0 Z5
Y307.75
Z-4.5
G1 Z-6 F1000
X38.25
G3 X38.5 Y308 I0 J0.25
X37.5 Y308 I-0.5 J0
X38.5 Y308 I0.5 J0
X38.25 Y308.25 I-0.25 J0
G1 X38
G0 Z5
Y307.75
Z-6.5
G1 Z-8 F1000
X38.25
G3 X38.5 Y308 I0 J0.25
X37.5 Y308 I-0.5 J0
X38.5 Y308 I0.5 J0
X38.25 Y308.25 I-0.25 J0
G1 X38
G0 Z5
Y317.75
Z-0.5
G1 Z-2 F1000
X38.25
G3 X38.5 Y318 I0 J0.25
X37.5 Y318 I-0.5 J0
X38.5 Y318 I0.5 J0
X38.25 Y318.25 I-0.25 J0
G1 X38
G0 Z5
Y317.75
Z-2.5
G1 Z-4 F1000
X38.25
G3 X38.5 Y318 I0 J0.25
X37.5 Y318 I-0.5 J0
X38.5 Y318 I0.5 J0
X38.25 Y318.25 I-0.25 J0
G1 X38
G0 Z5
Y317.75
Z-4.5
G1 Z-6 F1000
X38.25
G3 X38.5 Y318 I0 J0.25
X37.5 Y318 I-0.5 J0
X38.5 Y318 I0.5 J0
X38.25 Y318.25 I-0.25 J0
G1 X38
G0 Z5
Y317.75
Z-6.5
G1 Z-8 F1000
X38.25
G3 X38.5 Y318 I0 J0.25
X37.5 Y318 I-0.5 J0
X38.5 Y318 I0.5 J0
X38.25 Y318.25 I-0.25 J0
G1 X38
G0 Z5
X28 Y317.75
Z-0.5
G1 Z-2 F1000
X28.25
G3 X28.5 Y318 I0 J0.25
X27.5 Y318 I-0.5 J0
X28.5 Y318 I0.5 J0
X28.25 Y318.25 I-0.25 J0
G1 X28
G0 Z5
Y317.75
Z-2.5
G1 Z-4 F1000
X28.25
G3 X28.5 Y318 I0 J0.25
X27.5 Y318 I-0.5 J0
X28.5 Y318 I0.5 J0
X28.25 Y318.25 I-0.25 J0
G1 X28
G0 Z5
Y317.75
Z-4.5
G1 Z-6 F1000
X28.25
G3 X28.5 Y318 I0 J0.25
X27.5 Y318 I-0.5 J0
X28.5 Y318 I0.5 J0
X28.25 Y318.25 I-0.25 J0
G1 X28
G0 Z5
Y317.75
Z-6.5
G1 Z-8 F1000
X28.25
G3 X28.5 Y318 I0 J0.25
X27.5 Y318 I-0.5 J0
X28.5 Y318 I0.5 J0
X28.25 Y318.25 I-0.25 J0
G1 X28
G0 Z5
X18 Y317.75
Z-0.5
G1 Z-2 F1000
X18.25
G3 X18.5 Y318 I0 J0.25
X17.5 Y318 I-0.5 J0
X18.5 Y318 I0.5 J0
X18.25 Y318.25 I-0.25 J0
G1 X18
G0 Z5
Y317.75
Z-2.5
G1 Z-4 F1000
X18.25
G3 X18.5 Y318 I0 J0.25
X17.5 Y318 I-0.5 J0
X18.5 Y318 I0.5 J0
X18.25 Y318.25 I-0.25 J0
G1 X18
G0 Z5
Y317.75
Z-4.5
G1 Z-6 F1000
X18.25
G3 X18.5 Y318 I0 J0.25
X17.5 Y318 I-0.5 J0
X18.5 Y318 I0.5 J0
X18.25 Y318.25 I-0.25 J0
G1 X18
G0 Z5
Y317.75
Z-6.5
G1 Z-8 F1000
X18.25
G3 X18.5 Y318 I0 J0.25
X17.5 Y318 I-0.5 J0
X18.5 Y318 I0.5 J0
X18.25 Y318.25 I-0.25 J0
G1 X18
G0 Z5
X8 Y317.75
Z-0.5
G1 Z-2 F1000
X8.25
G3 X8.5 Y318 I0 J0.25
X7.5 Y318 I-0.5 J0
X8.5 Y318 I0.5 J0
X8.25 Y318.25 I-0.25 J0
G1 X8
G0 Z5
Y317.75
Z-2.5
G1 Z-4 F1000
X8.25
G3 X8.5 Y318 I0 J0.25
X7.5 Y318 I-0.5 J0
X8.5 Y318 I0.5 J0
X8.25 Y318.25 I-0.25 J0
G1 X8
G0 Z5
Y317.75
Z-4.5
G1 Z-6 F1000
X8.25
G3 X8.5 Y318 I0 J0.25
X7.5 Y318 I-0.5 J0
X8.5 Y318 I0.5 J0
X8.25 Y318.25 I-0.25 J0
G1 X8
G0 Z5
Y317.75
Z-6.5
G1 Z-8 F1000
X8.25
G3 X8.5 Y318 I0 J0.25
X7.5 Y318 I-0.5 J0
X8.5 Y318 I0.5 J0
X8.25 Y318.25 I-0.25 J0
G1 X8
G0 Z5
Y327.75
Z-0.5
G1 Z-2 F1000
X8.25
G3 X8.5 Y328 I0 J0.25
X7.5 Y328 I-0.5 J0
X8.5 Y328 I0.5 J0
X8.25 Y328.25 I-0.25 J0
G1 X8
G0 Z5
Y327.75
Z-2.5
G1 Z-4 F1000
X8.25
G3 X8.5 Y328 I0 J0.25
X7.5 Y328 I-0.5 J0
X8.5 Y328 I0.5 J0
X8.25 Y328.25 I-0.25 J0
G1 X8
G0 Z5
Y327.75
Z-4.5
G1 Z-6 F1000
X8.25
G3 X8.5 Y328 I0 J0.25
X7.5 Y328 I-0.5 J0
X8.5 Y328 I0.5 J0
X8.25 Y328.25 I-0.25 J0
G1 X8
G0 Z5
Y327.75
Z-6.5
G1 Z-8 F1000
X8.25
G3 X8.5 Y328 I0 J0.25
X7.5 Y328 I-0.5 J0
X8.5 Y328 I0.5 J0
X8.25 Y328.25 I-0.25 J0
G1 X8
G0 Z5
X18 Y327.75
Z-0.5
G1 Z-2 F1000
X18.25
G3 X18.5 Y328 I0 J0.25
X17.5 Y328 I-0.5 J0
X18.5 Y328 I0.5 J0
X18.25 Y328.25 I-0.25 J0
G1 X18
G0 Z5
Y327.75
Z-2.5
G1 Z-4 F1000
X18.25
G3 X18.5 Y328 I0 J0.25
X17.5 Y328 I-0.5 J0
X18.5 Y328 I0.5 J0
X18.25 Y328.25 I-0.25 J0
G1 X18
G0 Z5
Y327.75
Z-4.5
G1 Z-6 F1000
X18.25
G3 X18.5 Y328 I0 J0.25
X17.5 Y328 I-0.5 J0
X18.5 Y328 I0.5 J0
X18.25 Y328.25 I-0.25 J0
G1 X18
G0 Z5
Y327.75
Z-6.5
G1 Z-8 F1000
X18.25
G3 X18.5 Y328 I0 J0.25
X17.5 Y328 I-0.5 J0
X18.5 Y328 I0.5 J0
X18.25 Y328.25 I-0.25 J0
G1 X18
G0 Z5
X28 Y327.75
Z-0.5
G1 Z-2 F1000
X28.25
G3 X28.5 Y328 I0 J0.25
X27.5 Y328 I-0.5 J0
X28.5 Y328 I0.5 J0
X28.25 Y328.25 I-0.25 J0
G1 X28
G0 Z5
Y327.75
Z-2.5
G1 Z-4 F1000
X28.25
G3 X28.5 Y328 I0 J0.25
X27.5 Y328 I-0.5 J0
X28.5 Y328 I0.5 J0
X28.25 Y328.25 I-0.25 J0
G1 X28
G0 Z5
Y327.75
Z-4.5
G1 Z-6 F1000
X28.25
G3 X28.5 Y328 I0 J0.25
X27.5 Y328 I-0.5 J0
X28.5 Y328 I0.5 J0
X28.25 Y328.25 I-0.25 J0
G1 X28
G0 Z5
Y327.75
Z-6.5
G1 Z-8 F1000
X28.25
G3 X28.5 Y328 I0 J0.25
X27.5 Y328 I-0.5 J0
X28.5 Y328 I0.5 J0
X28.25 Y328.25 I-0.25 J0
G1 X28
G0 Z5
X38 Y327.75
Z-0.5
G1 Z-2 F1000
X38.25
G3 X38.5 Y328 I0 J0.25
X37.5 Y328 I-0.5 J0
X38.5 Y328 I0.5 J0
X38.25 Y328.25 I-0.25 J0
G1 X38
G0 Z5
Y327.75
Z-2.5
G1 Z-4 F1000
X38.25
G3 X38.5 Y328 I0 J0.25
X37.5 Y328 I-0.5 J0
X38.5 Y328 I0.5 J0
X38.25 Y328.25 I-0.25 J0
G1 X38
G0 Z5
Y327.75
Z-4.5
G1 Z-6 F1000
X38.25
G3 X38.5 Y328 I0 J0.25
X37.5 Y328 I-0.5 J0
X38.5 Y328 I0.5 J0
X38.25 Y328.25 I-0.25 J0
G1 X38
G0 Z5
Y327.75
Z-6.5
G1 Z-8 F1000
X38.25
G3 X38.5 Y328 I0 J0.25
X37.5 Y328 I-0.5 J0
X38.5 Y328 I0.5 J0
X38.25 Y328.25 I-0.25 J0
G1 X38
G0 Z5
X8 Y337.75
Z-0.5
G1 Z-2 F1000
X8.25
G3 X8.5 Y338 I0 J0.25
X7.5 Y338 I-0.5 J0
X8.5 Y338 I0.5 J0
X8.25 Y338.25 I-0.25 J0
G1 X8
G0 Z5
Y337.75
Z-2.5
G1 Z-4 F1000
X8.25
G3 X8.5 Y338 I0 J0.25
X7.5 Y338 I-0.5 J0
X8.5 Y338 I0.5 J0
X8.25 Y338.25 I-0.25 J0
G1 X8
G0 Z5
Y337.75
Z-4.5
G1 Z-6 F1000
X8.25
G3 X8.5 Y338 I0 J0.25
X7.5 Y338 I-0.5 J0
X8.5 Y338 I0.5 J0
X8.25 Y338.25 I-0.25 J0
G1 X8
G0 Z5
Y337.75
Z-6.5
G1 Z-8 F1000
X8.25
G3 X8.5 Y338 I0 J0.25
X7.5 Y338 I-0.5 J0
X8.5 Y338 I0.5 J0
X8.25 Y338.25 I-0.25 J0
G1 X8
G0 Z5
X18 Y337.75
Z-0.5
G1 Z-2 F1000
X18.25
G3 X18.5 Y338 I0 J0.25
X17.5 Y338 I-0.5 J0
X18.5 Y338 I0.5 J0
X18.25 Y338.25 I-0.25 J0
G1 X18
G0 Z5
Y337.75
Z-2.5
G1 Z-4 F1000
X18.25
G3 X18.5 Y338 I0 J0.25
X17.5 Y338 I-0.5 J0
X18.5 Y338 I0.5 J0
X18.25 Y338.25 I-0.25 J0
G1 X18
G0 Z5
Y337.75
Z-4.5
G1 Z-6 F1000
X18.25
G3 X18.5 Y338 I0 J0.25
X17.5 Y338 I-0.5 J0
X18.5 Y338 I0.5 J0
X18.25 Y338.25 I-0.25 J0
G1 X18
G0 Z5
Y337.75
Z-6.5
G1 Z-8 F1000
X18.25
G3 X18.5 Y338 I0 J0.25
X17.5 Y338 I-0.5 J0
X18.5 Y338 I0.5 J0
X18.25 Y338.25 I-0.25 J0
G1 X18
G0 Z5
X28 Y337.75
Z-0.5
G1 Z-2 F1000
X28.25
G3 X28.5 Y338 I0 J0.25
X27.5 Y338 I-0.5 J0
X28.5 Y338 I0.5 J0
X28.25 Y338.25 I-0.25 J0
G1 X28
G0 Z5
Y337.75
Z-2.5
G1 Z-4 F1000
X28.25
G3 X28.5 Y338 I0 J0.25
X27.5 Y338 I-0.5 J0
X28.5 Y338 I0.5 J0
X28.25 Y338.25 I-0.25 J0
G1 X28
G0 Z5
Y337.75
Z-4.5
G1 Z-6 F1000
X28.25
G3 X28.5 Y338 I0 J0.25
X27.5 Y338 I-0.5 J0
X28.5 Y338 I0.5 J0
X28.25 Y338.25 I-0.25 J0
G1 X28
G0 Z5
Y337.75
Z-6.5
G1 Z-8 F1000
X28.25
G3 X28.5 Y338 I0 J0.25
X27.5 Y338 I-0.5 J0
X28.5 Y338 I0.5 J0
X28.25 Y338.25 I-0.25 J0
G1 X28
G0 Z5
X38 Y337.75
Z-0.5
G1 Z-2 F1000
X38.25
G3 X38.5 Y338 I0 J0.25
X37.5 Y338 I-0.5 J0
X38.5 Y338 I0.5 J0
X38.25 Y338.25 I-0.25 J0
G1 X38
G0 Z5
Y337.75
Z-2.5
G1 Z-4 F1000
X38.25
G3 X38.5 Y338 I0 J0.25
X37.5 Y338 I-0.5 J0
X38.5 Y338 I0.5 J0
X38.25 Y338.25 I-0.25 J0
G1 X38
G0 Z5
Y337.75
Z-4.5
G1 Z-6 F1000
X38.25
G3 X38.5 Y338 I0 J0.25
X37.5 Y338 I-0.5 J0
X38.5 Y338 I0.5 J0
X38.25 Y338.25 I-0.25 J0
G1 X38
G0 Z5
Y337.75
Z-6.5
G1 Z-8 F1000
X38.25
G3 X38.5 Y338 I0 J0.25
X37.5 Y338 I-0.5 J0
X38.5 Y338 I0.5 J0
X38.25 Y338.25 I-0.25 J0
G1 X38
G0 Z5
Y347.75
Z-0.5
G1 Z-2 F1000
X38.25
G3 X38.5 Y348 I0 J0.25
X37.5 Y348 I-0.5 J0
X38.5 Y348 I0.5 J0
X38.25 Y348.25 I-0.25 J0
G1 X38
G0 Z5
Y347.75
Z-2.5
G1 Z-4 F1000
X38.25
G3 X38.5 Y348 I0 J0.25
X37.5 Y348 I-0.5 J0
X38.5 Y348 I0.5 J0
X38.25 Y348.25 I-0.25 J0
G1 X38
G0 Z5
Y347.75
Z-4.5
G1 Z-6 F1000
X38.25
G3 X38.5 Y348 I0 J0.25
X37.5 Y348 I-0.5 J0
X38.5 Y348 I0.5 J0
X38.25 Y348.25 I-0.25 J0
G1 X38
G0 Z5
Y347.75
Z-6.5
G1 Z-8 F1000
X38.25
G3 X38.5 Y348 I0 J0.25
X37.5 Y348 I-0.5 J0
X38.5 Y348 I0.5 J0
X38.25 Y348.25 I-0.25 J0
G1 X38
G0 Z5
X28 Y347.75
Z-0.5
G1 Z-2 F1000
X28.25
G3 X28.5 Y348 I0 J0.25
X27.5 Y348 I-0.5 J0
X28.5 Y348 I0.5 J0
X28.25 Y348.25 I-0.25 J0
G1 X28
G0 Z5
Y347.75
Z-2.5
G1 Z-4 F1000
X28.25
G3 X28.5 Y348 I0 J0.25
X27.5 Y348 I-0.5 J0
X28.5 Y348 I0.5 J0
X28.25 Y348.25 I-0.25 J0
G1 X28
G0 Z5
Y347.75
Z-4.5
G1 Z-6 F1000
X28.25
G3 X28.5 Y348 I0 J0.25
X27.5 Y348 I-0.5 J0
X28.5 Y348 I0.5 J0
X28.25 Y348.25 I-0.25 J0
G1 X28
G0 Z5
Y347.75
Z-6.5
G1 Z-8 F1000
X28.25
G3 X28.5 Y348 I0 J0.25
X27.5 Y348 I-0.5 J0
X28.5 Y348 I0.5 J0
X28.25 Y348.25 I-0.25 J0
G1 X28
G0 Z5
X18 Y347.75
Z-0.5
G1 Z-2 F1000
X18.25
G3 X18.5 Y348 I0 J0.25
X17.5 Y348 I-0.5 J0
X18.5 Y348 I0.5 J0
X18.25 Y348.25 I-0.25 J0
G1 X18
G0 Z5
Y347.75
Z-2.5
G1 Z-4 F1000
X18.25
G3 X18.5 Y348 I0 J0.25
X17.5 Y348 I-0.5 J0
X18.5 Y348 I0.5 J0
X18.25 Y348.25 I-0.25 J0
G1 X18
G0 Z5
Y347.75
Z-4.5
G1 Z-6 F1000
X18.25
G3 X18.5 Y348 I0 J0.25
X17.5 Y348 I-0.5 J0
X18.5 Y348 I0.5 J0
X18.25 Y348.25 I-0.25 J0
G1 X18
G0 Z5
Y347.75
Z-6.5
G1 Z-8 F1000
X18.25
G3 X18.5 Y348 I0 J0.25
X17.5 Y348 I-0.5 J0
X18.5 Y348 I0.5 J0
X18.25 Y348.25 I-0.25 J0
G1 X18
G0 Z5
X8 Y347.75
Z-0.5
G1 Z-2 F1000
X8.25
G3 X8.5 Y348 I0 J0.25
X7.5 Y348 I-0.5 J0
X8.5 Y348 I0.5 J0
X8.25 Y348.25 I-0.25 J0
G1 X8
G0 Z5
Y347.75
Z-2.5
G1 Z-4 F1000
X8.25
G3 X8.5 Y348 I0 J0.25
X7.5 Y348 I-0.5 J0
X8.5 Y348 I0.5 J0
X8.25 Y348.25 I-0.25 J0
G1 X8
G0 Z5
Y347.75
Z-4.5
G1 Z-6 F1000
X8.25
G3 X8.5 Y348 I0 J0.25
X7.5 Y348 I-0.5 J0
X8.5 Y348 I0.5 J0
X8.25 Y348.25 I-0.25 J0
G1 X8
G0 Z5
Y347.75
Z-6.5
G1 Z-8 F1000
X8.25
G3 X8.5 Y348 I0 J0.25
X7.5 Y348 I-0.5 J0
X8.5 Y348 I0.5 J0
X8.25 Y348.25 I-0.25 J0
G1 X8
G0 Z5
Y357.75
Z-0.5
G1 Z-2 F1000
X8.25
G3 X8.5 Y358 I0 J0.25
X7.5 Y358 I-0.5 J0
X8.5 Y358 I0.5 J0
X8.25 Y358.25 I-0.25 J0
G1 X8
G0 Z5
Y357.75
Z-2.5
G1 Z-4 F1000
X8.25
G3 X8.5 Y358 I0 J0.25
X7.5 Y358 I-0.5 J0
X8.5 Y358 I0.5 J0
X8.25 Y358.25 I-0.25 J0
G1 X8
G0 Z5
Y357.75
Z-4.5
G1 Z-6 F1000
X8.25
G3 X8.5 Y358 I0 J0.25
X7.5 Y358 I-0.5 J0
X8.5 Y358 I0.5 J0
X8.25 Y358.25 I-0.25 J0
G1 X8
G0 Z5
Y357.75
Z-6.5
G1 Z-8 F1000
X8.25
G3 X8.5 Y358 I0 J0.25
X7.5 Y358 I-0.5 J0
X8.5 Y358 I0.5 J0
X8.25 Y358.25 I-0.25 J0
G1 X8
G0 Z5
X18 Y357.75
Z-0.5
G1 Z-2 F1000
X18.25
G3 X18.5 Y358 I0 J0.25
X17.5 Y358 I-0.5 J0
X18.5 Y358 I0.5 J0
X18.25 Y358.25 I-0.25 J0
G1 X18
G0 Z5
Y357.75
Z-2.5
G1 Z-4 F1000
X18.25
G3 X18.5 Y358 I0 J0.25
X17.5 Y358 I-0.5 J0
X18.5 Y358 I0.5 J0
X18.25 Y358.25 I-0.25 J0
G1 X18
G0 Z5
Y357.75
Z-4.5
G1 Z-6 F1000
X18.25
G3 X18.5 Y358 I0 J0.25
X17.5 Y358 I-0.5 J0
X18.5 Y358 I0.5 J0
X18.25 Y358.25 I-0.25 J0
G1 X18
G0 Z5
Y357.75
Z-6.5
G1 Z-8 F1000
X18.25
G3 X18.5 Y358 I0 J0.25
X17.5 Y358 I-0.5 J0
X18.5 Y358 I0.5 J0
X18.25 Y358.25 I-0.25 J0
G1 X18
G0 Z5
X28 Y357.75
Z-0.5
G1 Z-2 F1000
X28.25
G3 X28.5 Y358 I0 J0.25
X27.5 Y358 I-0.5 J0
X28.5 Y358 I0.5 J0
X28.25 Y358.25 I-0.25 J0
G1 X28
G0 Z5
Y357.75
Z-2.5
G1 Z-4 F1000
X28.25
G3 X28.5 Y358 I0 J0.25
X27.5 Y358 I-0.5 J0
X28.5 Y358 I0.5 J0
X28.25 Y358.25 I-0.25 J0
G1 X28
G0 Z5
Y357.75
Z-4.5
G1 Z-6 F1000
X28.25
G3 X28.5 Y358 I0 J0.25
X27.5 Y358 I-0.5 J0
X28.5 Y358 I0.5 J0
X28.25 Y358.25 I-0.25 J0
G1 X28
G0 Z5
Y357.75
Z-6.5
G1 Z-8 F1000
X28.25
G3 X28.5 Y358 I0 J0.25
X27.5 Y358 I-0.5 J0
X28.5 Y358 I0.5 J0
X28.25 Y358.25 I-0.25 J0
G1 X28
G0 Z5
X38 Y357.75
Z-0.5
G1 Z-2 F1000
X38.25
G3 X38.5 Y358 I0 J0.25
X37.5 Y358 I-0.5 J0
X38.5 Y358 I0.5 J0
X38.25 Y358.25 I-0.25 J0
G1 X38
G0 Z5
Y357.75
Z-2.5
G1 Z-4 F1000
X38.25
G3 X38.5 Y358 I0 J0.25
X37.5 Y358 I-0.5 J0
X38.5 Y358 I0.5 J0
X38.25 Y358.25 I-0.25 J0
G1 X38
G0 Z5
Y357.75
Z-4.5
G1 Z-6 F1000
X38.25
G3 X38.5 Y358 I0 J0.25
X37.5 Y358 I-0.5 J0
X38.5 Y358 I0.5 J0
X38.25 Y358.25 I-0.25 J0
G1 X38
G0 Z5
Y357.75
Z-6.5
G1 Z-8 F1000
X38.25
G3 X38.5 Y358 I0 J0.25
X37.5 Y358 I-0.5 J0
X38.5 Y358 I0.5 J0
X38.25 Y358.25 I-0.25 J0
G1 X38
G0 Z5
Y367.75
Z-0.5
G1 Z-2 F1000
X38.25
G3 X38.5 Y368 I0 J0.25
X37.5 Y368 I-0.5 J0
X38.5 Y368 I0.5 J0
X38.25 Y368.25 I-0.25 J0
G1 X38
G0 Z5
Y367.75
Z-2.5
G1 Z-4 F1000
X38.25
G3 X38.5 Y368 I0 J0.25
X37.5 Y368 I-0.5 J0
X38.5 Y368 I0.5 J0
X38.25 Y368.25 I-0.25 J0
G1 X38
G0 Z5
Y367.75
Z-4.5
G1 Z-6 F1000
X38.25
G3 X38.5 Y368 I0 J0.25
X37.5 Y368 I-0.5 J0
X38.5 Y368 I0.5 J0
X38.25 Y368.25 I-0.25 J0
G1 X38
G0 Z5
Y367.75
Z-6.5
G1 Z-8 F1000
X38.25
G3 X38.5 Y368 I0 J0.25
X37.5 Y368 I-0.5 J0
X38.5 Y368 I0.5 J0
X38.25 Y368.25 I-0.25 J0
G1 X38
G0 Z5
X28 Y367.75
Z-0.5
G1 Z-2 F1000
X28.25
G3 X28.5 Y368 I0 J0.25
X27.5 Y368 I-0.5 J0
X28.5 Y368 I0.5 J0
X28.25 Y368.25 I-0.25 J0
G1 X28
G0 Z5
Y367.75
Z-2.5
G1 Z-4 F1000
X28.25
G3 X28.5 Y368 I0 J0.25
X27.5 Y368 I-0.5 J0
X28.5 Y368 I0.5 J0
X28.25 Y368.25 I-0.25 J0
G1 X28
G0 Z5
Y367.75
Z-4.5
G1 Z-6 F1000
X28.25
G3 X28.5 Y368 I0 J0.25
X27.5 Y368 I-0.5 J0
X28.5 Y368 I0.5 J0
X28.25 Y368.25 I-0.25 J0
G1 X28
G0 Z5
Y367.75
Z-6.5
G1 Z-8 F1000
X28.25
G3 X28.5 Y368 I0 J0.25
X27.5 Y368 I-0.5 J0
X28.5 Y368 I0.5 J0
X28.25 Y368.25 I-0.25 J0
G1 X28
G0 Z5
X18 Y367.75
Z-0.5
G1 Z-2 F1000
X18.25
G3 X18.5 Y368 I0 J0.25
X17.5 Y368 I-0.5 J0
X18.5 Y368 I0.5 J0
X18.25 Y368.25 I-0.25 J0
G1 X18
G0 Z5
Y367.75
Z-2.5
G1 Z-4 F1000
X18.25
G3 X18.5 Y368 I0 J0.25
X17.5 Y368 I-0.5 J0
X18.5 Y368 I0.5 J0
X18.25 Y368.25 I-0.25 J0
G1 X18
G0 Z5
Y367.75
Z-4.5
G1 Z-6 F1000
X18.25
G3 X18.5 Y368 I0 J0.25
X17.5 Y368 I-0.5 J0
X18.5 Y368 I0.5 J0
X18.25 Y368.25 I-0.25 J0
G1 X18
G0 Z5
Y367.75
Z-6.5
G1 Z-8 F1000
X18.25
G3 X18.5 Y368 I0 J0.25
X17.5 Y368 I-0.5 J0
X18.5 Y368 I0.5 J0
X18.25 Y368.25 I-0.25 J0
G1 X18
G0 Z5
X8 Y367.75
Z-0.5
G1 Z-2 F1000
X8.25
G3 X8.5 Y368 I0 J0.25
X7.5 Y368 I-0.5 J0
X8.5 Y368 I0.5 J0
X8.25 Y368.25 I-0.25 J0
G1 X8
G0 Z5
Y367.75
Z-2.5
G1 Z-4 F1000
X8.25
G3 X8.5 Y368 I0 J0.25
X7.5 Y368 I-0.5 J0
X8.5 Y368 I0.5 J0
X8.25 Y368.25 I-0.25 J0
G1 X8
G0 Z5
Y367.75
Z-4.5
G1 Z-6 F1000
X8.25
G3 X8.5 Y368 I0 J0.25
X7.5 Y368 I-0.5 J0
X8.5 Y368 I0.5 J0
X8.25 Y368.25 I-0.25 J0
G1 X8
G0 Z5
Y367.75
Z-6.5
G1 Z-8 F1000
X8.25
G3 X8.5 Y368 I0 J0.25
X7.5 Y368 I-0.5 J0
X8.5 Y368 I0.5 J0
X8.25 Y368.25 I-0.25 J0
G1 X8
G0 Z5
Y377.75
Z-0.5
G1 Z-2 F1000
X8.25
G3 X8.5 Y378 I0 J0.25
X7.5 Y378 I-0.5 J0
X8.5 Y378 I0.5 J0
X8.25 Y378.25 I-0.25 J0
G1 X8
G0 Z5
Y377.75
Z-2.5
G1 Z-4 F1000
X8.25
G3 X8.5 Y378 I0 J0.25
X7.5 Y378 I-0.5 J0
X8.5 Y378 I0.5 J0
X8.25 Y378.25 I-0.25 J0
G1 X8
G0 Z5
Y377.75
Z-4.5
G1 Z-6 F1000
X8.25
G3 X8.5 Y378 I0 J0.25
X7.5 Y378 I-0.5 J0
X8.5 Y378 I0.5 J0
X8.25 Y378.25 I-0.25 J0
G1 X8
G0 Z5
Y377.75
Z-6.5
G1 Z-8 F1000
X8.25
G3 X8.5 Y378 I0 J0.25
X7.5 Y378 I-0.5 J0
X8.5 Y378 I0.5 J0
X8.25 Y378.25 I-0.25 J0
G1 X8
G0 Z5
X18 Y377.75
Z-0.5
G1 Z-2 F1000
X18.25
G3 X18.5 Y378 I0 J0.25
X17.5 Y378 I-0.5 J0
X18.5 Y378 I0.5 J0
X18.25 Y378.25 I-0.25 J0
G1 X18
G0 Z5
Y377.75
Z-2.5
G1 Z-4 F1000
X18.25
G3 X18.5 Y378 I0 J0.25
X17.5 Y378 I-0.5 J0
X18.5 Y378 I0.5 J0
X18.25 Y378.25 I-0.25 J0
G1 X18
G0 Z5
Y377.75
Z-4.5
G1 Z-6 F1000
X18.25
G3 X18.5 Y378 I0 J0.25
X17.5 Y378 I-0.5 J0
X18.5 Y378 I0.5 J0
X18.25 Y378.25 I-0.25 J0
G1 X18
G0 Z5
Y377.75
Z-6.5
G1 Z-8 F1000
X18.25
G3 X18.5 Y378 I0 J0.25
X17.5 Y378 I-0.5 J0
X18.5 Y378 I0.5 J0
X18.25 Y378.25 I-0.25 J0
G1 X18
G0 Z5
X28 Y377.75
Z-0.5
G1 Z-2 F1000
X28.25
G3 X28.5 Y378 I0 J0.25
X27.5 Y378 I-0.5 J0
X28.5 Y378 I0.5 J0
X28.25 Y378.25 I-0.25 J0
G1 X28
G0 Z5
Y377.75
Z-2.5
G1 Z-4 F1000
X28.25
G3 X28.5 Y378 I0 J0.25
X27.5 Y378 I-0.5 J0
X28.5 Y378 I0.5 J0
X28.25 Y378.25 I-0.25 J0
G1 X28
G0 Z5
Y377.75
Z-4.5
G1 Z-6 F1000
X28.25
G3 X28.5 Y378 I0 J0.25
X27.5 Y378 I-0.5 J0
X28.5 Y378 I0.5 J0
X28.25 Y378.25 I-0.25 J0
G1 X28
G0 Z5
Y377.75
Z-6.5
G1 Z-8 F1000
X28.25
G3 X28.5 Y378 I0 J0.25
X27.5 Y378 I-0.5 J0
X28.5 Y378 I0.5 J0
X28.25 Y378.25 I-0.25 J0
G1 X28
G0 Z5
X38 Y377.75
Z-0.5
G1 Z-2 F1000
X38.25
G3 X38.5 Y378 I0 J0.25
X37.5 Y378 I-0.5 J0
X38.5 Y378 I0.5 J0
X38.25 Y378.25 I-0.25 J0
G1 X38
G0 Z5
Y377.75
Z-2.5
G1 Z-4 F1000
X38.25
G3 X38.5 Y378 I0 J0.25
X37.5 Y378 I-0.5 J0
X38.5 Y378 I0.5 J0
X38.25 Y378.25 I-0.25 J0
G1 X38
G0 Z5
Y377.75
Z-4.5
G1 Z-6 F1000
X38.25
G3 X38.5 Y378 I0 J0.25
X37.5 Y378 I-0.5 J0
X38.5 Y378 I0.5 J0
X38.25 Y378.25 I-0.25 J0
G1 X38
G0 Z5
Y377.75
Z-6.5
G1 Z-8 F1000
X38.25
G3 X38.5 Y378 I0 J0.25
X37.5 Y378 I-0.5 J0
X38.5 Y378 I0.5 J0
X38.25 Y378.25 I-0.25 J0
G1 X38
G0 Z5
Y387.75
Z-0.5
G1 Z-2 F1000
X38.25
G3 X38.5 Y388 I0 J0.25
X37.5 Y388 I-0.5 J0
X38.5 Y388 I0.5 J0
X38.25 Y388.25 I-0.25 J0
G1 X38
G0 Z5
Y387.75
Z-2.5
G1 Z-4 F1000
X38.25
G3 X38.5 Y388 I0 J0.25
X37.5 Y388 I-0.5 J0
X38.5 Y388 I0.5 J0
X38.25 Y388.25 I-0.25 J0
G1 X38
G0 Z5
Y387.75
Z-4.5
G1 Z-6 F1000
X38.25
G3 X38.5 Y388 I0 J0.25
X37.5 Y388 I-0.5 J0
X38.5 Y388 I0.5 J0
X38.25 Y388.25 I-0.25 J0
G1 X38
G0 Z5
Y387.75
Z-6.5
G1 Z-8 F1000
X38.25
G3 X38.5 Y388 I0 J0.25
X37.5 Y388 I-0.5 J0
X38.5 Y388 I0.5 J0
X38.25 Y388.25 I-0.25 J0
G1 X38
G0 Z5
X28 Y387.75
Z-0.5
G1 Z-2 F1000
X28.25
G3 X28.5 Y388 I0 J0.25
X27.5 Y388 I-0.5 J0
X28.5 Y388 I0.5 J0
X28.25 Y388.25 I-0.25 J0
G1 X28
G0 Z5
Y387.75
Z-2.5
G1 Z-4 F1000
X28.25
G3 X28.5 Y388 I0 J0.25
X27.5 Y388 I-0.5 J0
X28.5 Y388 I0.5 J0
X28.25 Y388.25 I-0.25 J0
G1 X28
G0 Z5
Y387.75
Z-4.5
G1 Z-6 F1000
X28.25
G3 X28.5 Y388 I0 J0.25
X27.5 Y388 I-0.5 J0
X28.5 Y388 I0.5 J0
X28.25 Y388.25 I-0.25 J0
G1 X28
G0 Z5
Y387.75
Z-6.5
G1 Z-8 F1000
X28.25
G3 X28.5 Y388 I0 J0.25
X27.5 Y388 I-0.5 J0
X28.5 Y388 I0.5 J0
X28.25 Y388.25 I-0.25 J0
G1 X28
G0 Z5
X18 Y387.75
Z-0.5
G1 Z-2 F1000
X18.25
G3 X18.5 Y388 I0 J0.25
X17.5 Y388 I-0.5 J0
X18.5 Y388 I0.5 J0
X18.25 Y388.25 I-0.25 J0
G1 X18
G0 Z5
Y387.75
Z-2.5
G1 Z-4 F1000
X18.25
G3 X18.5 Y388 I0 J0.25
X17.5 Y388 I-0.5 J0
X18.5 Y388 I0.5 J0
X18.25 Y388.25 I-0.25 J0
G1 X18
G0 Z5
Y387.75
Z-4.5
G1 Z-6 F1000
X18.25
G3 X18.5 Y388 I0 J0.25
X17.5 Y388 I-0.5 J0
X18.5 Y388 I0.5 J0
X18.25 Y388.25 I-0.25 J0
G1 X18
G0 Z5
Y387.75
Z-6.5
G1 Z-8 F1000
X18.25
G3 X18.5 Y388 I0 J0.25
X17.5 Y388 I-0.5 J0
X18.5 Y388 I0.5 J0
X18.25 Y388.25 I-0.25 J0
G1 X18
G0 Z5
X8 Y387.75
Z-0.5
G1 Z-2 F1000
X8.25
G3 X8.5 Y388 I0 J0.25
X7.5 Y388 I-0.5 J0
X8.5 Y388 I0.5 J0
X8.25 Y388.25 I-0.25 J0
G1 X8
G0 Z5
Y387.75
Z-2.5
G1 Z-4 F1000
X8.25
G3 X8.5 Y388 I0 J0.25
X7.5 Y388 I-0.5 J0
X8.5 Y388 I0.5 J0
X8.25 Y388.25 I-0.25 J0
G1 X8
G0 Z5
Y387.75
Z-4.5
G1 Z-6 F1000
X8.25
G3 X8.5 Y388 I0 J0.25
X7.5 Y388 I-0.5 J0
X8.5 Y388 I0.5 J0
X8.25 Y388.25 I-0.25 J0
G1 X8
G0 Z5
Y387.75
Z-6.5
G1 Z-8 F1000
X8.25
G3 X8.5 Y388 I0 J0.25
X7.5 Y388 I-0.5 J0
X8.5 Y388 I0.5 J0
X8.25 Y388.25 I-0.25 J0
G1 X8
G0 Z5
Y397.75
Z-0.5
G1 Z-2 F1000
X8.25
G3 X8.5 Y398 I0 J0.25
X7.5 Y398 I-0.5 J0
X8.5 Y398 I0.5 J0
X8.25 Y398.25 I-0.25 J0
G1 X8
G0 Z5
Y397.75
Z-2.5
G1 Z-4 F1000
X8.25
G3 X8.5 Y398 I0 J0.25
X7.5 Y398 I-0.5 J0
X8.5 Y398 I0.5 J0
X8.25 Y398.25 I-0.25 J0
G1 X8
G0 Z5
Y397.75
Z-4.5
G1 Z-6 F1000
X8.25
G3 X8.5 Y398 I0 J0.25
X7.5 Y398 I-0.5 J0
X8.5 Y398 I0.5 J0
X8.25 Y398.25 I-0.25 J0
G1 X8
G0 Z5
Y397.75
Z-6.5
G1 Z-8 F1000
X8.25
G3 X8.5 Y398 I0 J0.25
X7.5 Y398 I-0.5 J0
X8.5 Y398 I0.5 J0
X8.25 Y398.25 I-0.25 J0
G1 X8
G0 Z5
X18 Y397.75
Z-0.5
G1 Z-2 F1000
X18.25
G3 X18.5 Y398 I0 J0.25
X17.5 Y398 I-0.5 J0
X18.5 Y398 I0.5 J0
X18.25 Y398.25 I-0.25 J0
G1 X18
G0 Z5
Y397.75
Z-2.5
G1 Z-4 F1000
X18.25
G3 X18.5 Y398 I0 J0.25
X17.5 Y398 I-0.5 J0
X18.5 Y398 I0.5 J0
X18.25 Y398.25 I-0.25 J0
G1 X18
G0 Z5
Y397.75
Z-4.5
G1 Z-6 F1000
X18.25
G3 X18.5 Y398 I0 J0.25
X17.5 Y398 I-0.5 J0
X18.5 Y398 I0.5 J0
X18.25 Y398.25 I-0.25 J0
G1 X18
G0 Z5
Y397.75
Z-6.5
G1 Z-8 F1000
X18.25
G3 X18.5 Y398 I0 J0.25
X17.5 Y398 I-0.5 J0
X18.5 Y398 I0.5 J0
X18.25 Y398.25 I-0.25 J0
G1 X18
G0 Z5
X28 Y397.75
Z-0.5
G1 Z-2 F1000
X28.25
G3 X28.5 Y398 I0 J0.25
X27.5 Y398 I-0.5 J0
X28.5 Y398 I0.5 J0
X28.25 Y398.25 I-0.25 J0
G1 X28
G0 Z5
Y397.75
Z-2.5
G1 Z-4 F1000
X28.25
G3 X28.5 Y398 I0 J0.25
X27.5 Y398 I-0.5 J0
X28.5 Y398 I0.5 J0
X28.25 Y398.25 I-0.25 J0
G1 X28
G0 Z5
Y397.75
Z-4.5
G1 Z-6 F1000
X28.25
G3 X28.5 Y398 I0 J0.25
X27.5 Y398 I-0.5 J0
X28.5 Y398 I0.5 J0
X28.25 Y398.25 I-0.25 J0
G1 X28
G0 Z5
Y397.75
Z-6.5
G1 Z-8 F1000
X28.25
G3 X28.5 Y398 I0 J0.25
X27.5 Y398 I-0.5 J0
X28.5 Y398 I0.5 J0
X28.25 Y398.25 I-0.25 J0
G1 X28
G0 Z5
X38 Y397.75
Z-0.5
G1 Z-2 F1000
X38.25
G3 X38.5 Y398 I0 J0.25
X37.5 Y398 I-0.5 J0
X38.5 Y398 I0.5 J0
X38.25 Y398.25 I-0.25 J0
G1 X38
G0 Z5
Y397.75
Z-2.5
G1 Z-4 F1000
X38.25
G3 X38.5 Y398 I0 J0.25
X37.5 Y398 I-0.5 J0
X38.5 Y398 I0.5 J0
X38.25 Y398.25 I-0.25 J0
G1 X38
G0 Z5
Y397.75
Z-4.5
G1 Z-6 F1000
X38.25
G3 X38.5 Y398 I0 J0.25
X37.5 Y398 I-0.5 J0
X38.5 Y398 I0.5 J0
X38.25 Y398.25 I-0.25 J0
G1 X38
G0 Z5
Y397.75
Z-6.5
G1 Z-8 F1000
X38.25
G3 X38.5 Y398 I0 J0.25
X37.5 Y398 I-0.5 J0
X38.5 Y398 I0.5 J0
X38.25 Y398.25 I-0.25 J0
G1 X38
G0 Z5
X8 Y407.75
Z-0.5
G1 Z-2 F1000
X8.25
G3 X8.5 Y408 I0 J0.25
X7.5 Y408 I-0.5 J0
X8.5 Y408 I0.5 J0
X8.25 Y408.25 I-0.25 J0
G1 X8
G0 Z5
Y407.75
Z-2.5
G1 Z-4 F1000
X8.25
G3 X8.5 Y408 I0 J0.25
X7.5 Y408 I-0.5 J0
X8.5 Y408 I0.5 J0
X8.25 Y408.25 I-0.25 J0
G1 X8
G0 Z5
Y407.75
Z-4.5
G1 Z-6 F1000
X8.25
G3 X8.5 Y408 I0 J0.25
X7.5 Y408 I-0.5 J0
X8.5 Y408 I0.5 J0
X8.25 Y408.25 I-0.25 J0
G1 X8
G0 Z5
Y407.75
Z-6.5
G1 Z-8 F1000
X8.25
G3 X8.5 Y408 I0 J0.25
X7.5 Y408 I-0.5 J0
X8.5 Y408 I0.5 J0
X8.25 Y408.25 I-0.25 J0
G1 X8
G0 Z5
X18 Y407.75
Z-0.5
G1 Z-2 F1000
X18.25
G3 X18.5 Y408 I0 J0.25
X17.5 Y408 I-0.5 J0
X18.5 Y408 I0.5 J0
X18.25 Y408.25 I-0.25 J0
G1 X18
G0 Z5
Y407.75
Z-2.5
G1 Z-4 F1000
X18.25
G3 X18.5 Y408 I0 J0.25
X17.5 Y408 I-0.5 J0
X18.5 Y408 I0.5 J0
X18.25 Y408.25 I-0.25 J0
G1 X18
G0 Z5
Y407.75
Z-4.5
G1 Z-6 F1000
X18.25
G3 X18.5 Y408 I0 J0.25
X17.5 Y408 I-0.5 J0
X18.5 Y408 I0.5 J0
X18.25 Y408.25 I-0.25 J0
G1 X18
G0 Z5
Y407.75
Z-6.5
G1 Z-8 F1000
X18.25
G3 X18.5 Y408 I0 J0.25
X17.5 Y408 I-0.5 J0
X18.5 Y408 I0.5 J0
X18.25 Y408.25 I-0.25 J0
G1 X18
G0 Z5
X28 Y407.75
Z-0.5
G1 Z-2 F1000
X28.25
G3 X28.5 Y408 I0 J0.25
X27.5 Y408 I-0.5 J0
X28.5 Y408 I0.5 J0
X28.25 Y408.25 I-0.25 J0
G1 X28
G0 Z5
Y407.75
Z-2.5
G1 Z-4 F1000
X28.25
G3 X28.5 Y408 I0 J0.25
X27.5 Y408 I-0.5 J0
X28.5 Y408 I0.5 J0
X28.25 Y408.25 I-0.25 J0
G1 X28
G0 Z5
Y407.75
Z-4.5
G1 Z-6 F1000
X28.25
G3 X28.5 Y408 I0 J0.25
X27.5 Y408 I-0.5 J0
X28.5 Y408 I0.5 J0
X28.25 Y408.25 I-0.25 J0
G1 X28
G0 Z5
Y407.75
Z-6.5
G1 Z-8 F1000
X28.25
G3 X28.5 Y408 I0 J0.25
X27.5 Y408 I-0.5 J0
X28.5 Y408 I0.5 J0
X28.25 Y408.25 I-0.25 J0
G1 X28
G0 Z5
X38 Y407.75
Z-0.5
G1 Z-2 F1000
X38.25
G3 X38.5 Y408 I0 J0.25
X37.5 Y408 I-0.5 J0
X38.5 Y408 I0.5 J0
X38.25 Y408.25 I-0.25 J0
G1 X38
G0 Z5
Y407.75
Z-2.5
G1 Z-4 F1000
X38.25
G3 X38.5 Y408 I0 J0.25
X37.5 Y408 I-0.5 J0
X38.5 Y408 I0.5 J0
X38.25 Y408.25 I-0.25 J0
G1 X38
G0 Z5
Y407.75
Z-4.5
G1 Z-6 F1000
X38.25
G3 X38.5 Y408 I0 J0.25
X37.5 Y408 I-0.5 J0
X38.5 Y408 I0.5 J0
X38.25 Y408.25 I-0.25 J0
G1 X38
G0 Z5
Y407.75
Z-6.5
G1 Z-8 F1000
X38.25
G3 X38.5 Y408 I0 J0.25
X37.5 Y408 I-0.5 J0
X38.5 Y408 I0.5 J0
X38.25 Y408.25 I-0.25 J0
G1 X38
G0 Z5
Y417.75
Z-0.5
G1 Z-2 F1000
X38.25
G3 X38.5 Y418 I0 J0.25
X37.5 Y418 I-0.5 J0
X38.5 Y418 I0.5 J0
X38.25 Y418.25 I-0.25 J0
G1 X38
G0 Z5
Y417.75
Z-2.5
G1 Z-4 F1000
X38.25
G3 X38.5 Y418 I0 J0.25
X37.5 Y418 I-0.5 J0
X38.5 Y418 I0.5 J0
X38.25 Y418.25 I-0.25 J0
G1 X38
G0 Z5
Y417.75
Z-4.5
G1 Z-6 F1000
X38.25
G3 X38.5 Y418 I0 J0.25
X37.5 Y418 I-0.5 J0
X38.5 Y418 I0.5 J0
X38.25 Y418.25 I-0.25 J0
G1 X38
G0 Z5
Y417.75
Z-6.5
G1 Z-8 F1000
X38.25
G3 X38.5 Y418 I0 J0.25
X37.5 Y418 I-0.5 J0
X38.5 Y418 I0.5 J0
X38.25 Y418.25 I-0.25 J0
G1 X38
G0 Z5
X28 Y417.75
Z-0.5
G1 Z-2 F1000
X28.25
G3 X28.5 Y418 I0 J0.25
X27.5 Y418 I-0.5 J0
X28.5 Y418 I0.5 J0
X28.25 Y418.25 I-0.25 J0
G1 X28
G0 Z5
Y417.75
Z-2.5
G1 Z-4 F1000
X28.25
G3 X28.5 Y418 I0 J0.25
X27.5 Y418 I-0.5 J0
X28.5 Y418 I0.5 J0
X28.25 Y418.25 I-0.25 J0
G1 X28
G0 Z5
Y417.75
Z-4.5
G1 Z-6 F1000
X28.25
G3 X28.5 Y418 I0 J0.25
X27.5 Y418 I-0.5 J0
X28.5 Y418 I0.5 J0
X28.25 Y418.25 I-0.25 J0
G1 X28
G0 Z5
Y417.75
Z-6.5
G1 Z-8 F1000
X28.25
G3 X28.5 Y418 I0 J0.25
X27.5 Y418 I-0.5 J0
X28.5 Y418 I0.5 J0
X28.25 Y418.25 I-0.25 J0
G1 X28
G0 Z5
X18 Y417.75
Z-0.5
G1 Z-2 F1000
X18.25
G3 X18.5 Y418 I0 J0.25
X17.5 Y418 I-0.5 J0
X18.5 Y418 I0.5 J0
X18.25 Y418.25 I-0.25 J0
G1 X18
G0 Z5
Y417.75
Z-2.5
G1 Z-4 F1000
X18.25
G3 X18.5 Y418 I0 J0.25
X17.5 Y418 I-0.5 J0
X18.5 Y418 I0.5 J0
X18.25 Y418.25 I-0.25 J0
G1 X18
G0 Z5
Y417.75
Z-4.5
G1 Z-6 F1000
X18.25
G3 X18.5 Y418 I0 J0.25
X17.5 Y418 I-0.5 J0
X18.5 Y418 I0.5 J0
X18.25 Y418.25 I-0.25 J0
G1 X18
G0 Z5
Y417.75
Z-6.5
G1 Z-8 F1000
X18.25
G3 X18.5 Y418 I0 J0.25
X17.5 Y418 I-0.5 J0
X18.5 Y418 I0.5 J0
X18.25 Y418.25 I-0.25 J0
G1 X18
G0 Z5
X8 Y417.75
Z-0.5
G1 Z-2 F1000
X8.25
G3 X8.5 Y418 I0 J0.25
X7.5 Y418 I-0.5 J0
X8.5 Y418 I0.5 J0
X8.25 Y418.25 I-0.25 J0
G1 X8
G0 Z5
Y417.75
Z-2.5
G1 Z-4 F1000
X8.25
G3 X8.5 Y418 I0 J0.25
X7.5 Y418 I-0.5 J0
X8.5 Y418 I0.5 J0
X8.25 Y418.25 I-0.25 J0
G1 X8
G0 Z5
Y417.75
Z-4.5
G1 Z-6 F1000
X8.25
G3 X8.5 Y418 I0 J0.25
X7.5 Y418 I-0.5 J0
X8.5 Y418 I0.5 J0
X8.25 Y418.25 I-0.25 J0
G1 X8
G0 Z5
Y417.75
Z-6.5
G1 Z-8 F1000
X8.25
G3 X8.5 Y418 I0 J0.25
X7.5 Y418 I-0.5 J0
X8.5 Y418 I0.5 J0
X8.25 Y418.25 I-0.25 J0
G1 X8
G0 Z5
Y427.75
Z-0.5
G1 Z-2 F1000
X8.25
G3 X8.5 Y428 I0 J0.25
X7.5 Y428 I-0.5 J0
X8.5 Y428 I0.5 J0
X8.25 Y428.25 I-0.25 J0
G1 X8
G0 Z5
Y427.75
Z-2.5
G1 Z-4 F1000
X8.25
G3 X8.5 Y428 I0 J0.25
X7.5 Y428 I-0.5 J0
X8.5 Y428 I0.5 J0
X8.25 Y428.25 I-0.25 J0
G1 X8
G0 Z5
Y427.75
Z-4.5
G1 Z-6 F1000
X8.25
G3 X8.5 Y428 I0 J0.25
X7.5 Y428 I-0.5 J0
X8.5 Y428 I0.5 J0
X8.25 Y428.25 I-0.25 J0
G1 X8
G0 Z5
Y427.75
Z-6.5
G1 Z-8 F1000
X8.25
G3 X8.5 Y428 I0 J0.25
X7.5 Y428 I-0.5 J0
X8.5 Y428 I0.5 J0
X8.25 Y428.25 I-0.25 J0
G1 X8
G0 Z5
X18 Y427.75
Z-0.5
G1 Z-2 F1000
X18.25
G3 X18.5 Y428 I0 J0.25
X17.5 Y428 I-0.5 J0
X18.5 Y428 I0.5 J0
X18.25 Y428.25 I-0.25 J0
G1 X18
G0 Z5
Y427.75
Z-2.5
G1 Z-4 F1000
X18.25
G3 X18.5 Y428 I0 J0.25
X17.5 Y428 I-0.5 J0
X18.5 Y428 I0.5 J0
X18.25 Y428.25 I-0.25 J0
G1 X18
G0 Z5
Y427.75
Z-4.5
G1 Z-6 F1000
X18.25
G3 X18.5 Y428 I0 J0.25
X17.5 Y428 I-0.5 J0
X18.5 Y428 I0.5 J0
X18.25 Y428.25 I-0.25 J0
G1 X18
G0 Z5
Y427.75
Z-6.5
G1 Z-8 F1000
X18.25
G3 X18.5 Y428 I0 J0.25
X17.5 Y428 I-0.5 J0
X18.5 Y428 I0.5 J0
X18.25 Y428.25 I-0.25 J0
G1 X18
G0 Z5
X28 Y427.75
Z-0.5
G1 Z-2 F1000
X28.25
G3 X28.5 Y428 I0 J0.25
X27.5 Y428 I-0.5 J0
X28.5 Y428 I0.5 J0
X28.25 Y428.25 I-0.25 J0
G1 X28
G0 Z5
Y427.75
Z-2.5
G1 Z-4 F1000
X28.25
G3 X28.5 Y428 I0 J0.25
X27.5 Y428 I-0.5 J0
X28.5 Y428 I0.5 J0
X28.25 Y428.25 I-0.25 J0
G1 X28
G0 Z5
Y427.75
Z-4.5
G1 Z-6 F1000
X28.25
G3 X28.5 Y428 I0 J0.25
X27.5 Y428 I-0.5 J0
X28.5 Y428 I0.5 J0
X28.25 Y428.25 I-0.25 J0
G1 X28
G0 Z5
Y427.75
Z-6.5
G1 Z-8 F1000
X28.25
G3 X28.5 Y428 I0 J0.25
X27.5 Y428 I-0.5 J0
X28.5 Y428 I0.5 J0
X28.25 Y428.25 I-0.25 J0
G1 X28
G0 Z5
X38 Y427.75
Z-0.5
G1 Z-2 F1000
X38.25
G3 X38.5 Y428 I0 J0.25
X37.5 Y428 I-0.5 J0
X38.5 Y428 I0.5 J0
X38.25 Y428.25 I-0.25 J0
G1 X38
G0 Z5
Y427.75
Z-2.5
G1 Z-4 F1000
X38.25
G3 X38.5 Y428 I0 J0.25
X37.5 Y428 I-0.5 J0
X38.5 Y428 I0.5 J0
X38.25 Y428.25 I-0.25 J0
G1 X38
G0 Z5
Y427.75
Z-4.5
G1 Z-6 F1000
X38.25
G3 X38.5 Y428 I0 J0.25
X37.5 Y428 I-0.5 J0
X38.5 Y428 I0.5 J0
X38.25 Y428.25 I-0.25 J0
G1 X38
G0 Z5
Y427.75
Z-6.5
G1 Z-8 F1000
X38.25
G3 X38.5 Y428 I0 J0.25
X37.5 Y428 I-0.5 J0
X38.5 Y428 I0.5 J0
X38.25 Y428.25 I-0.25 J0
G1 X38
G0 Z5
Y437.75
Z-0.5
G1 Z-2 F1000
X38.25
G3 X38.5 Y438 I0 J0.25
X37.5 Y438 I-0.5 J0
X38.5 Y438 I0.5 J0
X38.25 Y438.25 I-0.25 J0
G1 X38
G0 Z5
Y437.75
Z-2.5
G1 Z-4 F1000
X38.25
G3 X38.5 Y438 I0 J0.25
X37.5 Y438 I-0.5 J0
X38.5 Y438 I0.5 J0
X38.25 Y438.25 I-0.25 J0
G1 X38
G0 Z5
Y437.75
Z-4.5
G1 Z-6 F1000
X38.25
G3 X38.5 Y438 I0 J0.25
X37.5 Y438 I-0.5 J0
X38.5 Y438 I0.5 J0
X38.25 Y438.25 I-0.25 J0
G1 X38
G0 Z5
Y437.75
Z-6.5
G1 Z-8 F1000
X38.25
G3 X38.5 Y438 I0 J0.25
X37.5 Y438 I-0.5 J0
X38.5 Y438 I0.5 J0
X38.25 Y438.25 I-0.25 J0
G1 X38
G0 Z5
X28 Y437.75
Z-0.5
G1 Z-2 F1000
X28.25
G3 X28.5 Y438 I0 J0.25
X27.5 Y438 I-0.5 J0
X28.5 Y438 I0.5 J0
X28.25 Y438.25 I-0.25 J0
G1 X28
G0 Z5
Y437.75
Z-2.5
G1 Z-4 F1000
X28.25
G3 X28.5 Y438 I0 J0.25
X27.5 Y438 I-0.5 J0
X28.5 Y438 I0.5 J0
X28.25 Y438.25 I-0.25 J0
G1 X28
G0 Z5
Y437.75
Z-4.5
G1 Z-6 F1000
X28.25
G3 X28.5 Y438 I0 J0.25
X27.5 Y438 I-0.5 J0
X28.5 Y438 I0.5 J0
X28.25 Y438.25 I-0.25 J0
G1 X28
G0 Z5
Y437.75
Z-6.5
G1 Z-8 F1000
X28.25
G3 X28.5 Y438 I0 J0.25
X27.5 Y438 I-0.5 J0
X28.5 Y438 I0.5 J0
X28.25 Y438.25 I-0.25 J0
G1 X28
G0 Z5
X18 Y437.75
Z-0.5
G1 Z-2 F1000
X18.25
G3 X18.5 Y438 I0 J0.25
X17.5 Y438 I-0.5 J0
X18.5 Y438 I0.5 J0
X18.25 Y438.25 I-0.25 J0
G1 X18
G0 Z5
Y437.75
Z-2.5
G1 Z-4 F1000
X18.25
G3 X18.5 Y438 I0 J0.25
X17.5 Y438 I-0.5 J0
X18.5 Y438 I0.5 J0
X18.25 Y438.25 I-0.25 J0
G1 X18
G0 Z5
Y437.75
Z-4.5
G1 Z-6 F1000
X18.25
G3 X18.5 Y438 I0 J0.25
X17.5 Y438 I-0.5 J0
X18.5 Y438 I0.5 J0
X18.25 Y438.25 I-0.25 J0
G1 X18
G0 Z5
Y437.75
Z-6.5
G1 Z-8 F1000
X18.25
G3 X18.5 Y438 I0 J0.25
X17.5 Y438 I-0.5 J0
X18.5 Y438 I0.5 J0
X18.25 Y438.25 I-0.25 J0
G1 X18
G0 Z5
X8 Y437.75
Z-0.5
G1 Z-2 F1000
X8.25
G3 X8.5 Y438 I0 J0.25
X7.5 Y438 I-0.5 J0
X8.5 Y438 I0.5 J0
X8.25 Y438.25 I-0.25 J0
G1 X8
G0 Z5
Y437.75
Z-2.5
G1 Z-4 F1000
X8.25
G3 X8.5 Y438 I0 J0.25
X7.5 Y438 I-0.5 J0
X8.5 Y438 I0.5 J0
X8.25 Y438.25 I-0.25 J0
G1 X8
G0 Z5
Y437.75
Z-4.5
G1 Z-6 F1000
X8.25
G3 X8.5 Y438 I0 J0.25
X7.5 Y438 I-0.5 J0
X8.5 Y438 I0.5 J0
X8.25 Y438.25 I-0.25 J0
G1 X8
G0 Z5
Y437.75
Z-6.5
G1 Z-8 F1000
X8.25
G3 X8.5 Y438 I0 J0.25
X7.5 Y438 I-0.5 J0
X8.5 Y438 I0.5 J0
X8.25 Y438.25 I-0.25 J0
G1 X8
G0 Z5
Y447.75
Z-0.5
G1 Z-2 F1000
X8.25
G3 X8.5 Y448 I0 J0.25
X7.5 Y448 I-0.5 J0
X8.5 Y448 I0.5 J0
X8.25 Y448.25 I-0.25 J0
G1 X8
G0 Z5
Y447.75
Z-2.5
G1 Z-4 F1000
X8.25
G3 X8.5 Y448 I0 J0.25
X7.5 Y448 I-0.5 J0
X8.5 Y448 I0.5 J0
X8.25 Y448.25 I-0.25 J0
G1 X8
G0 Z5
Y447.75
Z-4.5
G1 Z-6 F1000
X8.25
G3 X8.5 Y448 I0 J0.25
X7.5 Y448 I-0.5 J0
X8.5 Y448 I0.5 J0
X8.25 Y448.25 I-0.25 J0
G1 X8
G0 Z5
Y447.75
Z-6.5
G1 Z-8 F1000
X8.25
G3 X8.5 Y448 I0 J0.25
X7.5 Y448 I-0.5 J0
X8.5 Y448 I0.5 J0
X8.25 Y448.25 I-0.25 J0
G1 X8
G0 Z5
X18 Y447.75
Z-0.5
G1 Z-2 F1000
X18.25
G3 X18.5 Y448 I0 J0.25
X17.5 Y448 I-0.5 J0
X18.5 Y448 I0.5 J0
X18.25 Y448.25 I-0.25 J0
G1 X18
G0 Z5
Y447.75
Z-2.5
G1 Z-4 F1000
X18.25
G3 X18.5 Y448 I0 J0.25
X17.5 Y448 I-0.5 J0
X18.5 Y448 I0.5 J0
X18.25 Y448.25 I-0.25 J0
G1 X18
G0 Z5
Y447.75
Z-4.5
G1 Z-6 F1000
X18.25
G3 X18.5 Y448 I0 J0.25
X17.5 Y448 I-0.5 J0
X18.5 Y448 I0.5 J0
X18.25 Y448.25 I-0.25 J0
G1 X18
G0 Z5
Y447.75
Z-6.5
G1 Z-8 F1000
X18.25
G3 X18.5 Y448 I0 J0.25
X17.5 Y448 I-0.5 J0
X18.5 Y448 I0.5 J0
X18.25 Y448.25 I-0.25 J0
G1 X18
G0 Z5
X28 Y447.75
Z-0.5
G1 Z-2 F1000
X28.25
G3 X28.5 Y448 I0 J0.25
X27.5 Y448 I-0.5 J0
X28.5 Y448 I0.5 J0
X28.25 Y448.25 I-0.25 J0
G1 X28
G0 Z5
Y447.75
Z-2.5
G1 Z-4 F1000
X28.25
G3 X28.5 Y448 I0 J0.25
X27.5 Y448 I-0.5 J0
X28.5 Y448 I0.5 J0
X28.25 Y448.25 I-0.25 J0
G1 X28
G0 Z5
Y447.75
Z-4.5
G1 Z-6 F1000
X28.25
G3 X28.5 Y448 I0 J0.25
X27.5 Y448 I-0.5 J0
X28.5 Y448 I0.5 J0
X28.25 Y448.25 I-0.25 J0
G1 X28
G0 Z5
Y447.75
Z-6.5
G1 Z-8 F1000
X28.25
G3 X28.5 Y448 I0 J0.25
X27.5 Y448 I-0.5 J0
X28.5 Y448 I0.5 J0
X28.25 Y448.25 I-0.25 J0
G1 X28
G0 Z5
X38 Y447.75
Z-0.5
G1 Z-2 F1000
X38.25
G3 X38.5 Y448 I0 J0.25
X37.5 Y448 I-0.5 J0
X38.5 Y448 I0.5 J0
X38.25 Y448.25 I-0.25 J0
G1 X38
G0 Z5
Y447.75
Z-2.5
G1 Z-4 F1000
X38.25
G3 X38.5 Y448 I0 J0.25
X37.5 Y448 I-0.5 J0
X38.5 Y448 I0.5 J0
X38.25 Y448.25 I-0.25 J0
G1 X38
G0 Z5
Y447.75
Z-4.5
G1 Z-6 F1000
X38.25
G3 X38.5 Y448 I0 J0.25
X37.5 Y448 I-0.5 J0
X38.5 Y448 I0.5 J0
X38.25 Y448.25 I-0.25 J0
G1 X38
G0 Z5
Y447.75
Z-6.5
G1 Z-8 F1000
X38.25
G3 X38.5 Y448 I0 J0.25
X37.5 Y448 I-0.5 J0
X38.5 Y448 I0.5 J0
X38.25 Y448.25 I-0.25 J0
G1 X38
G0 Z5
Y457.75
Z-0.5
G1 Z-2 F1000
X38.25
G3 X38.5 Y458 I0 J0.25
X37.5 Y458 I-0.5 J0
X38.5 Y458 I0.5 J0
X38.25 Y458.25 I-0.25 J0
G1 X38
G0 Z5
Y457.75
Z-2.5
G1 Z-4 F1000
X38.25
G3 X38.5 Y458 I0 J0.25
X37.5 Y458 I-0.5 J0
X38.5 Y458 I0.5 J0
X38.25 Y458.25 I-0.25 J0
G1 X38
G0 Z5
Y457.75
Z-4.5
G1 Z-6 F1000
X38.25
G3 X38.5 Y458 I0 J0.25
X37.5 Y458 I-0.5 J0
X38.5 Y458 I0.5 J0
X38.25 Y458.25 I-0.25 J0
G1 X38
G0 Z5
Y457.75
Z-6.5
G1 Z-8 F1000
X38.25
G3 X38.5 Y458 I0 J0.25
X37.5 Y458 I-0.5 J0
X38.5 Y458 I0.5 J0
X38.25 Y458.25 I-0.25 J0
G1 X38
G0 Z5
X28 Y457.75
Z-0.5
G1 Z-2 F1000
X28.25
G3 X28.5 Y458 I0 J0.25
X27.5 Y458 I-0.5 J0
X28.5 Y458 I0.5 J0
X28.25 Y458.25 I-0.25 J0
G1 X28
G0 Z5
Y457.75
Z-2.5
G1 Z-4 F1000
X28.25
G3 X28.5 Y458 I0 J0.25
X27.5 Y458 I-0.5 J0
X28.5 Y458 I0.5 J0
X28.25 Y458.25 I-0.25 J0
G1 X28
G0 Z5
Y457.75
Z-4.5
G1 Z-6 F1000
X28.25
G3 X28.5 Y458 I0 J0.25
X27.5 Y458 I-0.5 J0
X28.5 Y458 I0.5 J0
X28.25 Y458.25 I-0.25 J0
G1 X28
G0 Z5
Y457.75
Z-6.5
G1 Z-8 F1000
X28.25
G3 X28.5 Y458 I0 J0.25
X27.5 Y458 I-0.5 J0
X28.5 Y458 I0.5 J0
X28.25 Y458.25 I-0.25 J0
G1 X28
G0 Z5
X18 Y457.75
Z-0.5
G1 Z-2 F1000
X18.25
G3 X18.5 Y458 I0 J0.25
X17.5 Y458 I-0.5 J0
X18.5 Y458 I0.5 J0
X18.25 Y458.25 I-0.25 J0
G1 X18
G0 Z5
Y457.75
Z-2.5
G1 Z-4 F1000
X18.25
G3 X18.5 Y458 I0 J0.25
X17.5 Y458 I-0.5 J0
X18.5 Y458 I0.5 J0
X18.25 Y458.25 I-0.25 J0
G1 X18
G0 Z5
Y457.75
Z-4.5
G1 Z-6 F1000
X18.25
G3 X18.5 Y458 I0 J0.25
X17.5 Y458 I-0.5 J0
X18.5 Y458 I0.5 J0
X18.25 Y458.25 I-0.25 J0
G1 X18
G0 Z5
Y457.75
Z-6.5
G1 Z-8 F1000
X18.25
G3 X18.5 Y458 I0 J0.25
X17.5 Y458 I-0.5 J0
X18.5 Y458 I0.5 J0
X18.25 Y458.25 I-0.25 J0
G1 X18
G0 Z5
X8 Y457.75
Z-0.5
G1 Z-2 F1000
X8.25
G3 X8.5 Y458 I0 J0.25
X7.5 Y458 I-0.5 J0
X8.5 Y458 I0.5 J0
X8.25 Y458.25 I-0.25 J0
G1 X8
G0 Z5
Y457.75
Z-2.5
G1 Z-4 F1000
X8.25
G3 X8.5 Y458 I0 J0.25
X7.5 Y458 I-0.5 J0
X8.5 Y458 I0.5 J0
X8.25 Y458.25 I-0.25 J0
G1 X8
G0 Z5
Y457.75
Z-4.5
G1 Z-6 F1000
X8.25
G3 X8.5 Y458 I0 J0.25
X7.5 Y458 I-0.5 J0
X8.5 Y458 I0.5 J0
X8.25 Y458.25 I-0.25 J0
G1 X8
G0 Z5
Y457.75
Z-6.5
G1 Z-8 F1000
X8.25
G3 X8.5 Y458 I0 J0.25
X7.5 Y458 I-0.5 J0
X8.5 Y458 I0.5 J0
X8.25 Y458.25 I-0.25 J0
G1 X8
G0 Z5
X38 Y467.75
Z-0.5
G1 Z-2 F1000
X38.25
G3 X38.5 Y468 I0 J0.25
X37.5 Y468 I-0.5 J0
X38.5 Y468 I0.5 J0
X38.25 Y468.25 I-0.25 J0
G1 X38
G0 Z5
Y467.75
Z-2.5
G1 Z-4 F1000
X38.25
G3 X38.5 Y468 I0 J0.25
X37.5 Y468 I-0.5 J0
X38.5 Y468 I0.5 J0
X38.25 Y468.25 I-0.25 J0
G1 X38
G0 Z5
Y467.75
Z-4.5
G1 Z-6 F1000
X38.25
G3 X38.5 Y468 I0 J0.25
X37.5 Y468 I-0.5 J0
X38.5 Y468 I0.5 J0
X38.25 Y468.25 I-0.25 J0
G1 X38
G0 Z5
Y467.75
Z-6.5
G1 Z-8 F1000
X38.25
G3 X38.5 Y468 I0 J0.25
X37.5 Y468 I-0.5 J0
X38.5 Y468 I0.5 J0
X38.25 Y468.25 I-0.25 J0
G1 X38
G0 Z5
X28 Y467.75
Z-0.5
G1 Z-2 F1000
X28.25
G3 X28.5 Y468 I0 J0.25
X27.5 Y468 I-0.5 J0
X28.5 Y468 I0.5 J0
X28.25 Y468.25 I-0.25 J0
G1 X28
G0 Z5
Y467.75
Z-2.5
G1 Z-4 F1000
X28.25
G3 X28.5 Y468 I0 J0.25
X27.5 Y468 I-0.5 J0
X28.5 Y468 I0.5 J0
X28.25 Y468.25 I-0.25 J0
G1 X28
G0 Z5
Y467.75
Z-4.5
G1 Z-6 F1000
X28.25
G3 X28.5 Y468 I0 J0.25
X27.5 Y468 I-0.5 J0
X28.5 Y468 I0.5 J0
X28.25 Y468.25 I-0.25 J0
G1 X28
G0 Z5
Y467.75
Z-6.5
G1 Z-8 F1000
X28.25
G3 X28.5 Y468 I0 J0.25
X27.5 Y468 I-0.5 J0
X28.5 Y468 I0.5 J0
X28.25 Y468.25 I-0.25 J0
G1 X28
G0 Z5
X18 Y467.75
Z-0.5
G1 Z-2 F1000
X18.25
G3 X18.5 Y468 I0 J0.25
X17.5 Y468 I-0.5 J0
X18.5 Y468 I0.5 J0
X18.25 Y468.25 I-0.25 J0
G1 X18
G0 Z5
Y467.75
Z-2.5
G1 Z-4 F1000
X18.25
G3 X18.5 Y468 I0 J0.25
X17.5 Y468 I-0.5 J0
X18.5 Y468 I0.5 J0
X18.25 Y468.25 I-0.25 J0
G1 X18
G0 Z5
Y467.75
Z-4.5
G1 Z-6 F1000
X18.25
G3 X18.5 Y468 I0 J0.25
X17.5 Y468 I-0.5 J0
X18.5 Y468 I0.5 J0
X18.25 Y468.25 I-0.25 J0
G1 X18
G0 Z5
Y467.75
Z-6.5
G1 Z-8 F1000
X18.25
G3 X18.5 Y468 I0 J0.25
X17.5 Y468 I-0.5 J0
X18.5 Y468 I0.5 J0
X18.25 Y468.25 I-0.25 J0
G1 X18
G0 Z5
X8 Y467.75
Z-0.5
G1 Z-2 F1000
X8.25
G3 X8.5 Y468 I0 J0.25
X7.5 Y468 I-0.5 J0
X8.5 Y468 I0.5 J0
X8.25 Y468.25 I-0.25 J0
G1 X8
G0 Z5
Y467.75
Z-2.5
G1 Z-4 F1000
X8.25
G3 X8.5 Y468 I0 J0.25
X7.5 Y468 I-0.5 J0
X8.5 Y468 I0.5 J0
X8.25 Y468.25 I-0.25 J0
G1 X8
G0 Z5
Y467.75
Z-4.5
G1 Z-6 F1000
X8.25
G3 X8.5 Y468 I0 J0.25
X7.5 Y468 I-0.5 J0
X8.5 Y468 I0.5 J0
X8.25 Y468.25 I-0.25 J0
G1 X8
G0 Z5
Y467.75
Z-6.5
G1 Z-8 F1000
X8.25
G3 X8.5 Y468 I0 J0.25
X7.5 Y468 I-0.5 J0
X8.5 Y468 I0.5 J0
X8.25 Y468.25 I-0.25 J0
G1 X8
G0 Z5
Y477.75
Z-0.5
G1 Z-2 F1000
X8.25
G3 X8.5 Y478 I0 J0.25
X7.5 Y478 I-0.5 J0
X8.5 Y478 I0.5 J0
X8.25 Y478.25 I-0.25 J0
G1 X8
G0 Z5
Y477.75
Z-2.5
G1 Z-4 F1000
X8.25
G3 X8.5 Y478 I0 J0.25
X7.5 Y478 I-0.5 J0
X8.5 Y478 I0.5 J0
X8.25 Y478.25 I-0.25 J0
G1 X8
G0 Z5
Y477.75
Z-4.5
G1 Z-6 F1000
X8.25
G3 X8.5 Y478 I0 J0.25
