(CamperBodenschiene)
(T4  D=5 CR=0 - ZMIN=-20 - flat end mill)
G90 G94
G17
G21

(2D Contour1)
T4
S5000 M3
G54
M8
G0 X102.649 Y479.014
Z15
Z5
G1 Z-4.5 F333.3
G18 G2 X103.149 Z-5 I0.5 K0 F1000
G1 X103.649
G17 G3 X104.149 Y479.514 I0 J0.5
G2 X114.649 Y490.014 I10.5 J0
G1 X123.649
G3 X129.149 Y495.514 I0 J5.5
G1 Y544.514
G3 X123.649 Y550.014 I-5.5 J0
G1 X114.649
G2 X104.149 Y560.514 I0 J10.5
G1 Y604.514
G3 X98.649 Y610.014 I-5.5 J0
G1 X64.649
G3 X59.15 Y604.514 I0 J-5.5
G1 Y560.514
G2 X48.65 Y550.014 I-10.5 J0
G1 X39.65
G3 X34.15 Y544.514 I0 J-5.5
G1 Y495.514
G3 X39.65 Y490.014 I5.5 J0
G1 X48.65
G2 X59.15 Y479.514 I0 J-10.5
G1 Y160.514
G2 X48.65 Y150.014 I-10.5 J0
G1 X39.65
G3 X34.15 Y144.514 I0 J-5.5
G1 Y95.514
G3 X39.65 Y90.014 I5.5 J0
G1 X48.65
G2 X59.15 Y79.514 I0 J-10.5
G1 Y35.514
G3 X64.649 Y30.014 I5.5 J0
G1 X98.649
G3 X104.149 Y35.514 I0 J5.5
G1 Y79.514
G2 X114.649 Y90.014 I10.5 J0
G1 X123.649
G3 X129.149 Y95.514 I0 J5.5
G1 Y144.514
G3 X123.649 Y150.014 I-5.5 J0
G1 X114.649
G2 X104.149 Y160.514 I0 J10.5
G1 Y479.514
G3 X103.649 Y480.014 I-0.5 J0
G1 X103.149
G18 G3 X102.649 Z-4.5 I0 K0.5
G0 Z5
Y479.014
G1 Z0 F333.3
Z-9.5
G2 X103.149 Z-10 I0.5 K0 F1000
G1 X103.649
G17 G3 X104.149 Y479.514 I0 J0.5
G2 X114.649 Y490.014 I10.5 J0
G1 X123.649
G3 X129.149 Y495.514 I0 J5.5
G1 Y544.514
G3 X123.649 Y550.014 I-5.5 J0
G1 X114.649
G2 X104.149 Y560.514 I0 J10.5
G1 Y604.514
G3 X98.649 Y610.014 I-5.5 J0
G1 X64.649
G3 X59.15 Y604.514 I0 J-5.5
G1 Y560.514
G2 X48.65 Y550.014 I-10.5 J0
G1 X39.65
G3 X34.15 Y544.514 I0 J-5.5
G1 Y495.514
G3 X39.65 Y490.014 I5.5 J0
G1 X48.65
G2 X59.15 Y479.514 I0 J-10.5
G1 Y160.514
G2 X48.65 Y150.014 I-10.5 J0
G1 X39.65
G3 X34.15 Y144.514 I0 J-5.5
G1 Y95.514
G3 X39.65 Y90.014 I5.5 J0
G1 X48.65
G2 X59.15 Y79.514 I0 J-10.5
G1 Y35.514
G3 X64.649 Y30.014 I5.5 J0
G1 X98.649
G3 X104.149 Y35.514 I0 J5.5
G1 Y79.514
G2 X114.649 Y90.014 I10.5 J0
G1 X123.649
G3 X129.149 Y95.514 I0 J5.5
G1 Y144.514
G3 X123.649 Y150.014 I-5.5 J0
G1 X114.649
G2 X104.149 Y160.514 I0 J10.5
G1 Y479.514
G3 X103.649 Y480.014 I-0.5 J0
G1 X103.149
G18 G3 X102.649 Z-9.5 I0 K0.5
G0 Z5
Y479.014
G1 Z-5 F333.3
Z-14.5
G2 X103.149 Z-15 I0.5 K0 F1000
G1 X103.649
G17 G3 X104.149 Y479.514 I0 J0.5
G2 X114.649 Y490.014 I10.5 J0
G1 X123.649
G3 X129.149 Y495.514 I0 J5.5
G1 Y544.514
G3 X123.649 Y550.014 I-5.5 J0
G1 X114.649
G2 X104.149 Y560.514 I0 J10.5
G1 Y604.514
G3 X98.649 Y610.014 I-5.5 J0
G1 X64.649
G3 X59.15 Y604.514 I0 J-5.5
G1 Y560.514
G2 X48.65 Y550.014 I-10.5 J0
G1 X39.65
G3 X34.15 Y544.514 I0 J-5.5
G1 Y495.514
G3 X39.65 Y490.014 I5.5 J0
G1 X48.65
G2 X59.15 Y479.514 I0 J-10.5
G1 Y160.514
G2 X48.65 Y150.014 I-10.5 J0
G1 X39.65
G3 X34.15 Y144.514 I0 J-5.5
G1 Y95.514
G3 X39.65 Y90.014 I5.5 J0
G1 X48.65
G2 X59.15 Y79.514 I0 J-10.5
G1 Y35.514
G3 X64.649 Y30.014 I5.5 J0
G1 X98.649
G3 X104.149 Y35.514 I0 J5.5
G1 Y79.514
G2 X114.649 Y90.014 I10.5 J0
G1 X123.649
G3 X129.149 Y95.514 I0 J5.5
G1 Y144.514
G3 X123.649 Y150.014 I-5.5 J0
G1 X114.649
G2 X104.149 Y160.514 I0 J10.5
G1 Y479.514
G3 X103.649 Y480.014 I-0.5 J0
G1 X103.149
G18 G3 X102.649 Z-14.5 I0 K0.5
G0 Z5
Y479.014
G1 Z-10 F333.3
Z-19.5
G2 X103.149 Z-20 I0.5 K0 F1000
G1 X103.649
G17 G3 X104.149 Y479.514 I0 J0.5
G2 X114.649 Y490.014 I10.5 J0
G1 X123.649
G3 X129.149 Y495.514 I0 J5.5
G1 Y544.514
G3 X123.649 Y550.014 I-5.5 J0
G1 X114.649
G2 X104.149 Y560.514 I0 J10.5
G1 Y604.514
G3 X98.649 Y610.014 I-5.5 J0
G1 X64.649
G3 X59.15 Y604.514 I0 J-5.5
G1 Y560.514
G2 X48.65 Y550.014 I-10.5 J0
G1 X39.65
G3 X34.15 Y544.514 I0 J-5.5
G1 Y495.514
G3 X39.65 Y490.014 I5.5 J0
G1 X48.65
G2 X59.15 Y479.514 I0 J-10.5
G1 Y160.514
G2 X48.65 Y150.014 I-10.5 J0
G1 X39.65
G3 X34.15 Y144.514 I0 J-5.5
G1 Y95.514
G3 X39.65 Y90.014 I5.5 J0
G1 X48.65
G2 X59.15 Y79.514 I0 J-10.5
G1 Y35.514
G3 X64.649 Y30.014 I5.5 J0
G1 X98.649
G3 X104.149 Y35.514 I0 J5.5
G1 Y79.514
G2 X114.649 Y90.014 I10.5 J0
G1 X123.649
G3 X129.149 Y95.514 I0 J5.5
G1 Y144.514
G3 X123.649 Y150.014 I-5.5 J0
G1 X114.649
G2 X104.149 Y160.514 I0 J10.5
G1 Y479.514
G3 X103.649 Y480.014 I-0.5 J0
G1 X103.149
G18 G3 X102.649 Z-19.5 I0 K0.5
G0 Z15
G17
M9
M5
M30
