(CamperSchubladeDosenhalter_schmal)
(T4 D=5 CR=0 - ZMIN=-13 - flat end mill)
G90 G94
G17
G21
(-Attention- Property Safe Retracts is set to Clearance Height.)
(Ensure the clearance height will clear the part and or fixtures.)
(Raise the Z-axis to a safe height before starting the program.)

(2D Contour1)
T4
S5000 M3
G17 G90 G94
G54
M8
G0 X397.333 Y12.5
Z15
G0 Z5
G1 Z-4 F333.3
X333.633 F1000
G2 X320.133 Y26 I0 J13.5
G1 Y129.8
G2 X333.633 Y143.3 I13.5 J0
G1 X397.333
G2 X410.833 Y129.8 I0 J-13.5
G1 Y26
G2 X397.333 Y12.5 I-13.5 J0
G1 Z-8 F333.3
X333.633 F1000
G2 X320.133 Y26 I0 J13.5
G1 Y129.8
G2 X333.633 Y143.3 I13.5 J0
G1 X397.333
G2 X410.833 Y129.8 I0 J-13.5
G1 Y26
G2 X397.333 Y12.5 I-13.5 J0
G1 Z-12 F333.3
X333.633 F1000
G2 X320.133 Y26 I0 J13.5
G1 Y129.8
G2 X333.633 Y143.3 I13.5 J0
G1 X397.333
G2 X410.833 Y129.8 I0 J-13.5
G1 Y26
G2 X397.333 Y12.5 I-13.5 J0
G1 Z-13 F333.3
X333.633 F1000
G2 X320.133 Y26 I0 J13.5
G1 Y129.8
G2 X333.633 Y143.3 I13.5 J0
G1 X397.333
G2 X410.833 Y129.8 I0 J-13.5
G1 Y26
G2 X397.333 Y12.5 I-13.5 J0
G0 Z5
X498
G1 Z-4 F333.3
X434.3 F1000
G2 X420.8 Y26 I0 J13.5
G1 Y129.8
G2 X434.3 Y143.3 I13.5 J0
G1 X498
G2 X511.5 Y129.8 I0 J-13.5
G1 Y26
G2 X498 Y12.5 I-13.5 J0
G1 Z-8 F333.3
X434.3 F1000
G2 X420.8 Y26 I0 J13.5
G1 Y129.8
G2 X434.3 Y143.3 I13.5 J0
G1 X498
G2 X511.5 Y129.8 I0 J-13.5
G1 Y26
G2 X498 Y12.5 I-13.5 J0
G1 Z-12 F333.3
X434.3 F1000
G2 X420.8 Y26 I0 J13.5
G1 Y129.8
G2 X434.3 Y143.3 I13.5 J0
G1 X498
G2 X511.5 Y129.8 I0 J-13.5
G1 Y26
G2 X498 Y12.5 I-13.5 J0
G1 Z-13 F333.3
X434.3 F1000
G2 X420.8 Y26 I0 J13.5
G1 Y129.8
G2 X434.3 Y143.3 I13.5 J0
G1 X498
G2 X511.5 Y129.8 I0 J-13.5
G1 Y26
G2 X498 Y12.5 I-13.5 J0
G0 Z5
X310.167 Y129.8
G1 Z-4 F333.3
Y26 F1000
G2 X296.667 Y12.5 I-13.5 J0
G1 X232.967
G2 X219.467 Y26 I0 J13.5
G1 Y129.8
G2 X232.967 Y143.3 I13.5 J0
G1 X296.667
G2 X310.167 Y129.8 I0 J-13.5
G1 Z-8 F333.3
Y26 F1000
G2 X296.667 Y12.5 I-13.5 J0
G1 X232.967
G2 X219.467 Y26 I0 J13.5
G1 Y129.8
G2 X232.967 Y143.3 I13.5 J0
G1 X296.667
G2 X310.167 Y129.8 I0 J-13.5
G1 Z-12 F333.3
Y26 F1000
G2 X296.667 Y12.5 I-13.5 J0
G1 X232.967
G2 X219.467 Y26 I0 J13.5
G1 Y129.8
G2 X232.967 Y143.3 I13.5 J0
G1 X296.667
G2 X310.167 Y129.8 I0 J-13.5
G1 Z-13 F333.3
Y26 F1000
G2 X296.667 Y12.5 I-13.5 J0
G1 X232.967
G2 X219.467 Y26 I0 J13.5
G1 Y129.8
G2 X232.967 Y143.3 I13.5 J0
G1 X296.667
G2 X310.167 Y129.8 I0 J-13.5
G0 Z5
X132.3 Y143.3
G1 Z-4 F333.3
X196 F1000
G2 X209.5 Y129.8 I0 J-13.5
G1 Y26
G2 X196 Y12.5 I-13.5 J0
G1 X132.3
G2 X118.8 Y26 I0 J13.5
G1 Y129.8
G2 X132.3 Y143.3 I13.5 J0
G1 Z-8 F333.3
X196 F1000
G2 X209.5 Y129.8 I0 J-13.5
G1 Y26
G2 X196 Y12.5 I-13.5 J0
G1 X132.3
G2 X118.8 Y26 I0 J13.5
G1 Y129.8
G2 X132.3 Y143.3 I13.5 J0
G1 Z-12 F333.3
X196 F1000
G2 X209.5 Y129.8 I0 J-13.5
G1 Y26
G2 X196 Y12.5 I-13.5 J0
G1 X132.3
G2 X118.8 Y26 I0 J13.5
G1 Y129.8
G2 X132.3 Y143.3 I13.5 J0
G1 Z-13 F333.3
X196 F1000
G2 X209.5 Y129.8 I0 J-13.5
G1 Y26
G2 X196 Y12.5 I-13.5 J0
G1 X132.3
G2 X118.8 Y26 I0 J13.5
G1 Y129.8
G2 X132.3 Y143.3 I13.5 J0
G0 Z15

(2D Contour3)
G0 X7 Y157.3
Z15
Z5
G1 Z-4 F333.3
X520 F1000
G2 X528.5 Y148.8 I0 J-8.5
G1 Y7
G2 X520 Y-1.5 I-8.5 J0
G1 X7
G2 X-1.5 Y7 I0 J8.5
G1 Y148.8
G2 X7 Y157.3 I8.5 J0
G1 Z-8 F333.3
X520 F1000
G2 X528.5 Y148.8 I0 J-8.5
G1 Y7
G2 X520 Y-1.5 I-8.5 J0
G1 X7
G2 X-1.5 Y7 I0 J8.5
G1 Y148.8
G2 X7 Y157.3 I8.5 J0
G1 Z-12 F333.3
X520 F1000
G2 X528.5 Y148.8 I0 J-8.5
G1 Y7
G2 X520 Y-1.5 I-8.5 J0
G1 X7
G2 X-1.5 Y7 I0 J8.5
G1 Y148.8
G2 X7 Y157.3 I8.5 J0
G1 Z-13 F333.3
X520 F1000
G2 X528.5 Y148.8 I0 J-8.5
G1 Y7
G2 X520 Y-1.5 I-8.5 J0
G1 X7
G2 X-1.5 Y7 I0 J8.5
G1 Y148.8
G2 X7 Y157.3 I8.5 J0
G0 Z15
M9
M5
M30
