(CamperSpuelenContour)
(T3  D=3 CR=0 - ZMIN=-28 - flat end mill)
G90 G94
G17
G21

(2D Contour1 2)
T3
S5000 M3
G54
M8
G0 X165 Y0
Z15
Z5
G1 Z3 F333.3
Z-2
Y191.5 F1000
G3 X141.5 Y215 I-23.5 J0
G1 X-265
Y-215
X141.5
G3 X165 Y-191.5 I0 J23.5
G1 Y0
Z-4 F333.3
Y191.5 F1000
G3 X141.5 Y215 I-23.5 J0
G1 X-265
Y-215
X141.5
G3 X165 Y-191.5 I0 J23.5
G1 Y0
Z-6 F333.3
Y191.5 F1000
G3 X141.5 Y215 I-23.5 J0
G1 X-265
Y-215
X141.5
G3 X165 Y-191.5 I0 J23.5
G1 Y0
Z-8 F333.3
Y191.5 F1000
G3 X141.5 Y215 I-23.5 J0
G1 X-265
Y-215
X141.5
G3 X165 Y-191.5 I0 J23.5
G1 Y0
Z-10 F333.3
Y191.5 F1000
G3 X141.5 Y215 I-23.5 J0
G1 X-265
Y-215
X141.5
G3 X165 Y-191.5 I0 J23.5
G1 Y0
Z-12 F333.3
Y191.5 F1000
G3 X141.5 Y215 I-23.5 J0
G1 X-265
Y-215
X141.5
G3 X165 Y-191.5 I0 J23.5
G1 Y0
Z-14 F333.3
Y191.5 F1000
G3 X141.5 Y215 I-23.5 J0
G1 X-265
Y-215
X141.5
G3 X165 Y-191.5 I0 J23.5
G1 Y0
Z-16 F333.3
Y191.5 F1000
G3 X141.5 Y215 I-23.5 J0
G1 X-265
Y-215
X141.5
G3 X165 Y-191.5 I0 J23.5
G1 Y0
Z-18 F333.3
Y191.5 F1000
G3 X141.5 Y215 I-23.5 J0
G1 X-265
Y-215
X141.5
G3 X165 Y-191.5 I0 J23.5
G1 Y0
Z-20 F333.3
Y191.5 F1000
G3 X141.5 Y215 I-23.5 J0
G1 X-265
Y-215
X141.5
G3 X165 Y-191.5 I0 J23.5
G1 Y0
Z-22 F333.3
Y191.5 F1000
G3 X141.5 Y215 I-23.5 J0
G1 X-265
Y-215
X141.5
G3 X165 Y-191.5 I0 J23.5
G1 Y0
Z-24 F333.3
Y191.5 F1000
G3 X141.5 Y215 I-23.5 J0
G1 X-265
Y-215
X141.5
G3 X165 Y-191.5 I0 J23.5
G1 Y0
Z-26 F333.3
Y191.5 F1000
G3 X141.5 Y215 I-23.5 J0
G1 X-265
Y-215
X141.5
G3 X165 Y-191.5 I0 J23.5
G1 Y0
Z-28 F333.3
Y191.5 F1000
G3 X141.5 Y215 I-23.5 J0
G1 X-265
Y-215
X141.5
G3 X165 Y-191.5 I0 J23.5
G1 Y0
G0 Z15
M9
M5
M30
