(CamperGasflaschenHalter)
(T3  D=3 CR=0 - ZMIN=-19 - flat end mill)
G90 G94
G17
G21

(2D Contour3)
T3
S9000 M3
G54
M8
G0 X86.005 Y281.442
Z15
Z5
G1 Z-4.45 F333.3
X86.01 Y281.447 Z-4.517 F1000
X86.027 Y281.462 Z-4.58
X86.054 Y281.485 Z-4.637
X86.09 Y281.517 Z-4.685
X86.133 Y281.554 Z-4.72
X86.181 Y281.596 Z-4.742
X86.231 Y281.639 Z-4.75
X86.457 Y281.836
G3 X86.486 Y282.26 I-0.197 J0.226
X65.13 Y301.388 I-87.477 J-76.183
G2 X60.185 Y310.836 I6.555 J9.449
G1 Y351.318
G2 X65.13 Y360.766 I11.5 J0
G3 X45.182 Y562.492 I-66.121 J95.31
G2 X38.883 Y576.777 I4.577 J10.55
G1 X45.507 Y596.064
G2 X46.926 Y597.077 I1.419 J-0.487
G1 X146.51
G2 X148.01 Y595.577 I0 J-1.5
G1 Y66.577
G2 X146.51 Y65.077 I-1.5 J0
G1 X54.065
G2 X43.188 Y72.841 I0 J11.5
G1 X38.883 Y85.376
G2 X45.182 Y99.662 I10.876 J3.736
G3 X86.486 Y282.26 I-46.172 J106.415
X86.063 Y282.289 I-0.226 J-0.197
G1 X85.837 Y282.092
X85.787 Y282.048 Z-4.742
X85.739 Y282.006 Z-4.72
X85.696 Y281.969 Z-4.685
X85.66 Y281.938 Z-4.637
X85.633 Y281.914 Z-4.58
X85.616 Y281.9 Z-4.517
X85.611 Y281.895 Z-4.45
G0 Z5
X86.005 Y281.442
G1 Z0.25 F333.3
Z-9.2
X86.01 Y281.447 Z-9.267 F1000
X86.027 Y281.462 Z-9.33
X86.054 Y281.485 Z-9.387
X86.09 Y281.517 Z-9.435
X86.133 Y281.554 Z-9.47
X86.181 Y281.596 Z-9.492
X86.231 Y281.639 Z-9.5
X86.457 Y281.836
G3 X86.486 Y282.26 I-0.197 J0.226
X65.13 Y301.388 I-87.477 J-76.183
G2 X60.185 Y310.836 I6.555 J9.449
G1 Y351.318
G2 X65.13 Y360.766 I11.5 J0
G3 X45.182 Y562.492 I-66.121 J95.31
G2 X38.883 Y576.777 I4.577 J10.55
G1 X45.507 Y596.064
G2 X46.926 Y597.077 I1.419 J-0.487
G1 X146.51
G2 X148.01 Y595.577 I0 J-1.5
G1 Y66.577
G2 X146.51 Y65.077 I-1.5 J0
G1 X54.065
G2 X43.188 Y72.841 I0 J11.5
G1 X38.883 Y85.376
G2 X45.182 Y99.662 I10.876 J3.736
G3 X86.486 Y282.26 I-46.172 J106.415
X86.063 Y282.289 I-0.226 J-0.197
G1 X85.837 Y282.092
X85.787 Y282.048 Z-9.492
X85.739 Y282.006 Z-9.47
X85.696 Y281.969 Z-9.435
X85.66 Y281.938 Z-9.387
X85.633 Y281.914 Z-9.33
X85.616 Y281.9 Z-9.267
X85.611 Y281.895 Z-9.2
G0 Z5
X86.005 Y281.442
G1 Z-4.5 F333.3
Z-13.95
X86.01 Y281.447 Z-14.017 F1000
X86.027 Y281.462 Z-14.08
X86.054 Y281.485 Z-14.137
X86.09 Y281.517 Z-14.185
X86.133 Y281.554 Z-14.22
X86.181 Y281.596 Z-14.242
X86.231 Y281.639 Z-14.25
X86.457 Y281.836
G3 X86.486 Y282.26 I-0.197 J0.226
X65.13 Y301.388 I-87.477 J-76.183
G2 X60.185 Y310.836 I6.555 J9.449
G1 Y351.318
G2 X65.13 Y360.766 I11.5 J0
G3 X45.182 Y562.492 I-66.121 J95.31
G2 X38.883 Y576.777 I4.577 J10.55
G1 X45.507 Y596.064
G2 X46.926 Y597.077 I1.419 J-0.487
G1 X146.51
G2 X148.01 Y595.577 I0 J-1.5
G1 Y66.577
G2 X146.51 Y65.077 I-1.5 J0
G1 X54.065
G2 X43.188 Y72.841 I0 J11.5
G1 X38.883 Y85.376
G2 X45.182 Y99.662 I10.876 J3.736
G3 X86.486 Y282.26 I-46.172 J106.415
X86.063 Y282.289 I-0.226 J-0.197
G1 X85.837 Y282.092
X85.787 Y282.048 Z-14.242
X85.739 Y282.006 Z-14.22
X85.696 Y281.969 Z-14.185
X85.66 Y281.938 Z-14.137
X85.633 Y281.914 Z-14.08
X85.616 Y281.9 Z-14.017
X85.611 Y281.895 Z-13.95
G0 Z5
X86.005 Y281.442
G1 Z-9.25 F333.3
Z-18.7
X86.01 Y281.447 Z-18.767 F1000
X86.027 Y281.462 Z-18.83
X86.054 Y281.485 Z-18.887
X86.09 Y281.517 Z-18.935
X86.133 Y281.554 Z-18.97
X86.181 Y281.596 Z-18.992
X86.231 Y281.639 Z-19
X86.457 Y281.836
G3 X86.486 Y282.26 I-0.197 J0.226
X65.13 Y301.388 I-87.477 J-76.183
G2 X60.185 Y310.836 I6.555 J9.449
G1 Y351.318
G2 X65.13 Y360.766 I11.5 J0
G3 X45.182 Y562.492 I-66.121 J95.31
G2 X38.883 Y576.777 I4.577 J10.55
G1 X45.507 Y596.064
G2 X46.926 Y597.077 I1.419 J-0.487
G1 X146.51
G2 X148.01 Y595.577 I0 J-1.5
G1 Y66.577
G2 X146.51 Y65.077 I-1.5 J0
G1 X54.065
G2 X43.188 Y72.841 I0 J11.5
G1 X38.883 Y85.376
G2 X45.182 Y99.662 I10.876 J3.736
G3 X86.486 Y282.26 I-46.172 J106.415
X86.063 Y282.289 I-0.226 J-0.197
G1 X85.837 Y282.092
X85.787 Y282.048 Z-18.992
X85.739 Y282.006 Z-18.97
X85.696 Y281.969 Z-18.935
X85.66 Y281.938 Z-18.887
X85.633 Y281.914 Z-18.83
X85.616 Y281.9 Z-18.767
X85.611 Y281.895 Z-18.7
G0 Z5
X61.505 Y260.901
G1 Z-4.45 F333.3
X61.499 Y260.896 Z-4.517 F1000
X61.483 Y260.882 Z-4.58
X61.456 Y260.858 Z-4.637
X61.42 Y260.827 Z-4.685
X61.377 Y260.79 Z-4.72
X61.329 Y260.748 Z-4.742
X61.279 Y260.704 Z-4.75
X61.053 Y260.507
G3 X61.023 Y260.084 I0.197 J-0.226
X82.38 Y240.956 I87.477 J76.182
G2 X87.324 Y231.507 I-6.555 J-9.449
G1 Y191.026
G2 X82.38 Y181.577 I-11.5 J-0.001
G3 X51.061 Y23.325 I66.12 J-95.31
G2 X48.379 Y7.945 I-9.66 J-6.24
G1 X40.408 Y1.859
G2 X23.805 Y4.705 I-6.978 J9.141
X-0.5 Y86.266 I124.694 J81.561
G1 Y86.275
X-0.494 Y87.311
Y87.328
X-0.476 Y88.366
Y88.383
X-0.447 Y89.423
X-0.446 Y89.44
X-0.405 Y90.483
X-0.404 Y90.499
X-0.351 Y91.544
X-0.35 Y91.561
X-0.286 Y92.608
X-0.285 Y92.624
X-0.209 Y93.674
X-0.208 Y93.69
X-0.12 Y94.741
X-0.119 Y94.757
X-0.02 Y95.811
X-0.019 Y95.826
X0.092 Y96.882
X0.093 Y96.898
X0.215 Y97.956
X0.216 Y97.971
X0.349 Y99.031
X0.351 Y99.046
X0.494 Y100.109
X0.496 Y100.123
X0.651 Y101.187
X0.653 Y101.201
X0.818 Y102.268
X0.82 Y102.282
X0.996 Y103.351
X0.998 Y103.365
X1.185 Y104.436
X1.187 Y104.449
X1.383 Y105.522
X1.386 Y105.535
X1.593 Y106.609
X1.595 Y106.622
X1.812 Y107.699
X1.815 Y107.717
X2.278 Y109.877
X2.283 Y109.9
X2.783 Y112.067
X2.788 Y112.089
X3.324 Y114.264
X3.329 Y114.284
X3.899 Y116.466
X3.904 Y116.485
X4.507 Y118.674
X4.512 Y118.692
X5.145 Y120.887
X5.149 Y120.903
X5.811 Y123.105
X5.815 Y123.119
X6.503 Y125.327
X6.508 Y125.341
X7.22 Y127.554
X7.224 Y127.565
X7.958 Y129.785
X7.962 Y129.796
X8.716 Y132.02
X8.72 Y132.029
X9.492 Y134.258
X9.494 Y134.266
X10.282 Y136.499
X10.284 Y136.505
X11.084 Y138.743
X11.086 Y138.75
X12.716 Y143.236
X12.718 Y143.241
X14.369 Y147.74
X16.023 Y152.245
X17.569 Y156.51
Y264.198
X16.03 Y268.257
X14.376 Y272.585
X14.375 Y272.587
X12.724 Y276.928
X12.721 Y276.935
X11.091 Y281.291
X11.088 Y281.301
X10.288 Y283.486
X10.285 Y283.495
X9.497 Y285.686
X9.494 Y285.695
X8.722 Y287.89
X8.718 Y287.902
X7.963 Y290.103
X7.959 Y290.116
X7.225 Y292.324
X7.22 Y292.337
X6.508 Y294.55
X6.503 Y294.566
X5.815 Y296.787
X5.81 Y296.804
X5.148 Y299.031
X5.143 Y299.049
X4.51 Y301.284
X4.504 Y301.304
X3.902 Y303.546
X3.896 Y303.567
X3.326 Y305.818
X3.321 Y305.84
X2.785 Y308.098
X2.78 Y308.121
X2.28 Y310.388
X2.274 Y310.412
X1.812 Y312.688
X1.808 Y312.707
X1.592 Y313.849
X1.589 Y313.862
X1.383 Y315.005
X1.38 Y315.018
X1.184 Y316.164
X1.182 Y316.178
X0.996 Y317.326
X0.993 Y317.339
X0.818 Y318.489
X0.816 Y318.503
X0.65 Y319.656
X0.649 Y319.67
X0.494 Y320.825
X0.492 Y320.84
X0.349 Y321.997
X0.347 Y322.012
X0.215 Y323.172
X0.213 Y323.186
X0.092 Y324.349
X0.09 Y324.364
X-0.02 Y325.529
X-0.021 Y325.543
X-0.12 Y326.71
X-0.121 Y326.725
X-0.209 Y327.895
X-0.21 Y327.91
X-0.286 Y329.082
X-0.287 Y329.097
X-0.351 Y330.272
X-0.352 Y330.287
X-0.405 Y331.464
Y331.479
X-0.446 Y332.659
X-0.447 Y332.674
X-0.476 Y333.857
Y333.872
X-0.494 Y335.057
Y335.072
X-0.5 Y336.259
Y336.266
G2 X23.805 Y417.828 I149 J0.001
X40.408 Y420.673 I9.624 J-6.295
G1 X48.379 Y414.588
G2 X51.061 Y399.207 I-6.978 J-9.141
G3 X61.023 Y260.084 I97.439 J-62.941
X61.447 Y260.055 I0.226 J0.197
G1 X61.673 Y260.252
X61.723 Y260.296 Z-4.742
X61.771 Y260.337 Z-4.72
X61.814 Y260.375 Z-4.685
X61.85 Y260.406 Z-4.637
X61.877 Y260.429 Z-4.58
X61.893 Y260.444 Z-4.517
X61.899 Y260.449 Z-4.45
G0 Z5
X61.505 Y260.901
G1 Z0.25 F333.3
Z-9.2
X61.499 Y260.896 Z-9.267 F1000
X61.483 Y260.882 Z-9.33
X61.456 Y260.858 Z-9.387
X61.42 Y260.827 Z-9.435
X61.377 Y260.79 Z-9.47
X61.329 Y260.748 Z-9.492
X61.279 Y260.704 Z-9.5
X61.053 Y260.507
G3 X61.023 Y260.084 I0.197 J-0.226
X82.38 Y240.956 I87.477 J76.182
G2 X87.324 Y231.507 I-6.555 J-9.449
G1 Y191.026
G2 X82.38 Y181.577 I-11.5 J-0.001
G3 X51.061 Y23.325 I66.12 J-95.31
G2 X48.379 Y7.945 I-9.66 J-6.24
G1 X40.408 Y1.859
G2 X23.805 Y4.705 I-6.978 J9.141
X-0.5 Y86.266 I124.694 J81.561
G1 Y86.275
X-0.494 Y87.311
Y87.328
X-0.476 Y88.366
Y88.383
X-0.447 Y89.423
X-0.446 Y89.44
X-0.405 Y90.483
X-0.404 Y90.499
X-0.351 Y91.544
X-0.35 Y91.561
X-0.286 Y92.608
X-0.285 Y92.624
X-0.209 Y93.674
X-0.208 Y93.69
X-0.12 Y94.741
X-0.119 Y94.757
X-0.02 Y95.811
X-0.019 Y95.826
X0.092 Y96.882
X0.093 Y96.898
X0.215 Y97.956
X0.216 Y97.971
X0.349 Y99.031
X0.351 Y99.046
X0.494 Y100.109
X0.496 Y100.123
X0.651 Y101.187
X0.653 Y101.201
X0.818 Y102.268
X0.82 Y102.282
X0.996 Y103.351
X0.998 Y103.365
X1.185 Y104.436
X1.187 Y104.449
X1.383 Y105.522
X1.386 Y105.535
X1.593 Y106.609
X1.595 Y106.622
X1.812 Y107.699
X1.815 Y107.717
X2.278 Y109.877
X2.283 Y109.9
X2.783 Y112.067
X2.788 Y112.089
X3.324 Y114.264
X3.329 Y114.284
X3.899 Y116.466
X3.904 Y116.485
X4.507 Y118.674
X4.512 Y118.692
X5.145 Y120.887
X5.149 Y120.903
X5.811 Y123.105
X5.815 Y123.119
X6.503 Y125.327
X6.508 Y125.341
X7.22 Y127.554
X7.224 Y127.565
X7.958 Y129.785
X7.962 Y129.796
X8.716 Y132.02
X8.72 Y132.029
X9.492 Y134.258
X9.494 Y134.266
X10.282 Y136.499
X10.284 Y136.505
X11.084 Y138.743
X11.086 Y138.75
X12.716 Y143.236
X12.718 Y143.241
X14.369 Y147.74
X16.023 Y152.245
X17.569 Y156.51
Y264.198
X16.03 Y268.257
X14.376 Y272.585
X14.375 Y272.587
X12.724 Y276.928
X12.721 Y276.935
X11.091 Y281.291
X11.088 Y281.301
X10.288 Y283.486
X10.285 Y283.495
X9.497 Y285.686
X9.494 Y285.695
X8.722 Y287.89
X8.718 Y287.902
X7.963 Y290.103
X7.959 Y290.116
X7.225 Y292.324
X7.22 Y292.337
X6.508 Y294.55
X6.503 Y294.566
X5.815 Y296.787
X5.81 Y296.804
X5.148 Y299.031
X5.143 Y299.049
X4.51 Y301.284
X4.504 Y301.304
X3.902 Y303.546
X3.896 Y303.567
X3.326 Y305.818
X3.321 Y305.84
X2.785 Y308.098
X2.78 Y308.121
X2.28 Y310.388
X2.274 Y310.412
X1.812 Y312.688
X1.808 Y312.707
X1.592 Y313.849
X1.589 Y313.862
X1.383 Y315.005
X1.38 Y315.018
X1.184 Y316.164
X1.182 Y316.178
X0.996 Y317.326
X0.993 Y317.339
X0.818 Y318.489
X0.816 Y318.503
X0.65 Y319.656
X0.649 Y319.67
X0.494 Y320.825
X0.492 Y320.84
X0.349 Y321.997
X0.347 Y322.012
X0.215 Y323.172
X0.213 Y323.186
X0.092 Y324.349
X0.09 Y324.364
X-0.02 Y325.529
X-0.021 Y325.543
X-0.12 Y326.71
X-0.121 Y326.725
X-0.209 Y327.895
X-0.21 Y327.91
X-0.286 Y329.082
X-0.287 Y329.097
X-0.351 Y330.272
X-0.352 Y330.287
X-0.405 Y331.464
Y331.479
X-0.446 Y332.659
X-0.447 Y332.674
X-0.476 Y333.857
Y333.872
X-0.494 Y335.057
Y335.072
X-0.5 Y336.259
Y336.266
G2 X23.805 Y417.828 I149 J0.001
X40.408 Y420.673 I9.624 J-6.295
G1 X48.379 Y414.588
G2 X51.061 Y399.207 I-6.978 J-9.141
G3 X61.023 Y260.084 I97.439 J-62.941
X61.447 Y260.055 I0.226 J0.197
G1 X61.673 Y260.252
X61.723 Y260.296 Z-9.492
X61.771 Y260.337 Z-9.47
X61.814 Y260.375 Z-9.435
X61.85 Y260.406 Z-9.387
X61.877 Y260.429 Z-9.33
X61.893 Y260.444 Z-9.267
X61.899 Y260.449 Z-9.2
G0 Z5
X61.505 Y260.901
G1 Z-4.5 F333.3
Z-13.95
X61.499 Y260.896 Z-14.017 F1000
X61.483 Y260.882 Z-14.08
X61.456 Y260.858 Z-14.137
X61.42 Y260.827 Z-14.185
X61.377 Y260.79 Z-14.22
X61.329 Y260.748 Z-14.242
X61.279 Y260.704 Z-14.25
X61.053 Y260.507
G3 X61.023 Y260.084 I0.197 J-0.226
X82.38 Y240.956 I87.477 J76.182
G2 X87.324 Y231.507 I-6.555 J-9.449
G1 Y191.026
G2 X82.38 Y181.577 I-11.5 J-0.001
G3 X51.061 Y23.325 I66.12 J-95.31
G2 X48.379 Y7.945 I-9.66 J-6.24
G1 X40.408 Y1.859
G2 X23.805 Y4.705 I-6.978 J9.141
X-0.5 Y86.266 I124.694 J81.561
G1 Y86.275
X-0.494 Y87.311
Y87.328
X-0.476 Y88.366
Y88.383
X-0.447 Y89.423
X-0.446 Y89.44
X-0.405 Y90.483
X-0.404 Y90.499
X-0.351 Y91.544
X-0.35 Y91.561
X-0.286 Y92.608
X-0.285 Y92.624
X-0.209 Y93.674
X-0.208 Y93.69
X-0.12 Y94.741
X-0.119 Y94.757
X-0.02 Y95.811
X-0.019 Y95.826
X0.092 Y96.882
X0.093 Y96.898
X0.215 Y97.956
X0.216 Y97.971
X0.349 Y99.031
X0.351 Y99.046
X0.494 Y100.109
X0.496 Y100.123
X0.651 Y101.187
X0.653 Y101.201
X0.818 Y102.268
X0.82 Y102.282
X0.996 Y103.351
X0.998 Y103.365
X1.185 Y104.436
X1.187 Y104.449
X1.383 Y105.522
X1.386 Y105.535
X1.593 Y106.609
X1.595 Y106.622
X1.812 Y107.699
X1.815 Y107.717
X2.278 Y109.877
X2.283 Y109.9
X2.783 Y112.067
X2.788 Y112.089
X3.324 Y114.264
X3.329 Y114.284
X3.899 Y116.466
X3.904 Y116.485
X4.507 Y118.674
X4.512 Y118.692
X5.145 Y120.887
X5.149 Y120.903
X5.811 Y123.105
X5.815 Y123.119
X6.503 Y125.327
X6.508 Y125.341
X7.22 Y127.554
X7.224 Y127.565
X7.958 Y129.785
X7.962 Y129.796
X8.716 Y132.02
X8.72 Y132.029
X9.492 Y134.258
X9.494 Y134.266
X10.282 Y136.499
X10.284 Y136.505
X11.084 Y138.743
X11.086 Y138.75
X12.716 Y143.236
X12.718 Y143.241
X14.369 Y147.74
X16.023 Y152.245
X17.569 Y156.51
Y264.198
X16.03 Y268.257
X14.376 Y272.585
X14.375 Y272.587
X12.724 Y276.928
X12.721 Y276.935
X11.091 Y281.291
X11.088 Y281.301
X10.288 Y283.486
X10.285 Y283.495
X9.497 Y285.686
X9.494 Y285.695
X8.722 Y287.89
X8.718 Y287.902
X7.963 Y290.103
X7.959 Y290.116
X7.225 Y292.324
X7.22 Y292.337
X6.508 Y294.55
X6.503 Y294.566
X5.815 Y296.787
X5.81 Y296.804
X5.148 Y299.031
X5.143 Y299.049
X4.51 Y301.284
X4.504 Y301.304
X3.902 Y303.546
X3.896 Y303.567
X3.326 Y305.818
X3.321 Y305.84
X2.785 Y308.098
X2.78 Y308.121
X2.28 Y310.388
X2.274 Y310.412
X1.812 Y312.688
X1.808 Y312.707
X1.592 Y313.849
X1.589 Y313.862
X1.383 Y315.005
X1.38 Y315.018
X1.184 Y316.164
X1.182 Y316.178
X0.996 Y317.326
X0.993 Y317.339
X0.818 Y318.489
X0.816 Y318.503
X0.65 Y319.656
X0.649 Y319.67
X0.494 Y320.825
X0.492 Y320.84
X0.349 Y321.997
X0.347 Y322.012
X0.215 Y323.172
X0.213 Y323.186
X0.092 Y324.349
X0.09 Y324.364
X-0.02 Y325.529
X-0.021 Y325.543
X-0.12 Y326.71
X-0.121 Y326.725
X-0.209 Y327.895
X-0.21 Y327.91
X-0.286 Y329.082
X-0.287 Y329.097
X-0.351 Y330.272
X-0.352 Y330.287
X-0.405 Y331.464
Y331.479
X-0.446 Y332.659
X-0.447 Y332.674
X-0.476 Y333.857
Y333.872
X-0.494 Y335.057
Y335.072
X-0.5 Y336.259
Y336.266
G2 X23.805 Y417.828 I149 J0.001
X40.408 Y420.673 I9.624 J-6.295
G1 X48.379 Y414.588
G2 X51.061 Y399.207 I-6.978 J-9.141
G3 X61.023 Y260.084 I97.439 J-62.941
X61.447 Y260.055 I0.226 J0.197
G1 X61.673 Y260.252
X61.723 Y260.296 Z-14.242
X61.771 Y260.337 Z-14.22
X61.814 Y260.375 Z-14.185
X61.85 Y260.406 Z-14.137
X61.877 Y260.429 Z-14.08
X61.893 Y260.444 Z-14.017
X61.899 Y260.449 Z-13.95
G0 Z5
X61.505 Y260.901
G1 Z-9.25 F333.3
Z-18.7
X61.499 Y260.896 Z-18.767 F1000
X61.483 Y260.882 Z-18.83
X61.456 Y260.858 Z-18.887
X61.42 Y260.827 Z-18.935
X61.377 Y260.79 Z-18.97
X61.329 Y260.748 Z-18.992
X61.279 Y260.704 Z-19
X61.053 Y260.507
G3 X61.023 Y260.084 I0.197 J-0.226
X82.38 Y240.956 I87.477 J76.182
G2 X87.324 Y231.507 I-6.555 J-9.449
G1 Y191.026
G2 X82.38 Y181.577 I-11.5 J-0.001
G3 X51.061 Y23.325 I66.12 J-95.31
G2 X48.379 Y7.945 I-9.66 J-6.24
G1 X40.408 Y1.859
G2 X23.805 Y4.705 I-6.978 J9.141
X-0.5 Y86.266 I124.694 J81.561
G1 Y86.275
X-0.494 Y87.311
Y87.328
X-0.476 Y88.366
Y88.383
X-0.447 Y89.423
X-0.446 Y89.44
X-0.405 Y90.483
X-0.404 Y90.499
X-0.351 Y91.544
X-0.35 Y91.561
X-0.286 Y92.608
X-0.285 Y92.624
X-0.209 Y93.674
X-0.208 Y93.69
X-0.12 Y94.741
X-0.119 Y94.757
X-0.02 Y95.811
X-0.019 Y95.826
X0.092 Y96.882
X0.093 Y96.898
X0.215 Y97.956
X0.216 Y97.971
X0.349 Y99.031
X0.351 Y99.046
X0.494 Y100.109
X0.496 Y100.123
X0.651 Y101.187
X0.653 Y101.201
X0.818 Y102.268
X0.82 Y102.282
X0.996 Y103.351
X0.998 Y103.365
X1.185 Y104.436
X1.187 Y104.449
X1.383 Y105.522
X1.386 Y105.535
X1.593 Y106.609
X1.595 Y106.622
X1.812 Y107.699
X1.815 Y107.717
X2.278 Y109.877
X2.283 Y109.9
X2.783 Y112.067
X2.788 Y112.089
X3.324 Y114.264
X3.329 Y114.284
X3.899 Y116.466
X3.904 Y116.485
X4.507 Y118.674
X4.512 Y118.692
X5.145 Y120.887
X5.149 Y120.903
X5.811 Y123.105
X5.815 Y123.119
X6.503 Y125.327
X6.508 Y125.341
X7.22 Y127.554
X7.224 Y127.565
X7.958 Y129.785
X7.962 Y129.796
X8.716 Y132.02
X8.72 Y132.029
X9.492 Y134.258
X9.494 Y134.266
X10.282 Y136.499
X10.284 Y136.505
X11.084 Y138.743
X11.086 Y138.75
X12.716 Y143.236
X12.718 Y143.241
X14.369 Y147.74
X16.023 Y152.245
X17.569 Y156.51
Y264.198
X16.03 Y268.257
X14.376 Y272.585
X14.375 Y272.587
X12.724 Y276.928
X12.721 Y276.935
X11.091 Y281.291
X11.088 Y281.301
X10.288 Y283.486
X10.285 Y283.495
X9.497 Y285.686
X9.494 Y285.695
X8.722 Y287.89
X8.718 Y287.902
X7.963 Y290.103
X7.959 Y290.116
X7.225 Y292.324
X7.22 Y292.337
X6.508 Y294.55
X6.503 Y294.566
X5.815 Y296.787
X5.81 Y296.804
X5.148 Y299.031
X5.143 Y299.049
X4.51 Y301.284
X4.504 Y301.304
X3.902 Y303.546
X3.896 Y303.567
X3.326 Y305.818
X3.321 Y305.84
X2.785 Y308.098
X2.78 Y308.121
X2.28 Y310.388
X2.274 Y310.412
X1.812 Y312.688
X1.808 Y312.707
X1.592 Y313.849
X1.589 Y313.862
X1.383 Y315.005
X1.38 Y315.018
X1.184 Y316.164
X1.182 Y316.178
X0.996 Y317.326
X0.993 Y317.339
X0.818 Y318.489
X0.816 Y318.503
X0.65 Y319.656
X0.649 Y319.67
X0.494 Y320.825
X0.492 Y320.84
X0.349 Y321.997
X0.347 Y322.012
X0.215 Y323.172
X0.213 Y323.186
X0.092 Y324.349
X0.09 Y324.364
X-0.02 Y325.529
X-0.021 Y325.543
X-0.12 Y326.71
X-0.121 Y326.725
X-0.209 Y327.895
X-0.21 Y327.91
X-0.286 Y329.082
X-0.287 Y329.097
X-0.351 Y330.272
X-0.352 Y330.287
X-0.405 Y331.464
Y331.479
X-0.446 Y332.659
X-0.447 Y332.674
X-0.476 Y333.857
Y333.872
X-0.494 Y335.057
Y335.072
X-0.5 Y336.259
Y336.266
G2 X23.805 Y417.828 I149 J0.001
X40.408 Y420.673 I9.624 J-6.295
G1 X48.379 Y414.588
G2 X51.061 Y399.207 I-6.978 J-9.141
G3 X61.023 Y260.084 I97.439 J-62.941
X61.447 Y260.055 I0.226 J0.197
G1 X61.673 Y260.252
X61.723 Y260.296 Z-18.992
X61.771 Y260.337 Z-18.97
X61.814 Y260.375 Z-18.935
X61.85 Y260.406 Z-18.887
X61.877 Y260.429 Z-18.83
X61.893 Y260.444 Z-18.767
X61.899 Y260.449 Z-18.7
G0 Z15
M9
M5
M30
