(CamperKuehlschrankFrontAbecckungLicht)
(T1  D=5 CR=0 - ZMIN=-10 - flat end mill)
G90 G94
G17
G21
G28 G91 Z0
G90

(Bore1)
T1
S5000 M3
G54
M8
G0 X26 Y101.817
Z15
Z1.5
G1 Z0 F1000
X26.25
G3 X26.5 Y102.067 I0 J0.25
X25.5 Y102.067 Z-1.092 I-0.5 J0
X26.5 Y102.067 Z-2.184 I0.5 J0
X25.5 Y102.067 Z-3.276 I-0.5 J0
X26.5 Y102.067 Z-4.368 I0.5 J0
X25.5 Y102.067 Z-5.46 I-0.5 J0
X26.5 Y102.067 Z-6.551 I0.5 J0
X25.5 Y102.067 Z-7.643 I-0.5 J0
X26.5 Y102.067 Z-8.735 I0.5 J0
X25.5 Y102.067 Z-9.827 I-0.5 J0
X25.561 Y101.828 Z-10 I0.5 J0
X26.439 Y102.305 I0.439 J0.238
X25.561 Y101.828 I-0.439 J-0.238
X25.9 Y101.728 I0.22 J0.119
G1 X26.119 Y101.847
G0 Z5
X26 Y90.15
Z1.5
G1 Z0 F1000
X26.25
G3 X26.5 Y90.4 I0 J0.25
X25.5 Y90.4 Z-1.092 I-0.5 J0
X26.5 Y90.4 Z-2.184 I0.5 J0
X25.5 Y90.4 Z-3.276 I-0.5 J0
X26.5 Y90.4 Z-4.368 I0.5 J0
X25.5 Y90.4 Z-5.46 I-0.5 J0
X26.5 Y90.4 Z-6.551 I0.5 J0
X25.5 Y90.4 Z-7.643 I-0.5 J0
X26.5 Y90.4 Z-8.735 I0.5 J0
X25.5 Y90.4 Z-9.827 I-0.5 J0
X25.561 Y90.162 Z-10 I0.5 J0
X26.439 Y90.639 I0.439 J0.238
X25.561 Y90.162 I-0.439 J-0.238
X25.9 Y90.061 I0.22 J0.119
G1 X26.119 Y90.181
G0 Z5
X57.25 Y101.817
Z1.5
G1 Z0 F1000
X57.5
G3 X57.75 Y102.067 I0 J0.25
X56.75 Y102.067 Z-1.092 I-0.5 J0
X57.75 Y102.067 Z-2.184 I0.5 J0
X56.75 Y102.067 Z-3.276 I-0.5 J0
X57.75 Y102.067 Z-4.368 I0.5 J0
X56.75 Y102.067 Z-5.46 I-0.5 J0
X57.75 Y102.067 Z-6.551 I0.5 J0
X56.75 Y102.067 Z-7.643 I-0.5 J0
X57.75 Y102.067 Z-8.735 I0.5 J0
X56.75 Y102.067 Z-9.827 I-0.5 J0
X56.811 Y101.828 Z-10 I0.5 J0
X57.689 Y102.305 I0.439 J0.238
X56.811 Y101.828 I-0.439 J-0.238
X57.15 Y101.728 I0.22 J0.119
G1 X57.369 Y101.847
G0 Z5
X57.25 Y90.15
Z1.5
G1 Z0 F1000
X57.5
G3 X57.75 Y90.4 I0 J0.25
X56.75 Y90.4 Z-1.092 I-0.5 J0
X57.75 Y90.4 Z-2.184 I0.5 J0
X56.75 Y90.4 Z-3.276 I-0.5 J0
X57.75 Y90.4 Z-4.368 I0.5 J0
X56.75 Y90.4 Z-5.46 I-0.5 J0
X57.75 Y90.4 Z-6.551 I0.5 J0
X56.75 Y90.4 Z-7.643 I-0.5 J0
X57.75 Y90.4 Z-8.735 I0.5 J0
X56.75 Y90.4 Z-9.827 I-0.5 J0
X56.811 Y90.162 Z-10 I0.5 J0
X57.689 Y90.639 I0.439 J0.238
X56.811 Y90.162 I-0.439 J-0.238
X57.15 Y90.061 I0.22 J0.119
G1 X57.369 Y90.181
G0 Z5
X88.5 Y90.15
Z1.5
G1 Z0 F1000
X88.75
G3 X89 Y90.4 I0 J0.25
X88 Y90.4 Z-1.092 I-0.5 J0
X89 Y90.4 Z-2.184 I0.5 J0
X88 Y90.4 Z-3.276 I-0.5 J0
X89 Y90.4 Z-4.368 I0.5 J0
X88 Y90.4 Z-5.46 I-0.5 J0
X89 Y90.4 Z-6.551 I0.5 J0
X88 Y90.4 Z-7.643 I-0.5 J0
X89 Y90.4 Z-8.735 I0.5 J0
X88 Y90.4 Z-9.827 I-0.5 J0
X88.061 Y90.162 Z-10 I0.5 J0
X88.939 Y90.639 I0.439 J0.238
X88.061 Y90.162 I-0.439 J-0.238
X88.4 Y90.061 I0.22 J0.119
G1 X88.619 Y90.181
G0 Z5
X88.5 Y101.817
Z1.5
G1 Z0 F1000
X88.75
G3 X89 Y102.067 I0 J0.25
X88 Y102.067 Z-1.092 I-0.5 J0
X89 Y102.067 Z-2.184 I0.5 J0
X88 Y102.067 Z-3.276 I-0.5 J0
X89 Y102.067 Z-4.368 I0.5 J0
X88 Y102.067 Z-5.46 I-0.5 J0
X89 Y102.067 Z-6.551 I0.5 J0
X88 Y102.067 Z-7.643 I-0.5 J0
X89 Y102.067 Z-8.735 I0.5 J0
X88 Y102.067 Z-9.827 I-0.5 J0
X88.061 Y101.828 Z-10 I0.5 J0
X88.939 Y102.305 I0.439 J0.238
X88.061 Y101.828 I-0.439 J-0.238
X88.4 Y101.728 I0.22 J0.119
G1 X88.619 Y101.847
G0 Z5
X119.75 Y101.817
Z1.5
G1 Z0 F1000
X120
G3 X120.25 Y102.067 I0 J0.25
X119.25 Y102.067 Z-1.092 I-0.5 J0
X120.25 Y102.067 Z-2.184 I0.5 J0
X119.25 Y102.067 Z-3.276 I-0.5 J0
X120.25 Y102.067 Z-4.368 I0.5 J0
X119.25 Y102.067 Z-5.46 I-0.5 J0
X120.25 Y102.067 Z-6.551 I0.5 J0
X119.25 Y102.067 Z-7.643 I-0.5 J0
X120.25 Y102.067 Z-8.735 I0.5 J0
X119.25 Y102.067 Z-9.827 I-0.5 J0
X119.311 Y101.828 Z-10 I0.5 J0
X120.189 Y102.305 I0.439 J0.238
X119.311 Y101.828 I-0.439 J-0.238
X119.65 Y101.728 I0.22 J0.119
G1 X119.869 Y101.847
G0 Z5
X119.75 Y90.15
Z1.5
G1 Z0 F1000
X120
G3 X120.25 Y90.4 I0 J0.25
X119.25 Y90.4 Z-1.092 I-0.5 J0
X120.25 Y90.4 Z-2.184 I0.5 J0
X119.25 Y90.4 Z-3.276 I-0.5 J0
X120.25 Y90.4 Z-4.368 I0.5 J0
X119.25 Y90.4 Z-5.46 I-0.5 J0
X120.25 Y90.4 Z-6.551 I0.5 J0
X119.25 Y90.4 Z-7.643 I-0.5 J0
X120.25 Y90.4 Z-8.735 I0.5 J0
X119.25 Y90.4 Z-9.827 I-0.5 J0
X119.311 Y90.162 Z-10 I0.5 J0
X120.189 Y90.639 I0.439 J0.238
X119.311 Y90.162 I-0.439 J-0.238
X119.65 Y90.061 I0.22 J0.119
G1 X119.869 Y90.181
G0 Z5
X151 Y90.15
Z1.5
G1 Z0 F1000
X151.25
G3 X151.5 Y90.4 I0 J0.25
X150.5 Y90.4 Z-1.092 I-0.5 J0
X151.5 Y90.4 Z-2.184 I0.5 J0
X150.5 Y90.4 Z-3.276 I-0.5 J0
X151.5 Y90.4 Z-4.368 I0.5 J0
X150.5 Y90.4 Z-5.46 I-0.5 J0
X151.5 Y90.4 Z-6.551 I0.5 J0
X150.5 Y90.4 Z-7.643 I-0.5 J0
X151.5 Y90.4 Z-8.735 I0.5 J0
X150.5 Y90.4 Z-9.827 I-0.5 J0
X150.561 Y90.162 Z-10 I0.5 J0
X151.439 Y90.639 I0.439 J0.238
X150.561 Y90.162 I-0.439 J-0.238
X150.9 Y90.061 I0.22 J0.119
G1 X151.119 Y90.181
G0 Z5
X151 Y101.817
Z1.5
G1 Z0 F1000
X151.25
G3 X151.5 Y102.067 I0 J0.25
X150.5 Y102.067 Z-1.092 I-0.5 J0
X151.5 Y102.067 Z-2.184 I0.5 J0
X150.5 Y102.067 Z-3.276 I-0.5 J0
X151.5 Y102.067 Z-4.368 I0.5 J0
X150.5 Y102.067 Z-5.46 I-0.5 J0
X151.5 Y102.067 Z-6.551 I0.5 J0
X150.5 Y102.067 Z-7.643 I-0.5 J0
X151.5 Y102.067 Z-8.735 I0.5 J0
X150.5 Y102.067 Z-9.827 I-0.5 J0
X150.561 Y101.828 Z-10 I0.5 J0
X151.439 Y102.305 I0.439 J0.238
X150.561 Y101.828 I-0.439 J-0.238
X150.9 Y101.728 I0.22 J0.119
G1 X151.119 Y101.847
G0 Z5
X182.25 Y101.817
Z1.5
G1 Z0 F1000
X182.5
G3 X182.75 Y102.067 I0 J0.25
X181.75 Y102.067 Z-1.092 I-0.5 J0
X182.75 Y102.067 Z-2.184 I0.5 J0
X181.75 Y102.067 Z-3.276 I-0.5 J0
X182.75 Y102.067 Z-4.368 I0.5 J0
X181.75 Y102.067 Z-5.46 I-0.5 J0
X182.75 Y102.067 Z-6.551 I0.5 J0
X181.75 Y102.067 Z-7.643 I-0.5 J0
X182.75 Y102.067 Z-8.735 I0.5 J0
X181.75 Y102.067 Z-9.827 I-0.5 J0
X181.811 Y101.828 Z-10 I0.5 J0
X182.689 Y102.305 I0.439 J0.238
X181.811 Y101.828 I-0.439 J-0.238
X182.15 Y101.728 I0.22 J0.119
G1 X182.369 Y101.847
G0 Z5
X182.25 Y90.15
Z1.5
G1 Z0 F1000
X182.5
G3 X182.75 Y90.4 I0 J0.25
X181.75 Y90.4 Z-1.092 I-0.5 J0
X182.75 Y90.4 Z-2.184 I0.5 J0
X181.75 Y90.4 Z-3.276 I-0.5 J0
X182.75 Y90.4 Z-4.368 I0.5 J0
X181.75 Y90.4 Z-5.46 I-0.5 J0
X182.75 Y90.4 Z-6.551 I0.5 J0
X181.75 Y90.4 Z-7.643 I-0.5 J0
X182.75 Y90.4 Z-8.735 I0.5 J0
X181.75 Y90.4 Z-9.827 I-0.5 J0
X181.811 Y90.162 Z-10 I0.5 J0
X182.689 Y90.639 I0.439 J0.238
X181.811 Y90.162 I-0.439 J-0.238
X182.15 Y90.061 I0.22 J0.119
G1 X182.369 Y90.181
G0 Z5
X213.5 Y90.15
Z1.5
G1 Z0 F1000
X213.75
G3 X214 Y90.4 I0 J0.25
X213 Y90.4 Z-1.092 I-0.5 J0
X214 Y90.4 Z-2.184 I0.5 J0
X213 Y90.4 Z-3.276 I-0.5 J0
X214 Y90.4 Z-4.368 I0.5 J0
X213 Y90.4 Z-5.46 I-0.5 J0
X214 Y90.4 Z-6.551 I0.5 J0
X213 Y90.4 Z-7.643 I-0.5 J0
X214 Y90.4 Z-8.735 I0.5 J0
X213 Y90.4 Z-9.827 I-0.5 J0
X213.061 Y90.162 Z-10 I0.5 J0
X213.939 Y90.639 I0.439 J0.238
X213.061 Y90.162 I-0.439 J-0.238
X213.4 Y90.061 I0.22 J0.119
G1 X213.619 Y90.181
G0 Z5
X213.5 Y101.817
Z1.5
G1 Z0 F1000
X213.75
G3 X214 Y102.067 I0 J0.25
X213 Y102.067 Z-1.092 I-0.5 J0
X214 Y102.067 Z-2.184 I0.5 J0
X213 Y102.067 Z-3.276 I-0.5 J0
X214 Y102.067 Z-4.368 I0.5 J0
X213 Y102.067 Z-5.46 I-0.5 J0
X214 Y102.067 Z-6.551 I0.5 J0
X213 Y102.067 Z-7.643 I-0.5 J0
X214 Y102.067 Z-8.735 I0.5 J0
X213 Y102.067 Z-9.827 I-0.5 J0
X213.061 Y101.828 Z-10 I0.5 J0
X213.939 Y102.305 I0.439 J0.238
X213.061 Y101.828 I-0.439 J-0.238
X213.4 Y101.728 I0.22 J0.119
G1 X213.619 Y101.847
G0 Z5
X244.75 Y101.817
Z1.5
G1 Z0 F1000
X245
G3 X245.25 Y102.067 I0 J0.25
X244.25 Y102.067 Z-1.092 I-0.5 J0
X245.25 Y102.067 Z-2.184 I0.5 J0
X244.25 Y102.067 Z-3.276 I-0.5 J0
X245.25 Y102.067 Z-4.368 I0.5 J0
X244.25 Y102.067 Z-5.46 I-0.5 J0
X245.25 Y102.067 Z-6.551 I0.5 J0
X244.25 Y102.067 Z-7.643 I-0.5 J0
X245.25 Y102.067 Z-8.735 I0.5 J0
X244.25 Y102.067 Z-9.827 I-0.5 J0
X244.311 Y101.828 Z-10 I0.5 J0
X245.189 Y102.305 I0.439 J0.238
X244.311 Y101.828 I-0.439 J-0.238
X244.65 Y101.728 I0.22 J0.119
G1 X244.869 Y101.847
G0 Z5
X244.75 Y90.15
Z1.5
G1 Z0 F1000
X245
G3 X245.25 Y90.4 I0 J0.25
X244.25 Y90.4 Z-1.092 I-0.5 J0
X245.25 Y90.4 Z-2.184 I0.5 J0
X244.25 Y90.4 Z-3.276 I-0.5 J0
X245.25 Y90.4 Z-4.368 I0.5 J0
X244.25 Y90.4 Z-5.46 I-0.5 J0
X245.25 Y90.4 Z-6.551 I0.5 J0
X244.25 Y90.4 Z-7.643 I-0.5 J0
X245.25 Y90.4 Z-8.735 I0.5 J0
X244.25 Y90.4 Z-9.827 I-0.5 J0
X244.311 Y90.162 Z-10 I0.5 J0
X245.189 Y90.639 I0.439 J0.238
X244.311 Y90.162 I-0.439 J-0.238
X244.65 Y90.061 I0.22 J0.119
G1 X244.869 Y90.181
G0 Z5
X276 Y90.15
Z1.5
G1 Z0 F1000
X276.25
G3 X276.5 Y90.4 I0 J0.25
X275.5 Y90.4 Z-1.092 I-0.5 J0
X275.717 Y89.988 Z-1.429 I0.5 J0
X276.283 Y90.812 Z-2.52 I0.283 J0.412
X275.821 Y90.867 Z-2.857 I-0.283 J-0.412
X276.179 Y89.933 Z-3.949 I0.179 J-0.467
X275.821 Y90.867 Z-5.041 I-0.179 J0.467
X276.179 Y89.933 Z-6.133 I0.179 J-0.467
X275.821 Y90.867 Z-7.225 I-0.179 J0.467
X276.179 Y89.933 Z-8.317 I0.179 J-0.467
X275.821 Y90.867 Z-9.409 I-0.179 J0.467
X275.561 Y90.162 Z-10 I0.179 J-0.467
X276.439 Y90.639 I0.439 J0.238
X275.561 Y90.162 I-0.439 J-0.238
X275.9 Y90.061 I0.22 J0.119
G1 X276.119 Y90.181
G0 Z5
X276 Y101.817
Z1.5
G1 Z0 F1000
X276.25
G3 X276.5 Y102.067 I0 J0.25
X275.5 Y102.067 Z-1.092 I-0.5 J0
X275.717 Y101.655 Z-1.429 I0.5 J0
X276.283 Y102.479 Z-2.52 I0.283 J0.412
X275.821 Y102.534 Z-2.857 I-0.283 J-0.412
X276.179 Y101.6 Z-3.949 I0.179 J-0.467
X276.486 Y101.95 Z-4.286 I-0.179 J0.467
X275.514 Y102.184 Z-5.378 I-0.486 J0.117
X276.486 Y101.95 Z-6.47 I0.486 J-0.117
X275.514 Y102.184 Z-7.561 I-0.486 J0.117
X276.486 Y101.95 Z-8.653 I0.486 J-0.117
X275.514 Y102.184 Z-9.745 I-0.486 J0.117
X275.561 Y101.828 Z-10 I0.486 J-0.117
X276.439 Y102.305 I0.439 J0.238
X275.561 Y101.828 I-0.439 J-0.238
X275.9 Y101.728 I0.22 J0.119
G1 X276.119 Y101.847
G0 Z5
X307.25 Y101.817
Z1.5
G1 Z0 F1000
X307.5
G3 X307.75 Y102.067 I0 J0.25
X306.75 Y102.067 Z-1.092 I-0.5 J0
X306.967 Y101.655 Z-1.429 I0.5 J0
X307.533 Y102.479 Z-2.52 I0.283 J0.412
X307.071 Y102.534 Z-2.857 I-0.283 J-0.412
X307.429 Y101.6 Z-3.949 I0.179 J-0.467
X307.736 Y101.95 Z-4.286 I-0.179 J0.467
X306.764 Y102.184 Z-5.378 I-0.486 J0.117
X307.736 Y101.95 Z-6.47 I0.486 J-0.117
X306.764 Y102.184 Z-7.561 I-0.486 J0.117
X307.736 Y101.95 Z-8.653 I0.486 J-0.117
X306.764 Y102.184 Z-9.745 I-0.486 J0.117
X306.811 Y101.828 Z-10 I0.486 J-0.117
X307.689 Y102.305 I0.439 J0.238
X306.811 Y101.828 I-0.439 J-0.238
X307.15 Y101.728 I0.22 J0.119
G1 X307.369 Y101.847
G0 Z5
X307.25 Y90.15
Z1.5
G1 Z0 F1000
X307.5
G3 X307.75 Y90.4 I0 J0.25
X306.75 Y90.4 Z-1.092 I-0.5 J0
X306.967 Y89.988 Z-1.429 I0.5 J0
X307.533 Y90.812 Z-2.52 I0.283 J0.412
X307.071 Y90.867 Z-2.857 I-0.283 J-0.412
X307.429 Y89.933 Z-3.949 I0.179 J-0.467
X307.071 Y90.867 Z-5.041 I-0.179 J0.467
X307.429 Y89.933 Z-6.133 I0.179 J-0.467
X307.071 Y90.867 Z-7.225 I-0.179 J0.467
X307.429 Y89.933 Z-8.317 I0.179 J-0.467
X307.071 Y90.867 Z-9.409 I-0.179 J0.467
X306.811 Y90.162 Z-10 I0.179 J-0.467
X307.689 Y90.639 I0.439 J0.238
X306.811 Y90.162 I-0.439 J-0.238
X307.15 Y90.061 I0.22 J0.119
G1 X307.369 Y90.181
G0 Z5
X338.5 Y90.15
Z1.5
G1 Z0 F1000
X338.75
G3 X339 Y90.4 I0 J0.25
X338 Y90.4 Z-1.092 I-0.5 J0
X338.217 Y89.988 Z-1.429 I0.5 J0
X338.783 Y90.812 Z-2.52 I0.283 J0.412
X338.321 Y90.867 Z-2.857 I-0.283 J-0.412
X338.679 Y89.933 Z-3.949 I0.179 J-0.467
X338.321 Y90.867 Z-5.041 I-0.179 J0.467
X338.679 Y89.933 Z-6.133 I0.179 J-0.467
X338.321 Y90.867 Z-7.225 I-0.179 J0.467
X338.679 Y89.933 Z-8.317 I0.179 J-0.467
X338.321 Y90.867 Z-9.409 I-0.179 J0.467
X338.061 Y90.162 Z-10 I0.179 J-0.467
X338.939 Y90.639 I0.439 J0.238
X338.061 Y90.162 I-0.439 J-0.238
X338.4 Y90.061 I0.22 J0.119
G1 X338.619 Y90.181
G0 Z5
X338.5 Y101.817
Z1.5
G1 Z0 F1000
X338.75
G3 X339 Y102.067 I0 J0.25
X338 Y102.067 Z-1.092 I-0.5 J0
X338.217 Y101.655 Z-1.429 I0.5 J0
X338.783 Y102.479 Z-2.52 I0.283 J0.412
X338.321 Y102.534 Z-2.857 I-0.283 J-0.412
X338.679 Y101.6 Z-3.949 I0.179 J-0.467
X338.986 Y101.95 Z-4.286 I-0.179 J0.467
X338.014 Y102.184 Z-5.378 I-0.486 J0.117
X338.986 Y101.95 Z-6.47 I0.486 J-0.117
X338.014 Y102.184 Z-7.561 I-0.486 J0.117
X338.986 Y101.95 Z-8.653 I0.486 J-0.117
X338.014 Y102.184 Z-9.745 I-0.486 J0.117
X338.061 Y101.828 Z-10 I0.486 J-0.117
X338.939 Y102.305 I0.439 J0.238
X338.061 Y101.828 I-0.439 J-0.238
X338.4 Y101.728 I0.22 J0.119
G1 X338.619 Y101.847
G0 Z5
X369.75 Y101.817
Z1.5
G1 Z0 F1000
X370
G3 X370.25 Y102.067 I0 J0.25
X369.25 Y102.067 Z-1.092 I-0.5 J0
X369.467 Y101.655 Z-1.429 I0.5 J0
X370.033 Y102.479 Z-2.52 I0.283 J0.412
X369.571 Y102.534 Z-2.857 I-0.283 J-0.412
X369.929 Y101.6 Z-3.949 I0.179 J-0.467
X370.236 Y101.95 Z-4.286 I-0.179 J0.467
X369.264 Y102.184 Z-5.378 I-0.486 J0.117
X370.236 Y101.95 Z-6.47 I0.486 J-0.117
X369.264 Y102.184 Z-7.561 I-0.486 J0.117
X370.236 Y101.95 Z-8.653 I0.486 J-0.117
X369.264 Y102.184 Z-9.745 I-0.486 J0.117
X369.311 Y101.828 Z-10 I0.486 J-0.117
X370.189 Y102.305 I0.439 J0.238
X369.311 Y101.828 I-0.439 J-0.238
X369.65 Y101.728 I0.22 J0.119
G1 X369.869 Y101.847
G0 Z5
X369.75 Y90.15
Z1.5
G1 Z0 F1000
X370
G3 X370.25 Y90.4 I0 J0.25
X369.25 Y90.4 Z-1.092 I-0.5 J0
X369.467 Y89.988 Z-1.429 I0.5 J0
X370.033 Y90.812 Z-2.52 I0.283 J0.412
X369.571 Y90.867 Z-2.857 I-0.283 J-0.412
X369.929 Y89.933 Z-3.949 I0.179 J-0.467
X369.571 Y90.867 Z-5.041 I-0.179 J0.467
X369.929 Y89.933 Z-6.133 I0.179 J-0.467
X369.571 Y90.867 Z-7.225 I-0.179 J0.467
X369.929 Y89.933 Z-8.317 I0.179 J-0.467
X369.571 Y90.867 Z-9.409 I-0.179 J0.467
X369.311 Y90.162 Z-10 I0.179 J-0.467
X370.189 Y90.639 I0.439 J0.238
X369.311 Y90.162 I-0.439 J-0.238
X369.65 Y90.061 I0.22 J0.119
G1 X369.869 Y90.181
G0 Z5
X401 Y90.15
Z1.5
G1 Z0 F1000
X401.25
G3 X401.5 Y90.4 I0 J0.25
X400.5 Y90.4 Z-1.092 I-0.5 J0
X400.717 Y89.988 Z-1.429 I0.5 J0
X401.283 Y90.812 Z-2.52 I0.283 J0.412
X400.821 Y90.867 Z-2.857 I-0.283 J-0.412
X401.179 Y89.933 Z-3.949 I0.179 J-0.467
X400.821 Y90.867 Z-5.041 I-0.179 J0.467
X401.179 Y89.933 Z-6.133 I0.179 J-0.467
X400.821 Y90.867 Z-7.225 I-0.179 J0.467
X401.179 Y89.933 Z-8.317 I0.179 J-0.467
X400.821 Y90.867 Z-9.409 I-0.179 J0.467
X400.561 Y90.162 Z-10 I0.179 J-0.467
X401.439 Y90.639 I0.439 J0.238
X400.561 Y90.162 I-0.439 J-0.238
X400.9 Y90.061 I0.22 J0.119
G1 X401.119 Y90.181
G0 Z5
X401 Y101.817
Z1.5
G1 Z0 F1000
X401.25
G3 X401.5 Y102.067 I0 J0.25
X400.5 Y102.067 Z-1.092 I-0.5 J0
X400.717 Y101.655 Z-1.429 I0.5 J0
X401.283 Y102.479 Z-2.52 I0.283 J0.412
X400.821 Y102.534 Z-2.857 I-0.283 J-0.412
X401.179 Y101.6 Z-3.949 I0.179 J-0.467
X401.486 Y101.95 Z-4.286 I-0.179 J0.467
X400.514 Y102.184 Z-5.378 I-0.486 J0.117
X401.486 Y101.95 Z-6.47 I0.486 J-0.117
X400.514 Y102.184 Z-7.561 I-0.486 J0.117
X401.486 Y101.95 Z-8.653 I0.486 J-0.117
X400.514 Y102.184 Z-9.745 I-0.486 J0.117
X400.561 Y101.828 Z-10 I0.486 J-0.117
X401.439 Y102.305 I0.439 J0.238
X400.561 Y101.828 I-0.439 J-0.238
X400.9 Y101.728 I0.22 J0.119
G1 X401.119 Y101.847
G0 Z5
X432.25 Y101.817
Z1.5
G1 Z0 F1000
X432.5
G3 X432.75 Y102.067 I0 J0.25
X431.75 Y102.067 Z-1.092 I-0.5 J0
X431.967 Y101.655 Z-1.429 I0.5 J0
X432.533 Y102.479 Z-2.52 I0.283 J0.412
X432.071 Y102.534 Z-2.857 I-0.283 J-0.412
X432.429 Y101.6 Z-3.949 I0.179 J-0.467
X432.736 Y101.95 Z-4.286 I-0.179 J0.467
X431.764 Y102.184 Z-5.378 I-0.486 J0.117
X432.736 Y101.95 Z-6.47 I0.486 J-0.117
X431.764 Y102.184 Z-7.561 I-0.486 J0.117
X432.736 Y101.95 Z-8.653 I0.486 J-0.117
X431.764 Y102.184 Z-9.745 I-0.486 J0.117
X431.811 Y101.828 Z-10 I0.486 J-0.117
X432.689 Y102.305 I0.439 J0.238
X431.811 Y101.828 I-0.439 J-0.238
X432.15 Y101.728 I0.22 J0.119
G1 X432.369 Y101.847
G0 Z5
X432.25 Y90.15
Z1.5
G1 Z0 F1000
X432.5
G3 X432.75 Y90.4 I0 J0.25
X431.75 Y90.4 Z-1.092 I-0.5 J0
X431.967 Y89.988 Z-1.429 I0.5 J0
X432.533 Y90.812 Z-2.52 I0.283 J0.412
X432.071 Y90.867 Z-2.857 I-0.283 J-0.412
X432.429 Y89.933 Z-3.949 I0.179 J-0.467
X432.071 Y90.867 Z-5.041 I-0.179 J0.467
X432.429 Y89.933 Z-6.133 I0.179 J-0.467
X432.071 Y90.867 Z-7.225 I-0.179 J0.467
X432.429 Y89.933 Z-8.317 I0.179 J-0.467
X432.071 Y90.867 Z-9.409 I-0.179 J0.467
X431.811 Y90.162 Z-10 I0.179 J-0.467
X432.689 Y90.639 I0.439 J0.238
X431.811 Y90.162 I-0.439 J-0.238
X432.15 Y90.061 I0.22 J0.119
G1 X432.369 Y90.181
G0 Z5
X463.5 Y90.15
Z1.5
G1 Z0 F1000
X463.75
G3 X464 Y90.4 I0 J0.25
X463 Y90.4 Z-1.092 I-0.5 J0
X463.217 Y89.988 Z-1.429 I0.5 J0
X463.783 Y90.812 Z-2.52 I0.283 J0.412
X463.321 Y90.867 Z-2.857 I-0.283 J-0.412
X463.679 Y89.933 Z-3.949 I0.179 J-0.467
X463.321 Y90.867 Z-5.041 I-0.179 J0.467
X463.679 Y89.933 Z-6.133 I0.179 J-0.467
X463.321 Y90.867 Z-7.225 I-0.179 J0.467
X463.679 Y89.933 Z-8.317 I0.179 J-0.467
X463.321 Y90.867 Z-9.409 I-0.179 J0.467
X463.061 Y90.162 Z-10 I0.179 J-0.467
X463.939 Y90.639 I0.439 J0.238
X463.061 Y90.162 I-0.439 J-0.238
X463.4 Y90.061 I0.22 J0.119
G1 X463.619 Y90.181
G0 Z5
X463.5 Y101.817
Z1.5
G1 Z0 F1000
X463.75
G3 X464 Y102.067 I0 J0.25
X463 Y102.067 Z-1.092 I-0.5 J0
X463.217 Y101.655 Z-1.429 I0.5 J0
X463.783 Y102.479 Z-2.52 I0.283 J0.412
X463.321 Y102.534 Z-2.857 I-0.283 J-0.412
X463.679 Y101.6 Z-3.949 I0.179 J-0.467
X463.986 Y101.95 Z-4.286 I-0.179 J0.467
X463.014 Y102.184 Z-5.378 I-0.486 J0.117
X463.986 Y101.95 Z-6.47 I0.486 J-0.117
X463.014 Y102.184 Z-7.561 I-0.486 J0.117
X463.986 Y101.95 Z-8.653 I0.486 J-0.117
X463.014 Y102.184 Z-9.745 I-0.486 J0.117
X463.061 Y101.828 Z-10 I0.486 J-0.117
X463.939 Y102.305 I0.439 J0.238
X463.061 Y101.828 I-0.439 J-0.238
X463.4 Y101.728 I0.22 J0.119
G1 X463.619 Y101.847
G0 Z5
X494.75 Y101.817
Z1.5
G1 Z0 F1000
X495
G3 X495.25 Y102.067 I0 J0.25
X494.25 Y102.067 Z-1.092 I-0.5 J0
X494.467 Y101.655 Z-1.429 I0.5 J0
X495.033 Y102.479 Z-2.52 I0.283 J0.412
X494.571 Y102.534 Z-2.857 I-0.283 J-0.412
X494.929 Y101.6 Z-3.949 I0.179 J-0.467
X495.236 Y101.95 Z-4.286 I-0.179 J0.467
X494.264 Y102.184 Z-5.378 I-0.486 J0.117
X495.236 Y101.95 Z-6.47 I0.486 J-0.117
X494.264 Y102.184 Z-7.561 I-0.486 J0.117
X495.236 Y101.95 Z-8.653 I0.486 J-0.117
X494.264 Y102.184 Z-9.745 I-0.486 J0.117
X494.311 Y101.828 Z-10 I0.486 J-0.117
X495.189 Y102.305 I0.439 J0.238
X494.311 Y101.828 I-0.439 J-0.238
X494.65 Y101.728 I0.22 J0.119
G1 X494.869 Y101.847
G0 Z5
X494.75 Y90.15
Z1.5
G1 Z0 F1000
X495
G3 X495.25 Y90.4 I0 J0.25
X494.25 Y90.4 Z-1.092 I-0.5 J0
X494.467 Y89.988 Z-1.429 I0.5 J0
X495.033 Y90.812 Z-2.52 I0.283 J0.412
X494.571 Y90.867 Z-2.857 I-0.283 J-0.412
X494.929 Y89.933 Z-3.949 I0.179 J-0.467
X494.571 Y90.867 Z-5.041 I-0.179 J0.467
X494.929 Y89.933 Z-6.133 I0.179 J-0.467
X494.571 Y90.867 Z-7.225 I-0.179 J0.467
X494.929 Y89.933 Z-8.317 I0.179 J-0.467
X494.571 Y90.867 Z-9.409 I-0.179 J0.467
X494.311 Y90.162 Z-10 I0.179 J-0.467
X495.189 Y90.639 I0.439 J0.238
X494.311 Y90.162 I-0.439 J-0.238
X494.65 Y90.061 I0.22 J0.119
G1 X494.869 Y90.181
G0 Z5
X526 Y90.15
Z1.5
G1 Z0 F1000
X526.25
G3 X526.5 Y90.4 I0 J0.25
X525.5 Y90.4 Z-1.092 I-0.5 J0
X525.717 Y89.988 Z-1.429 I0.5 J0
X526.283 Y90.812 Z-2.52 I0.283 J0.412
X525.821 Y90.867 Z-2.857 I-0.283 J-0.412
X526.179 Y89.933 Z-3.949 I0.179 J-0.467
X525.821 Y90.867 Z-5.041 I-0.179 J0.467
X525.628 Y90.066 Z-5.714 I0.179 J-0.467
X526.372 Y90.735 Z-6.806 I0.372 J0.335
X525.935 Y90.896 Z-7.143 I-0.372 J-0.335
X526.065 Y89.905 Z-8.235 I0.065 J-0.496
X526.445 Y90.173 Z-8.571 I-0.065 J0.496
X525.555 Y90.627 Z-9.663 I-0.445 J0.227
X525.561 Y90.162 Z-10 I0.445 J-0.227
X526.439 Y90.639 I0.439 J0.238
X525.561 Y90.162 I-0.439 J-0.238
X525.899 Y90.061 I0.22 J0.119
G1 X526.119 Y90.181
G0 Z5
X526 Y101.817
Z1.5
G1 Z0 F1000
X526.25
G3 X526.5 Y102.067 I0 J0.25
X525.5 Y102.067 Z-1.092 I-0.5 J0
X525.717 Y101.655 Z-1.429 I0.5 J0
X526.283 Y102.479 Z-2.52 I0.283 J0.412
X525.821 Y102.534 Z-2.857 I-0.283 J-0.412
X526.179 Y101.6 Z-3.949 I0.179 J-0.467
X526.486 Y101.95 Z-4.286 I-0.179 J0.467
X525.514 Y102.184 Z-5.378 I-0.486 J0.117
X525.628 Y101.732 Z-5.714 I0.486 J-0.117
X526.372 Y102.401 Z-6.806 I0.372 J0.335
X525.935 Y102.563 Z-7.143 I-0.372 J-0.335
X526.065 Y101.571 Z-8.235 I0.065 J-0.496
X526.445 Y101.84 Z-8.571 I-0.065 J0.496
X525.555 Y102.294 Z-9.663 I-0.445 J0.227
X525.561 Y101.828 Z-10 I0.445 J-0.227
X526.439 Y102.305 I0.439 J0.238
X525.561 Y101.828 I-0.439 J-0.238
X525.899 Y101.728 I0.22 J0.119
G1 X526.119 Y101.847
G0 Z5
X426.875 Y74.463
Z1.5
G1 Z0 F1000
X427.125
X427.164 Y74.469
X427.198 Y74.487
X427.226 Y74.514
X427.244 Y74.549
X427.25 Y74.588
G3 X426.75 Y74.588 Z-1.001 I-0.25 J0
X426.943 Y74.344 Z-1.429 I0.25 J0
X427.057 Y74.831 Z-2.429 I0.057 J0.244
X426.943 Y74.344 Z-3.43 I-0.057 J-0.244
X427.158 Y74.781 Z-4.286 I0.057 J0.243
X426.842 Y74.394 Z-5.287 I-0.158 J-0.194
X427.153 Y74.39 Z-5.714 I0.158 J0.194
X426.847 Y74.786 Z-6.715 I-0.153 J0.198
X426.773 Y74.484 Z-7.143 I0.153 J-0.198
X427.227 Y74.692 Z-8.144 I0.227 J0.104
X426.773 Y74.484 Z-9.145 I-0.227 J-0.104
X427.25 Y74.581 Z-10 I0.227 J0.104
X426.75 Y74.595 I-0.25 J0.007
X427.25 Y74.581 I0.25 J-0.007
G1 X427.245 Y74.619
X427.228 Y74.655
X427.201 Y74.683
X427.167 Y74.702
X427.129 Y74.709
X426.879 Y74.716
G0 Z5
X471.875 Y74.463
Z1.5
G1 Z0 F1000
X472.125
X472.164 Y74.469
X472.198 Y74.487
X472.226 Y74.514
X472.244 Y74.549
X472.25 Y74.588
G3 X471.75 Y74.588 Z-1.001 I-0.25 J0
X471.943 Y74.344 Z-1.429 I0.25 J0
X472.057 Y74.831 Z-2.429 I0.057 J0.244
X471.943 Y74.344 Z-3.43 I-0.057 J-0.244
X472.158 Y74.781 Z-4.286 I0.057 J0.243
X471.842 Y74.394 Z-5.287 I-0.158 J-0.194
X472.153 Y74.39 Z-5.714 I0.158 J0.194
X471.847 Y74.786 Z-6.715 I-0.153 J0.198
X471.773 Y74.484 Z-7.143 I0.153 J-0.198
X472.227 Y74.692 Z-8.144 I0.227 J0.104
X471.773 Y74.484 Z-9.145 I-0.227 J-0.104
X472.25 Y74.581 Z-10 I0.227 J0.104
X471.75 Y74.595 I-0.25 J0.007
X472.25 Y74.581 I0.25 J-0.007
G1 X472.245 Y74.619
X472.228 Y74.655
X472.201 Y74.683
X472.167 Y74.702
X472.129 Y74.709
X471.879 Y74.716
G0 Z15

(2D Contour5)
X422.5 Y63.588
Z15
Z5
G1 Z-3.5 F333.3
G19 G3 Y64.088 Z-4 J0.5 K0 F1000
G1 Y64.588
G17 G3 X422 Y65.088 I-0.5 J0
G2 X414.5 Y72.588 I0 J7.5
G1 Y77.088
X0
G2 X-2.5 Y79.588 I0 J2.5
G1 Y114.588
G2 X0 Y117.088 I2.5 J0
G1 X552
G2 X554.5 Y114.588 I0 J-2.5
G1 Y67.588
G2 X552 Y65.088 I-2.5 J0
G1 X422
G3 X421.5 Y64.588 I0 J-0.5
G1 Y64.088
G19 G2 Y63.588 Z-3.5 J0 K0.5
G0 Z5
X422.5
G1 Z1 F333.3
Z-7.5
G3 Y64.088 Z-8 J0.5 K0 F1000
G1 Y64.588
G17 G3 X422 Y65.088 I-0.5 J0
G2 X414.5 Y72.588 I0 J7.5
G1 Y77.088
X0
G2 X-2.5 Y79.588 I0 J2.5
G1 Y114.588
G2 X0 Y117.088 I2.5 J0
G1 X552
G2 X554.5 Y114.588 I0 J-2.5
G1 Y67.588
G2 X552 Y65.088 I-2.5 J0
G1 X422
G3 X421.5 Y64.588 I0 J-0.5
G1 Y64.088
G19 G2 Y63.588 Z-7.5 J0 K0.5
G0 Z5
X422.5
G1 Z-3 F333.3
Z-9.5
G3 Y64.088 Z-10 J0.5 K0 F1000
G1 Y64.588
G17 G3 X422 Y65.088 I-0.5 J0
G2 X414.5 Y72.588 I0 J7.5
G1 Y77.088
X0
G2 X-2.5 Y79.588 I0 J2.5
G1 Y114.588
G2 X0 Y117.088 I2.5 J0
G1 X552
G2 X554.5 Y114.588 I0 J-2.5
G1 Y67.588
G2 X552 Y65.088 I-2.5 J0
G1 X422
G3 X421.5 Y64.588 I0 J-0.5
G1 Y64.088
G19 G2 Y63.588 Z-9.5 J0 K0.5
G0 Z5
X474.975 Y41.31
G1 Z-3.5 F333.3
X474.968 Y41.309 Z-3.587 F1000
X474.945 Y41.305 Z-3.671
X474.909 Y41.299 Z-3.75
X474.86 Y41.291 Z-3.821
X474.799 Y41.281 Z-3.883
X474.728 Y41.269 Z-3.933
X474.65 Y41.257 Z-3.97
X474.567 Y41.243 Z-3.992
X474.482 Y41.229 Z-4
X473.988 Y41.149
G17 G3 X473.575 Y40.575 I0.081 J-0.493
G2 X473.608 Y40.172 I-2.467 J-0.403
G1 Y0.172
G2 X471.108 Y-2.328 I-2.5 J0
G1 X441.108
G2 X438.608 Y0.172 I0 J2.5
G1 Y40.172
G2 X441.108 Y42.672 I2.5 J0
G1 X471.108
G2 X473.575 Y40.575 I0 J-2.5
G3 X474.149 Y40.162 I0.493 J0.081
G1 X474.643 Y40.242
X474.729 Y40.256 Z-3.992
X474.812 Y40.27 Z-3.97
X474.89 Y40.283 Z-3.933
X474.96 Y40.294 Z-3.883
X475.021 Y40.304 Z-3.821
X475.07 Y40.312 Z-3.75
X475.107 Y40.318 Z-3.671
X475.129 Y40.322 Z-3.587
X475.136 Y40.323 Z-3.5
G0 Z5
X474.975 Y41.31
G1 Z1 F333.3
Z-7.5
X474.968 Y41.309 Z-7.587 F1000
X474.945 Y41.305 Z-7.671
X474.909 Y41.299 Z-7.75
X474.86 Y41.291 Z-7.821
X474.799 Y41.281 Z-7.883
X474.728 Y41.269 Z-7.933
X474.65 Y41.257 Z-7.97
X474.567 Y41.243 Z-7.992
X474.482 Y41.229 Z-8
X473.988 Y41.149
G3 X473.575 Y40.575 I0.081 J-0.493
G2 X473.608 Y40.172 I-2.467 J-0.403
G1 Y0.172
G2 X471.108 Y-2.328 I-2.5 J0
G1 X441.108
G2 X438.608 Y0.172 I0 J2.5
G1 Y40.172
G2 X441.108 Y42.672 I2.5 J0
G1 X471.108
G2 X473.575 Y40.575 I0 J-2.5
G3 X474.149 Y40.162 I0.493 J0.081
G1 X474.643 Y40.242
X474.729 Y40.256 Z-7.992
X474.812 Y40.27 Z-7.97
X474.89 Y40.283 Z-7.933
X474.96 Y40.294 Z-7.883
X475.021 Y40.304 Z-7.821
X475.07 Y40.312 Z-7.75
X475.107 Y40.318 Z-7.671
X475.129 Y40.322 Z-7.587
X475.136 Y40.323 Z-7.5
G0 Z5
X474.975 Y41.31
G1 Z-3 F333.3
Z-9.5
X474.968 Y41.309 Z-9.587 F1000
X474.945 Y41.305 Z-9.671
X474.909 Y41.299 Z-9.75
X474.86 Y41.291 Z-9.821
X474.799 Y41.281 Z-9.883
X474.728 Y41.269 Z-9.933
X474.65 Y41.257 Z-9.97
X474.567 Y41.243 Z-9.992
X474.482 Y41.229 Z-10
X473.988 Y41.149
G3 X473.575 Y40.575 I0.081 J-0.493
G2 X473.608 Y40.172 I-2.467 J-0.403
G1 Y0.172
G2 X471.108 Y-2.328 I-2.5 J0
G1 X441.108
G2 X438.608 Y0.172 I0 J2.5
G1 Y40.172
G2 X441.108 Y42.672 I2.5 J0
G1 X471.108
G2 X473.575 Y40.575 I0 J-2.5
G3 X474.149 Y40.162 I0.493 J0.081
G1 X474.643 Y40.242
X474.729 Y40.256 Z-9.992
X474.812 Y40.27 Z-9.97
X474.89 Y40.283 Z-9.933
X474.96 Y40.294 Z-9.883
X475.021 Y40.304 Z-9.821
X475.07 Y40.312 Z-9.75
X475.107 Y40.318 Z-9.671
X475.129 Y40.322 Z-9.587
X475.136 Y40.323 Z-9.5
G0 Z5
X513.658 Y40.181
G1 Z-3.5 F333.3
X513.665 Y40.18 Z-3.587 F1000
X513.688 Y40.176 Z-3.671
X513.724 Y40.17 Z-3.75
X513.773 Y40.161 Z-3.821
X513.834 Y40.151 Z-3.883
X513.904 Y40.139 Z-3.933
X513.982 Y40.125 Z-3.97
X514.065 Y40.111 Z-3.992
X514.151 Y40.097 Z-4
X514.644 Y40.012
G3 X515.221 Y40.421 I0.084 J0.493
G2 X517.685 Y42.5 I2.464 J-0.421
G1 X547.685
G2 X550.185 Y40 I0 J-2.5
G1 Y0
G2 X547.685 Y-2.5 I-2.5 J0
G1 X517.685
G2 X515.185 Y0 I0 J2.5
G1 Y40
G2 X515.221 Y40.421 I2.5 J0
G3 X514.812 Y40.998 I-0.493 J0.084
G1 X514.319 Y41.082
X514.234 Y41.097 Z-3.992
X514.151 Y41.111 Z-3.97
X514.073 Y41.124 Z-3.933
X514.002 Y41.136 Z-3.883
X513.942 Y41.147 Z-3.821
X513.892 Y41.155 Z-3.75
X513.856 Y41.161 Z-3.671
X513.834 Y41.165 Z-3.587
X513.826 Y41.167 Z-3.5
G0 Z5
X513.658 Y40.181
G1 Z1 F333.3
Z-7.5
X513.665 Y40.18 Z-7.587 F1000
X513.688 Y40.176 Z-7.671
X513.724 Y40.17 Z-7.75
X513.773 Y40.161 Z-7.821
X513.834 Y40.151 Z-7.883
X513.904 Y40.139 Z-7.933
X513.982 Y40.125 Z-7.97
X514.065 Y40.111 Z-7.992
X514.151 Y40.097 Z-8
X514.644 Y40.012
G3 X515.221 Y40.421 I0.084 J0.493
G2 X517.685 Y42.5 I2.464 J-0.421
G1 X547.685
G2 X550.185 Y40 I0 J-2.5
G1 Y0
G2 X547.685 Y-2.5 I-2.5 J0
G1 X517.685
G2 X515.185 Y0 I0 J2.5
G1 Y40
G2 X515.221 Y40.421 I2.5 J0
G3 X514.812 Y40.998 I-0.493 J0.084
G1 X514.319 Y41.082
X514.234 Y41.097 Z-7.992
X514.151 Y41.111 Z-7.97
X514.073 Y41.124 Z-7.933
X514.002 Y41.136 Z-7.883
X513.942 Y41.147 Z-7.821
X513.892 Y41.155 Z-7.75
X513.856 Y41.161 Z-7.671
X513.834 Y41.165 Z-7.587
X513.826 Y41.167 Z-7.5
G0 Z5
X513.658 Y40.181
G1 Z-3 F333.3
Z-9.5
X513.665 Y40.18 Z-9.587 F1000
X513.688 Y40.176 Z-9.671
X513.724 Y40.17 Z-9.75
X513.773 Y40.161 Z-9.821
X513.834 Y40.151 Z-9.883
X513.904 Y40.139 Z-9.933
X513.982 Y40.125 Z-9.97
X514.065 Y40.111 Z-9.992
X514.151 Y40.097 Z-10
X514.644 Y40.012
G3 X515.221 Y40.421 I0.084 J0.493
G2 X517.685 Y42.5 I2.464 J-0.421
G1 X547.685
G2 X550.185 Y40 I0 J-2.5
G1 Y0
G2 X547.685 Y-2.5 I-2.5 J0
G1 X517.685
G2 X515.185 Y0 I0 J2.5
G1 Y40
G2 X515.221 Y40.421 I2.5 J0
G3 X514.812 Y40.998 I-0.493 J0.084
G1 X514.319 Y41.082
X514.234 Y41.097 Z-9.992
X514.151 Y41.111 Z-9.97
X514.073 Y41.124 Z-9.933
X514.002 Y41.136 Z-9.883
X513.942 Y41.147 Z-9.821
X513.892 Y41.155 Z-9.75
X513.856 Y41.161 Z-9.671
X513.834 Y41.165 Z-9.587
X513.826 Y41.167 Z-9.5
G0 Z15
M9
G28 G91 Z0
G90
G28 G91 X0 Y0
G90
M5
M30
