(CamperGAschrangAbdeckung)
(T3  D=3 CR=0 - ZMIN=-10 - flat end mill)
G90 G94
G17
G21

(2D Pocket5)
T3
S5000 M3
G54
M8
G0 X195.718 Y827.13
Z15
Z5
G1 Z2.782 F333.3
X195.695 Y827.139 Z2.663
X195.629 Y827.163 Z2.564
X195.53 Y827.192 Z2.5
G3 X194.321 Y826.952 Z2.036 I-0.354 J-1.38
X194.321 Y824.672 Z1.074 I0.855 J-1.14
X196.031 Y826.952 Z-0.555 I0.855 J1.14
X194.321 Y826.952 Z-1.223 I-0.855 J-1.14
X194.321 Y824.672 Z-2.185 I0.855 J-1.14
X196.601 Y825.812 Z-3.333 I0.855 J1.14
X195.422 Y825.812 I-0.589 J0
X196.622 Y825.812 I0.6 J0 F1000
X193.622 Y825.812 I-1.5 J0
X196.622 Y825.812 I1.5 J0
G1 X196.615 Y825.832
X196.597 Y825.843
X196.576 Y825.841
X196.561 Y825.826
X196.508 Y825.717
X196.522 Y825.608
X196.53 Y825.591
X196.545 Y825.582
X196.563
X196.579 Y825.592
X196.586 Y825.608
G3 X193.766 Y826.016 Z-4.963 I-1.41 J0.204 F333.3
X194.321 Y824.672 Z-5.518 I1.41 J-0.204
X196.601 Y825.812 Z-6.667 I0.855 J1.14
X195.422 Y825.812 I-0.589 J0
X196.622 Y825.812 I0.6 J0 F1000
X193.622 Y825.812 I-1.5 J0
X196.622 Y825.812 I1.5 J0
G1 X196.615 Y825.832
X196.597 Y825.843
X196.576 Y825.841
X196.561 Y825.826
X196.508 Y825.717
X196.522 Y825.608
X196.53 Y825.591
X196.545 Y825.582
X196.563
X196.579 Y825.592
X196.586 Y825.608
G3 X193.766 Y826.016 Z-8.296 I-1.41 J0.204 F333.3
X194.321 Y824.672 Z-8.852 I1.41 J-0.204
X196.601 Y825.812 Z-10 I0.855 J1.14
X195.422 Y825.812 I-0.589 J0
X196.622 Y825.812 I0.6 J0 F1000
X193.622 Y825.812 I-1.5 J0
X196.622 Y825.812 I1.5 J0
G1 X196.617 Y825.869 Z-9.989
X196.6 Y825.924 Z-9.977
X196.579 Y825.967 Z-9.945
X196.55 Y826.007 Z-9.912
X196.503 Y826.051 Z-9.815
X196.484 Y826.064 Z-9.7
G0 Z5
X195.718 Y815.463
G1 Z2.782 F333.3
X195.695 Y815.472 Z2.663
X195.629 Y815.496 Z2.564
X195.53 Y815.525 Z2.5
G3 X194.321 Y815.285 Z2.036 I-0.354 J-1.38
X196.031 Y813.005 Z0.406 I0.855 J-1.14
X196.601 Y814.145 Z-0.075 I-0.855 J1.14
X194.321 Y815.285 Z-1.223 I-1.425 J0
X196.031 Y813.005 Z-2.852 I0.855 J-1.14
X196.601 Y814.145 Z-3.333 I-0.855 J1.14
X195.422 Y814.145 I-0.589 J0
X196.622 Y814.145 I0.6 J0 F1000
X193.622 Y814.145 I-1.5 J0
X196.622 Y814.145 I1.5 J0
G1 X196.615 Y814.165
X196.597 Y814.176
X196.576 Y814.174
X196.561 Y814.159
X196.508 Y814.05
X196.522 Y813.941
X196.53 Y813.924
X196.545 Y813.915
X196.563
X196.579 Y813.925
X196.586 Y813.941
G3 X194.321 Y815.285 Z-4.556 I-1.41 J0.204 F333.3
X196.031 Y813.005 Z-6.186 I0.855 J-1.14
X196.601 Y814.145 Z-6.667 I-0.855 J1.14
X195.422 Y814.145 I-0.589 J0
X196.622 Y814.145 I0.6 J0 F1000
X193.622 Y814.145 I-1.5 J0
X196.622 Y814.145 I1.5 J0
G1 X196.615 Y814.165
X196.597 Y814.176
X196.576 Y814.174
X196.561 Y814.159
X196.508 Y814.05
X196.522 Y813.941
X196.53 Y813.924
X196.545 Y813.915
X196.563
X196.579 Y813.925
X196.586 Y813.941
G3 X194.321 Y815.285 Z-7.89 I-1.41 J0.204 F333.3
X196.031 Y813.005 Z-9.519 I0.855 J-1.14
X196.601 Y814.145 Z-10 I-0.855 J1.14
X195.422 Y814.145 I-0.589 J0
X196.622 Y814.145 I0.6 J0 F1000
X193.622 Y814.145 I-1.5 J0
X196.622 Y814.145 I1.5 J0
G1 X196.617 Y814.202 Z-9.989
X196.6 Y814.257 Z-9.977
X196.579 Y814.301 Z-9.945
X196.55 Y814.34 Z-9.912
X196.503 Y814.384 Z-9.815
X196.484 Y814.397 Z-9.7
G0 Z5
X195.718 Y803.797
G1 Z2.782 F333.3
X195.695 Y803.806 Z2.663
X195.629 Y803.83 Z2.564
X195.53 Y803.859 Z2.5
G3 X194.321 Y803.619 Z2.036 I-0.354 J-1.38
X194.321 Y801.339 Z1.074 I0.855 J-1.14
X196.031 Y803.619 Z-0.555 I0.855 J1.14
X194.321 Y803.619 Z-1.223 I-0.855 J-1.14
X194.321 Y801.339 Z-2.185 I0.855 J-1.14
X196.601 Y802.479 Z-3.333 I0.855 J1.14
X195.422 Y802.479 I-0.589 J0
X196.622 Y802.479 I0.6 J0 F1000
X193.622 Y802.479 I-1.5 J0
X196.622 Y802.479 I1.5 J0
G1 X196.615 Y802.499
X196.597 Y802.51
X196.576 Y802.508
X196.561 Y802.493
X196.508 Y802.384
X196.522 Y802.275
X196.53 Y802.258
X196.545 Y802.249
X196.563
X196.579 Y802.258
X196.586 Y802.275
G3 X193.766 Y802.683 Z-4.963 I-1.41 J0.204 F333.3
X194.321 Y801.339 Z-5.518 I1.41 J-0.204
X196.601 Y802.479 Z-6.667 I0.855 J1.14
X195.422 Y802.479 I-0.589 J0
X196.622 Y802.479 I0.6 J0 F1000
X193.622 Y802.479 I-1.5 J0
X196.622 Y802.479 I1.5 J0
G1 X196.615 Y802.499
X196.597 Y802.51
X196.576 Y802.508
X196.561 Y802.493
X196.508 Y802.384
X196.522 Y802.275
X196.53 Y802.258
X196.545 Y802.249
X196.563
X196.579 Y802.258
X196.586 Y802.275
G3 X193.766 Y802.683 Z-8.296 I-1.41 J0.204 F333.3
X194.321 Y801.339 Z-8.852 I1.41 J-0.204
X196.601 Y802.479 Z-10 I0.855 J1.14
X195.422 Y802.479 I-0.589 J0
X196.622 Y802.479 I0.6 J0 F1000
X193.622 Y802.479 I-1.5 J0
X196.622 Y802.479 I1.5 J0
G1 X196.617 Y802.536 Z-9.989
X196.6 Y802.591 Z-9.977
X196.579 Y802.634 Z-9.945
X196.55 Y802.674 Z-9.912
X196.503 Y802.718 Z-9.815
X196.484 Y802.731 Z-9.7
G0 Z5
X226.628 Y803.797
G1 Z2.782 F333.3
X226.605 Y803.806 Z2.663
X226.539 Y803.83 Z2.564
X226.44 Y803.859 Z2.5
G3 X225.231 Y803.619 Z2.036 I-0.354 J-1.38
X225.231 Y801.339 Z1.074 I0.855 J-1.14
X226.941 Y803.619 Z-0.555 I0.855 J1.14
X225.231 Y803.619 Z-1.223 I-0.855 J-1.14
X225.231 Y801.339 Z-2.185 I0.855 J-1.14
X227.511 Y802.479 Z-3.333 I0.855 J1.14
X226.332 Y802.479 I-0.589 J0
X227.532 Y802.479 I0.6 J0 F1000
X224.532 Y802.479 I-1.5 J0
X227.532 Y802.479 I1.5 J0
G1 X227.525 Y802.499
X227.507 Y802.51
X227.486 Y802.508
X227.471 Y802.493
X227.418 Y802.384
X227.432 Y802.275
X227.44 Y802.258
X227.455 Y802.249
X227.473
X227.489 Y802.258
X227.496 Y802.275
G3 X224.676 Y802.683 Z-4.963 I-1.41 J0.204 F333.3
X225.231 Y801.339 Z-5.518 I1.41 J-0.204
X227.511 Y802.479 Z-6.667 I0.855 J1.14
X226.332 Y802.479 I-0.589 J0
X227.532 Y802.479 I0.6 J0 F1000
X224.532 Y802.479 I-1.5 J0
X227.532 Y802.479 I1.5 J0
G1 X227.525 Y802.499
X227.507 Y802.51
X227.486 Y802.508
X227.471 Y802.493
X227.418 Y802.384
X227.432 Y802.275
X227.44 Y802.258
X227.455 Y802.249
X227.473
X227.489 Y802.258
X227.496 Y802.275
G3 X224.676 Y802.683 Z-8.296 I-1.41 J0.204 F333.3
X225.231 Y801.339 Z-8.852 I1.41 J-0.204
X227.511 Y802.479 Z-10 I0.855 J1.14
X226.332 Y802.479 I-0.589 J0
X227.532 Y802.479 I0.6 J0 F1000
X224.532 Y802.479 I-1.5 J0
X227.532 Y802.479 I1.5 J0
G1 X227.527 Y802.536 Z-9.989
X227.51 Y802.591 Z-9.977
X227.489 Y802.634 Z-9.945
X227.46 Y802.674 Z-9.912
X227.413 Y802.718 Z-9.815
X227.394 Y802.731 Z-9.7
G0 Z5
X226.628 Y815.463
G1 Z2.782 F333.3
X226.605 Y815.472 Z2.663
X226.539 Y815.496 Z2.564
X226.44 Y815.525 Z2.5
G3 X225.231 Y815.285 Z2.036 I-0.354 J-1.38
X226.941 Y813.005 Z0.406 I0.855 J-1.14
X227.511 Y814.145 Z-0.075 I-0.855 J1.14
X225.231 Y815.285 Z-1.223 I-1.425 J0
X226.941 Y813.005 Z-2.852 I0.855 J-1.14
X227.511 Y814.145 Z-3.333 I-0.855 J1.14
X226.332 Y814.145 I-0.589 J0
X227.532 Y814.145 I0.6 J0 F1000
X224.532 Y814.145 I-1.5 J0
X227.532 Y814.145 I1.5 J0
G1 X227.525 Y814.165
X227.507 Y814.176
X227.486 Y814.174
X227.471 Y814.159
X227.418 Y814.05
X227.432 Y813.941
X227.44 Y813.924
X227.455 Y813.915
X227.473
X227.489 Y813.925
X227.496 Y813.941
G3 X225.231 Y815.285 Z-4.556 I-1.41 J0.204 F333.3
X226.941 Y813.005 Z-6.186 I0.855 J-1.14
X227.511 Y814.145 Z-6.667 I-0.855 J1.14
X226.332 Y814.145 I-0.589 J0
X227.532 Y814.145 I0.6 J0 F1000
X224.532 Y814.145 I-1.5 J0
X227.532 Y814.145 I1.5 J0
G1 X227.525 Y814.165
X227.507 Y814.176
X227.486 Y814.174
X227.471 Y814.159
X227.418 Y814.05
X227.432 Y813.941
X227.44 Y813.924
X227.455 Y813.915
X227.473
X227.489 Y813.925
X227.496 Y813.941
G3 X225.231 Y815.285 Z-7.89 I-1.41 J0.204 F333.3
X226.941 Y813.005 Z-9.519 I0.855 J-1.14
X227.511 Y814.145 Z-10 I-0.855 J1.14
X226.332 Y814.145 I-0.589 J0
X227.532 Y814.145 I0.6 J0 F1000
X224.532 Y814.145 I-1.5 J0
X227.532 Y814.145 I1.5 J0
G1 X227.527 Y814.202 Z-9.989
X227.51 Y814.257 Z-9.977
X227.489 Y814.301 Z-9.945
X227.46 Y814.34 Z-9.912
X227.413 Y814.384 Z-9.815
X227.394 Y814.397 Z-9.7
G0 Z5
X226.628 Y827.13
G1 Z2.782 F333.3
X226.605 Y827.139 Z2.663
X226.539 Y827.163 Z2.564
X226.44 Y827.192 Z2.5
G3 X225.231 Y826.952 Z2.036 I-0.354 J-1.38
X225.231 Y824.672 Z1.074 I0.855 J-1.14
X226.941 Y826.952 Z-0.555 I0.855 J1.14
X225.231 Y826.952 Z-1.223 I-0.855 J-1.14
X225.231 Y824.672 Z-2.185 I0.855 J-1.14
X227.511 Y825.812 Z-3.333 I0.855 J1.14
X226.332 Y825.812 I-0.589 J0
X227.532 Y825.812 I0.6 J0 F1000
X224.532 Y825.812 I-1.5 J0
X227.532 Y825.812 I1.5 J0
G1 X227.525 Y825.832
X227.507 Y825.843
X227.486 Y825.841
X227.471 Y825.826
X227.418 Y825.717
X227.432 Y825.608
X227.44 Y825.591
X227.455 Y825.582
X227.473
X227.489 Y825.592
X227.496 Y825.608
G3 X224.676 Y826.016 Z-4.963 I-1.41 J0.204 F333.3
X225.231 Y824.672 Z-5.518 I1.41 J-0.204
X227.511 Y825.812 Z-6.667 I0.855 J1.14
X226.332 Y825.812 I-0.589 J0
X227.532 Y825.812 I0.6 J0 F1000
X224.532 Y825.812 I-1.5 J0
X227.532 Y825.812 I1.5 J0
G1 X227.525 Y825.832
X227.507 Y825.843
X227.486 Y825.841
X227.471 Y825.826
X227.418 Y825.717
X227.432 Y825.608
X227.44 Y825.591
X227.455 Y825.582
X227.473
X227.489 Y825.592
X227.496 Y825.608
G3 X224.676 Y826.016 Z-8.296 I-1.41 J0.204 F333.3
X225.231 Y824.672 Z-8.852 I1.41 J-0.204
X227.511 Y825.812 Z-10 I0.855 J1.14
X226.332 Y825.812 I-0.589 J0
X227.532 Y825.812 I0.6 J0 F1000
X224.532 Y825.812 I-1.5 J0
X227.532 Y825.812 I1.5 J0
G1 X227.527 Y825.869 Z-9.989
X227.51 Y825.924 Z-9.977
X227.489 Y825.967 Z-9.945
X227.46 Y826.007 Z-9.912
X227.413 Y826.051 Z-9.815
X227.394 Y826.064 Z-9.7
G0 Z5
X226.628 Y838.797
G1 Z2.782 F333.3
X226.605 Y838.806 Z2.663
X226.539 Y838.83 Z2.564
X226.44 Y838.859 Z2.5
G3 X225.231 Y838.619 Z2.036 I-0.354 J-1.38
X225.231 Y836.339 Z1.074 I0.855 J-1.14
X226.941 Y838.619 Z-0.555 I0.855 J1.14
X225.231 Y838.619 Z-1.223 I-0.855 J-1.14
X225.231 Y836.339 Z-2.185 I0.855 J-1.14
X227.511 Y837.479 Z-3.333 I0.855 J1.14
X226.332 Y837.479 I-0.589 J0
X227.532 Y837.479 I0.6 J0 F1000
X224.532 Y837.479 I-1.5 J0
X227.532 Y837.479 I1.5 J0
G1 X227.525 Y837.499
X227.507 Y837.51
X227.486 Y837.508
X227.471 Y837.493
X227.418 Y837.384
X227.432 Y837.275
X227.44 Y837.258
X227.455 Y837.249
X227.473
X227.489 Y837.258
X227.496 Y837.275
G3 X224.676 Y837.683 Z-4.963 I-1.41 J0.204 F333.3
X225.231 Y836.339 Z-5.518 I1.41 J-0.204
X227.511 Y837.479 Z-6.667 I0.855 J1.14
X226.332 Y837.479 I-0.589 J0
X227.532 Y837.479 I0.6 J0 F1000
X224.532 Y837.479 I-1.5 J0
X227.532 Y837.479 I1.5 J0
G1 X227.525 Y837.499
X227.507 Y837.51
X227.486 Y837.508
X227.471 Y837.493
X227.418 Y837.384
X227.432 Y837.275
X227.44 Y837.258
X227.455 Y837.249
X227.473
X227.489 Y837.258
X227.496 Y837.275
G3 X224.676 Y837.683 Z-8.296 I-1.41 J0.204 F333.3
X225.231 Y836.339 Z-8.852 I1.41 J-0.204
X227.511 Y837.479 Z-10 I0.855 J1.14
X226.332 Y837.479 I-0.589 J0
X227.532 Y837.479 I0.6 J0 F1000
X224.532 Y837.479 I-1.5 J0
X227.532 Y837.479 I1.5 J0
G1 X227.527 Y837.536 Z-9.989
X227.51 Y837.591 Z-9.977
X227.489 Y837.634 Z-9.945
X227.46 Y837.674 Z-9.912
X227.413 Y837.718 Z-9.815
X227.394 Y837.731 Z-9.7
G0 Z5
X257.537 Y838.797
G1 Z2.782 F333.3
X257.514 Y838.806 Z2.663
X257.448 Y838.83 Z2.564
X257.349 Y838.859 Z2.5
G3 X256.64 Y836.099 Z0.871 I-0.354 J-1.38
X257.349 Y838.859 Z-0.759 I0.354 J1.38
X256.64 Y836.099 Z-2.388 I-0.354 J-1.38
X258.42 Y837.479 Z-3.333 I0.354 J1.38
X257.241 Y837.479 I-0.589 J0
X258.441 Y837.479 I0.6 J0 F1000
X255.441 Y837.479 I-1.5 J0
X258.441 Y837.479 I1.5 J0
G1 X258.434 Y837.499
X258.416 Y837.51
X258.395 Y837.508
X258.38 Y837.493
X258.327 Y837.384
X258.341 Y837.275
X258.349 Y837.258
X258.364 Y837.249
X258.382
X258.398 Y837.258
X258.405 Y837.275
G3 X255.585 Y837.683 Z-4.963 I-1.41 J0.204 F333.3
X256.893 Y836.058 Z-5.815 I1.41 J-0.204
X258.42 Y837.479 Z-6.667 I0.102 J1.421
X257.241 Y837.479 I-0.589 J0
X258.441 Y837.479 I0.6 J0 F1000
X255.441 Y837.479 I-1.5 J0
X258.441 Y837.479 I1.5 J0
G1 X258.434 Y837.499
X258.416 Y837.51
X258.395 Y837.508
X258.38 Y837.493
X258.327 Y837.384
X258.341 Y837.275
X258.349 Y837.258
X258.364 Y837.249
X258.382
X258.398 Y837.258
X258.405 Y837.275
G3 X255.585 Y837.683 Z-8.296 I-1.41 J0.204 F333.3
X256.893 Y836.058 Z-9.148 I1.41 J-0.204
X258.42 Y837.479 Z-10 I0.102 J1.421
X257.241 Y837.479 I-0.589 J0
X258.441 Y837.479 I0.6 J0 F1000
X255.441 Y837.479 I-1.5 J0
X258.441 Y837.479 I1.5 J0
G1 X258.436 Y837.536 Z-9.989
X258.419 Y837.591 Z-9.977
X258.398 Y837.634 Z-9.945
X258.369 Y837.674 Z-9.912
X258.322 Y837.718 Z-9.815
X258.303 Y837.731 Z-9.7
G0 Z5
X257.537 Y827.13
G1 Z2.782 F333.3
X257.514 Y827.139 Z2.663
X257.448 Y827.163 Z2.564
X257.349 Y827.192 Z2.5
G3 X256.64 Y824.432 Z0.871 I-0.354 J-1.38
X257.349 Y827.192 Z-0.759 I0.354 J1.38
X256.64 Y824.432 Z-2.388 I-0.354 J-1.38
X258.42 Y825.812 Z-3.333 I0.354 J1.38
X257.241 Y825.812 I-0.589 J0
X258.441 Y825.812 I0.6 J0 F1000
X255.441 Y825.812 I-1.5 J0
X258.441 Y825.812 I1.5 J0
G1 X258.434 Y825.832
X258.416 Y825.843
X258.395 Y825.841
X258.38 Y825.826
X258.327 Y825.717
X258.341 Y825.608
X258.349 Y825.591
X258.364 Y825.582
X258.382
X258.398 Y825.592
X258.405 Y825.608
G3 X255.585 Y826.016 Z-4.963 I-1.41 J0.204 F333.3
X256.893 Y824.391 Z-5.815 I1.41 J-0.204
X258.42 Y825.812 Z-6.667 I0.102 J1.421
X257.241 Y825.812 I-0.589 J0
X258.441 Y825.812 I0.6 J0 F1000
X255.441 Y825.812 I-1.5 J0
X258.441 Y825.812 I1.5 J0
G1 X258.434 Y825.832
X258.416 Y825.843
X258.395 Y825.841
X258.38 Y825.826
X258.327 Y825.717
X258.341 Y825.608
X258.349 Y825.591
X258.364 Y825.582
X258.382
X258.398 Y825.592
X258.405 Y825.608
G3 X255.585 Y826.016 Z-8.296 I-1.41 J0.204 F333.3
X256.893 Y824.391 Z-9.148 I1.41 J-0.204
X258.42 Y825.812 Z-10 I0.102 J1.421
X257.241 Y825.812 I-0.589 J0
X258.441 Y825.812 I0.6 J0 F1000
X255.441 Y825.812 I-1.5 J0
X258.441 Y825.812 I1.5 J0
G1 X258.436 Y825.869 Z-9.989
X258.419 Y825.924 Z-9.977
X258.398 Y825.967 Z-9.945
X258.369 Y826.007 Z-9.912
X258.322 Y826.051 Z-9.815
X258.303 Y826.064 Z-9.7
G0 Z5
X257.537 Y815.463
G1 Z2.782 F333.3
X257.514 Y815.472 Z2.663
X257.448 Y815.496 Z2.564
X257.349 Y815.525 Z2.5
G3 X256.14 Y815.285 Z2.036 I-0.354 J-1.38
X256.14 Y813.005 Z1.074 I0.855 J-1.14
X258.42 Y814.145 Z-0.075 I0.855 J1.14
X256.14 Y815.285 Z-1.223 I-1.425 J0
X256.14 Y813.005 Z-2.185 I0.855 J-1.14
X258.42 Y814.145 Z-3.333 I0.855 J1.14
X257.241 Y814.145 I-0.589 J0
X258.441 Y814.145 I0.6 J0 F1000
X255.441 Y814.145 I-1.5 J0
X258.441 Y814.145 I1.5 J0
G1 X258.434 Y814.165
X258.416 Y814.176
X258.395 Y814.174
X258.38 Y814.159
X258.327 Y814.05
X258.341 Y813.941
X258.349 Y813.924
X258.364 Y813.915
X258.382
X258.398 Y813.925
X258.405 Y813.941
G3 X256.14 Y815.285 Z-4.556 I-1.41 J0.204 F333.3
X256.14 Y813.005 Z-5.518 I0.855 J-1.14
X258.42 Y814.145 Z-6.667 I0.855 J1.14
X257.241 Y814.145 I-0.589 J0
X258.441 Y814.145 I0.6 J0 F1000
X255.441 Y814.145 I-1.5 J0
X258.441 Y814.145 I1.5 J0
G1 X258.434 Y814.165
X258.416 Y814.176
X258.395 Y814.174
X258.38 Y814.159
X258.327 Y814.05
X258.341 Y813.941
X258.349 Y813.924
X258.364 Y813.915
X258.382
X258.398 Y813.925
X258.405 Y813.941
G3 X256.14 Y815.285 Z-7.89 I-1.41 J0.204 F333.3
X256.14 Y813.005 Z-8.852 I0.855 J-1.14
X258.42 Y814.145 Z-10 I0.855 J1.14
X257.241 Y814.145 I-0.589 J0
X258.441 Y814.145 I0.6 J0 F1000
X255.441 Y814.145 I-1.5 J0
X258.441 Y814.145 I1.5 J0
G1 X258.436 Y814.202 Z-9.989
X258.419 Y814.257 Z-9.977
X258.398 Y814.301 Z-9.945
X258.369 Y814.34 Z-9.912
X258.322 Y814.384 Z-9.815
X258.303 Y814.397 Z-9.7
G0 Z5
X257.537 Y803.797
G1 Z2.782 F333.3
X257.514 Y803.806 Z2.663
X257.448 Y803.83 Z2.564
X257.349 Y803.859 Z2.5
G3 X256.64 Y801.099 Z0.871 I-0.354 J-1.38
X257.349 Y803.859 Z-0.759 I0.354 J1.38
X256.64 Y801.099 Z-2.388 I-0.354 J-1.38
X258.42 Y802.479 Z-3.333 I0.354 J1.38
X257.241 Y802.479 I-0.589 J0
X258.441 Y802.479 I0.6 J0 F1000
X255.441 Y802.479 I-1.5 J0
X258.441 Y802.479 I1.5 J0
G1 X258.434 Y802.499
X258.416 Y802.51
X258.395 Y802.508
X258.38 Y802.493
X258.327 Y802.384
X258.341 Y802.275
X258.349 Y802.258
X258.364 Y802.249
X258.382
X258.398 Y802.258
X258.405 Y802.275
G3 X255.585 Y802.683 Z-4.963 I-1.41 J0.204 F333.3
X256.893 Y801.058 Z-5.815 I1.41 J-0.204
X258.42 Y802.479 Z-6.667 I0.102 J1.421
X257.241 Y802.479 I-0.589 J0
X258.441 Y802.479 I0.6 J0 F1000
X255.441 Y802.479 I-1.5 J0
X258.441 Y802.479 I1.5 J0
G1 X258.434 Y802.499
X258.416 Y802.51
X258.395 Y802.508
X258.38 Y802.493
X258.327 Y802.384
X258.341 Y802.275
X258.349 Y802.258
X258.364 Y802.249
X258.382
X258.398 Y802.258
X258.405 Y802.275
G3 X255.585 Y802.683 Z-8.296 I-1.41 J0.204 F333.3
X256.893 Y801.058 Z-9.148 I1.41 J-0.204
X258.42 Y802.479 Z-10 I0.102 J1.421
X257.241 Y802.479 I-0.589 J0
X258.441 Y802.479 I0.6 J0 F1000
X255.441 Y802.479 I-1.5 J0
X258.441 Y802.479 I1.5 J0
G1 X258.436 Y802.536 Z-9.989
X258.419 Y802.591 Z-9.977
X258.398 Y802.634 Z-9.945
X258.369 Y802.674 Z-9.912
X258.322 Y802.718 Z-9.815
X258.303 Y802.731 Z-9.7
G0 Z5
X288.446 Y803.797
G1 Z2.782 F333.3
X288.423 Y803.806 Z2.663
X288.357 Y803.83 Z2.564
X288.258 Y803.859 Z2.5
G3 X287.049 Y803.619 Z2.036 I-0.354 J-1.38
X287.049 Y801.339 Z1.074 I0.855 J-1.14
X288.759 Y803.619 Z-0.555 I0.855 J1.14
X287.049 Y803.619 Z-1.223 I-0.855 J-1.14
X287.049 Y801.339 Z-2.185 I0.855 J-1.14
X289.329 Y802.479 Z-3.333 I0.855 J1.14
X288.15 Y802.479 I-0.589 J0
X289.35 Y802.479 I0.6 J0 F1000
X286.35 Y802.479 I-1.5 J0
X289.35 Y802.479 I1.5 J0
G1 X289.343 Y802.499
X289.325 Y802.51
X289.304 Y802.508
X289.289 Y802.493
X289.236 Y802.384
X289.25 Y802.275
X289.258 Y802.258
X289.273 Y802.249
X289.291
X289.307 Y802.258
X289.314 Y802.275
G3 X287.049 Y803.619 Z-4.556 I-1.41 J0.204 F333.3
X287.049 Y801.339 Z-5.518 I0.855 J-1.14
X289.329 Y802.479 Z-6.667 I0.855 J1.14
X288.15 Y802.479 I-0.589 J0
X289.35 Y802.479 I0.6 J0 F1000
X286.35 Y802.479 I-1.5 J0
X289.35 Y802.479 I1.5 J0
G1 X289.343 Y802.499
X289.325 Y802.51
X289.304 Y802.508
X289.289 Y802.493
X289.236 Y802.384
X289.25 Y802.275
X289.258 Y802.258
X289.273 Y802.249
X289.291
X289.307 Y802.258
X289.314 Y802.275
G3 X287.049 Y803.619 Z-7.89 I-1.41 J0.204 F333.3
X287.049 Y801.339 Z-8.852 I0.855 J-1.14
X289.329 Y802.479 Z-10 I0.855 J1.14
X288.15 Y802.479 I-0.589 J0
X289.35 Y802.479 I0.6 J0 F1000
X286.35 Y802.479 I-1.5 J0
X289.35 Y802.479 I1.5 J0
G1 X289.345 Y802.536 Z-9.989
X289.328 Y802.591 Z-9.977
X289.307 Y802.634 Z-9.945
X289.278 Y802.674 Z-9.912
X289.231 Y802.718 Z-9.815
X289.212 Y802.731 Z-9.7
G0 Z5
X288.446 Y815.463
G1 Z2.782 F333.3
X288.423 Y815.472 Z2.663
X288.357 Y815.496 Z2.564
X288.258 Y815.525 Z2.5
G3 X287.049 Y813.005 Z1.074 I-0.354 J-1.38
X289.329 Y814.145 Z-0.075 I0.855 J1.14
X286.479 Y814.145 Z-1.704 I-1.425 J0
X287.049 Y813.005 Z-2.185 I1.425 J0
X289.329 Y814.145 Z-3.333 I0.855 J1.14
X288.15 Y814.145 I-0.589 J0
X289.35 Y814.145 I0.6 J0 F1000
X286.35 Y814.145 I-1.5 J0
X289.35 Y814.145 I1.5 J0
G1 X289.343 Y814.165
X289.325 Y814.176
X289.304 Y814.174
X289.289 Y814.159
X289.236 Y814.05
X289.25 Y813.941
X289.258 Y813.924
X289.273 Y813.915
X289.291
X289.307 Y813.925
X289.314 Y813.941
G3 X286.494 Y814.349 Z-4.963 I-1.41 J0.204 F333.3
X287.049 Y813.005 Z-5.518 I1.41 J-0.204
X289.329 Y814.145 Z-6.667 I0.855 J1.14
X288.15 Y814.145 I-0.589 J0
X289.35 Y814.145 I0.6 J0 F1000
X286.35 Y814.145 I-1.5 J0
X289.35 Y814.145 I1.5 J0
G1 X289.343 Y814.165
X289.325 Y814.176
X289.304 Y814.174
X289.289 Y814.159
X289.236 Y814.05
X289.25 Y813.941
X289.258 Y813.924
X289.273 Y813.915
X289.291
X289.307 Y813.925
X289.314 Y813.941
G3 X286.494 Y814.349 Z-8.296 I-1.41 J0.204 F333.3
X287.049 Y813.005 Z-8.852 I1.41 J-0.204
X289.329 Y814.145 Z-10 I0.855 J1.14
X288.15 Y814.145 I-0.589 J0
X289.35 Y814.145 I0.6 J0 F1000
X286.35 Y814.145 I-1.5 J0
X289.35 Y814.145 I1.5 J0
G1 X289.345 Y814.202 Z-9.989
X289.328 Y814.257 Z-9.977
X289.307 Y814.301 Z-9.945
X289.278 Y814.34 Z-9.912
X289.231 Y814.384 Z-9.815
X289.212 Y814.397 Z-9.7
G0 Z5
X288.446 Y827.13
G1 Z2.782 F333.3
X288.423 Y827.139 Z2.663
X288.357 Y827.163 Z2.564
X288.258 Y827.192 Z2.5
G3 X287.049 Y826.952 Z2.036 I-0.354 J-1.38
X287.049 Y824.672 Z1.074 I0.855 J-1.14
X288.759 Y826.952 Z-0.555 I0.855 J1.14
X287.049 Y826.952 Z-1.223 I-0.855 J-1.14
X287.049 Y824.672 Z-2.185 I0.855 J-1.14
X289.329 Y825.812 Z-3.333 I0.855 J1.14
X288.15 Y825.812 I-0.589 J0
X289.35 Y825.812 I0.6 J0 F1000
X286.35 Y825.812 I-1.5 J0
X289.35 Y825.812 I1.5 J0
G1 X289.343 Y825.832
X289.325 Y825.843
X289.304 Y825.841
X289.289 Y825.826
X289.236 Y825.717
X289.25 Y825.608
X289.258 Y825.591
X289.273 Y825.582
X289.291
X289.307 Y825.591
X289.314 Y825.608
G3 X287.049 Y826.952 Z-4.556 I-1.41 J0.204 F333.3
X287.049 Y824.672 Z-5.518 I0.855 J-1.14
X289.329 Y825.812 Z-6.667 I0.855 J1.14
X288.15 Y825.812 I-0.589 J0
X289.35 Y825.812 I0.6 J0 F1000
X286.35 Y825.812 I-1.5 J0
X289.35 Y825.812 I1.5 J0
G1 X289.343 Y825.832
X289.325 Y825.843
X289.304 Y825.841
X289.289 Y825.826
X289.236 Y825.717
X289.25 Y825.608
X289.258 Y825.591
X289.273 Y825.582
X289.291
X289.307 Y825.591
X289.314 Y825.608
G3 X287.049 Y826.952 Z-7.89 I-1.41 J0.204 F333.3
X287.049 Y824.672 Z-8.852 I0.855 J-1.14
X289.329 Y825.812 Z-10 I0.855 J1.14
X288.15 Y825.812 I-0.589 J0
X289.35 Y825.812 I0.6 J0 F1000
X286.35 Y825.812 I-1.5 J0
X289.35 Y825.812 I1.5 J0
G1 X289.345 Y825.869 Z-9.989
X289.328 Y825.924 Z-9.977
X289.307 Y825.967 Z-9.945
X289.278 Y826.007 Z-9.912
X289.231 Y826.051 Z-9.815
X289.212 Y826.064 Z-9.7
G0 Z5
X288.446 Y838.797
G1 Z2.782 F333.3
X288.423 Y838.806 Z2.663
X288.357 Y838.83 Z2.564
X288.258 Y838.859 Z2.5
G3 X287.049 Y838.619 Z2.036 I-0.354 J-1.38
X287.049 Y836.339 Z1.074 I0.855 J-1.14
X288.759 Y838.619 Z-0.555 I0.855 J1.14
X287.049 Y838.619 Z-1.223 I-0.855 J-1.14
X287.049 Y836.339 Z-2.185 I0.855 J-1.14
X289.329 Y837.479 Z-3.333 I0.855 J1.14
X288.15 Y837.479 I-0.589 J0
X289.35 Y837.479 I0.6 J0 F1000
X286.35 Y837.479 I-1.5 J0
X289.35 Y837.479 I1.5 J0
G1 X289.343 Y837.499
X289.325 Y837.51
X289.304 Y837.508
X289.289 Y837.493
X289.236 Y837.384
X289.25 Y837.275
X289.258 Y837.258
X289.273 Y837.249
X289.291
X289.307 Y837.258
X289.314 Y837.275
G3 X287.049 Y838.619 Z-4.556 I-1.41 J0.204 F333.3
X287.049 Y836.339 Z-5.518 I0.855 J-1.14
X289.329 Y837.479 Z-6.667 I0.855 J1.14
X288.15 Y837.479 I-0.589 J0
X289.35 Y837.479 I0.6 J0 F1000
X286.35 Y837.479 I-1.5 J0
X289.35 Y837.479 I1.5 J0
G1 X289.343 Y837.499
X289.325 Y837.51
X289.304 Y837.508
X289.289 Y837.493
X289.236 Y837.384
X289.25 Y837.275
X289.258 Y837.258
X289.273 Y837.249
X289.291
X289.307 Y837.258
X289.314 Y837.275
G3 X287.049 Y838.619 Z-7.89 I-1.41 J0.204 F333.3
X287.049 Y836.339 Z-8.852 I0.855 J-1.14
X289.329 Y837.479 Z-10 I0.855 J1.14
X288.15 Y837.479 I-0.589 J0
X289.35 Y837.479 I0.6 J0 F1000
X286.35 Y837.479 I-1.5 J0
X289.35 Y837.479 I1.5 J0
G1 X289.345 Y837.536 Z-9.989
X289.328 Y837.591 Z-9.977
X289.307 Y837.634 Z-9.945
X289.278 Y837.674 Z-9.912
X289.231 Y837.718 Z-9.815
X289.212 Y837.731 Z-9.7
G0 Z5
X319.355 Y838.797
G1 Z2.782 F333.3
X319.332 Y838.806 Z2.663
X319.266 Y838.83 Z2.564
X319.167 Y838.859 Z2.5
G3 X317.958 Y838.619 Z2.036 I-0.354 J-1.38
X317.958 Y836.339 Z1.074 I0.855 J-1.14
X319.668 Y838.619 Z-0.555 I0.855 J1.14
X317.958 Y838.619 Z-1.223 I-0.855 J-1.14
X317.958 Y836.339 Z-2.185 I0.855 J-1.14
X320.238 Y837.479 Z-3.333 I0.855 J1.14
X319.059 Y837.479 I-0.589 J0
X320.259 Y837.479 I0.6 J0 F1000
X317.259 Y837.479 I-1.5 J0
X320.259 Y837.479 I1.5 J0
G1 X320.252 Y837.499
X320.234 Y837.51
X320.213 Y837.508
X320.198 Y837.493
X320.145 Y837.384
X320.159 Y837.275
X320.167 Y837.258
X320.182 Y837.249
X320.2
X320.216 Y837.258
X320.223 Y837.275
G3 X317.958 Y838.619 Z-4.556 I-1.41 J0.204 F333.3
X317.958 Y836.339 Z-5.518 I0.855 J-1.14
X320.238 Y837.479 Z-6.667 I0.855 J1.14
X319.059 Y837.479 I-0.589 J0
X320.259 Y837.479 I0.6 J0 F1000
X317.259 Y837.479 I-1.5 J0
X320.259 Y837.479 I1.5 J0
G1 X320.252 Y837.499
X320.234 Y837.51
X320.213 Y837.508
X320.198 Y837.493
X320.145 Y837.384
X320.159 Y837.275
X320.167 Y837.258
X320.182 Y837.249
X320.2
X320.216 Y837.258
X320.223 Y837.275
G3 X317.958 Y838.619 Z-7.89 I-1.41 J0.204 F333.3
X317.958 Y836.339 Z-8.852 I0.855 J-1.14
X320.238 Y837.479 Z-10 I0.855 J1.14
X319.059 Y837.479 I-0.589 J0
X320.259 Y837.479 I0.6 J0 F1000
X317.259 Y837.479 I-1.5 J0
X320.259 Y837.479 I1.5 J0
G1 X320.254 Y837.536 Z-9.989
X320.237 Y837.591 Z-9.977
X320.216 Y837.634 Z-9.945
X320.187 Y837.674 Z-9.912
X320.14 Y837.718 Z-9.815
X320.121 Y837.731 Z-9.7
G0 Z5
X319.355 Y827.13
G1 Z2.782 F333.3
X319.332 Y827.139 Z2.663
X319.266 Y827.163 Z2.564
X319.167 Y827.192 Z2.5
G3 X317.958 Y826.952 Z2.036 I-0.354 J-1.38
X317.958 Y824.672 Z1.074 I0.855 J-1.14
X319.668 Y826.952 Z-0.555 I0.855 J1.14
X317.958 Y826.952 Z-1.223 I-0.855 J-1.14
X317.958 Y824.672 Z-2.185 I0.855 J-1.14
X320.238 Y825.812 Z-3.333 I0.855 J1.14
X319.059 Y825.812 I-0.589 J0
X320.259 Y825.812 I0.6 J0 F1000
X317.259 Y825.812 I-1.5 J0
X320.259 Y825.812 I1.5 J0
G1 X320.252 Y825.832
X320.234 Y825.843
X320.213 Y825.841
X320.198 Y825.826
X320.145 Y825.717
X320.159 Y825.608
X320.167 Y825.591
X320.182 Y825.582
X320.2
X320.216 Y825.591
X320.223 Y825.608
G3 X317.958 Y826.952 Z-4.556 I-1.41 J0.204 F333.3
X317.958 Y824.672 Z-5.518 I0.855 J-1.14
X320.238 Y825.812 Z-6.667 I0.855 J1.14
X319.059 Y825.812 I-0.589 J0
X320.259 Y825.812 I0.6 J0 F1000
X317.259 Y825.812 I-1.5 J0
X320.259 Y825.812 I1.5 J0
G1 X320.252 Y825.832
X320.234 Y825.843
X320.213 Y825.841
X320.198 Y825.826
X320.145 Y825.717
X320.159 Y825.608
X320.167 Y825.591
X320.182 Y825.582
X320.2
X320.216 Y825.591
X320.223 Y825.608
G3 X317.958 Y826.952 Z-7.89 I-1.41 J0.204 F333.3
X317.958 Y824.672 Z-8.852 I0.855 J-1.14
X320.238 Y825.812 Z-10 I0.855 J1.14
X319.059 Y825.812 I-0.589 J0
X320.259 Y825.812 I0.6 J0 F1000
X317.259 Y825.812 I-1.5 J0
X320.259 Y825.812 I1.5 J0
G1 X320.254 Y825.869 Z-9.989
X320.237 Y825.924 Z-9.977
X320.216 Y825.967 Z-9.945
X320.187 Y826.007 Z-9.912
X320.14 Y826.051 Z-9.815
X320.121 Y826.064 Z-9.7
G0 Z5
X319.355 Y815.463
G1 Z2.782 F333.3
X319.332 Y815.472 Z2.663
X319.266 Y815.496 Z2.564
X319.167 Y815.525 Z2.5
G3 X317.958 Y813.005 Z1.074 I-0.354 J-1.38
X320.238 Y814.145 Z-0.075 I0.855 J1.14
X317.388 Y814.145 Z-1.704 I-1.425 J0
X317.958 Y813.005 Z-2.185 I1.425 J0
X320.238 Y814.145 Z-3.333 I0.855 J1.14
X319.059 Y814.145 I-0.589 J0
X320.259 Y814.145 I0.6 J0 F1000
X317.259 Y814.145 I-1.5 J0
X320.259 Y814.145 I1.5 J0
G1 X320.252 Y814.165
X320.234 Y814.176
X320.213 Y814.174
X320.198 Y814.159
X320.145 Y814.05
X320.159 Y813.941
X320.167 Y813.924
X320.182 Y813.915
X320.2
X320.216 Y813.925
X320.223 Y813.941
G3 X317.403 Y814.349 Z-4.963 I-1.41 J0.204 F333.3
X317.958 Y813.005 Z-5.518 I1.41 J-0.204
X320.238 Y814.145 Z-6.667 I0.855 J1.14
X319.059 Y814.145 I-0.589 J0
X320.259 Y814.145 I0.6 J0 F1000
X317.259 Y814.145 I-1.5 J0
X320.259 Y814.145 I1.5 J0
G1 X320.252 Y814.165
X320.234 Y814.176
X320.213 Y814.174
X320.198 Y814.159
X320.145 Y814.05
X320.159 Y813.941
X320.167 Y813.924
X320.182 Y813.915
X320.2
X320.216 Y813.925
X320.223 Y813.941
G3 X317.403 Y814.349 Z-8.296 I-1.41 J0.204 F333.3
X317.958 Y813.005 Z-8.852 I1.41 J-0.204
X320.238 Y814.145 Z-10 I0.855 J1.14
X319.059 Y814.145 I-0.589 J0
X320.259 Y814.145 I0.6 J0 F1000
X317.259 Y814.145 I-1.5 J0
X320.259 Y814.145 I1.5 J0
G1 X320.254 Y814.202 Z-9.989
X320.237 Y814.257 Z-9.977
X320.216 Y814.301 Z-9.945
X320.187 Y814.34 Z-9.912
X320.14 Y814.384 Z-9.815
X320.121 Y814.397 Z-9.7
G0 Z5
X319.355 Y803.797
G1 Z2.782 F333.3
X319.332 Y803.806 Z2.663
X319.266 Y803.83 Z2.564
X319.167 Y803.859 Z2.5
G3 X317.958 Y803.619 Z2.036 I-0.354 J-1.38
X317.958 Y801.339 Z1.074 I0.855 J-1.14
X319.668 Y803.619 Z-0.555 I0.855 J1.14
X317.958 Y803.619 Z-1.223 I-0.855 J-1.14
X317.958 Y801.339 Z-2.185 I0.855 J-1.14
X320.238 Y802.479 Z-3.333 I0.855 J1.14
X319.059 Y802.479 I-0.589 J0
X320.259 Y802.479 I0.6 J0 F1000
X317.259 Y802.479 I-1.5 J0
X320.259 Y802.479 I1.5 J0
G1 X320.252 Y802.499
X320.234 Y802.51
X320.213 Y802.508
X320.198 Y802.493
X320.145 Y802.384
X320.159 Y802.275
X320.167 Y802.258
X320.182 Y802.249
X320.2
X320.216 Y802.258
X320.223 Y802.275
G3 X317.958 Y803.619 Z-4.556 I-1.41 J0.204 F333.3
X317.958 Y801.339 Z-5.518 I0.855 J-1.14
X320.238 Y802.479 Z-6.667 I0.855 J1.14
X319.059 Y802.479 I-0.589 J0
X320.259 Y802.479 I0.6 J0 F1000
X317.259 Y802.479 I-1.5 J0
X320.259 Y802.479 I1.5 J0
G1 X320.252 Y802.499
X320.234 Y802.51
X320.213 Y802.508
X320.198 Y802.493
X320.145 Y802.384
X320.159 Y802.275
X320.167 Y802.258
X320.182 Y802.249
X320.2
X320.216 Y802.258
X320.223 Y802.275
G3 X317.958 Y803.619 Z-7.89 I-1.41 J0.204 F333.3
X317.958 Y801.339 Z-8.852 I0.855 J-1.14
X320.238 Y802.479 Z-10 I0.855 J1.14
X319.059 Y802.479 I-0.589 J0
X320.259 Y802.479 I0.6 J0 F1000
X317.259 Y802.479 I-1.5 J0
X320.259 Y802.479 I1.5 J0
G1 X320.254 Y802.536 Z-9.989
X320.237 Y802.591 Z-9.977
X320.216 Y802.634 Z-9.945
X320.187 Y802.674 Z-9.912
X320.14 Y802.718 Z-9.815
X320.121 Y802.731 Z-9.7
G0 Z5
X350.264 Y803.797
G1 Z2.782 F333.3
X350.241 Y803.806 Z2.663
X350.175 Y803.83 Z2.564
X350.076 Y803.859 Z2.5
G3 X348.867 Y803.619 Z2.036 I-0.355 J-1.38
X348.867 Y801.339 Z1.074 I0.855 J-1.14
X350.577 Y803.619 Z-0.555 I0.855 J1.14
X348.867 Y803.619 Z-1.223 I-0.855 J-1.14
X348.867 Y801.339 Z-2.185 I0.855 J-1.14
X351.147 Y802.479 Z-3.333 I0.855 J1.14
X349.968 Y802.479 I-0.589 J0
X351.168 Y802.479 I0.6 J0 F1000
X348.168 Y802.479 I-1.5 J0
X351.168 Y802.479 I1.5 J0
G1 X351.161 Y802.499
X351.143 Y802.51
X351.122 Y802.508
X351.107 Y802.493
X351.054 Y802.384
X351.068 Y802.275
X351.076 Y802.258
X351.091 Y802.249
X351.109
X351.125 Y802.258
X351.132 Y802.275
G3 X348.867 Y803.619 Z-4.556 I-1.41 J0.204 F333.3
X348.867 Y801.339 Z-5.518 I0.855 J-1.14
X351.147 Y802.479 Z-6.667 I0.855 J1.14
X349.968 Y802.479 I-0.589 J0
X351.168 Y802.479 I0.6 J0 F1000
X348.168 Y802.479 I-1.5 J0
X351.168 Y802.479 I1.5 J0
G1 X351.161 Y802.499
X351.143 Y802.51
X351.122 Y802.508
X351.107 Y802.493
X351.054 Y802.384
X351.068 Y802.275
X351.076 Y802.258
X351.091 Y802.249
X351.109
X351.125 Y802.258
X351.132 Y802.275
G3 X348.867 Y803.619 Z-7.89 I-1.41 J0.204 F333.3
X348.867 Y801.339 Z-8.852 I0.855 J-1.14
X351.147 Y802.479 Z-10 I0.855 J1.14
X349.968 Y802.479 I-0.589 J0
X351.168 Y802.479 I0.6 J0 F1000
X348.168 Y802.479 I-1.5 J0
X351.168 Y802.479 I1.5 J0
G1 X351.163 Y802.536 Z-9.989
X351.146 Y802.591 Z-9.977
X351.125 Y802.634 Z-9.945
X351.096 Y802.674 Z-9.912
X351.049 Y802.718 Z-9.815
X351.03 Y802.731 Z-9.7
G0 Z5
X350.264 Y815.463
G1 Z2.782 F333.3
X350.241 Y815.472 Z2.663
X350.175 Y815.496 Z2.564
X350.076 Y815.525 Z2.5
G3 X348.867 Y815.285 Z2.036 I-0.355 J-1.38
X348.867 Y813.005 Z1.074 I0.855 J-1.14
X351.147 Y814.145 Z-0.075 I0.855 J1.14
X348.297 Y814.145 Z-1.704 I-1.425 J0
X348.867 Y813.005 Z-2.185 I1.425 J0
X351.147 Y814.145 Z-3.333 I0.855 J1.14
X349.968 Y814.145 I-0.589 J0
X351.168 Y814.145 I0.6 J0 F1000
X348.168 Y814.145 I-1.5 J0
X351.168 Y814.145 I1.5 J0
G1 X351.161 Y814.165
X351.143 Y814.176
X351.122 Y814.174
X351.107 Y814.159
X351.054 Y814.05
X351.068 Y813.941
X351.076 Y813.924
X351.091 Y813.915
X351.109
X351.125 Y813.925
X351.132 Y813.941
G3 X348.312 Y814.349 Z-4.963 I-1.41 J0.204 F333.3
X348.867 Y813.005 Z-5.518 I1.41 J-0.204
X351.147 Y814.145 Z-6.667 I0.855 J1.14
X349.968 Y814.145 I-0.589 J0
X351.168 Y814.145 I0.6 J0 F1000
X348.168 Y814.145 I-1.5 J0
X351.168 Y814.145 I1.5 J0
G1 X351.161 Y814.165
X351.143 Y814.176
X351.122 Y814.174
X351.107 Y814.159
X351.054 Y814.05
X351.068 Y813.941
X351.076 Y813.924
X351.091 Y813.915
X351.109
X351.125 Y813.925
X351.132 Y813.941
G3 X348.312 Y814.349 Z-8.296 I-1.41 J0.204 F333.3
X348.867 Y813.005 Z-8.852 I1.41 J-0.204
X351.147 Y814.145 Z-10 I0.855 J1.14
X349.968 Y814.145 I-0.589 J0
X351.168 Y814.145 I0.6 J0 F1000
X348.168 Y814.145 I-1.5 J0
X351.168 Y814.145 I1.5 J0
G1 X351.163 Y814.202 Z-9.989
X351.146 Y814.257 Z-9.977
X351.125 Y814.301 Z-9.945
X351.096 Y814.34 Z-9.912
X351.049 Y814.384 Z-9.815
X351.03 Y814.397 Z-9.7
G0 Z5
X350.264 Y827.13
G1 Z2.782 F333.3
X350.241 Y827.139 Z2.663
X350.175 Y827.163 Z2.564
X350.076 Y827.192 Z2.5
G3 X348.867 Y826.952 Z2.036 I-0.355 J-1.38
X348.867 Y824.672 Z1.074 I0.855 J-1.14
X350.577 Y826.952 Z-0.555 I0.855 J1.14
X348.867 Y826.952 Z-1.223 I-0.855 J-1.14
X348.867 Y824.672 Z-2.185 I0.855 J-1.14
X351.147 Y825.812 Z-3.333 I0.855 J1.14
X349.968 Y825.812 I-0.589 J0
X351.168 Y825.812 I0.6 J0 F1000
X348.168 Y825.812 I-1.5 J0
X351.168 Y825.812 I1.5 J0
G1 X351.161 Y825.832
X351.143 Y825.843
X351.122 Y825.841
X351.107 Y825.826
X351.054 Y825.717
X351.068 Y825.608
X351.076 Y825.591
X351.091 Y825.582
X351.109
X351.125 Y825.592
X351.132 Y825.608
G3 X348.867 Y826.952 Z-4.556 I-1.41 J0.204 F333.3
X348.867 Y824.672 Z-5.518 I0.855 J-1.14
X351.147 Y825.812 Z-6.667 I0.855 J1.14
X349.968 Y825.812 I-0.589 J0
X351.168 Y825.812 I0.6 J0 F1000
X348.168 Y825.812 I-1.5 J0
X351.168 Y825.812 I1.5 J0
G1 X351.161 Y825.832
X351.143 Y825.843
X351.122 Y825.841
X351.107 Y825.826
X351.054 Y825.717
X351.068 Y825.608
X351.076 Y825.591
X351.091 Y825.582
X351.109
X351.125 Y825.592
X351.132 Y825.608
G3 X348.867 Y826.952 Z-7.89 I-1.41 J0.204 F333.3
X348.867 Y824.672 Z-8.852 I0.855 J-1.14
X351.147 Y825.812 Z-10 I0.855 J1.14
X349.968 Y825.812 I-0.589 J0
X351.168 Y825.812 I0.6 J0 F1000
X348.168 Y825.812 I-1.5 J0
X351.168 Y825.812 I1.5 J0
G1 X351.163 Y825.869 Z-9.989
X351.146 Y825.924 Z-9.977
X351.125 Y825.967 Z-9.945
X351.096 Y826.007 Z-9.912
X351.049 Y826.051 Z-9.815
X351.03 Y826.064 Z-9.7
G0 Z5
X350.264 Y838.797
G1 Z2.782 F333.3
X350.241 Y838.806 Z2.663
X350.175 Y838.83 Z2.564
X350.076 Y838.859 Z2.5
G3 X348.867 Y838.619 Z2.036 I-0.355 J-1.38
X348.867 Y836.339 Z1.074 I0.855 J-1.14
X350.577 Y838.619 Z-0.555 I0.855 J1.14
X348.867 Y838.619 Z-1.223 I-0.855 J-1.14
X348.867 Y836.339 Z-2.185 I0.855 J-1.14
X351.147 Y837.479 Z-3.333 I0.855 J1.14
X349.968 Y837.479 I-0.589 J0
X351.168 Y837.479 I0.6 J0 F1000
X348.168 Y837.479 I-1.5 J0
X351.168 Y837.479 I1.5 J0
G1 X351.161 Y837.499
X351.143 Y837.51
X351.122 Y837.508
X351.107 Y837.493
X351.054 Y837.384
X351.068 Y837.275
X351.076 Y837.258
X351.091 Y837.249
X351.109
X351.125 Y837.258
X351.132 Y837.275
G3 X348.867 Y838.619 Z-4.556 I-1.41 J0.204 F333.3
X348.867 Y836.339 Z-5.518 I0.855 J-1.14
X351.147 Y837.479 Z-6.667 I0.855 J1.14
X349.968 Y837.479 I-0.589 J0
X351.168 Y837.479 I0.6 J0 F1000
X348.168 Y837.479 I-1.5 J0
X351.168 Y837.479 I1.5 J0
G1 X351.161 Y837.499
X351.143 Y837.51
X351.122 Y837.508
X351.107 Y837.493
X351.054 Y837.384
X351.068 Y837.275
X351.076 Y837.258
X351.091 Y837.249
X351.109
X351.125 Y837.258
X351.132 Y837.275
G3 X348.867 Y838.619 Z-7.89 I-1.41 J0.204 F333.3
X348.867 Y836.339 Z-8.852 I0.855 J-1.14
X351.147 Y837.479 Z-10 I0.855 J1.14
X349.968 Y837.479 I-0.589 J0
X351.168 Y837.479 I0.6 J0 F1000
X348.168 Y837.479 I-1.5 J0
X351.168 Y837.479 I1.5 J0
G1 X351.163 Y837.536 Z-9.989
X351.146 Y837.591 Z-9.977
X351.125 Y837.634 Z-9.945
X351.096 Y837.674 Z-9.912
X351.049 Y837.718 Z-9.815
X351.03 Y837.731 Z-9.7
G0 Z5
X381.173 Y838.797
G1 Z2.782 F333.3
X381.15 Y838.806 Z2.663
X381.084 Y838.83 Z2.564
X380.985 Y838.859 Z2.5
G3 X380.276 Y836.099 Z0.871 I-0.354 J-1.38
X380.985 Y838.859 Z-0.759 I0.354 J1.38
X380.276 Y836.099 Z-2.388 I-0.354 J-1.38
X382.056 Y837.479 Z-3.333 I0.354 J1.38
X380.877 Y837.479 I-0.589 J0
X382.077 Y837.479 I0.6 J0 F1000
X379.077 Y837.479 I-1.5 J0
X382.077 Y837.479 I1.5 J0
G1 X382.07 Y837.499
X382.052 Y837.51
X382.031 Y837.508
X382.016 Y837.493
X381.963 Y837.384
X381.977 Y837.275
X381.985 Y837.258
X382 Y837.249
X382.018
X382.034 Y837.258
X382.041 Y837.275
G3 X379.221 Y837.683 Z-4.963 I-1.41 J0.204 F333.3
X380.529 Y836.058 Z-5.815 I1.41 J-0.204
X382.056 Y837.479 Z-6.667 I0.102 J1.421
X380.877 Y837.479 I-0.589 J0
X382.077 Y837.479 I0.6 J0 F1000
X379.077 Y837.479 I-1.5 J0
X382.077 Y837.479 I1.5 J0
G1 X382.07 Y837.499
X382.052 Y837.51
X382.031 Y837.508
X382.016 Y837.493
X381.963 Y837.384
X381.977 Y837.275
X381.985 Y837.258
X382 Y837.249
X382.018
X382.034 Y837.258
X382.041 Y837.275
G3 X379.221 Y837.683 Z-8.296 I-1.41 J0.204 F333.3
X380.529 Y836.058 Z-9.148 I1.41 J-0.204
X382.056 Y837.479 Z-10 I0.102 J1.421
X380.877 Y837.479 I-0.589 J0
X382.077 Y837.479 I0.6 J0 F1000
X379.077 Y837.479 I-1.5 J0
X382.077 Y837.479 I1.5 J0
G1 X382.072 Y837.536 Z-9.989
X382.055 Y837.591 Z-9.977
X382.034 Y837.634 Z-9.945
X382.005 Y837.674 Z-9.912
X381.958 Y837.718 Z-9.815
X381.939 Y837.731 Z-9.7
G0 Z5
X381.173 Y827.13
G1 Z2.782 F333.3
X381.15 Y827.139 Z2.663
X381.084 Y827.163 Z2.564
X380.985 Y827.192 Z2.5
G3 X380.276 Y824.432 Z0.871 I-0.354 J-1.38
X380.985 Y827.192 Z-0.759 I0.354 J1.38
X380.276 Y824.432 Z-2.388 I-0.354 J-1.38
X382.056 Y825.812 Z-3.333 I0.354 J1.38
X380.877 Y825.812 I-0.589 J0
X382.077 Y825.812 I0.6 J0 F1000
X379.077 Y825.812 I-1.5 J0
X382.077 Y825.812 I1.5 J0
G1 X382.07 Y825.832
X382.052 Y825.843
X382.031 Y825.841
X382.016 Y825.826
X381.963 Y825.717
X381.977 Y825.608
X381.985 Y825.591
X382 Y825.582
X382.018
X382.034 Y825.592
X382.041 Y825.608
G3 X379.221 Y826.016 Z-4.963 I-1.41 J0.204 F333.3
X380.529 Y824.391 Z-5.815 I1.41 J-0.204
X382.056 Y825.812 Z-6.667 I0.102 J1.421
X380.877 Y825.812 I-0.589 J0
X382.077 Y825.812 I0.6 J0 F1000
X379.077 Y825.812 I-1.5 J0
X382.077 Y825.812 I1.5 J0
G1 X382.07 Y825.832
X382.052 Y825.843
X382.031 Y825.841
X382.016 Y825.826
X381.963 Y825.717
X381.977 Y825.608
X381.985 Y825.591
X382 Y825.582
X382.018
X382.034 Y825.592
X382.041 Y825.608
G3 X379.221 Y826.016 Z-8.296 I-1.41 J0.204 F333.3
X380.529 Y824.391 Z-9.148 I1.41 J-0.204
X382.056 Y825.812 Z-10 I0.102 J1.421
X380.877 Y825.812 I-0.589 J0
X382.077 Y825.812 I0.6 J0 F1000
X379.077 Y825.812 I-1.5 J0
X382.077 Y825.812 I1.5 J0
G1 X382.072 Y825.869 Z-9.989
X382.055 Y825.924 Z-9.977
X382.034 Y825.967 Z-9.945
X382.005 Y826.007 Z-9.912
X381.958 Y826.051 Z-9.815
X381.939 Y826.064 Z-9.7
G0 Z5
X381.173 Y815.463
G1 Z2.782 F333.3
X381.15 Y815.472 Z2.663
X381.084 Y815.496 Z2.564
X380.985 Y815.525 Z2.5
G3 X379.776 Y815.285 Z2.036 I-0.354 J-1.38
X379.776 Y813.005 Z1.074 I0.855 J-1.14
X382.056 Y814.145 Z-0.075 I0.855 J1.14
X379.776 Y815.285 Z-1.223 I-1.425 J0
X379.776 Y813.005 Z-2.185 I0.855 J-1.14
X382.056 Y814.145 Z-3.333 I0.855 J1.14
X380.877 Y814.145 I-0.589 J0
X382.077 Y814.145 I0.6 J0 F1000
X379.077 Y814.145 I-1.5 J0
X382.077 Y814.145 I1.5 J0
G1 X382.07 Y814.165
X382.052 Y814.176
X382.031 Y814.174
X382.016 Y814.159
X381.963 Y814.05
X381.977 Y813.941
X381.985 Y813.924
X382 Y813.915
X382.018
X382.034 Y813.925
X382.041 Y813.941
G3 X379.776 Y815.285 Z-4.556 I-1.41 J0.204 F333.3
X379.776 Y813.005 Z-5.518 I0.855 J-1.14
X382.056 Y814.145 Z-6.667 I0.855 J1.14
X380.877 Y814.145 I-0.589 J0
X382.077 Y814.145 I0.6 J0 F1000
X379.077 Y814.145 I-1.5 J0
X382.077 Y814.145 I1.5 J0
G1 X382.07 Y814.165
X382.052 Y814.176
X382.031 Y814.174
X382.016 Y814.159
X381.963 Y814.05
X381.977 Y813.941
X381.985 Y813.924
X382 Y813.915
X382.018
X382.034 Y813.925
X382.041 Y813.941
G3 X379.776 Y815.285 Z-7.89 I-1.41 J0.204 F333.3
X379.776 Y813.005 Z-8.852 I0.855 J-1.14
X382.056 Y814.145 Z-10 I0.855 J1.14
X380.877 Y814.145 I-0.589 J0
X382.077 Y814.145 I0.6 J0 F1000
X379.077 Y814.145 I-1.5 J0
X382.077 Y814.145 I1.5 J0
G1 X382.072 Y814.202 Z-9.989
X382.055 Y814.257 Z-9.977
X382.034 Y814.301 Z-9.945
X382.005 Y814.34 Z-9.912
X381.958 Y814.384 Z-9.815
X381.939 Y814.397 Z-9.7
G0 Z5
X381.173 Y803.797
G1 Z2.782 F333.3
X381.15 Y803.806 Z2.663
X381.084 Y803.83 Z2.564
X380.985 Y803.859 Z2.5
G3 X380.276 Y801.099 Z0.871 I-0.354 J-1.38
X380.985 Y803.859 Z-0.759 I0.354 J1.38
X380.276 Y801.099 Z-2.388 I-0.354 J-1.38
X382.056 Y802.479 Z-3.333 I0.354 J1.38
X380.877 Y802.479 I-0.589 J0
X382.077 Y802.479 I0.6 J0 F1000
X379.077 Y802.479 I-1.5 J0
X382.077 Y802.479 I1.5 J0
G1 X382.07 Y802.499
X382.052 Y802.51
X382.031 Y802.508
X382.016 Y802.493
X381.963 Y802.384
X381.977 Y802.275
X381.985 Y802.258
X382 Y802.249
X382.018
X382.034 Y802.258
X382.041 Y802.275
G3 X379.221 Y802.683 Z-4.963 I-1.41 J0.204 F333.3
X380.529 Y801.058 Z-5.815 I1.41 J-0.204
X382.056 Y802.479 Z-6.667 I0.102 J1.421
X380.877 Y802.479 I-0.589 J0
X382.077 Y802.479 I0.6 J0 F1000
X379.077 Y802.479 I-1.5 J0
X382.077 Y802.479 I1.5 J0
G1 X382.07 Y802.499
X382.052 Y802.51
X382.031 Y802.508
X382.016 Y802.493
X381.963 Y802.384
X381.977 Y802.275
X381.985 Y802.258
X382 Y802.249
X382.018
X382.034 Y802.258
X382.041 Y802.275
G3 X379.221 Y802.683 Z-8.296 I-1.41 J0.204 F333.3
X380.529 Y801.058 Z-9.148 I1.41 J-0.204
X382.056 Y802.479 Z-10 I0.102 J1.421
X380.877 Y802.479 I-0.589 J0
X382.077 Y802.479 I0.6 J0 F1000
X379.077 Y802.479 I-1.5 J0
X382.077 Y802.479 I1.5 J0
G1 X382.072 Y802.536 Z-9.989
X382.055 Y802.591 Z-9.977
X382.034 Y802.634 Z-9.945
X382.005 Y802.674 Z-9.912
X381.958 Y802.718 Z-9.815
X381.939 Y802.731 Z-9.7
G0 Z5
X195.718 Y838.797
G1 Z2.782 F333.3
X195.695 Y838.806 Z2.663
X195.629 Y838.83 Z2.564
X195.53 Y838.859 Z2.5
G3 X194.321 Y838.619 Z2.036 I-0.354 J-1.38
X194.321 Y836.339 Z1.074 I0.855 J-1.14
X196.031 Y838.619 Z-0.555 I0.855 J1.14
X194.321 Y838.619 Z-1.223 I-0.855 J-1.14
X194.321 Y836.339 Z-2.185 I0.855 J-1.14
X196.601 Y837.479 Z-3.333 I0.855 J1.14
X195.422 Y837.479 I-0.589 J0
X196.622 Y837.479 I0.6 J0 F1000
X193.622 Y837.479 I-1.5 J0
X196.622 Y837.479 I1.5 J0
G1 X196.615 Y837.499
X196.597 Y837.51
X196.576 Y837.508
X196.561 Y837.493
X196.508 Y837.384
X196.522 Y837.275
X196.53 Y837.258
X196.545 Y837.249
X196.563
X196.579 Y837.258
X196.586 Y837.275
G3 X193.766 Y837.683 Z-4.963 I-1.41 J0.204 F333.3
X194.321 Y836.339 Z-5.518 I1.41 J-0.204
X196.601 Y837.479 Z-6.667 I0.855 J1.14
X195.422 Y837.479 I-0.589 J0
X196.622 Y837.479 I0.6 J0 F1000
X193.622 Y837.479 I-1.5 J0
X196.622 Y837.479 I1.5 J0
G1 X196.615 Y837.499
X196.597 Y837.51
X196.576 Y837.508
X196.561 Y837.493
X196.508 Y837.384
X196.522 Y837.275
X196.53 Y837.258
X196.545 Y837.249
X196.563
X196.579 Y837.258
X196.586 Y837.275
G3 X193.766 Y837.683 Z-8.296 I-1.41 J0.204 F333.3
X194.321 Y836.339 Z-8.852 I1.41 J-0.204
X196.601 Y837.479 Z-10 I0.855 J1.14
X195.422 Y837.479 I-0.589 J0
X196.622 Y837.479 I0.6 J0 F1000
X193.622 Y837.479 I-1.5 J0
X196.622 Y837.479 I1.5 J0
G1 X196.617 Y837.536 Z-9.989
X196.6 Y837.591 Z-9.977
X196.579 Y837.634 Z-9.945
X196.55 Y837.674 Z-9.912
X196.503 Y837.718 Z-9.815
X196.484 Y837.731 Z-9.7
G0 Z5
X164.809 Y838.797
G1 Z2.782 F333.3
X164.786 Y838.806 Z2.663
X164.72 Y838.83 Z2.564
X164.621 Y838.859 Z2.5
G3 X163.412 Y838.619 Z2.036 I-0.354 J-1.38
X163.412 Y836.339 Z1.074 I0.855 J-1.14
X165.122 Y838.619 Z-0.555 I0.855 J1.14
X163.412 Y838.619 Z-1.223 I-0.855 J-1.14
X163.412 Y836.339 Z-2.185 I0.855 J-1.14
X165.692 Y837.479 Z-3.333 I0.855 J1.14
X164.513 Y837.479 I-0.589 J0
X165.713 Y837.479 I0.6 J0 F1000
X162.713 Y837.479 I-1.5 J0
X165.713 Y837.479 I1.5 J0
G1 X165.706 Y837.499
X165.688 Y837.51
X165.667 Y837.508
X165.652 Y837.493
X165.599 Y837.384
X165.613 Y837.275
X165.621 Y837.258
X165.636 Y837.249
X165.654
X165.67 Y837.258
X165.677 Y837.275
G3 X162.857 Y837.683 Z-4.963 I-1.41 J0.204 F333.3
X163.412 Y836.339 Z-5.518 I1.41 J-0.204
X165.692 Y837.479 Z-6.667 I0.855 J1.14
X164.513 Y837.479 I-0.589 J0
X165.713 Y837.479 I0.6 J0 F1000
X162.713 Y837.479 I-1.5 J0
X165.713 Y837.479 I1.5 J0
G1 X165.706 Y837.499
X165.688 Y837.51
X165.667 Y837.508
X165.652 Y837.493
X165.599 Y837.384
X165.613 Y837.275
X165.621 Y837.258
X165.636 Y837.249
X165.654
X165.67 Y837.258
X165.677 Y837.275
G3 X162.857 Y837.683 Z-8.296 I-1.41 J0.204 F333.3
X163.412 Y836.339 Z-8.852 I1.41 J-0.204
X165.692 Y837.479 Z-10 I0.855 J1.14
X164.513 Y837.479 I-0.589 J0
X165.713 Y837.479 I0.6 J0 F1000
X162.713 Y837.479 I-1.5 J0
X165.713 Y837.479 I1.5 J0
G1 X165.708 Y837.536 Z-9.989
X165.691 Y837.591 Z-9.977
X165.67 Y837.634 Z-9.945
X165.641 Y837.674 Z-9.912
X165.594 Y837.718 Z-9.815
X165.575 Y837.731 Z-9.7
G0 Z5
X164.809 Y827.13
G1 Z2.782 F333.3
X164.786 Y827.139 Z2.663
X164.72 Y827.163 Z2.564
X164.621 Y827.192 Z2.5
G3 X163.412 Y826.952 Z2.036 I-0.354 J-1.38
X163.412 Y824.672 Z1.074 I0.855 J-1.14
X165.122 Y826.952 Z-0.555 I0.855 J1.14
X163.412 Y826.952 Z-1.223 I-0.855 J-1.14
X163.412 Y824.672 Z-2.185 I0.855 J-1.14
X165.692 Y825.812 Z-3.333 I0.855 J1.14
X164.513 Y825.812 I-0.589 J0
X165.713 Y825.812 I0.6 J0 F1000
X162.713 Y825.812 I-1.5 J0
X165.713 Y825.812 I1.5 J0
G1 X165.706 Y825.832
X165.688 Y825.843
X165.667 Y825.841
X165.652 Y825.826
X165.599 Y825.717
X165.613 Y825.608
X165.621 Y825.591
X165.636 Y825.582
X165.654
X165.67 Y825.592
X165.677 Y825.608
G3 X162.857 Y826.016 Z-4.963 I-1.41 J0.204 F333.3
X163.412 Y824.672 Z-5.518 I1.41 J-0.204
X165.692 Y825.812 Z-6.667 I0.855 J1.14
X164.513 Y825.812 I-0.589 J0
X165.713 Y825.812 I0.6 J0 F1000
X162.713 Y825.812 I-1.5 J0
X165.713 Y825.812 I1.5 J0
G1 X165.706 Y825.832
X165.688 Y825.843
X165.667 Y825.841
X165.652 Y825.826
X165.599 Y825.717
X165.613 Y825.608
X165.621 Y825.591
X165.636 Y825.582
X165.654
X165.67 Y825.592
X165.677 Y825.608
G3 X162.857 Y826.016 Z-8.296 I-1.41 J0.204 F333.3
X163.412 Y824.672 Z-8.852 I1.41 J-0.204
X165.692 Y825.812 Z-10 I0.855 J1.14
X164.513 Y825.812 I-0.589 J0
X165.713 Y825.812 I0.6 J0 F1000
X162.713 Y825.812 I-1.5 J0
X165.713 Y825.812 I1.5 J0
G1 X165.708 Y825.869 Z-9.989
X165.691 Y825.924 Z-9.977
X165.67 Y825.967 Z-9.945
X165.641 Y826.007 Z-9.912
X165.594 Y826.051 Z-9.815
X165.575 Y826.064 Z-9.7
G0 Z5
X164.809 Y815.463
G1 Z2.782 F333.3
X164.786 Y815.472 Z2.663
X164.72 Y815.496 Z2.564
X164.621 Y815.525 Z2.5
G3 X163.412 Y815.285 Z2.036 I-0.354 J-1.38
X165.122 Y813.005 Z0.406 I0.855 J-1.14
X165.692 Y814.145 Z-0.075 I-0.855 J1.14
X163.412 Y815.285 Z-1.223 I-1.425 J0
X165.122 Y813.005 Z-2.852 I0.855 J-1.14
X165.692 Y814.145 Z-3.333 I-0.855 J1.14
X164.513 Y814.145 I-0.589 J0
X165.713 Y814.145 I0.6 J0 F1000
X162.713 Y814.145 I-1.5 J0
X165.713 Y814.145 I1.5 J0
G1 X165.706 Y814.165
X165.688 Y814.176
X165.667 Y814.174
X165.652 Y814.159
X165.599 Y814.05
X165.613 Y813.941
X165.621 Y813.924
X165.636 Y813.915
X165.654
X165.67 Y813.925
X165.677 Y813.941
G3 X163.412 Y815.285 Z-4.556 I-1.41 J0.204 F333.3
X165.122 Y813.005 Z-6.186 I0.855 J-1.14
X165.692 Y814.145 Z-6.667 I-0.855 J1.14
X164.513 Y814.145 I-0.589 J0
X165.713 Y814.145 I0.6 J0 F1000
X162.713 Y814.145 I-1.5 J0
X165.713 Y814.145 I1.5 J0
G1 X165.706 Y814.165
X165.688 Y814.176
X165.667 Y814.174
X165.652 Y814.159
X165.599 Y814.05
X165.613 Y813.941
X165.621 Y813.924
X165.636 Y813.915
X165.654
X165.67 Y813.925
X165.677 Y813.941
G3 X163.412 Y815.285 Z-7.89 I-1.41 J0.204 F333.3
X165.122 Y813.005 Z-9.519 I0.855 J-1.14
X165.692 Y814.145 Z-10 I-0.855 J1.14
X164.513 Y814.145 I-0.589 J0
X165.713 Y814.145 I0.6 J0 F1000
X162.713 Y814.145 I-1.5 J0
X165.713 Y814.145 I1.5 J0
G1 X165.708 Y814.202 Z-9.989
X165.691 Y814.257 Z-9.977
X165.67 Y814.301 Z-9.945
X165.641 Y814.34 Z-9.912
X165.594 Y814.384 Z-9.815
X165.575 Y814.397 Z-9.7
G0 Z5
X164.809 Y803.797
G1 Z2.782 F333.3
X164.786 Y803.806 Z2.663
X164.72 Y803.83 Z2.564
X164.621 Y803.859 Z2.5
G3 X163.412 Y803.619 Z2.036 I-0.354 J-1.38
X163.412 Y801.339 Z1.074 I0.855 J-1.14
X165.122 Y803.619 Z-0.555 I0.855 J1.14
X163.412 Y803.619 Z-1.223 I-0.855 J-1.14
X163.412 Y801.339 Z-2.185 I0.855 J-1.14
X165.692 Y802.479 Z-3.333 I0.855 J1.14
X164.513 Y802.479 I-0.589 J0
X165.713 Y802.479 I0.6 J0 F1000
X162.713 Y802.479 I-1.5 J0
X165.713 Y802.479 I1.5 J0
G1 X165.706 Y802.499
X165.688 Y802.51
X165.667 Y802.508
X165.652 Y802.493
X165.599 Y802.384
X165.613 Y802.275
X165.621 Y802.258
X165.636 Y802.249
X165.654
X165.67 Y802.258
X165.677 Y802.275
G3 X162.857 Y802.683 Z-4.963 I-1.41 J0.204 F333.3
X163.412 Y801.339 Z-5.518 I1.41 J-0.204
X165.692 Y802.479 Z-6.667 I0.855 J1.14
X164.513 Y802.479 I-0.589 J0
X165.713 Y802.479 I0.6 J0 F1000
X162.713 Y802.479 I-1.5 J0
X165.713 Y802.479 I1.5 J0
G1 X165.706 Y802.499
X165.688 Y802.51
X165.667 Y802.508
X165.652 Y802.493
X165.599 Y802.384
X165.613 Y802.275
X165.621 Y802.258
X165.636 Y802.249
X165.654
X165.67 Y802.258
X165.677 Y802.275
G3 X162.857 Y802.683 Z-8.296 I-1.41 J0.204 F333.3
X163.412 Y801.339 Z-8.852 I1.41 J-0.204
X165.692 Y802.479 Z-10 I0.855 J1.14
X164.513 Y802.479 I-0.589 J0
X165.713 Y802.479 I0.6 J0 F1000
X162.713 Y802.479 I-1.5 J0
X165.713 Y802.479 I1.5 J0
G1 X165.708 Y802.536 Z-9.989
X165.691 Y802.591 Z-9.977
X165.67 Y802.634 Z-9.945
X165.641 Y802.674 Z-9.912
X165.594 Y802.718 Z-9.815
X165.575 Y802.731 Z-9.7
G0 Z5
X133.9 Y803.797
G1 Z2.782 F333.3
X133.877 Y803.806 Z2.663
X133.811 Y803.83 Z2.564
X133.712 Y803.859 Z2.5
G3 X133.003 Y801.099 Z0.871 I-0.354 J-1.38
X133.712 Y803.859 Z-0.759 I0.354 J1.38
X133.003 Y801.099 Z-2.388 I-0.354 J-1.38
X134.783 Y802.479 Z-3.333 I0.354 J1.38
X133.604 Y802.479 I-0.589 J0
X134.804 Y802.479 I0.6 J0 F1000
X131.804 Y802.479 I-1.5 J0
X134.804 Y802.479 I1.5 J0
G1 X134.797 Y802.499
X134.779 Y802.51
X134.758 Y802.508
X134.743 Y802.493
X134.69 Y802.384
X134.704 Y802.275
X134.712 Y802.258
X134.727 Y802.249
X134.745
X134.761 Y802.258
X134.768 Y802.275
G3 X131.948 Y802.683 Z-4.963 I-1.41 J0.204 F333.3
X133.256 Y801.058 Z-5.815 I1.41 J-0.204
X134.783 Y802.479 Z-6.667 I0.102 J1.421
X133.604 Y802.479 I-0.589 J0
X134.804 Y802.479 I0.6 J0 F1000
X131.804 Y802.479 I-1.5 J0
X134.804 Y802.479 I1.5 J0
G1 X134.797 Y802.499
X134.779 Y802.51
X134.758 Y802.508
X134.743 Y802.493
X134.69 Y802.384
X134.704 Y802.275
X134.712 Y802.258
X134.727 Y802.249
X134.745
X134.761 Y802.258
X134.768 Y802.275
G3 X131.948 Y802.683 Z-8.296 I-1.41 J0.204 F333.3
X133.256 Y801.058 Z-9.148 I1.41 J-0.204
X134.783 Y802.479 Z-10 I0.102 J1.421
X133.604 Y802.479 I-0.589 J0
X134.804 Y802.479 I0.6 J0 F1000
X131.804 Y802.479 I-1.5 J0
X134.804 Y802.479 I1.5 J0
G1 X134.799 Y802.536 Z-9.989
X134.782 Y802.591 Z-9.977
X134.761 Y802.634 Z-9.945
X134.732 Y802.674 Z-9.912
X134.685 Y802.718 Z-9.815
X134.666 Y802.731 Z-9.7
G0 Z5
X133.9 Y815.463
G1 Z2.782 F333.3
X133.877 Y815.472 Z2.663
X133.811 Y815.496 Z2.564
X133.712 Y815.525 Z2.5
G3 X132.503 Y815.285 Z2.036 I-0.354 J-1.38
X132.503 Y813.005 Z1.074 I0.855 J-1.14
X134.783 Y814.145 Z-0.075 I0.855 J1.14
X132.503 Y815.285 Z-1.223 I-1.425 J0
X132.503 Y813.005 Z-2.185 I0.855 J-1.14
X134.783 Y814.145 Z-3.333 I0.855 J1.14
X133.604 Y814.145 I-0.589 J0
X134.804 Y814.145 I0.6 J0 F1000
X131.804 Y814.145 I-1.5 J0
X134.804 Y814.145 I1.5 J0
G1 X134.797 Y814.165
X134.779 Y814.176
X134.758 Y814.174
X134.743 Y814.159
X134.69 Y814.05
X134.704 Y813.941
X134.712 Y813.924
X134.727 Y813.915
X134.745
X134.761 Y813.925
X134.768 Y813.941
G3 X132.503 Y815.285 Z-4.556 I-1.41 J0.204 F333.3
X132.503 Y813.005 Z-5.518 I0.855 J-1.14
X134.783 Y814.145 Z-6.667 I0.855 J1.14
X133.604 Y814.145 I-0.589 J0
X134.804 Y814.145 I0.6 J0 F1000
X131.804 Y814.145 I-1.5 J0
X134.804 Y814.145 I1.5 J0
G1 X134.797 Y814.165
X134.779 Y814.176
X134.758 Y814.174
X134.743 Y814.159
X134.69 Y814.05
X134.704 Y813.941
X134.712 Y813.924
X134.727 Y813.915
X134.745
X134.761 Y813.925
X134.768 Y813.941
G3 X132.503 Y815.285 Z-7.89 I-1.41 J0.204 F333.3
X132.503 Y813.005 Z-8.852 I0.855 J-1.14
X134.783 Y814.145 Z-10 I0.855 J1.14
X133.604 Y814.145 I-0.589 J0
X134.804 Y814.145 I0.6 J0 F1000
X131.804 Y814.145 I-1.5 J0
X134.804 Y814.145 I1.5 J0
G1 X134.799 Y814.202 Z-9.989
X134.782 Y814.257 Z-9.977
X134.761 Y814.301 Z-9.945
X134.732 Y814.34 Z-9.912
X134.685 Y814.384 Z-9.815
X134.666 Y814.397 Z-9.7
G0 Z5
X133.9 Y827.13
G1 Z2.782 F333.3
X133.877 Y827.139 Z2.663
X133.811 Y827.163 Z2.564
X133.712 Y827.192 Z2.5
G3 X133.003 Y824.432 Z0.871 I-0.354 J-1.38
X133.712 Y827.192 Z-0.759 I0.354 J1.38
X133.003 Y824.432 Z-2.388 I-0.354 J-1.38
X134.783 Y825.812 Z-3.333 I0.354 J1.38
X133.604 Y825.812 I-0.589 J0
X134.804 Y825.812 I0.6 J0 F1000
X131.804 Y825.812 I-1.5 J0
X134.804 Y825.812 I1.5 J0
G1 X134.797 Y825.832
X134.779 Y825.843
X134.758 Y825.841
X134.743 Y825.826
X134.69 Y825.717
X134.704 Y825.608
X134.712 Y825.591
X134.727 Y825.582
X134.745
X134.761 Y825.592
X134.768 Y825.608
G3 X131.948 Y826.016 Z-4.963 I-1.41 J0.204 F333.3
X133.256 Y824.391 Z-5.815 I1.41 J-0.204
X134.783 Y825.812 Z-6.667 I0.102 J1.421
X133.604 Y825.812 I-0.589 J0
X134.804 Y825.812 I0.6 J0 F1000
X131.804 Y825.812 I-1.5 J0
X134.804 Y825.812 I1.5 J0
G1 X134.797 Y825.832
X134.779 Y825.843
X134.758 Y825.841
X134.743 Y825.826
X134.69 Y825.717
X134.704 Y825.608
X134.712 Y825.591
X134.727 Y825.582
X134.745
X134.761 Y825.592
X134.768 Y825.608
G3 X131.948 Y826.016 Z-8.296 I-1.41 J0.204 F333.3
X133.256 Y824.391 Z-9.148 I1.41 J-0.204
X134.783 Y825.812 Z-10 I0.102 J1.421
X133.604 Y825.812 I-0.589 J0
X134.804 Y825.812 I0.6 J0 F1000
X131.804 Y825.812 I-1.5 J0
X134.804 Y825.812 I1.5 J0
G1 X134.799 Y825.869 Z-9.989
X134.782 Y825.924 Z-9.977
X134.761 Y825.967 Z-9.945
X134.732 Y826.007 Z-9.912
X134.685 Y826.051 Z-9.815
X134.666 Y826.064 Z-9.7
G0 Z5
X133.9 Y838.797
G1 Z2.782 F333.3
X133.877 Y838.806 Z2.663
X133.811 Y838.83 Z2.564
X133.712 Y838.859 Z2.5
G3 X133.003 Y836.099 Z0.871 I-0.354 J-1.38
X133.712 Y838.859 Z-0.759 I0.354 J1.38
X133.003 Y836.099 Z-2.388 I-0.354 J-1.38
X134.783 Y837.479 Z-3.333 I0.354 J1.38
X133.604 Y837.479 I-0.589 J0
X134.804 Y837.479 I0.6 J0 F1000
X131.804 Y837.479 I-1.5 J0
X134.804 Y837.479 I1.5 J0
G1 X134.797 Y837.499
X134.779 Y837.51
X134.758 Y837.508
X134.743 Y837.493
X134.69 Y837.384
X134.704 Y837.275
X134.712 Y837.258
X134.727 Y837.249
X134.745
X134.761 Y837.258
X134.768 Y837.275
G3 X131.948 Y837.683 Z-4.963 I-1.41 J0.204 F333.3
X133.256 Y836.058 Z-5.815 I1.41 J-0.204
X134.783 Y837.479 Z-6.667 I0.102 J1.421
X133.604 Y837.479 I-0.589 J0
X134.804 Y837.479 I0.6 J0 F1000
X131.804 Y837.479 I-1.5 J0
X134.804 Y837.479 I1.5 J0
G1 X134.797 Y837.499
X134.779 Y837.51
X134.758 Y837.508
X134.743 Y837.493
X134.69 Y837.384
X134.704 Y837.275
X134.712 Y837.258
X134.727 Y837.249
X134.745
X134.761 Y837.258
X134.768 Y837.275
G3 X131.948 Y837.683 Z-8.296 I-1.41 J0.204 F333.3
X133.256 Y836.058 Z-9.148 I1.41 J-0.204
X134.783 Y837.479 Z-10 I0.102 J1.421
X133.604 Y837.479 I-0.589 J0
X134.804 Y837.479 I0.6 J0 F1000
X131.804 Y837.479 I-1.5 J0
X134.804 Y837.479 I1.5 J0
G1 X134.799 Y837.536 Z-9.989
X134.782 Y837.591 Z-9.977
X134.761 Y837.634 Z-9.945
X134.732 Y837.674 Z-9.912
X134.685 Y837.718 Z-9.815
X134.666 Y837.731 Z-9.7
G0 Z5
X101.792 Y836.161
G1 Z2.782 F333.3
X101.815 Y836.152 Z2.663
X101.88 Y836.128 Z2.564
X101.979 Y836.099 Z2.5
G3 X103.189 Y836.339 Z2.036 I0.354 J1.38
X103.189 Y838.619 Z1.074 I-0.855 J1.14
X101.479 Y836.339 Z-0.555 I-0.855 J-1.14
X103.189 Y836.339 Z-1.223 I0.855 J1.14
X103.189 Y838.619 Z-2.185 I-0.855 J1.14
X100.909 Y837.479 Z-3.333 I-0.855 J-1.14
X102.84 Y837.479 I0.966 J0
X101.95 Y837.479 I-0.445 J0 F1000
X102.84 Y837.479 I0.445 J0
G2 X103.164 Y838.092 I0.742 J0
G3 X103.135 Y838.784 I-0.23 J0.337
X100.895 Y837.479 I-0.74 J-1.305
X103.895 Y837.479 I1.5 J0
X103.135 Y838.784 I-1.5 J0
G1 X103.09 Y838.802
X103.041 Y838.81
X102.993 Y838.805
X102.947 Y838.789
X101.032 Y837.833
X100.992 Y837.807
X100.959 Y837.772
X100.936 Y837.729
X100.924 Y837.683
G3 X103.744 Y837.275 Z-4.963 I1.41 J-0.204 F333.3
X103.189 Y838.619 Z-5.518 I-1.41 J0.204
X100.909 Y837.479 Z-6.667 I-0.855 J-1.14
X102.84 Y837.479 I0.966 J0
X101.95 Y837.479 I-0.445 J0 F1000
X102.84 Y837.479 I0.445 J0
G2 X103.164 Y838.092 I0.742 J0
G3 X103.135 Y838.784 I-0.23 J0.337
X100.895 Y837.479 I-0.74 J-1.305
X103.895 Y837.479 I1.5 J0
X103.135 Y838.784 I-1.5 J0
G1 X103.09 Y838.802
X103.041 Y838.81
X102.993 Y838.805
X102.947 Y838.789
X101.032 Y837.833
X100.992 Y837.807
X100.959 Y837.772
X100.936 Y837.729
X100.924 Y837.683
G3 X103.744 Y837.275 Z-8.296 I1.41 J-0.204 F333.3
X103.189 Y838.619 Z-8.852 I-1.41 J0.204
X100.909 Y837.479 Z-10 I-0.855 J-1.14
X102.84 Y837.479 I0.966 J0
X101.95 Y837.479 I-0.445 J0 F1000
X102.84 Y837.479 I0.445 J0
G2 X103.164 Y838.092 I0.742 J0
G3 X103.135 Y838.784 I-0.23 J0.337
X100.895 Y837.479 I-0.74 J-1.305
X103.895 Y837.479 I1.5 J0
X103.135 Y838.784 I-1.5 J0
G1 X103.082 Y838.807 Z-9.989
X103.027 Y838.82 Z-9.977
X102.978 Y838.823 Z-9.945
X102.93 Y838.817 Z-9.912
X102.868 Y838.798 Z-9.815
X102.847 Y838.788 Z-9.7
G0 Z5
X101.792 Y824.494
G1 Z2.782 F333.3
X101.815 Y824.485 Z2.663
X101.88 Y824.461 Z2.564
X101.979 Y824.432 Z2.5
G3 X103.189 Y824.672 Z2.036 I0.354 J1.38
X103.189 Y826.952 Z1.074 I-0.855 J1.14
X101.479 Y824.672 Z-0.555 I-0.855 J-1.14
X103.189 Y824.672 Z-1.223 I0.855 J1.14
X103.189 Y826.952 Z-2.185 I-0.855 J1.14
X100.909 Y825.812 Z-3.333 I-0.855 J-1.14
X102.84 Y825.812 I0.966 J0
X101.95 Y825.812 I-0.445 J0 F1000
X102.84 Y825.812 I0.445 J0
G2 X103.164 Y826.425 I0.742 J0
G3 X103.135 Y827.117 I-0.23 J0.337
X100.895 Y825.812 I-0.74 J-1.305
X103.895 Y825.812 I1.5 J0
X103.135 Y827.117 I-1.5 J0
G1 X103.09 Y827.135
X103.041 Y827.143
X102.993 Y827.138
X102.947 Y827.122
X101.032 Y826.166
X100.992 Y826.14
X100.959 Y826.105
X100.936 Y826.062
X100.924 Y826.016
G3 X103.189 Y824.672 Z-4.556 I1.41 J-0.204 F333.3
X103.189 Y826.952 Z-5.518 I-0.855 J1.14
X100.909 Y825.812 Z-6.667 I-0.855 J-1.14
X102.84 Y825.812 I0.966 J0
X101.95 Y825.812 I-0.445 J0 F1000
X102.84 Y825.812 I0.445 J0
G2 X103.164 Y826.425 I0.742 J0
G3 X103.135 Y827.117 I-0.23 J0.337
X100.895 Y825.812 I-0.74 J-1.305
X103.895 Y825.812 I1.5 J0
X103.135 Y827.117 I-1.5 J0
G1 X103.09 Y827.135
X103.041 Y827.143
X102.993 Y827.138
X102.947 Y827.122
X101.032 Y826.166
X100.992 Y826.14
X100.959 Y826.105
X100.936 Y826.062
X100.924 Y826.016
G3 X103.189 Y824.672 Z-7.89 I1.41 J-0.204 F333.3
X103.189 Y826.952 Z-8.852 I-0.855 J1.14
X100.909 Y825.812 Z-10 I-0.855 J-1.14
X102.84 Y825.812 I0.966 J0
X101.95 Y825.812 I-0.445 J0 F1000
X102.84 Y825.812 I0.445 J0
G2 X103.164 Y826.425 I0.742 J0
G3 X103.135 Y827.117 I-0.23 J0.337
X100.895 Y825.812 I-0.74 J-1.305
X103.895 Y825.812 I1.5 J0
X103.135 Y827.117 I-1.5 J0
G1 X103.082 Y827.14 Z-9.989
X103.027 Y827.153 Z-9.977
X102.978 Y827.156 Z-9.945
X102.93 Y827.15 Z-9.912
X102.868 Y827.131 Z-9.815
X102.847 Y827.121 Z-9.7
G0 Z5
X101.792 Y812.827
G1 Z2.782 F333.3
X101.815 Y812.818 Z2.663
X101.88 Y812.794 Z2.564
X101.979 Y812.765 Z2.5
G3 X103.189 Y813.005 Z2.036 I0.354 J1.38
X103.189 Y815.285 Z1.074 I-0.855 J1.14
X100.909 Y814.145 Z-0.075 I-0.855 J-1.14
X103.759 Y814.145 Z-1.704 I1.425 J0
X103.189 Y815.285 Z-2.185 I-1.425 J0
X100.909 Y814.145 Z-3.333 I-0.855 J-1.14
X102.84 Y814.145 I0.966 J0
X101.95 Y814.145 I-0.445 J0 F1000
X102.84 Y814.145 I0.445 J0
G2 X103.164 Y814.758 I0.742 J0
G3 X103.135 Y815.45 I-0.23 J0.337
X100.895 Y814.145 I-0.74 J-1.305
X103.895 Y814.145 I1.5 J0
X103.135 Y815.45 I-1.5 J0
G1 X103.09 Y815.468
X103.041 Y815.476
X102.993 Y815.471
X102.947 Y815.455
X101.032 Y814.499
X100.992 Y814.473
X100.959 Y814.438
X100.936 Y814.395
X100.924 Y814.349
G3 X103.744 Y813.941 Z-4.963 I1.41 J-0.204 F333.3
X103.189 Y815.285 Z-5.518 I-1.41 J0.204
X100.909 Y814.145 Z-6.667 I-0.855 J-1.14
X102.84 Y814.145 I0.966 J0
X101.95 Y814.145 I-0.445 J0 F1000
X102.84 Y814.145 I0.445 J0
G2 X103.164 Y814.758 I0.742 J0
G3 X103.135 Y815.45 I-0.23 J0.337
X100.895 Y814.145 I-0.74 J-1.305
X103.895 Y814.145 I1.5 J0
X103.135 Y815.45 I-1.5 J0
G1 X103.09 Y815.468
X103.041 Y815.476
X102.993 Y815.471
X102.947 Y815.455
X101.032 Y814.499
X100.992 Y814.473
X100.959 Y814.438
X100.936 Y814.395
X100.924 Y814.349
G3 X103.744 Y813.941 Z-8.296 I1.41 J-0.204 F333.3
X103.189 Y815.285 Z-8.852 I-1.41 J0.204
X100.909 Y814.145 Z-10 I-0.855 J-1.14
X102.84 Y814.145 I0.966 J0
X101.95 Y814.145 I-0.445 J0 F1000
X102.84 Y814.145 I0.445 J0
G2 X103.164 Y814.758 I0.742 J0
G3 X103.135 Y815.45 I-0.23 J0.337
X100.895 Y814.145 I-0.74 J-1.305
X103.895 Y814.145 I1.5 J0
X103.135 Y815.45 I-1.5 J0
G1 X103.082 Y815.473 Z-9.989
X103.027 Y815.486 Z-9.977
X102.978 Y815.489 Z-9.945
X102.93 Y815.483 Z-9.912
X102.868 Y815.464 Z-9.815
X102.847 Y815.454 Z-9.7
G0 Z5
X101.792 Y801.161
G1 Z2.782 F333.3
X101.815 Y801.152 Z2.663
X101.88 Y801.128 Z2.564
X101.979 Y801.099 Z2.5
G3 X103.189 Y801.339 Z2.036 I0.354 J1.38
X103.189 Y803.619 Z1.074 I-0.855 J1.14
X101.479 Y801.339 Z-0.555 I-0.855 J-1.14
X103.189 Y801.339 Z-1.223 I0.855 J1.14
X103.189 Y803.619 Z-2.185 I-0.855 J1.14
X100.909 Y802.479 Z-3.333 I-0.855 J-1.14
X102.84 Y802.479 I0.966 J0
X101.95 Y802.479 I-0.445 J0 F1000
X102.84 Y802.479 I0.445 J0
G2 X103.164 Y803.092 I0.742 J0
G3 X103.135 Y803.784 I-0.23 J0.337
X100.895 Y802.479 I-0.74 J-1.305
X103.895 Y802.479 I1.5 J0
X103.135 Y803.784 I-1.5 J0
G1 X103.09 Y803.802
X103.041 Y803.81
X102.993 Y803.805
X102.947 Y803.789
X101.032 Y802.833
X100.992 Y802.807
X100.959 Y802.772
X100.936 Y802.729
X100.924 Y802.683
G3 X103.744 Y802.275 Z-4.963 I1.41 J-0.204 F333.3
X103.189 Y803.619 Z-5.518 I-1.41 J0.204
X100.909 Y802.479 Z-6.667 I-0.855 J-1.14
X102.84 Y802.479 I0.966 J0
X101.95 Y802.479 I-0.445 J0 F1000
X102.84 Y802.479 I0.445 J0
G2 X103.164 Y803.092 I0.742 J0
G3 X103.135 Y803.784 I-0.23 J0.337
X100.895 Y802.479 I-0.74 J-1.305
X103.895 Y802.479 I1.5 J0
X103.135 Y803.784 I-1.5 J0
G1 X103.09 Y803.802
X103.041 Y803.81
X102.993 Y803.805
X102.947 Y803.789
X101.032 Y802.833
X100.992 Y802.807
X100.959 Y802.772
X100.936 Y802.729
X100.924 Y802.683
G3 X103.744 Y802.275 Z-8.296 I1.41 J-0.204 F333.3
X103.189 Y803.619 Z-8.852 I-1.41 J0.204
X100.909 Y802.479 Z-10 I-0.855 J-1.14
X102.84 Y802.479 I0.966 J0
X101.95 Y802.479 I-0.445 J0 F1000
X102.84 Y802.479 I0.445 J0
G2 X103.164 Y803.092 I0.742 J0
G3 X103.135 Y803.784 I-0.23 J0.337
X100.895 Y802.479 I-0.74 J-1.305
X103.895 Y802.479 I1.5 J0
X103.135 Y803.784 I-1.5 J0
G1 X103.082 Y803.807 Z-9.989
X103.027 Y803.82 Z-9.977
X102.978 Y803.823 Z-9.945
X102.93 Y803.817 Z-9.912
X102.868 Y803.798 Z-9.815
X102.847 Y803.788 Z-9.7
G0 Z5
X72.082 Y803.797
G1 Z2.782 F333.3
X72.059 Y803.806 Z2.663
X71.994 Y803.83 Z2.564
X71.895 Y803.859 Z2.5
G3 X71.186 Y801.099 Z0.871 I-0.354 J-1.38
X71.895 Y803.859 Z-0.759 I0.354 J1.38
X71.186 Y801.099 Z-2.388 I-0.354 J-1.38
X72.965 Y802.479 Z-3.333 I0.354 J1.38
X71.786 Y802.479 I-0.589 J0
X72.986 Y802.479 I0.6 J0 F1000
X69.986 Y802.479 I-1.5 J0
X72.986 Y802.479 I1.5 J0
G1 X72.979 Y802.499
X72.961 Y802.51
X72.94 Y802.508
X72.925 Y802.493
X72.872 Y802.384
X72.887 Y802.275
X72.894 Y802.258
X72.909 Y802.249
X72.928
X72.943 Y802.258
X72.95 Y802.275
G3 X70.13 Y802.683 Z-4.963 I-1.41 J0.204 F333.3
X71.438 Y801.058 Z-5.815 I1.41 J-0.204
X72.965 Y802.479 Z-6.667 I0.102 J1.421
X71.786 Y802.479 I-0.589 J0
X72.986 Y802.479 I0.6 J0 F1000
X69.986 Y802.479 I-1.5 J0
X72.986 Y802.479 I1.5 J0
G1 X72.979 Y802.499
X72.961 Y802.51
X72.94 Y802.508
X72.925 Y802.493
X72.872 Y802.384
X72.887 Y802.275
X72.894 Y802.258
X72.909 Y802.249
X72.928
X72.943 Y802.258
X72.95 Y802.275
G3 X70.13 Y802.683 Z-8.296 I-1.41 J0.204 F333.3
X71.438 Y801.058 Z-9.148 I1.41 J-0.204
X72.965 Y802.479 Z-10 I0.102 J1.421
X71.786 Y802.479 I-0.589 J0
X72.986 Y802.479 I0.6 J0 F1000
X69.986 Y802.479 I-1.5 J0
X72.986 Y802.479 I1.5 J0
G1 X72.981 Y802.536 Z-9.989
X72.964 Y802.591 Z-9.977
X72.943 Y802.634 Z-9.945
X72.914 Y802.674 Z-9.912
X72.867 Y802.718 Z-9.815
X72.848 Y802.731 Z-9.7
G0 Z5
X72.082 Y815.463
G1 Z2.782 F333.3
X72.059 Y815.472 Z2.663
X71.994 Y815.496 Z2.564
X71.895 Y815.525 Z2.5
G3 X70.685 Y815.285 Z2.036 I-0.354 J-1.38
X72.395 Y813.005 Z0.406 I0.855 J-1.14
X72.965 Y814.145 Z-0.075 I-0.855 J1.14
X70.685 Y815.285 Z-1.223 I-1.425 J0
X72.395 Y813.005 Z-2.852 I0.855 J-1.14
X72.965 Y814.145 Z-3.333 I-0.855 J1.14
X71.786 Y814.145 I-0.589 J0
X72.986 Y814.145 I0.6 J0 F1000
X69.986 Y814.145 I-1.5 J0
X72.986 Y814.145 I1.5 J0
G1 X72.979 Y814.165
X72.961 Y814.176
X72.94 Y814.174
X72.925 Y814.159
X72.872 Y814.05
X72.887 Y813.941
X72.894 Y813.924
X72.909 Y813.915
X72.928
X72.943 Y813.925
X72.95 Y813.941
G3 X70.685 Y815.285 Z-4.556 I-1.41 J0.204 F333.3
X72.395 Y813.005 Z-6.186 I0.855 J-1.14
X72.965 Y814.145 Z-6.667 I-0.855 J1.14
X71.786 Y814.145 I-0.589 J0
X72.986 Y814.145 I0.6 J0 F1000
X69.986 Y814.145 I-1.5 J0
X72.986 Y814.145 I1.5 J0
G1 X72.979 Y814.165
X72.961 Y814.176
X72.94 Y814.174
X72.925 Y814.159
X72.872 Y814.05
X72.887 Y813.941
X72.894 Y813.924
X72.909 Y813.915
X72.928
X72.943 Y813.925
X72.95 Y813.941
G3 X70.685 Y815.285 Z-7.89 I-1.41 J0.204 F333.3
X72.395 Y813.005 Z-9.519 I0.855 J-1.14
X72.965 Y814.145 Z-10 I-0.855 J1.14
X71.786 Y814.145 I-0.589 J0
X72.986 Y814.145 I0.6 J0 F1000
X69.986 Y814.145 I-1.5 J0
X72.986 Y814.145 I1.5 J0
G1 X72.981 Y814.202 Z-9.989
X72.964 Y814.257 Z-9.977
X72.943 Y814.301 Z-9.945
X72.914 Y814.34 Z-9.912
X72.867 Y814.384 Z-9.815
X72.848 Y814.397 Z-9.7
G0 Z5
X72.082 Y827.13
G1 Z2.782 F333.3
X72.059 Y827.139 Z2.663
X71.994 Y827.163 Z2.564
X71.895 Y827.192 Z2.5
G3 X71.186 Y824.432 Z0.871 I-0.354 J-1.38
X71.895 Y827.192 Z-0.759 I0.354 J1.38
X71.186 Y824.432 Z-2.388 I-0.354 J-1.38
X72.965 Y825.812 Z-3.333 I0.354 J1.38
X71.786 Y825.812 I-0.589 J0
X72.986 Y825.812 I0.6 J0 F1000
X69.986 Y825.812 I-1.5 J0
X72.986 Y825.812 I1.5 J0
G1 X72.979 Y825.832
X72.961 Y825.843
X72.94 Y825.841
X72.925 Y825.826
X72.872 Y825.717
X72.887 Y825.608
X72.894 Y825.591
X72.909 Y825.582
X72.928
X72.943 Y825.592
X72.95 Y825.608
G3 X70.13 Y826.016 Z-4.963 I-1.41 J0.204 F333.3
X71.438 Y824.391 Z-5.815 I1.41 J-0.204
X72.965 Y825.812 Z-6.667 I0.102 J1.421
X71.786 Y825.812 I-0.589 J0
X72.986 Y825.812 I0.6 J0 F1000
X69.986 Y825.812 I-1.5 J0
X72.986 Y825.812 I1.5 J0
G1 X72.979 Y825.832
X72.961 Y825.843
X72.94 Y825.841
X72.925 Y825.826
X72.872 Y825.717
X72.887 Y825.608
X72.894 Y825.591
X72.909 Y825.582
X72.928
X72.943 Y825.592
X72.95 Y825.608
G3 X70.13 Y826.016 Z-8.296 I-1.41 J0.204 F333.3
X71.438 Y824.391 Z-9.148 I1.41 J-0.204
X72.965 Y825.812 Z-10 I0.102 J1.421
X71.786 Y825.812 I-0.589 J0
X72.986 Y825.812 I0.6 J0 F1000
X69.986 Y825.812 I-1.5 J0
X72.986 Y825.812 I1.5 J0
G1 X72.981 Y825.869 Z-9.989
X72.964 Y825.924 Z-9.977
X72.943 Y825.967 Z-9.945
X72.914 Y826.007 Z-9.912
X72.867 Y826.051 Z-9.815
X72.848 Y826.064 Z-9.7
G0 Z5
X72.082 Y838.797
G1 Z2.782 F333.3
X72.059 Y838.806 Z2.663
X71.994 Y838.83 Z2.564
X71.895 Y838.859 Z2.5
G3 X71.186 Y836.099 Z0.871 I-0.354 J-1.38
X71.895 Y838.859 Z-0.759 I0.354 J1.38
X71.186 Y836.099 Z-2.388 I-0.354 J-1.38
X72.965 Y837.479 Z-3.333 I0.354 J1.38
X71.786 Y837.479 I-0.589 J0
X72.986 Y837.479 I0.6 J0 F1000
X69.986 Y837.479 I-1.5 J0
X72.986 Y837.479 I1.5 J0
G1 X72.979 Y837.499
X72.961 Y837.51
X72.94 Y837.508
X72.925 Y837.493
X72.872 Y837.384
X72.887 Y837.275
X72.894 Y837.258
X72.909 Y837.249
X72.928
X72.943 Y837.258
X72.95 Y837.275
G3 X70.13 Y837.683 Z-4.963 I-1.41 J0.204 F333.3
X71.438 Y836.058 Z-5.815 I1.41 J-0.204
X72.965 Y837.479 Z-6.667 I0.102 J1.421
X71.786 Y837.479 I-0.589 J0
X72.986 Y837.479 I0.6 J0 F1000
X69.986 Y837.479 I-1.5 J0
X72.986 Y837.479 I1.5 J0
G1 X72.979 Y837.499
X72.961 Y837.51
X72.94 Y837.508
X72.925 Y837.493
X72.872 Y837.384
X72.887 Y837.275
X72.894 Y837.258
X72.909 Y837.249
X72.928
X72.943 Y837.258
X72.95 Y837.275
G3 X70.13 Y837.683 Z-8.296 I-1.41 J0.204 F333.3
X71.438 Y836.058 Z-9.148 I1.41 J-0.204
X72.965 Y837.479 Z-10 I0.102 J1.421
X71.786 Y837.479 I-0.589 J0
X72.986 Y837.479 I0.6 J0 F1000
X69.986 Y837.479 I-1.5 J0
X72.986 Y837.479 I1.5 J0
G1 X72.981 Y837.536 Z-9.989
X72.964 Y837.591 Z-9.977
X72.943 Y837.634 Z-9.945
X72.914 Y837.674 Z-9.912
X72.867 Y837.718 Z-9.815
X72.848 Y837.731 Z-9.7
G0 Z5
X41.173 Y838.797
G1 Z2.782 F333.3
X41.15 Y838.806 Z2.663
X41.084 Y838.83 Z2.564
X40.985 Y838.859 Z2.5
G3 X39.776 Y838.619 Z2.036 I-0.354 J-1.38
X39.776 Y836.339 Z1.074 I0.855 J-1.14
X41.486 Y838.619 Z-0.555 I0.855 J1.14
X39.776 Y836.339 Z-2.185 I-0.855 J-1.14
X42.056 Y837.479 Z-3.333 I0.855 J1.14
X40.877 Y837.479 I-0.589 J0
X42.077 Y837.479 I0.6 J0 F1000
X39.077 Y837.479 I-1.5 J0
X42.077 Y837.479 I1.5 J0
G1 X42.07 Y837.499
X42.052 Y837.51
X42.031 Y837.508
X42.016 Y837.493
X41.963 Y837.384
X41.977 Y837.275
X41.985 Y837.258
X42 Y837.249
X42.018
X42.034 Y837.258
X42.041 Y837.275
G3 X39.221 Y837.683 Z-4.963 I-1.41 J0.204 F333.3
X40.529 Y836.058 Z-5.815 I1.41 J-0.204
X42.056 Y837.479 Z-6.667 I0.102 J1.421
X40.877 Y837.479 I-0.589 J0
X42.077 Y837.479 I0.6 J0 F1000
X39.077 Y837.479 I-1.5 J0
X42.077 Y837.479 I1.5 J0
G1 X42.07 Y837.499
X42.052 Y837.51
X42.031 Y837.508
X42.016 Y837.493
X41.963 Y837.384
X41.977 Y837.275
X41.985 Y837.258
X42 Y837.249
X42.018
X42.034 Y837.258
X42.041 Y837.275
G3 X39.221 Y837.683 Z-8.296 I-1.41 J0.204 F333.3
X40.529 Y836.058 Z-9.148 I1.41 J-0.204
X42.056 Y837.479 Z-10 I0.102 J1.421
X40.877 Y837.479 I-0.589 J0
X42.077 Y837.479 I0.6 J0 F1000
X39.077 Y837.479 I-1.5 J0
X42.077 Y837.479 I1.5 J0
G1 X42.072 Y837.536 Z-9.989
X42.055 Y837.591 Z-9.977
X42.034 Y837.634 Z-9.945
X42.005 Y837.674 Z-9.912
X41.958 Y837.718 Z-9.815
X41.939 Y837.731 Z-9.7
G0 Z5
X41.173 Y827.13
G1 Z2.782 F333.3
X41.15 Y827.139 Z2.663
X41.084 Y827.163 Z2.564
X40.985 Y827.192 Z2.5
G3 X39.776 Y826.952 Z2.036 I-0.354 J-1.38
X39.776 Y824.672 Z1.074 I0.855 J-1.14
X41.486 Y826.952 Z-0.555 I0.855 J1.14
X39.776 Y824.672 Z-2.185 I-0.855 J-1.14
X42.056 Y825.812 Z-3.333 I0.855 J1.14
X40.877 Y825.812 I-0.589 J0
X42.077 Y825.812 I0.6 J0 F1000
X39.077 Y825.812 I-1.5 J0
X42.077 Y825.812 I1.5 J0
G1 X42.07 Y825.832
X42.052 Y825.843
X42.031 Y825.841
X42.016 Y825.826
X41.963 Y825.717
X41.977 Y825.608
X41.985 Y825.591
X42 Y825.582
X42.018
X42.034 Y825.592
X42.041 Y825.608
G3 X39.221 Y826.016 Z-4.963 I-1.41 J0.204 F333.3
X40.529 Y824.391 Z-5.815 I1.41 J-0.204
X42.056 Y825.812 Z-6.667 I0.102 J1.421
X40.877 Y825.812 I-0.589 J0
X42.077 Y825.812 I0.6 J0 F1000
X39.077 Y825.812 I-1.5 J0
X42.077 Y825.812 I1.5 J0
G1 X42.07 Y825.832
X42.052 Y825.843
X42.031 Y825.841
X42.016 Y825.826
X41.963 Y825.717
X41.977 Y825.608
X41.985 Y825.591
X42 Y825.582
X42.018
X42.034 Y825.592
X42.041 Y825.608
G3 X39.221 Y826.016 Z-8.296 I-1.41 J0.204 F333.3
X40.529 Y824.391 Z-9.148 I1.41 J-0.204
X42.056 Y825.812 Z-10 I0.102 J1.421
X40.877 Y825.812 I-0.589 J0
X42.077 Y825.812 I0.6 J0 F1000
X39.077 Y825.812 I-1.5 J0
X42.077 Y825.812 I1.5 J0
G1 X42.072 Y825.869 Z-9.989
X42.055 Y825.924 Z-9.977
X42.034 Y825.967 Z-9.945
X42.005 Y826.007 Z-9.912
X41.958 Y826.051 Z-9.815
X41.939 Y826.064 Z-9.7
G0 Z5
X41.173 Y815.463
G1 Z2.782 F333.3
X41.15 Y815.472 Z2.663
X41.084 Y815.496 Z2.564
X40.985 Y815.525 Z2.5
G3 X39.776 Y815.285 Z2.036 I-0.354 J-1.38
X41.486 Y813.005 Z0.406 I0.855 J-1.14
X42.056 Y814.145 Z-0.075 I-0.855 J1.14
X39.776 Y815.285 Z-1.223 I-1.425 J0
X41.486 Y813.005 Z-2.852 I0.855 J-1.14
X42.056 Y814.145 Z-3.333 I-0.855 J1.14
X40.877 Y814.145 I-0.589 J0
X42.077 Y814.145 I0.6 J0 F1000
X39.077 Y814.145 I-1.5 J0
X42.077 Y814.145 I1.5 J0
G1 X42.07 Y814.165
X42.052 Y814.176
X42.031 Y814.174
X42.016 Y814.159
X41.963 Y814.05
X41.977 Y813.941
X41.985 Y813.924
X42 Y813.915
X42.018
X42.034 Y813.925
X42.041 Y813.941
G3 X39.776 Y815.285 Z-4.556 I-1.41 J0.204 F333.3
X41.486 Y813.005 Z-6.186 I0.855 J-1.14
X42.056 Y814.145 Z-6.667 I-0.855 J1.14
X40.877 Y814.145 I-0.589 J0
X42.077 Y814.145 I0.6 J0 F1000
X39.077 Y814.145 I-1.5 J0
X42.077 Y814.145 I1.5 J0
G1 X42.07 Y814.165
X42.052 Y814.176
X42.031 Y814.174
X42.016 Y814.159
X41.963 Y814.05
X41.977 Y813.941
X41.985 Y813.924
X42 Y813.915
X42.018
X42.034 Y813.925
X42.041 Y813.941
G3 X39.776 Y815.285 Z-7.89 I-1.41 J0.204 F333.3
X41.486 Y813.005 Z-9.519 I0.855 J-1.14
X42.056 Y814.145 Z-10 I-0.855 J1.14
X40.877 Y814.145 I-0.589 J0
X42.077 Y814.145 I0.6 J0 F1000
X39.077 Y814.145 I-1.5 J0
X42.077 Y814.145 I1.5 J0
G1 X42.072 Y814.202 Z-9.989
X42.055 Y814.257 Z-9.977
X42.034 Y814.301 Z-9.945
X42.005 Y814.34 Z-9.912
X41.958 Y814.384 Z-9.815
X41.939 Y814.397 Z-9.7
G0 Z5
X41.173 Y803.797
G1 Z2.782 F333.3
X41.15 Y803.806 Z2.663
X41.084 Y803.83 Z2.564
X40.985 Y803.859 Z2.5
G3 X39.776 Y803.619 Z2.036 I-0.354 J-1.38
X39.776 Y801.339 Z1.074 I0.855 J-1.14
X41.486 Y803.619 Z-0.555 I0.855 J1.14
X39.776 Y801.339 Z-2.185 I-0.855 J-1.14
X42.056 Y802.479 Z-3.333 I0.855 J1.14
X40.877 Y802.479 I-0.589 J0
X42.077 Y802.479 I0.6 J0 F1000
X39.077 Y802.479 I-1.5 J0
X42.077 Y802.479 I1.5 J0
G1 X42.07 Y802.499
X42.052 Y802.51
X42.031 Y802.508
X42.016 Y802.493
X41.963 Y802.384
X41.977 Y802.275
X41.985 Y802.258
X42 Y802.249
X42.018
X42.034 Y802.258
X42.041 Y802.275
G3 X39.221 Y802.683 Z-4.963 I-1.41 J0.204 F333.3
X40.529 Y801.058 Z-5.815 I1.41 J-0.204
X42.056 Y802.479 Z-6.667 I0.102 J1.421
X40.877 Y802.479 I-0.589 J0
X42.077 Y802.479 I0.6 J0 F1000
X39.077 Y802.479 I-1.5 J0
X42.077 Y802.479 I1.5 J0
G1 X42.07 Y802.499
X42.052 Y802.51
X42.031 Y802.508
X42.016 Y802.493
X41.963 Y802.384
X41.977 Y802.275
X41.985 Y802.258
X42 Y802.249
X42.018
X42.034 Y802.258
X42.041 Y802.275
G3 X39.221 Y802.683 Z-8.296 I-1.41 J0.204 F333.3
X40.529 Y801.058 Z-9.148 I1.41 J-0.204
X42.056 Y802.479 Z-10 I0.102 J1.421
X40.877 Y802.479 I-0.589 J0
X42.077 Y802.479 I0.6 J0 F1000
X39.077 Y802.479 I-1.5 J0
X42.077 Y802.479 I1.5 J0
G1 X42.072 Y802.536 Z-9.989
X42.055 Y802.591 Z-9.977
X42.034 Y802.634 Z-9.945
X42.005 Y802.674 Z-9.912
X41.958 Y802.718 Z-9.815
X41.939 Y802.731 Z-9.7
G0 Z15

(2D Contour1)
X377.041 Y425.259
Z15
Z5
G1 Z-4.7 F333.3
G18 G2 X377.341 Z-5 I0.3 K0 F1000
G1 X377.641
G17 G3 X377.941 Y425.559 I0 J0.3
G1 Y545
G3 X329.441 Y593.5 I-48.5 J0
G1 X90.559
G3 X42.059 Y545 I0 J-48.5
G1 Y51.5
X377.941
Y425.559
G3 X377.641 Y425.859 I-0.3 J0
G1 X377.341
G18 G3 X377.041 Z-4.7 I0 K0.3
G0 Z5
Y425.259
G1 Z0 F333.3
Z-9.7
G2 X377.341 Z-10 I0.3 K0 F1000
G1 X377.641
G17 G3 X377.941 Y425.559 I0 J0.3
G1 Y545
G3 X329.441 Y593.5 I-48.5 J0
G1 X90.559
G3 X42.059 Y545 I0 J-48.5
G1 Y51.5
X377.941
Y425.559
G3 X377.641 Y425.859 I-0.3 J0
G1 X377.341
G18 G3 X377.041 Z-9.7 I0 K0.3
G0 Z5
X405.258 Y715.77
G1 Z-4.7 F333.3
X405.265 Z-4.767 F1000
X405.287 Z-4.83
X405.323 Z-4.887
X405.371 Z-4.935
X405.428 Z-4.97
X405.491 Z-4.992
X405.558 Z-5
X405.858 Y715.771
G17 G3 X406.157 Y716.071 I0 J0.3
G1 X406.094 Y770.008
G3 X399.594 Y776.5 I-6.5 J-0.008
G1 X29.406
G3 X22.906 Y770.008 I0 J-6.5
G1 X22.779 Y662.008
G3 X29.279 Y655.5 I6.5 J-0.008
G1 X399.721
G3 X406.221 Y662.008 I0 J6.5
G1 X406.157 Y716.071
G3 X405.857 Y716.371 I-0.3 J0
G1 X405.557 Y716.37
X405.49 Z-4.992
X405.427 Z-4.97
X405.37 Z-4.935
X405.323 Z-4.887
X405.287 Z-4.83
X405.265 Z-4.767
X405.257 Z-4.7
G0 Z5
X405.258 Y715.77
G1 Z0 F333.3
Z-9.7
X405.265 Z-9.767 F1000
X405.287 Z-9.83
X405.323 Z-9.887
X405.371 Z-9.935
X405.428 Z-9.97
X405.491 Z-9.992
X405.558 Z-10
X405.858 Y715.771
G3 X406.157 Y716.071 I0 J0.3
G1 X406.094 Y770.008
G3 X399.594 Y776.5 I-6.5 J-0.008
G1 X29.406
G3 X22.906 Y770.008 I0 J-6.5
G1 X22.779 Y662.008
G3 X29.279 Y655.5 I6.5 J-0.008
G1 X399.721
G3 X406.221 Y662.008 I0 J6.5
G1 X406.157 Y716.071
G3 X405.857 Y716.371 I-0.3 J0
G1 X405.557 Y716.37
X405.49 Z-9.992
X405.427 Z-9.97
X405.37 Z-9.935
X405.323 Z-9.887
X405.287 Z-9.83
X405.265 Z-9.767
X405.257 Z-9.7
G0 Z15

(2D Contour2)
X418.911 Y840.391
Z15
Z5
G1 Z-4.7 F333.3
X418.904 Z-4.767 F1000
X418.882 Z-4.83
X418.846 Z-4.887
X418.798 Z-4.935
X418.741 Z-4.97
X418.678 Z-4.992
X418.611 Z-5
X418.311 Y840.39
G3 X418.012 Y840.09 I0 J-0.3
G1 X419 Y0.002
G2 X417.5 Y-1.5 I-1.5 J-0.002
G1 X2.5
G2 X1 Y0.002 I0 J1.5
G1 X2 Y850.002
G2 X3.5 Y851.5 I1.5 J-0.002
G1 X416.5
G2 X418 Y850.002 I0 J-1.5
G1 X418.012 Y840.09
G3 X418.312 Y839.79 I0.3 J0
G1 X418.612 Y839.791
X418.679 Z-4.992
X418.742 Z-4.97
X418.799 Z-4.935
X418.847 Z-4.887
X418.882 Z-4.83
X418.904 Z-4.767
X418.912 Z-4.7
G0 Z5
X418.911 Y840.391
G1 Z0 F333.3
Z-9.7
X418.904 Z-9.767 F1000
X418.882 Z-9.83
X418.846 Z-9.887
X418.798 Z-9.935
X418.741 Z-9.97
X418.678 Z-9.992
X418.611 Z-10
X418.311 Y840.39
G3 X418.012 Y840.09 I0 J-0.3
G1 X419 Y0.002
G2 X417.5 Y-1.5 I-1.5 J-0.002
G1 X2.5
G2 X1 Y0.002 I0 J1.5
G1 X2 Y850.002
G2 X3.5 Y851.5 I1.5 J-0.002
G1 X416.5
G2 X418 Y850.002 I0 J-1.5
G1 X418.012 Y840.09
G3 X418.312 Y839.79 I0.3 J0
G1 X418.612 Y839.791
X418.679 Z-9.992
X418.742 Z-9.97
X418.799 Z-9.935
X418.847 Z-9.887
X418.882 Z-9.83
X418.904 Z-9.767
X418.912 Z-9.7
G0 Z15
M9
M5
M30
