(CamperSchubladeDosenhalter)
(T4  D=5 CR=0 - ZMIN=-16 - flat end mill)
G90 G94
G17
G21

(2D Contour1)
T4
S5000 M3
G54
M8
G0 X190.017 Y215.45
Z15
Z5
G1 Z-5 F333.3
G18 G2 X190.517 Z-5.5 I0.5 K0 F1000
G1 X191.017
G17 G3 X191.517 Y215.95 I0 J0.5
G1 Y286.9
G3 X183.017 Y295.4 I-8.5 J0
G1 X121.317
G3 X112.817 Y286.9 I0 J-8.5
G1 Y185.1
G3 X121.317 Y176.6 I8.5 J0
G1 X183.017
G3 X191.517 Y185.1 I0 J8.5
G1 Y215.95
G3 X191.017 Y216.45 I-0.5 J0
G1 X190.517
G18 G3 X190.017 Z-5 I0 K0.5
G1 Y215.45
Z-10.5 F333.3
G2 X190.517 Z-11 I0.5 K0 F1000
G1 X191.017
G17 G3 X191.517 Y215.95 I0 J0.5
G1 Y286.9
G3 X183.017 Y295.4 I-8.5 J0
G1 X121.317
G3 X112.817 Y286.9 I0 J-8.5
G1 Y185.1
G3 X121.317 Y176.6 I8.5 J0
G1 X183.017
G3 X191.517 Y185.1 I0 J8.5
G1 Y215.95
G3 X191.017 Y216.45 I-0.5 J0
G1 X190.517
G18 G3 X190.017 Z-10.5 I0 K0.5
G1 Y215.45
Z-15.5 F333.3
G2 X190.517 Z-16 I0.5 K0 F1000
G1 X191.017
G17 G3 X191.517 Y215.95 I0 J0.5
G1 Y286.9
G3 X183.017 Y295.4 I-8.5 J0
G1 X121.317
G3 X112.817 Y286.9 I0 J-8.5
G1 Y185.1
G3 X121.317 Y176.6 I8.5 J0
G1 X183.017
G3 X191.517 Y185.1 I0 J8.5
G1 Y215.95
G3 X191.017 Y216.45 I-0.5 J0
G1 X190.517
G18 G3 X190.017 Z-15.5 I0 K0.5
G0 Z5
X290.683 Y215.45
G1 Z-5 F333.3
G2 X291.183 Z-5.5 I0.5 K0 F1000
G1 X291.683
G17 G3 X292.183 Y215.95 I0 J0.5
G1 Y286.9
G3 X283.683 Y295.4 I-8.5 J0
G1 X221.983
G3 X213.483 Y286.9 I0 J-8.5
G1 Y185.1
G3 X221.983 Y176.6 I8.5 J0
G1 X283.683
G3 X292.183 Y185.1 I0 J8.5
G1 Y215.95
G3 X291.683 Y216.45 I-0.5 J0
G1 X291.183
G18 G3 X290.683 Z-5 I0 K0.5
G1 Y215.45
Z-10.5 F333.3
G2 X291.183 Z-11 I0.5 K0 F1000
G1 X291.683
G17 G3 X292.183 Y215.95 I0 J0.5
G1 Y286.9
G3 X283.683 Y295.4 I-8.5 J0
G1 X221.983
G3 X213.483 Y286.9 I0 J-8.5
G1 Y185.1
G3 X221.983 Y176.6 I8.5 J0
G1 X283.683
G3 X292.183 Y185.1 I0 J8.5
G1 Y215.95
G3 X291.683 Y216.45 I-0.5 J0
G1 X291.183
G18 G3 X290.683 Z-10.5 I0 K0.5
G1 Y215.45
Z-15.5 F333.3
G2 X291.183 Z-16 I0.5 K0 F1000
G1 X291.683
G17 G3 X292.183 Y215.95 I0 J0.5
G1 Y286.9
G3 X283.683 Y295.4 I-8.5 J0
G1 X221.983
G3 X213.483 Y286.9 I0 J-8.5
G1 Y185.1
G3 X221.983 Y176.6 I8.5 J0
G1 X283.683
G3 X292.183 Y185.1 I0 J8.5
G1 Y215.95
G3 X291.683 Y216.45 I-0.5 J0
G1 X291.183
G18 G3 X290.683 Z-15.5 I0 K0.5
G0 Z5
X391.35 Y255.55
G1 Z-5 F333.3
G2 X391.85 Z-5.5 I0.5 K0 F1000
G1 X392.35
G17 G3 X392.85 Y256.05 I0 J0.5
G1 Y286.9
G3 X384.35 Y295.4 I-8.5 J0
G1 X322.65
G3 X314.15 Y286.9 I0 J-8.5
G1 Y185.1
G3 X322.65 Y176.6 I8.5 J0
G1 X384.35
G3 X392.85 Y185.1 I0 J8.5
G1 Y256.05
G3 X392.35 Y256.55 I-0.5 J0
G1 X391.85
G18 G3 X391.35 Z-5 I0 K0.5
G1 Y255.55
Z-10.5 F333.3
G2 X391.85 Z-11 I0.5 K0 F1000
G1 X392.35
G17 G3 X392.85 Y256.05 I0 J0.5
G1 Y286.9
G3 X384.35 Y295.4 I-8.5 J0
G1 X322.65
G3 X314.15 Y286.9 I0 J-8.5
G1 Y185.1
G3 X322.65 Y176.6 I8.5 J0
G1 X384.35
G3 X392.85 Y185.1 I0 J8.5
G1 Y256.05
G3 X392.35 Y256.55 I-0.5 J0
G1 X391.85
G18 G3 X391.35 Z-10.5 I0 K0.5
G1 Y255.55
Z-15.5 F333.3
G2 X391.85 Z-16 I0.5 K0 F1000
G1 X392.35
G17 G3 X392.85 Y256.05 I0 J0.5
G1 Y286.9
G3 X384.35 Y295.4 I-8.5 J0
G1 X322.65
G3 X314.15 Y286.9 I0 J-8.5
G1 Y185.1
G3 X322.65 Y176.6 I8.5 J0
G1 X384.35
G3 X392.85 Y185.1 I0 J8.5
G1 Y256.05
G3 X392.35 Y256.55 I-0.5 J0
G1 X391.85
G18 G3 X391.35 Z-15.5 I0 K0.5
G0 Z5
Y377.95
G1 Z-5 F333.3
G2 X391.85 Z-5.5 I0.5 K0 F1000
G1 X392.35
G17 G3 X392.85 Y378.45 I0 J0.5
G1 Y449.4
G3 X384.35 Y457.9 I-8.5 J0
G1 X322.65
G3 X314.15 Y449.4 I0 J-8.5
G1 Y347.6
G3 X322.65 Y339.1 I8.5 J0
G1 X384.35
G3 X392.85 Y347.6 I0 J8.5
G1 Y378.45
G3 X392.35 Y378.95 I-0.5 J0
G1 X391.85
G18 G3 X391.35 Z-5 I0 K0.5
G1 Y377.95
Z-10.5 F333.3
G2 X391.85 Z-11 I0.5 K0 F1000
G1 X392.35
G17 G3 X392.85 Y378.45 I0 J0.5
G1 Y449.4
G3 X384.35 Y457.9 I-8.5 J0
G1 X322.65
G3 X314.15 Y449.4 I0 J-8.5
G1 Y347.6
G3 X322.65 Y339.1 I8.5 J0
G1 X384.35
G3 X392.85 Y347.6 I0 J8.5
G1 Y378.45
G3 X392.35 Y378.95 I-0.5 J0
G1 X391.85
G18 G3 X391.35 Z-10.5 I0 K0.5
G1 Y377.95
Z-15.5 F333.3
G2 X391.85 Z-16 I0.5 K0 F1000
G1 X392.35
G17 G3 X392.85 Y378.45 I0 J0.5
G1 Y449.4
G3 X384.35 Y457.9 I-8.5 J0
G1 X322.65
G3 X314.15 Y449.4 I0 J-8.5
G1 Y347.6
G3 X322.65 Y339.1 I8.5 J0
G1 X384.35
G3 X392.85 Y347.6 I0 J8.5
G1 Y378.45
G3 X392.35 Y378.95 I-0.5 J0
G1 X391.85
G18 G3 X391.35 Z-15.5 I0 K0.5
G0 Z5
X290.683 Y377.95
G1 Z-5 F333.3
G2 X291.183 Z-5.5 I0.5 K0 F1000
G1 X291.683
G17 G3 X292.183 Y378.45 I0 J0.5
G1 Y449.4
G3 X283.683 Y457.9 I-8.5 J0
G1 X221.983
G3 X213.483 Y449.4 I0 J-8.5
G1 Y347.6
G3 X221.983 Y339.1 I8.5 J0
G1 X283.683
G3 X292.183 Y347.6 I0 J8.5
G1 Y378.45
G3 X291.683 Y378.95 I-0.5 J0
G1 X291.183
G18 G3 X290.683 Z-5 I0 K0.5
G1 Y377.95
Z-10.5 F333.3
G2 X291.183 Z-11 I0.5 K0 F1000
G1 X291.683
G17 G3 X292.183 Y378.45 I0 J0.5
G1 Y449.4
G3 X283.683 Y457.9 I-8.5 J0
G1 X221.983
G3 X213.483 Y449.4 I0 J-8.5
G1 Y347.6
G3 X221.983 Y339.1 I8.5 J0
G1 X283.683
G3 X292.183 Y347.6 I0 J8.5
G1 Y378.45
G3 X291.683 Y378.95 I-0.5 J0
G1 X291.183
G18 G3 X290.683 Z-10.5 I0 K0.5
G1 Y377.95
Z-15.5 F333.3
G2 X291.183 Z-16 I0.5 K0 F1000
G1 X291.683
G17 G3 X292.183 Y378.45 I0 J0.5
G1 Y449.4
G3 X283.683 Y457.9 I-8.5 J0
G1 X221.983
G3 X213.483 Y449.4 I0 J-8.5
G1 Y347.6
G3 X221.983 Y339.1 I8.5 J0
G1 X283.683
G3 X292.183 Y347.6 I0 J8.5
G1 Y378.45
G3 X291.683 Y378.95 I-0.5 J0
G1 X291.183
G18 G3 X290.683 Z-15.5 I0 K0.5
G0 Z5
X190.017 Y418.05
G1 Z-5 F333.3
G2 X190.517 Z-5.5 I0.5 K0 F1000
G1 X191.017
G17 G3 X191.517 Y418.55 I0 J0.5
G1 Y449.4
G3 X183.017 Y457.9 I-8.5 J0
G1 X121.317
G3 X112.817 Y449.4 I0 J-8.5
G1 Y347.6
G3 X121.317 Y339.1 I8.5 J0
G1 X183.017
G3 X191.517 Y347.6 I0 J8.5
G1 Y418.55
G3 X191.017 Y419.05 I-0.5 J0
G1 X190.517
G18 G3 X190.017 Z-5 I0 K0.5
G1 Y418.05
Z-10.5 F333.3
G2 X190.517 Z-11 I0.5 K0 F1000
G1 X191.017
G17 G3 X191.517 Y418.55 I0 J0.5
G1 Y449.4
G3 X183.017 Y457.9 I-8.5 J0
G1 X121.317
G3 X112.817 Y449.4 I0 J-8.5
G1 Y347.6
G3 X121.317 Y339.1 I8.5 J0
G1 X183.017
G3 X191.517 Y347.6 I0 J8.5
G1 Y418.55
G3 X191.017 Y419.05 I-0.5 J0
G1 X190.517
G18 G3 X190.017 Z-10.5 I0 K0.5
G1 Y418.05
Z-15.5 F333.3
G2 X190.517 Z-16 I0.5 K0 F1000
G1 X191.017
G17 G3 X191.517 Y418.55 I0 J0.5
G1 Y449.4
G3 X183.017 Y457.9 I-8.5 J0
G1 X121.317
G3 X112.817 Y449.4 I0 J-8.5
G1 Y347.6
G3 X121.317 Y339.1 I8.5 J0
G1 X183.017
G3 X191.517 Y347.6 I0 J8.5
G1 Y418.55
G3 X191.017 Y419.05 I-0.5 J0
G1 X190.517
G18 G3 X190.017 Z-15.5 I0 K0.5
G0 Z5
X89.35 Y418.05
G1 Z-5 F333.3
G2 X89.85 Z-5.5 I0.5 K0 F1000
G1 X90.35
G17 G3 X90.85 Y418.55 I0 J0.5
G1 Y449.4
G3 X82.35 Y457.9 I-8.5 J0
G1 X20.65
G3 X12.15 Y449.4 I0 J-8.5
G1 Y347.6
G3 X20.65 Y339.1 I8.5 J0
G1 X82.35
G3 X90.85 Y347.6 I0 J8.5
G1 Y418.55
G3 X90.35 Y419.05 I-0.5 J0
G1 X89.85
G18 G3 X89.35 Z-5 I0 K0.5
G1 Y418.05
Z-10.5 F333.3
G2 X89.85 Z-11 I0.5 K0 F1000
G1 X90.35
G17 G3 X90.85 Y418.55 I0 J0.5
G1 Y449.4
G3 X82.35 Y457.9 I-8.5 J0
G1 X20.65
G3 X12.15 Y449.4 I0 J-8.5
G1 Y347.6
G3 X20.65 Y339.1 I8.5 J0
G1 X82.35
G3 X90.85 Y347.6 I0 J8.5
G1 Y418.55
G3 X90.35 Y419.05 I-0.5 J0
G1 X89.85
G18 G3 X89.35 Z-10.5 I0 K0.5
G1 Y418.05
Z-15.5 F333.3
G2 X89.85 Z-16 I0.5 K0 F1000
G1 X90.35
G17 G3 X90.85 Y418.55 I0 J0.5
G1 Y449.4
G3 X82.35 Y457.9 I-8.5 J0
G1 X20.65
G3 X12.15 Y449.4 I0 J-8.5
G1 Y347.6
G3 X20.65 Y339.1 I8.5 J0
G1 X82.35
G3 X90.85 Y347.6 I0 J8.5
G1 Y418.55
G3 X90.35 Y419.05 I-0.5 J0
G1 X89.85
G18 G3 X89.35 Z-15.5 I0 K0.5
G0 Z5
Y255.55
G1 Z-5 F333.3
G2 X89.85 Z-5.5 I0.5 K0 F1000
G1 X90.35
G17 G3 X90.85 Y256.05 I0 J0.5
G1 Y286.9
G3 X82.35 Y295.4 I-8.5 J0
G1 X20.65
G3 X12.15 Y286.9 I0 J-8.5
G1 Y185.1
G3 X20.65 Y176.6 I8.5 J0
G1 X82.35
G3 X90.85 Y185.1 I0 J8.5
G1 Y256.05
G3 X90.35 Y256.55 I-0.5 J0
G1 X89.85
G18 G3 X89.35 Z-5 I0 K0.5
G1 Y255.55
Z-10.5 F333.3
G2 X89.85 Z-11 I0.5 K0 F1000
G1 X90.35
G17 G3 X90.85 Y256.05 I0 J0.5
G1 Y286.9
G3 X82.35 Y295.4 I-8.5 J0
G1 X20.65
G3 X12.15 Y286.9 I0 J-8.5
G1 Y185.1
G3 X20.65 Y176.6 I8.5 J0
G1 X82.35
G3 X90.85 Y185.1 I0 J8.5
G1 Y256.05
G3 X90.35 Y256.55 I-0.5 J0
G1 X89.85
G18 G3 X89.35 Z-10.5 I0 K0.5
G1 Y255.55
Z-15.5 F333.3
G2 X89.85 Z-16 I0.5 K0 F1000
G1 X90.35
G17 G3 X90.85 Y256.05 I0 J0.5
G1 Y286.9
G3 X82.35 Y295.4 I-8.5 J0
G1 X20.65
G3 X12.15 Y286.9 I0 J-8.5
G1 Y185.1
G3 X20.65 Y176.6 I8.5 J0
G1 X82.35
G3 X90.85 Y185.1 I0 J8.5
G1 Y256.05
G3 X90.35 Y256.55 I-0.5 J0
G1 X89.85
G18 G3 X89.35 Z-15.5 I0 K0.5
G0 Z5
Y52.95
G1 Z-5 F333.3
G2 X89.85 Z-5.5 I0.5 K0 F1000
G1 X90.35
G17 G3 X90.85 Y53.45 I0 J0.5
G1 Y124.4
G3 X82.35 Y132.9 I-8.5 J0
G1 X20.65
G3 X12.15 Y124.4 I0 J-8.5
G1 Y22.6
G3 X20.65 Y14.1 I8.5 J0
G1 X82.35
G3 X90.85 Y22.6 I0 J8.5
G1 Y53.45
G3 X90.35 Y53.95 I-0.5 J0
G1 X89.85
G18 G3 X89.35 Z-5 I0 K0.5
G1 Y52.95
Z-10.5 F333.3
G2 X89.85 Z-11 I0.5 K0 F1000
G1 X90.35
G17 G3 X90.85 Y53.45 I0 J0.5
G1 Y124.4
G3 X82.35 Y132.9 I-8.5 J0
G1 X20.65
G3 X12.15 Y124.4 I0 J-8.5
G1 Y22.6
G3 X20.65 Y14.1 I8.5 J0
G1 X82.35
G3 X90.85 Y22.6 I0 J8.5
G1 Y53.45
G3 X90.35 Y53.95 I-0.5 J0
G1 X89.85
G18 G3 X89.35 Z-10.5 I0 K0.5
G1 Y52.95
Z-15.5 F333.3
G2 X89.85 Z-16 I0.5 K0 F1000
G1 X90.35
G17 G3 X90.85 Y53.45 I0 J0.5
G1 Y124.4
G3 X82.35 Y132.9 I-8.5 J0
G1 X20.65
G3 X12.15 Y124.4 I0 J-8.5
G1 Y22.6
G3 X20.65 Y14.1 I8.5 J0
G1 X82.35
G3 X90.85 Y22.6 I0 J8.5
G1 Y53.45
G3 X90.35 Y53.95 I-0.5 J0
G1 X89.85
G18 G3 X89.35 Z-15.5 I0 K0.5
G0 Z5
X190.017 Y52.95
G1 Z-5 F333.3
G2 X190.517 Z-5.5 I0.5 K0 F1000
G1 X191.017
G17 G3 X191.517 Y53.45 I0 J0.5
G1 Y124.4
G3 X183.017 Y132.9 I-8.5 J0
G1 X121.317
G3 X112.817 Y124.4 I0 J-8.5
G1 Y22.6
G3 X121.317 Y14.1 I8.5 J0
G1 X183.017
G3 X191.517 Y22.6 I0 J8.5
G1 Y53.45
G3 X191.017 Y53.95 I-0.5 J0
G1 X190.517
G18 G3 X190.017 Z-5 I0 K0.5
G1 Y52.95
Z-10.5 F333.3
G2 X190.517 Z-11 I0.5 K0 F1000
G1 X191.017
G17 G3 X191.517 Y53.45 I0 J0.5
G1 Y124.4
G3 X183.017 Y132.9 I-8.5 J0
G1 X121.317
G3 X112.817 Y124.4 I0 J-8.5
G1 Y22.6
G3 X121.317 Y14.1 I8.5 J0
G1 X183.017
G3 X191.517 Y22.6 I0 J8.5
G1 Y53.45
G3 X191.017 Y53.95 I-0.5 J0
G1 X190.517
G18 G3 X190.017 Z-10.5 I0 K0.5
G1 Y52.95
Z-15.5 F333.3
G2 X190.517 Z-16 I0.5 K0 F1000
G1 X191.017
G17 G3 X191.517 Y53.45 I0 J0.5
G1 Y124.4
G3 X183.017 Y132.9 I-8.5 J0
G1 X121.317
G3 X112.817 Y124.4 I0 J-8.5
G1 Y22.6
G3 X121.317 Y14.1 I8.5 J0
G1 X183.017
G3 X191.517 Y22.6 I0 J8.5
G1 Y53.45
G3 X191.017 Y53.95 I-0.5 J0
G1 X190.517
G18 G3 X190.017 Z-15.5 I0 K0.5
G0 Z5
X290.683 Y93.05
G1 Z-5 F333.3
G2 X291.183 Z-5.5 I0.5 K0 F1000
G1 X291.683
G17 G3 X292.183 Y93.55 I0 J0.5
G1 Y124.4
G3 X283.683 Y132.9 I-8.5 J0
G1 X221.983
G3 X213.483 Y124.4 I0 J-8.5
G1 Y22.6
G3 X221.983 Y14.1 I8.5 J0
G1 X283.683
G3 X292.183 Y22.6 I0 J8.5
G1 Y93.55
G3 X291.683 Y94.05 I-0.5 J0
G1 X291.183
G18 G3 X290.683 Z-5 I0 K0.5
G1 Y93.05
Z-10.5 F333.3
G2 X291.183 Z-11 I0.5 K0 F1000
G1 X291.683
G17 G3 X292.183 Y93.55 I0 J0.5
G1 Y124.4
G3 X283.683 Y132.9 I-8.5 J0
G1 X221.983
G3 X213.483 Y124.4 I0 J-8.5
G1 Y22.6
G3 X221.983 Y14.1 I8.5 J0
G1 X283.683
G3 X292.183 Y22.6 I0 J8.5
G1 Y93.55
G3 X291.683 Y94.05 I-0.5 J0
G1 X291.183
G18 G3 X290.683 Z-10.5 I0 K0.5
G1 Y93.05
Z-15.5 F333.3
G2 X291.183 Z-16 I0.5 K0 F1000
G1 X291.683
G17 G3 X292.183 Y93.55 I0 J0.5
G1 Y124.4
G3 X283.683 Y132.9 I-8.5 J0
G1 X221.983
G3 X213.483 Y124.4 I0 J-8.5
G1 Y22.6
G3 X221.983 Y14.1 I8.5 J0
G1 X283.683
G3 X292.183 Y22.6 I0 J8.5
G1 Y93.55
G3 X291.683 Y94.05 I-0.5 J0
G1 X291.183
G18 G3 X290.683 Z-15.5 I0 K0.5
G0 Z5
X391.35 Y52.95
G1 Z-5 F333.3
G2 X391.85 Z-5.5 I0.5 K0 F1000
G1 X392.35
G17 G3 X392.85 Y53.45 I0 J0.5
G1 Y124.4
G3 X384.35 Y132.9 I-8.5 J0
G1 X322.65
G3 X314.15 Y124.4 I0 J-8.5
G1 Y22.6
G3 X322.65 Y14.1 I8.5 J0
G1 X384.35
G3 X392.85 Y22.6 I0 J8.5
G1 Y53.45
G3 X392.35 Y53.95 I-0.5 J0
G1 X391.85
G18 G3 X391.35 Z-5 I0 K0.5
G1 Y52.95
Z-10.5 F333.3
G2 X391.85 Z-11 I0.5 K0 F1000
G1 X392.35
G17 G3 X392.85 Y53.45 I0 J0.5
G1 Y124.4
G3 X384.35 Y132.9 I-8.5 J0
G1 X322.65
G3 X314.15 Y124.4 I0 J-8.5
G1 Y22.6
G3 X322.65 Y14.1 I8.5 J0
G1 X384.35
G3 X392.85 Y22.6 I0 J8.5
G1 Y53.45
G3 X392.35 Y53.95 I-0.5 J0
G1 X391.85
G18 G3 X391.35 Z-10.5 I0 K0.5
G1 Y52.95
Z-15.5 F333.3
G2 X391.85 Z-16 I0.5 K0 F1000
G1 X392.35
G17 G3 X392.85 Y53.45 I0 J0.5
G1 Y124.4
G3 X384.35 Y132.9 I-8.5 J0
G1 X322.65
G3 X314.15 Y124.4 I0 J-8.5
G1 Y22.6
G3 X322.65 Y14.1 I8.5 J0
G1 X384.35
G3 X392.85 Y22.6 I0 J8.5
G1 Y53.45
G3 X392.35 Y53.95 I-0.5 J0
G1 X391.85
G18 G3 X391.35 Z-15.5 I0 K0.5
G0 Z15
G17

(2D Contour3)
G0 X202 Y476
Z15
Z5
G1 Z-5 F333.3
G19 G2 Y475.5 Z-5.5 J-0.5 K0 F1000
G1 Y475
G17 G3 X202.5 Y474.5 I0.5 J0
G1 X399
G2 X407.5 Y466 I0 J-8.5
G1 Y6
G2 X399 Y-2.5 I-8.5 J0
G1 X6
G2 X-2.5 Y6 I0 J8.5
G1 Y466
G2 X6 Y474.5 I8.5 J0
G1 X202.5
G3 X203 Y475 I0 J0.5
G1 Y475.5
G19 G3 Y476 Z-5 J0 K0.5
G1 X202
Z-10.5 F333.3
G2 Y475.5 Z-11 J-0.5 K0 F1000
G1 Y475
G17 G3 X202.5 Y474.5 I0.5 J0
G1 X399
G2 X407.5 Y466 I0 J-8.5
G1 Y6
G2 X399 Y-2.5 I-8.5 J0
G1 X6
G2 X-2.5 Y6 I0 J8.5
G1 Y466
G2 X6 Y474.5 I8.5 J0
G1 X202.5
G3 X203 Y475 I0 J0.5
G1 Y475.5
G19 G3 Y476 Z-10.5 J0 K0.5
G1 X202
Z-15.5 F333.3
G2 Y475.5 Z-16 J-0.5 K0 F1000
G1 Y475
G17 G3 X202.5 Y474.5 I0.5 J0
G1 X399
G2 X407.5 Y466 I0 J-8.5
G1 Y6
G2 X399 Y-2.5 I-8.5 J0
G1 X6
G2 X-2.5 Y6 I0 J8.5
G1 Y466
G2 X6 Y474.5 I8.5 J0
G1 X202.5
G3 X203 Y475 I0 J0.5
G1 Y475.5
G19 G3 Y476 Z-15.5 J0 K0.5
G0 Z15
G17
M9
M5
M30
