(CamperSchubladeKuechenzeileWaendeNiedrieg)
(T1  D=5 CR=0 - ZMIN=-12.5 - flat end mill)
G90 G94
G17
G21
G28 G91 Z0
G90

(2D Pocket1)
T1
S5000 M3
G54
M8
G0 X540.555 Y95.99
Z15
Z5
G1 Z1 F333.3
Z-6.25 F1000
Y95.97
Y-0.214
Y-0.234
G0 Z5
X537.655 Y97.162
G1 Z1 F333.3
Z-6.25 F1000
Y97.142
Y-1.394
Y-1.413
G0 Z5
X534.752 Y97.179
G1 Z1 F333.3
Z-6.25 F1000
X534.75 Y97.14
Y-1.395
G0 Z15
X553.105 Y240.99
Z5
G1 Z1 F333.3
Z-6.25 F1000
Y240.97
Y144.786
Y144.766
G0 Z5
X550.205 Y242.162
G1 Z1 F333.3
Z-6.25 F1000
Y242.142
Y143.606
Y143.587
G0 Z5
X547.302 Y242.179
G1 Z1 F333.3
Z-6.25 F1000
X547.3 Y242.14
Y143.605
G0 Z15
X489.105 Y590.986
Z5
G1 Z1 F333.3
Z-6.25 F1000
Y590.966
Y474.777
Y474.758
G0 Z5
X486.205 Y592.169
G1 Z1 F333.3
Z-6.25 F1000
Y592.149
Y473.609
Y473.589
G0 Z5
X483.302 Y592.186
G1 Z1 F333.3
Z-6.25 F1000
X483.3 Y592.147
Y476
Y473.605
G0 Z15
X545.555 Y390.99
Z5
G1 Z1 F333.3
Z-6.25 F1000
Y390.97
Y294.786
Y294.766
G0 Z5
X542.655 Y392.162
G1 Z1 F333.3
Z-6.25 F1000
Y392.142
Y293.606
Y293.587
G0 Z5
X539.752 Y392.179
G1 Z1 F333.3
Z-6.25 F1000
X539.75 Y392.14
Y293.605
G0 Z15
X50.395 Y474.764
Z5
G1 Z1 F333.3
Z-6.25 F1000
Y474.784
Y590.973
Y590.992
G0 Z5
X53.295 Y473.581
G1 Z1 F333.3
Z-6.25 F1000
Y473.601
Y592.141
Y592.161
G0 Z5
X56.198 Y473.564
G1 Z1 F333.3
Z-6.25 F1000
X56.2 Y473.603
Y589.75
Y592.145
G0 Z15
X3.945 Y274.764
Z5
G1 Z1 F333.3
Z-6.25 F1000
Y274.784
Y390.973
Y390.992
G0 Z5
X6.845 Y273.581
G1 Z1 F333.3
Z-6.25 F1000
Y273.601
Y392.141
Y392.161
G0 Z5
X9.748 Y273.564
G1 Z1 F333.3
Z-6.25 F1000
X9.75 Y273.603
Y389.75
Y392.145
G0 Z15
X114.395 Y144.76
Z5
G1 Z1 F333.3
Z-6.25 F1000
Y144.78
Y240.964
Y240.984
G0 Z5
X117.295 Y143.589
G1 Z1 F333.3
Z-6.25 F1000
Y143.608
Y242.144
Y242.164
G0 Z5
X120.198 Y143.571
G1 Z1 F333.3
Z-6.25 F1000
X120.2 Y143.61
Y242.145
G0 Z15
X-1.077 Y-0.214
Z5
G1 Z1 F333.3
Z-6.25 F1000
Y-0.194
X-1.1 Y114.75
Y115.866
Y115.885
G0 Z5
X1.845 Y-1.419
G1 Z1 F333.3
Z-6.25 F1000
Y-1.399
Y117.141
Y117.161
G0 Z5
X4.748 Y-1.436
G1 Z1 F333.3
Z-6.25 F1000
X4.75 Y-1.397
Y114.75
Y117.145
G0 Z15

(2D Contour1)
X184.746 Y293
Z15
Z5
G1 Z-4.5 F333.3
G18 G2 X185.246 Z-5 I0.5 K0 F1000
G1 X185.746
G17 G3 X185.246 Y293.5 I-0.5 J0
G1 X185.174
X183.066 Y293.488
X180.98 Y293.451
X178.908 Y293.39
X176.85 Y293.305
X174.807 Y293.195
X172.776 Y293.062
X170.758 Y292.907
X168.753 Y292.728
X166.76 Y292.527
X164.778 Y292.305
X162.808 Y292.062
X160.85 Y291.799
X158.901 Y291.516
X156.962 Y291.215
X155.033 Y290.895
X153.112 Y290.558
X151.198 Y290.204
X149.294 Y289.836
X147.396 Y289.452
X145.504 Y289.056
X143.618 Y288.646
X141.738 Y288.224
X139.862 Y287.792
X137.993 Y287.35
X134.256 Y286.439
X130.531 Y285.502
X115.627 Y281.654
X115.612 Y281.651
X111.872 Y280.71
X111.854 Y280.705
X108.099 Y279.79
X108.083 Y279.786
X106.199 Y279.34
X106.184 Y279.337
X104.294 Y278.902
X104.28 Y278.899
X102.384 Y278.474
X102.369 Y278.47
X100.466 Y278.056
X100.447 Y278.052
X98.538 Y277.652
X98.521 Y277.649
X96.604 Y277.261
X96.582 Y277.256
X94.657 Y276.884
X94.636 Y276.881
X92.702 Y276.524
X92.68 Y276.52
X90.736 Y276.179
X90.713 Y276.175
X88.76 Y275.851
X88.735 Y275.847
X86.771 Y275.542
X86.747 Y275.538
X84.773 Y275.251
X84.746 Y275.247
X82.761 Y274.98
X82.733 Y274.977
X80.736 Y274.731
X80.709 Y274.728
X78.7 Y274.503
X78.672 Y274.5
X76.651 Y274.296
X76.621 Y274.293
X74.587 Y274.112
X74.558 Y274.109
X72.511 Y273.951
X72.482 Y273.949
X70.422 Y273.814
X70.392 Y273.813
X68.318 Y273.702
X68.287 Y273.7
X66.2 Y273.614
X66.171 Y273.613
X64.069 Y273.551
X64.04 Y273.55
X61.925 Y273.512
X61.894
X59.764 Y273.5
X59.75
X6
G2 X3.5 Y276 I0 J2.5
G1 Y389.75
G2 X6 Y392.25 I2.5 J0
G1 X543.5
G2 X546 Y389.75 I0 J-2.5
G1 Y296
G2 X543.5 Y293.5 I-2.5 J0
G1 X185.246
X184.746 Y293
Z-9.5 F333.3
G18 G2 X185.246 Z-10 I0.5 K0 F1000
G1 X185.746
G17 G3 X185.246 Y293.5 I-0.5 J0
G1 X185.174
X183.066 Y293.488
X180.98 Y293.451
X178.908 Y293.39
X176.85 Y293.305
X174.807 Y293.195
X172.776 Y293.062
X170.758 Y292.907
X168.753 Y292.728
X166.76 Y292.527
X164.778 Y292.305
X162.808 Y292.062
X160.85 Y291.799
X158.901 Y291.516
X156.962 Y291.215
X155.033 Y290.895
X153.112 Y290.558
X151.198 Y290.204
X149.294 Y289.836
X147.396 Y289.452
X145.504 Y289.056
X143.618 Y288.646
X141.738 Y288.224
X139.862 Y287.792
X137.993 Y287.35
X134.256 Y286.439
X130.531 Y285.502
X115.627 Y281.654
X115.612 Y281.651
X111.872 Y280.71
X111.854 Y280.705
X108.099 Y279.79
X108.083 Y279.786
X106.199 Y279.34
X106.184 Y279.337
X104.294 Y278.902
X104.28 Y278.899
X102.384 Y278.474
X102.369 Y278.47
X100.466 Y278.056
X100.447 Y278.052
X98.538 Y277.652
X98.521 Y277.649
X96.604 Y277.261
X96.582 Y277.256
X94.657 Y276.884
X94.636 Y276.881
X92.702 Y276.524
X92.68 Y276.52
X90.736 Y276.179
X90.713 Y276.175
X88.76 Y275.851
X88.735 Y275.847
X86.771 Y275.542
X86.747 Y275.538
X84.773 Y275.251
X84.746 Y275.247
X82.761 Y274.98
X82.733 Y274.977
X80.736 Y274.731
X80.709 Y274.728
X78.7 Y274.503
X78.672 Y274.5
X76.651 Y274.296
X76.621 Y274.293
X74.587 Y274.112
X74.558 Y274.109
X72.511 Y273.951
X72.482 Y273.949
X70.422 Y273.814
X70.392 Y273.813
X68.318 Y273.702
X68.287 Y273.7
X66.2 Y273.614
X66.171 Y273.613
X64.069 Y273.551
X64.04 Y273.55
X61.925 Y273.512
X61.894
X59.764 Y273.5
X59.75
X6
G2 X3.5 Y276 I0 J2.5
G1 Y389.75
G2 X6 Y392.25 I2.5 J0
G1 X543.5
G2 X546 Y389.75 I0 J-2.5
G1 Y296
G2 X543.5 Y293.5 I-2.5 J0
G1 X185.246
X184.746 Y293
Z-12 F333.3
G18 G2 X185.246 Z-12.5 I0.5 K0 F1000
G1 X185.746
G17 G3 X185.246 Y293.5 I-0.5 J0
G1 X185.174
X183.066 Y293.488
X180.98 Y293.451
X178.908 Y293.39
X176.85 Y293.305
X174.807 Y293.195
X172.776 Y293.062
X170.758 Y292.907
X168.753 Y292.728
X166.76 Y292.527
X164.778 Y292.305
X162.808 Y292.062
X160.85 Y291.799
X158.901 Y291.516
X156.962 Y291.215
X155.033 Y290.895
X153.112 Y290.558
X151.198 Y290.204
X149.294 Y289.836
X147.396 Y289.452
X145.504 Y289.056
X143.618 Y288.646
X141.738 Y288.224
X139.862 Y287.792
X137.993 Y287.35
X134.256 Y286.439
X130.531 Y285.502
X115.627 Y281.654
X115.612 Y281.651
X111.872 Y280.71
X111.854 Y280.705
X108.099 Y279.79
X108.083 Y279.786
X106.199 Y279.34
X106.184 Y279.337
X104.294 Y278.902
X104.28 Y278.899
X102.384 Y278.474
X102.369 Y278.47
X100.466 Y278.056
X100.447 Y278.052
X98.538 Y277.652
X98.521 Y277.649
X96.604 Y277.261
X96.582 Y277.256
X94.657 Y276.884
X94.636 Y276.881
X92.702 Y276.524
X92.68 Y276.52
X90.736 Y276.179
X90.713 Y276.175
X88.76 Y275.851
X88.735 Y275.847
X86.771 Y275.542
X86.747 Y275.538
X84.773 Y275.251
X84.746 Y275.247
X82.761 Y274.98
X82.733 Y274.977
X80.736 Y274.731
X80.709 Y274.728
X78.7 Y274.503
X78.672 Y274.5
X76.651 Y274.296
X76.621 Y274.293
X74.587 Y274.112
X74.558 Y274.109
X72.511 Y273.951
X72.482 Y273.949
X70.422 Y273.814
X70.392 Y273.813
X68.318 Y273.702
X68.287 Y273.7
X66.2 Y273.614
X66.171 Y273.613
X64.069 Y273.551
X64.04 Y273.55
X61.925 Y273.512
X61.894
X59.764 Y273.5
X59.75
X6
G2 X3.5 Y276 I0 J2.5
G1 Y389.75
G2 X6 Y392.25 I2.5 J0
G1 X543.5
G2 X546 Y389.75 I0 J-2.5
G1 Y296
G2 X543.5 Y293.5 I-2.5 J0
G1 X185.246
G0 Z5
X113.45 Y195.875
G1 Z-4.5 F333.3
G19 G2 Y195.375 Z-5 J-0.5 K0 F1000
G1 Y194.875
G17 G3 X113.95 Y195.375 I0 J0.5
G1 Y239.75
G2 X116.45 Y242.25 I2.5 J0
G1 X551.05
G2 X553.55 Y239.75 I0 J-2.5
G1 Y146
G2 X551.05 Y143.5 I-2.5 J0
G1 X116.45
G2 X113.95 Y146 I0 J2.5
G1 Y195.375
X113.45 Y146.5
Z-9.5 F333.3
G19 G2 Y146 Z-10 J-0.5 K0 F1000
G1 Y145.5
G17 G3 X113.95 Y146 I0 J0.5
G1 Y239.75
G2 X116.45 Y242.25 I2.5 J0
G1 X551.05
G2 X553.55 Y239.75 I0 J-2.5
G1 Y146
G2 X551.05 Y143.5 I-2.5 J0
G1 X116.45
G2 X113.95 Y146 I0 J2.5
G1 X113.45 Y146.5
Z-12 F333.3
G19 G2 Y146 Z-12.5 J-0.5 K0 F1000
G1 Y145.5
G17 G3 X113.95 Y146 I0 J0.5
G1 Y239.75
G2 X116.45 Y242.25 I2.5 J0
G1 X551.05
G2 X553.55 Y239.75 I0 J-2.5
G1 Y146
G2 X551.05 Y143.5 I-2.5 J0
G1 X116.45
G2 X113.95 Y146 I0 J2.5
G0 Z5
X6.5 Y117.75
G1 Z-4.5 F333.3
G18 G3 X6 Z-5 I-0.5 K0 F1000
G1 X5.5
G17 G3 X6 Y117.25 I0.5 J0
G1 X54.75
X54.764
X56.894 Y117.238
X56.925
X59.04 Y117.2
X59.069 Y117.199
X61.171 Y117.137
X61.2 Y117.136
X63.287 Y117.05
X63.318 Y117.048
X65.392 Y116.937
X65.422 Y116.936
X67.482 Y116.801
X67.511 Y116.799
X69.558 Y116.641
X69.587 Y116.638
X71.621 Y116.457
X71.651 Y116.454
X73.672 Y116.25
X73.7 Y116.247
X75.709 Y116.022
X75.736 Y116.019
X77.733 Y115.773
X77.761 Y115.77
X79.746 Y115.503
X79.773 Y115.499
X81.747 Y115.212
X81.771 Y115.208
X83.735 Y114.903
X83.76 Y114.899
X85.713 Y114.575
X85.736 Y114.571
X87.68 Y114.23
X87.702 Y114.226
X89.636 Y113.869
X89.657 Y113.866
X91.582 Y113.494
X91.604 Y113.489
X93.521 Y113.101
X93.538 Y113.098
X95.447 Y112.698
X95.466 Y112.694
X97.369 Y112.28
X97.384 Y112.276
X99.28 Y111.851
X99.294 Y111.848
X101.184 Y111.413
X101.199 Y111.41
X103.083 Y110.964
X103.099 Y110.96
X106.854 Y110.045
X106.872 Y110.04
X110.612 Y109.099
X110.627 Y109.096
X118.083 Y107.171
X125.531 Y105.248
X129.256 Y104.311
X132.993 Y103.4
X134.862 Y102.958
X136.738 Y102.526
X138.618 Y102.104
X140.504 Y101.694
X142.396 Y101.297
X144.294 Y100.914
X146.199 Y100.545
X148.112 Y100.192
X150.032 Y99.855
X151.962 Y99.536
X153.901 Y99.234
X155.85 Y98.951
X157.809 Y98.688
X159.778 Y98.445
X161.759 Y98.223
X163.753 Y98.022
X165.758 Y97.844
X167.776 Y97.688
X169.806 Y97.555
X171.85 Y97.446
X173.909 Y97.36
X175.98 Y97.299
X178.066 Y97.262
X180.174 Y97.25
X538.5
G2 X541 Y94.75 I0 J-2.5
G1 Y1
G2 X538.5 Y-1.5 I-2.5 J0
G1 X1
G2 X-1.5 Y1 I0 J2.5
G1 Y114.75
G2 X1 Y117.25 I2.5 J0
G1 X6
X6.5 Y117.75
Z-9.5 F333.3
G18 G3 X6 Z-10 I-0.5 K0 F1000
G1 X5.5
G17 G3 X6 Y117.25 I0.5 J0
G1 X54.75
X54.764
X56.894 Y117.238
X56.925
X59.04 Y117.2
X59.069 Y117.199
X61.171 Y117.137
X61.2 Y117.136
X63.287 Y117.05
X63.318 Y117.048
X65.392 Y116.937
X65.422 Y116.936
X67.482 Y116.801
X67.511 Y116.799
X69.558 Y116.641
X69.587 Y116.638
X71.621 Y116.457
X71.651 Y116.454
X73.672 Y116.25
X73.7 Y116.247
X75.709 Y116.022
X75.736 Y116.019
X77.733 Y115.773
X77.761 Y115.77
X79.746 Y115.503
X79.773 Y115.499
X81.747 Y115.212
X81.771 Y115.208
X83.735 Y114.903
X83.76 Y114.899
X85.713 Y114.575
X85.736 Y114.571
X87.68 Y114.23
X87.702 Y114.226
X89.636 Y113.869
X89.657 Y113.866
X91.582 Y113.494
X91.604 Y113.489
X93.521 Y113.101
X93.538 Y113.098
X95.447 Y112.698
X95.466 Y112.694
X97.369 Y112.28
X97.384 Y112.276
X99.28 Y111.851
X99.294 Y111.848
X101.184 Y111.413
X101.199 Y111.41
X103.083 Y110.964
X103.099 Y110.96
X106.854 Y110.045
X106.872 Y110.04
X110.612 Y109.099
X110.627 Y109.096
X118.083 Y107.171
X125.531 Y105.248
X129.256 Y104.311
X132.993 Y103.4
X134.862 Y102.958
X136.738 Y102.526
X138.618 Y102.104
X140.504 Y101.694
X142.396 Y101.297
X144.294 Y100.914
X146.199 Y100.545
X148.112 Y100.192
X150.032 Y99.855
X151.962 Y99.536
X153.901 Y99.234
X155.85 Y98.951
X157.809 Y98.688
X159.778 Y98.445
X161.759 Y98.223
X163.753 Y98.022
X165.758 Y97.844
X167.776 Y97.688
X169.806 Y97.555
X171.85 Y97.446
X173.909 Y97.36
X175.98 Y97.299
X178.066 Y97.262
X180.174 Y97.25
X538.5
G2 X541 Y94.75 I0 J-2.5
G1 Y1
G2 X538.5 Y-1.5 I-2.5 J0
G1 X1
G2 X-1.5 Y1 I0 J2.5
G1 Y114.75
G2 X1 Y117.25 I2.5 J0
G1 X6
X6.5 Y117.75
Z-12 F333.3
G18 G3 X6 Z-12.5 I-0.5 K0 F1000
G1 X5.5
G17 G3 X6 Y117.25 I0.5 J0
G1 X54.75
X54.764
X56.894 Y117.238
X56.925
X59.04 Y117.2
X59.069 Y117.199
X61.171 Y117.137
X61.2 Y117.136
X63.287 Y117.05
X63.318 Y117.048
X65.392 Y116.937
X65.422 Y116.936
X67.482 Y116.801
X67.511 Y116.799
X69.558 Y116.641
X69.587 Y116.638
X71.621 Y116.457
X71.651 Y116.454
X73.672 Y116.25
X73.7 Y116.247
X75.709 Y116.022
X75.736 Y116.019
X77.733 Y115.773
X77.761 Y115.77
X79.746 Y115.503
X79.773 Y115.499
X81.747 Y115.212
X81.771 Y115.208
X83.735 Y114.903
X83.76 Y114.899
X85.713 Y114.575
X85.736 Y114.571
X87.68 Y114.23
X87.702 Y114.226
X89.636 Y113.869
X89.657 Y113.866
X91.582 Y113.494
X91.604 Y113.489
X93.521 Y113.101
X93.538 Y113.098
X95.447 Y112.698
X95.466 Y112.694
X97.369 Y112.28
X97.384 Y112.276
X99.28 Y111.851
X99.294 Y111.848
X101.184 Y111.413
X101.199 Y111.41
X103.083 Y110.964
X103.099 Y110.96
X106.854 Y110.045
X106.872 Y110.04
X110.612 Y109.099
X110.627 Y109.096
X118.083 Y107.171
X125.531 Y105.248
X129.256 Y104.311
X132.993 Y103.4
X134.862 Y102.958
X136.738 Y102.526
X138.618 Y102.104
X140.504 Y101.694
X142.396 Y101.297
X144.294 Y100.914
X146.199 Y100.545
X148.112 Y100.192
X150.032 Y99.855
X151.962 Y99.536
X153.901 Y99.234
X155.85 Y98.951
X157.809 Y98.688
X159.778 Y98.445
X161.759 Y98.223
X163.753 Y98.022
X165.758 Y97.844
X167.776 Y97.688
X169.806 Y97.555
X171.85 Y97.446
X173.909 Y97.36
X175.98 Y97.299
X178.066 Y97.262
X180.174 Y97.25
X538.5
G2 X541 Y94.75 I0 J-2.5
G1 Y1
G2 X538.5 Y-1.5 I-2.5 J0
G1 X1
G2 X-1.5 Y1 I0 J2.5
G1 Y114.75
G2 X1 Y117.25 I2.5 J0
G1 X6
G0 Z5
X49.45 Y476.5
G1 Z-4.5 F333.3
G19 G2 Y476 Z-5 J-0.5 K0 F1000
G1 Y475.5
G17 G3 X49.95 Y476 I0 J0.5
G1 Y589.75
G2 X52.45 Y592.25 I2.5 J0
G1 X487.05
G2 X489.55 Y589.75 I0 J-2.5
G1 Y476
G2 X487.05 Y473.5 I-2.5 J0
G1 X52.45
G2 X49.95 Y476 I0 J2.5
G1 X49.45 Y476.5
Z-9.5 F333.3
G19 G2 Y476 Z-10 J-0.5 K0 F1000
G1 Y475.5
G17 G3 X49.95 Y476 I0 J0.5
G1 Y589.75
G2 X52.45 Y592.25 I2.5 J0
G1 X487.05
G2 X489.55 Y589.75 I0 J-2.5
G1 Y476
G2 X487.05 Y473.5 I-2.5 J0
G1 X52.45
G2 X49.95 Y476 I0 J2.5
G1 X49.45 Y476.5
Z-12 F333.3
G19 G2 Y476 Z-12.5 J-0.5 K0 F1000
G1 Y475.5
G17 G3 X49.95 Y476 I0 J0.5
G1 Y589.75
G2 X52.45 Y592.25 I2.5 J0
G1 X487.05
G2 X489.55 Y589.75 I0 J-2.5
G1 Y476
G2 X487.05 Y473.5 I-2.5 J0
G1 X52.45
G2 X49.95 Y476 I0 J2.5
G0 Z15
M9
G28 G91 Z0
G90
G28 G91 X0 Y0
G90
M5
M30
