(CamperSchubladeKuechenzeileWaende)
(T1  D=5 CR=0 - ZMIN=-12.5 - flat end mill)
G90 G94
G17
G21
G28 G91 Z0
G90

(2D Pocket1)
T1
S5000 M3
G54
M8
G0 X540.555 Y115.986
Z15
Z5
G1 Z1 F333.3
Z-6.25 F1000
Y115.966
Y-0.223
Y-0.242
G0 Z5
X537.655 Y117.169
G1 Z1 F333.3
Z-6.25 F1000
Y117.149
Y-1.391
Y-1.411
G0 Z5
X534.752 Y117.186
G1 Z1 F333.3
Z-6.25 F1000
X534.75 Y117.147
Y1
Y-1.395
G0 Z15
X553.105 Y280.986
Z5
G1 Z1 F333.3
Z-6.25 F1000
Y280.966
Y164.777
Y164.758
G0 Z5
X550.205 Y282.169
G1 Z1 F333.3
Z-6.25 F1000
Y282.149
Y163.609
Y163.589
G0 Z5
X547.302 Y282.186
G1 Z1 F333.3
Z-6.25 F1000
X547.3 Y282.147
Y166
Y163.605
G0 Z15
X489.105 Y650.986
Z5
G1 Z1 F333.3
Z-6.25 F1000
Y650.967
Y474.785
Y474.766
G0 Z5
X486.205 Y652.169
G1 Z1 F333.3
Z-6.25 F1000
Y652.149
Y473.606
Y473.586
G0 Z5
X483.302 Y652.186
G1 Z1 F333.3
Z-6.25 F1000
X483.3 Y652.147
Y476
Y473.605
G0 Z15
X545.555 Y450.986
Z5
G1 Z1 F333.3
Z-6.25 F1000
Y450.966
Y334.777
Y334.758
G0 Z5
X542.655 Y452.169
G1 Z1 F333.3
Z-6.25 F1000
Y452.149
Y333.609
Y333.589
G0 Z5
X539.752 Y452.186
G1 Z1 F333.3
Z-6.25 F1000
X539.75 Y452.147
Y336
Y333.605
G0 Z15
X50.395 Y474.764
Z5
G1 Z1 F333.3
Z-6.25 F1000
Y474.783
Y650.965
Y650.984
G0 Z5
X53.295 Y473.581
G1 Z1 F333.3
Z-6.25 F1000
Y473.601
Y652.144
Y652.164
G0 Z5
X56.198 Y473.564
G1 Z1 F333.3
Z-6.25 F1000
X56.2 Y473.603
Y649.75
Y652.145
G0 Z15
X3.945 Y274.764
Z5
G1 Z1 F333.3
Z-6.25 F1000
Y274.784
Y450.965
Y450.984
G0 Z5
X6.845 Y273.581
G1 Z1 F333.3
Z-6.25 F1000
Y273.601
Y452.144
Y452.164
G0 Z5
X9.748 Y273.564
G1 Z1 F333.3
Z-6.25 F1000
X9.75 Y273.603
Y449.75
Y452.145
G0 Z15
X114.395 Y164.764
Z5
G1 Z1 F333.3
Z-6.25 F1000
Y164.784
Y280.973
Y280.992
G0 Z5
X117.295 Y163.581
G1 Z1 F333.3
Z-6.25 F1000
Y163.601
Y282.142
Y282.161
G0 Z5
X120.198 Y163.564
G1 Z1 F333.3
Z-6.25 F1000
X120.2 Y163.603
Y279.75
Y282.145
G0 Z15
X-1.055 Y-0.236
Z5
G1 Z1 F333.3
Z-6.25 F1000
Y-0.217
Y175.965
Y175.984
G0 Z5
X1.845 Y-1.419
G1 Z1 F333.3
Z-6.25 F1000
Y-1.399
Y177.144
Y177.164
G0 Z5
X4.748 Y-1.436
G1 Z1 F333.3
Z-6.25 F1000
X4.75 Y-1.397
Y174.75
Y177.145
G0 Z15

(2D Contour1)
X184.771 Y333
Z15
Z5
G1 Z-4.5 F333.3
G18 G2 X185.271 Z-5 I0.5 K0 F1000
G1 X185.771
G17 G3 X185.271 Y333.5 I-0.5 J0
G1 X185.176
X183.99 Y333.491
X182.825 Y333.464
X181.67 Y333.419
X180.523 Y333.356
X179.389 Y333.275
X178.262 Y333.175
X177.144 Y333.06
X176.039 Y332.926
X174.941 Y332.773
X173.852 Y332.605
X172.773 Y332.419
X171.702 Y332.216
X170.642 Y331.996
X169.589 Y331.759
X168.545 Y331.507
X167.509 Y331.236
X166.482 Y330.951
X165.463 Y330.649
X164.45 Y330.331
X163.446 Y329.998
X162.449 Y329.649
X161.46 Y329.285
X160.478 Y328.906
X159.502 Y328.513
X158.533 Y328.105
X157.571 Y327.683
X156.616 Y327.247
X155.665 Y326.796
X154.721 Y326.333
X153.784 Y325.857
X152.853 Y325.368
X151.925 Y324.865
X151.004 Y324.351
X150.087 Y323.824
X149.176 Y323.286
X148.27 Y322.736
X147.368 Y322.175
X146.47 Y321.603
X145.578 Y321.02
X144.688 Y320.428
X143.803 Y319.825
X142.925 Y319.217
X141.168 Y317.964
X139.428 Y316.679
X137.699 Y315.364
X135.979 Y314.02
X134.268 Y312.653
X132.563 Y311.264
X130.864 Y309.855
X129.167 Y308.432
X127.474 Y306.997
X124.082 Y304.099
X120.687 Y301.198
X120.679 Y301.192
X118.977 Y299.75
X118.968 Y299.742
X117.261 Y298.31
X117.249 Y298.3
X115.536 Y296.88
X115.52 Y296.867
X113.798 Y295.464
X113.78 Y295.449
X112.048 Y294.065
X112.026 Y294.048
X110.283 Y292.686
X110.258 Y292.666
X108.502 Y291.33
X108.473 Y291.308
X106.702 Y290.001
X106.669 Y289.978
X104.882 Y288.703
X104.854 Y288.684
X103.954 Y288.06
X103.937 Y288.047
X103.032 Y287.431
X103.011 Y287.417
X102.101 Y286.811
X102.08 Y286.797
X101.165 Y286.201
X101.144 Y286.187
X100.224 Y285.601
X100.202 Y285.588
X99.276 Y285.012
X99.252 Y284.997
X98.321 Y284.432
X98.295 Y284.416
X97.359 Y283.863
X97.334 Y283.849
X96.391 Y283.307
X96.363 Y283.29
X95.414 Y282.762
X95.389 Y282.747
X94.434 Y282.229
X94.404 Y282.214
X93.443 Y281.709
X93.413 Y281.693
X92.445 Y281.201
X92.413 Y281.185
X91.438 Y280.707
X91.41 Y280.694
X90.428 Y280.228
X90.393 Y280.211
X89.405 Y279.76
X89.372 Y279.746
X88.376 Y279.309
X88.34 Y279.294
X87.337 Y278.872
X87.303 Y278.858
X86.292 Y278.45
X86.257 Y278.436
X85.238 Y278.043
X85.2 Y278.028
X84.174 Y277.651
X84.137 Y277.638
X83.103 Y277.276
X83.065 Y277.263
X82.022 Y276.917
X81.984 Y276.905
X80.933 Y276.575
X80.895 Y276.563
X79.836 Y276.249
X79.793 Y276.237
X78.725 Y275.941
X78.689 Y275.931
X77.613 Y275.65
X77.57 Y275.639
X76.485 Y275.376
X76.445 Y275.367
X75.351 Y275.121
X75.309 Y275.112
X74.206 Y274.884
X74.166 Y274.876
X73.055 Y274.665
X73.013 Y274.657
X71.893 Y274.464
X71.851 Y274.457
X70.721 Y274.282
X70.682 Y274.277
X69.543 Y274.119
X69.5 Y274.113
X68.352 Y273.974
X68.309 Y273.969
X67.152 Y273.849
X67.114 Y273.846
X65.947 Y273.743
X65.905 Y273.739
X64.729 Y273.655
X64.687 Y273.653
X63.502 Y273.588
X63.463 Y273.586
X62.268 Y273.539
X62.227 Y273.538
X61.022 Y273.51
X60.983 Y273.509
X59.769 Y273.5
X59.75
X6
G2 X3.5 Y276 I0 J2.5
G1 Y449.75
G2 X6 Y452.25 I2.5 J0
G1 X543.5
G2 X546 Y449.75 I0 J-2.5
G1 Y336
G2 X543.5 Y333.5 I-2.5 J0
G1 X185.271
X184.771 Y333
Z-9.5 F333.3
G18 G2 X185.271 Z-10 I0.5 K0 F1000
G1 X185.771
G17 G3 X185.271 Y333.5 I-0.5 J0
G1 X185.176
X183.99 Y333.491
X182.825 Y333.464
X181.67 Y333.419
X180.523 Y333.356
X179.389 Y333.275
X178.262 Y333.175
X177.144 Y333.06
X176.039 Y332.926
X174.941 Y332.773
X173.852 Y332.605
X172.773 Y332.419
X171.702 Y332.216
X170.642 Y331.996
X169.589 Y331.759
X168.545 Y331.507
X167.509 Y331.236
X166.482 Y330.951
X165.463 Y330.649
X164.45 Y330.331
X163.446 Y329.998
X162.449 Y329.649
X161.46 Y329.285
X160.478 Y328.906
X159.502 Y328.513
X158.533 Y328.105
X157.571 Y327.683
X156.616 Y327.247
X155.665 Y326.796
X154.721 Y326.333
X153.784 Y325.857
X152.853 Y325.368
X151.925 Y324.865
X151.004 Y324.351
X150.087 Y323.824
X149.176 Y323.286
X148.27 Y322.736
X147.368 Y322.175
X146.47 Y321.603
X145.578 Y321.02
X144.688 Y320.428
X143.803 Y319.825
X142.925 Y319.217
X141.168 Y317.964
X139.428 Y316.679
X137.699 Y315.364
X135.979 Y314.02
X134.268 Y312.653
X132.563 Y311.264
X130.864 Y309.855
X129.167 Y308.432
X127.474 Y306.997
X124.082 Y304.099
X120.687 Y301.198
X120.679 Y301.192
X118.977 Y299.75
X118.968 Y299.742
X117.261 Y298.31
X117.249 Y298.3
X115.536 Y296.88
X115.52 Y296.867
X113.798 Y295.464
X113.78 Y295.449
X112.048 Y294.065
X112.026 Y294.048
X110.283 Y292.686
X110.258 Y292.666
X108.502 Y291.33
X108.473 Y291.308
X106.702 Y290.001
X106.669 Y289.978
X104.882 Y288.703
X104.854 Y288.684
X103.954 Y288.06
X103.937 Y288.047
X103.032 Y287.431
X103.011 Y287.417
X102.101 Y286.811
X102.08 Y286.797
X101.165 Y286.201
X101.144 Y286.187
X100.224 Y285.601
X100.202 Y285.588
X99.276 Y285.012
X99.252 Y284.997
X98.321 Y284.432
X98.295 Y284.416
X97.359 Y283.863
X97.334 Y283.849
X96.391 Y283.307
X96.363 Y283.29
X95.414 Y282.762
X95.389 Y282.747
X94.434 Y282.229
X94.404 Y282.214
X93.443 Y281.709
X93.413 Y281.693
X92.445 Y281.201
X92.413 Y281.185
X91.438 Y280.707
X91.41 Y280.694
X90.428 Y280.228
X90.393 Y280.211
X89.405 Y279.76
X89.372 Y279.746
X88.376 Y279.309
X88.34 Y279.294
X87.337 Y278.872
X87.303 Y278.858
X86.292 Y278.45
X86.257 Y278.436
X85.238 Y278.043
X85.2 Y278.028
X84.174 Y277.651
X84.137 Y277.638
X83.103 Y277.276
X83.065 Y277.263
X82.022 Y276.917
X81.984 Y276.905
X80.933 Y276.575
X80.895 Y276.563
X79.836 Y276.249
X79.793 Y276.237
X78.725 Y275.941
X78.689 Y275.931
X77.613 Y275.65
X77.57 Y275.639
X76.485 Y275.376
X76.445 Y275.367
X75.351 Y275.121
X75.309 Y275.112
X74.206 Y274.884
X74.166 Y274.876
X73.055 Y274.665
X73.013 Y274.657
X71.893 Y274.464
X71.851 Y274.457
X70.721 Y274.282
X70.682 Y274.277
X69.543 Y274.119
X69.5 Y274.113
X68.352 Y273.974
X68.309 Y273.969
X67.152 Y273.849
X67.114 Y273.846
X65.947 Y273.743
X65.905 Y273.739
X64.729 Y273.655
X64.687 Y273.653
X63.502 Y273.588
X63.463 Y273.586
X62.268 Y273.539
X62.227 Y273.538
X61.022 Y273.51
X60.983 Y273.509
X59.769 Y273.5
X59.75
X6
G2 X3.5 Y276 I0 J2.5
G1 Y449.75
G2 X6 Y452.25 I2.5 J0
G1 X543.5
G2 X546 Y449.75 I0 J-2.5
G1 Y336
G2 X543.5 Y333.5 I-2.5 J0
G1 X185.271
X184.771 Y333
Z-12 F333.3
G18 G2 X185.271 Z-12.5 I0.5 K0 F1000
G1 X185.771
G17 G3 X185.271 Y333.5 I-0.5 J0
G1 X185.176
X183.99 Y333.491
X182.825 Y333.464
X181.67 Y333.419
X180.523 Y333.356
X179.389 Y333.275
X178.262 Y333.175
X177.144 Y333.06
X176.039 Y332.926
X174.941 Y332.773
X173.852 Y332.605
X172.773 Y332.419
X171.702 Y332.216
X170.642 Y331.996
X169.589 Y331.759
X168.545 Y331.507
X167.509 Y331.236
X166.482 Y330.951
X165.463 Y330.649
X164.45 Y330.331
X163.446 Y329.998
X162.449 Y329.649
X161.46 Y329.285
X160.478 Y328.906
X159.502 Y328.513
X158.533 Y328.105
X157.571 Y327.683
X156.616 Y327.247
X155.665 Y326.796
X154.721 Y326.333
X153.784 Y325.857
X152.853 Y325.368
X151.925 Y324.865
X151.004 Y324.351
X150.087 Y323.824
X149.176 Y323.286
X148.27 Y322.736
X147.368 Y322.175
X146.47 Y321.603
X145.578 Y321.02
X144.688 Y320.428
X143.803 Y319.825
X142.925 Y319.217
X141.168 Y317.964
X139.428 Y316.679
X137.699 Y315.364
X135.979 Y314.02
X134.268 Y312.653
X132.563 Y311.264
X130.864 Y309.855
X129.167 Y308.432
X127.474 Y306.997
X124.082 Y304.099
X120.687 Y301.198
X120.679 Y301.192
X118.977 Y299.75
X118.968 Y299.742
X117.261 Y298.31
X117.249 Y298.3
X115.536 Y296.88
X115.52 Y296.867
X113.798 Y295.464
X113.78 Y295.449
X112.048 Y294.065
X112.026 Y294.048
X110.283 Y292.686
X110.258 Y292.666
X108.502 Y291.33
X108.473 Y291.308
X106.702 Y290.001
X106.669 Y289.978
X104.882 Y288.703
X104.854 Y288.684
X103.954 Y288.06
X103.937 Y288.047
X103.032 Y287.431
X103.011 Y287.417
X102.101 Y286.811
X102.08 Y286.797
X101.165 Y286.201
X101.144 Y286.187
X100.224 Y285.601
X100.202 Y285.588
X99.276 Y285.012
X99.252 Y284.997
X98.321 Y284.432
X98.295 Y284.416
X97.359 Y283.863
X97.334 Y283.849
X96.391 Y283.307
X96.363 Y283.29
X95.414 Y282.762
X95.389 Y282.747
X94.434 Y282.229
X94.404 Y282.214
X93.443 Y281.709
X93.413 Y281.693
X92.445 Y281.201
X92.413 Y281.185
X91.438 Y280.707
X91.41 Y280.694
X90.428 Y280.228
X90.393 Y280.211
X89.405 Y279.76
X89.372 Y279.746
X88.376 Y279.309
X88.34 Y279.294
X87.337 Y278.872
X87.303 Y278.858
X86.292 Y278.45
X86.257 Y278.436
X85.238 Y278.043
X85.2 Y278.028
X84.174 Y277.651
X84.137 Y277.638
X83.103 Y277.276
X83.065 Y277.263
X82.022 Y276.917
X81.984 Y276.905
X80.933 Y276.575
X80.895 Y276.563
X79.836 Y276.249
X79.793 Y276.237
X78.725 Y275.941
X78.689 Y275.931
X77.613 Y275.65
X77.57 Y275.639
X76.485 Y275.376
X76.445 Y275.367
X75.351 Y275.121
X75.309 Y275.112
X74.206 Y274.884
X74.166 Y274.876
X73.055 Y274.665
X73.013 Y274.657
X71.893 Y274.464
X71.851 Y274.457
X70.721 Y274.282
X70.682 Y274.277
X69.543 Y274.119
X69.5 Y274.113
X68.352 Y273.974
X68.309 Y273.969
X67.152 Y273.849
X67.114 Y273.846
X65.947 Y273.743
X65.905 Y273.739
X64.729 Y273.655
X64.687 Y273.653
X63.502 Y273.588
X63.463 Y273.586
X62.268 Y273.539
X62.227 Y273.538
X61.022 Y273.51
X60.983 Y273.509
X59.769 Y273.5
X59.75
X6
G2 X3.5 Y276 I0 J2.5
G1 Y449.75
G2 X6 Y452.25 I2.5 J0
G1 X543.5
G2 X546 Y449.75 I0 J-2.5
G1 Y336
G2 X543.5 Y333.5 I-2.5 J0
G1 X185.271
G0 Z5
X113.45 Y225.711
G1 Z-4.5 F333.3
G19 G2 Y225.211 Z-5 J-0.5 K0 F1000
G1 Y224.711
G17 G3 X113.95 Y225.211 I0 J0.5
G1 Y279.75
G2 X116.45 Y282.25 I2.5 J0
G1 X551.05
G2 X553.55 Y279.75 I0 J-2.5
G1 Y166
G2 X551.05 Y163.5 I-2.5 J0
G1 X116.45
G2 X113.95 Y166 I0 J2.5
G1 Y225.211
X113.45 Y225.711
Z-9.5 F333.3
G19 G2 Y225.211 Z-10 J-0.5 K0 F1000
G1 Y224.711
G17 G3 X113.95 Y225.211 I0 J0.5
G1 Y279.75
G2 X116.45 Y282.25 I2.5 J0
G1 X551.05
G2 X553.55 Y279.75 I0 J-2.5
G1 Y166
G2 X551.05 Y163.5 I-2.5 J0
G1 X116.45
G2 X113.95 Y166 I0 J2.5
G1 Y225.211
X113.45 Y225.711
Z-12 F333.3
G19 G2 Y225.211 Z-12.5 J-0.5 K0 F1000
G1 Y224.711
G17 G3 X113.95 Y225.211 I0 J0.5
G1 Y279.75
G2 X116.45 Y282.25 I2.5 J0
G1 X551.05
G2 X553.55 Y279.75 I0 J-2.5
G1 Y166
G2 X551.05 Y163.5 I-2.5 J0
G1 X116.45
G2 X113.95 Y166 I0 J2.5
G1 Y225.211
G0 Z5
X61.815 Y177.433
G1 Z-4.5 F333.3
X61.808 Z-4.587 F1000
X61.785 Y177.435 Z-4.671
X61.748 Y177.438 Z-4.75
X61.699 Y177.443 Z-4.821
X61.637 Y177.448 Z-4.883
X61.566 Y177.455 Z-4.933
X61.487 Y177.462 Z-4.97
X61.404 Y177.469 Z-4.992
X61.317 Y177.477 Z-5
X60.819 Y177.521
G3 X61.273 Y176.979 I0.498 J-0.044
G1 X62.114 Y176.904
X62.152 Y176.901
X63.309 Y176.781
X63.352 Y176.776
X64.5 Y176.637
X64.543 Y176.631
X65.682 Y176.473
X65.721 Y176.468
X66.851 Y176.293
X66.893 Y176.286
X68.013 Y176.093
X68.055 Y176.085
X69.166 Y175.874
X69.206 Y175.866
X70.309 Y175.638
X70.351 Y175.629
X71.445 Y175.383
X71.485 Y175.374
X72.57 Y175.111
X72.613 Y175.1
X73.689 Y174.819
X73.725 Y174.809
X74.793 Y174.513
X74.836 Y174.501
X75.895 Y174.187
X75.933 Y174.175
X76.984 Y173.845
X77.022 Y173.833
X78.065 Y173.487
X78.103 Y173.474
X79.137 Y173.112
X79.174 Y173.099
X80.2 Y172.722
X80.238 Y172.707
X81.257 Y172.314
X81.292 Y172.3
X82.303 Y171.892
X82.337 Y171.878
X83.34 Y171.456
X83.376 Y171.441
X84.372 Y171.004
X84.405 Y170.99
X85.393 Y170.539
X85.428 Y170.522
X86.41 Y170.056
X86.438 Y170.043
X87.413 Y169.565
X87.445 Y169.549
X88.413 Y169.057
X88.443 Y169.041
X89.404 Y168.536
X89.434 Y168.52
X90.389 Y168.002
X90.414 Y167.988
X91.363 Y167.459
X91.391 Y167.443
X92.334 Y166.901
X92.359 Y166.887
X93.295 Y166.334
X93.321 Y166.318
X94.252 Y165.753
X94.276 Y165.738
X95.202 Y165.162
X95.224 Y165.149
X96.144 Y164.563
X96.165 Y164.549
X97.08 Y163.953
X97.101 Y163.939
X98.011 Y163.333
X98.032 Y163.319
X98.936 Y162.703
X98.954 Y162.691
X99.854 Y162.067
X99.882 Y162.047
X101.669 Y160.772
X101.702 Y160.749
X103.473 Y159.442
X103.502 Y159.42
X105.258 Y158.084
X105.283 Y158.064
X107.026 Y156.702
X107.048 Y156.685
X108.78 Y155.301
X108.798 Y155.286
X110.52 Y153.883
X110.536 Y153.87
X112.249 Y152.45
X112.261 Y152.44
X113.968 Y151.008
X113.977 Y151
X115.679 Y149.558
X115.687 Y149.552
X119.082 Y146.651
X122.474 Y143.753
X124.167 Y142.318
X125.864 Y140.895
X127.563 Y139.486
X129.268 Y138.097
X130.979 Y136.73
X132.699 Y135.386
X134.428 Y134.071
X136.168 Y132.786
X137.925 Y131.533
X138.803 Y130.925
X139.688 Y130.322
X140.578 Y129.73
X141.47 Y129.147
X142.368 Y128.575
X143.27 Y128.014
X144.176 Y127.464
X145.087 Y126.926
X146.004 Y126.399
X146.925 Y125.885
X147.853 Y125.382
X148.784 Y124.893
X149.721 Y124.417
X150.665 Y123.954
X151.616 Y123.503
X152.571 Y123.067
X153.533 Y122.645
X154.502 Y122.237
X155.478 Y121.844
X156.46 Y121.465
X157.449 Y121.101
X158.446 Y120.752
X159.45 Y120.419
X160.463 Y120.101
X161.482 Y119.799
X162.509 Y119.514
X163.545 Y119.243
X164.589 Y118.991
X165.642 Y118.754
X166.702 Y118.534
X167.773 Y118.331
X168.852 Y118.145
X169.941 Y117.977
X171.039 Y117.824
X172.144 Y117.69
X173.262 Y117.575
X174.389 Y117.475
X175.523 Y117.394
X176.67 Y117.331
X177.825 Y117.286
X178.99 Y117.259
X180.176 Y117.25
X538.5
G2 X541 Y114.75 I0 J-2.5
G1 Y1
G2 X538.5 Y-1.5 I-2.5 J0
G1 X1
G2 X-1.5 Y1 I0 J2.5
G1 Y174.75
G2 X1 Y177.25 I2.5 J0
G1 X54.75
X54.769
X55.983 Y177.241
X56.022 Y177.24
X57.227 Y177.212
X57.268 Y177.211
X58.463 Y177.164
X58.502 Y177.162
X59.687 Y177.097
X59.729 Y177.095
X60.905 Y177.011
X60.947 Y177.007
X61.273 Y176.979
X61.815 Y177.433
Z-9.5 F333.3
X61.808 Z-9.587 F1000
X61.785 Y177.435 Z-9.671
X61.748 Y177.438 Z-9.75
X61.699 Y177.443 Z-9.821
X61.637 Y177.448 Z-9.883
X61.566 Y177.455 Z-9.933
X61.487 Y177.462 Z-9.97
X61.404 Y177.469 Z-9.992
X61.317 Y177.477 Z-10
X60.819 Y177.521
G3 X61.273 Y176.979 I0.498 J-0.044
G1 X62.114 Y176.904
X62.152 Y176.901
X63.309 Y176.781
X63.352 Y176.776
X64.5 Y176.637
X64.543 Y176.631
X65.682 Y176.473
X65.721 Y176.468
X66.851 Y176.293
X66.893 Y176.286
X68.013 Y176.093
X68.055 Y176.085
X69.166 Y175.874
X69.206 Y175.866
X70.309 Y175.638
X70.351 Y175.629
X71.445 Y175.383
X71.485 Y175.374
X72.57 Y175.111
X72.613 Y175.1
X73.689 Y174.819
X73.725 Y174.809
X74.793 Y174.513
X74.836 Y174.501
X75.895 Y174.187
X75.933 Y174.175
X76.984 Y173.845
X77.022 Y173.833
X78.065 Y173.487
X78.103 Y173.474
X79.137 Y173.112
X79.174 Y173.099
X80.2 Y172.722
X80.238 Y172.707
X81.257 Y172.314
X81.292 Y172.3
X82.303 Y171.892
X82.337 Y171.878
X83.34 Y171.456
X83.376 Y171.441
X84.372 Y171.004
X84.405 Y170.99
X85.393 Y170.539
X85.428 Y170.522
X86.41 Y170.056
X86.438 Y170.043
X87.413 Y169.565
X87.445 Y169.549
X88.413 Y169.057
X88.443 Y169.041
X89.404 Y168.536
X89.434 Y168.52
X90.389 Y168.002
X90.414 Y167.988
X91.363 Y167.459
X91.391 Y167.443
X92.334 Y166.901
X92.359 Y166.887
X93.295 Y166.334
X93.321 Y166.318
X94.252 Y165.753
X94.276 Y165.738
X95.202 Y165.162
X95.224 Y165.149
X96.144 Y164.563
X96.165 Y164.549
X97.08 Y163.953
X97.101 Y163.939
X98.011 Y163.333
X98.032 Y163.319
X98.936 Y162.703
X98.954 Y162.691
X99.854 Y162.067
X99.882 Y162.047
X101.669 Y160.772
X101.702 Y160.749
X103.473 Y159.442
X103.502 Y159.42
X105.258 Y158.084
X105.283 Y158.064
X107.026 Y156.702
X107.048 Y156.685
X108.78 Y155.301
X108.798 Y155.286
X110.52 Y153.883
X110.536 Y153.87
X112.249 Y152.45
X112.261 Y152.44
X113.968 Y151.008
X113.977 Y151
X115.679 Y149.558
X115.687 Y149.552
X119.082 Y146.651
X122.474 Y143.753
X124.167 Y142.318
X125.864 Y140.895
X127.563 Y139.486
X129.268 Y138.097
X130.979 Y136.73
X132.699 Y135.386
X134.428 Y134.071
X136.168 Y132.786
X137.925 Y131.533
X138.803 Y130.925
X139.688 Y130.322
X140.578 Y129.73
X141.47 Y129.147
X142.368 Y128.575
X143.27 Y128.014
X144.176 Y127.464
X145.087 Y126.926
X146.004 Y126.399
X146.925 Y125.885
X147.853 Y125.382
X148.784 Y124.893
X149.721 Y124.417
X150.665 Y123.954
X151.616 Y123.503
X152.571 Y123.067
X153.533 Y122.645
X154.502 Y122.237
X155.478 Y121.844
X156.46 Y121.465
X157.449 Y121.101
X158.446 Y120.752
X159.45 Y120.419
X160.463 Y120.101
X161.482 Y119.799
X162.509 Y119.514
X163.545 Y119.243
X164.589 Y118.991
X165.642 Y118.754
X166.702 Y118.534
X167.773 Y118.331
X168.852 Y118.145
X169.941 Y117.977
X171.039 Y117.824
X172.144 Y117.69
X173.262 Y117.575
X174.389 Y117.475
X175.523 Y117.394
X176.67 Y117.331
X177.825 Y117.286
X178.99 Y117.259
X180.176 Y117.25
X538.5
G2 X541 Y114.75 I0 J-2.5
G1 Y1
G2 X538.5 Y-1.5 I-2.5 J0
G1 X1
G2 X-1.5 Y1 I0 J2.5
G1 Y174.75
G2 X1 Y177.25 I2.5 J0
G1 X54.75
X54.769
X55.983 Y177.241
X56.022 Y177.24
X57.227 Y177.212
X57.268 Y177.211
X58.463 Y177.164
X58.502 Y177.162
X59.687 Y177.097
X59.729 Y177.095
X60.905 Y177.011
X60.947 Y177.007
X61.273 Y176.979
X61.815 Y177.433
Z-12 F333.3
X61.808 Z-12.087 F1000
X61.785 Y177.435 Z-12.171
X61.748 Y177.438 Z-12.25
X61.699 Y177.443 Z-12.321
X61.637 Y177.448 Z-12.383
X61.566 Y177.455 Z-12.433
X61.487 Y177.462 Z-12.47
X61.404 Y177.469 Z-12.492
X61.317 Y177.477 Z-12.5
X60.819 Y177.521
G3 X61.273 Y176.979 I0.498 J-0.044
G1 X62.114 Y176.904
X62.152 Y176.901
X63.309 Y176.781
X63.352 Y176.776
X64.5 Y176.637
X64.543 Y176.631
X65.682 Y176.473
X65.721 Y176.468
X66.851 Y176.293
X66.893 Y176.286
X68.013 Y176.093
X68.055 Y176.085
X69.166 Y175.874
X69.206 Y175.866
X70.309 Y175.638
X70.351 Y175.629
X71.445 Y175.383
X71.485 Y175.374
X72.57 Y175.111
X72.613 Y175.1
X73.689 Y174.819
X73.725 Y174.809
X74.793 Y174.513
X74.836 Y174.501
X75.895 Y174.187
X75.933 Y174.175
X76.984 Y173.845
X77.022 Y173.833
X78.065 Y173.487
X78.103 Y173.474
X79.137 Y173.112
X79.174 Y173.099
X80.2 Y172.722
X80.238 Y172.707
X81.257 Y172.314
X81.292 Y172.3
X82.303 Y171.892
X82.337 Y171.878
X83.34 Y171.456
X83.376 Y171.441
X84.372 Y171.004
X84.405 Y170.99
X85.393 Y170.539
X85.428 Y170.522
X86.41 Y170.056
X86.438 Y170.043
X87.413 Y169.565
X87.445 Y169.549
X88.413 Y169.057
X88.443 Y169.041
X89.404 Y168.536
X89.434 Y168.52
X90.389 Y168.002
X90.414 Y167.988
X91.363 Y167.459
X91.391 Y167.443
X92.334 Y166.901
X92.359 Y166.887
X93.295 Y166.334
X93.321 Y166.318
X94.252 Y165.753
X94.276 Y165.738
X95.202 Y165.162
X95.224 Y165.149
X96.144 Y164.563
X96.165 Y164.549
X97.08 Y163.953
X97.101 Y163.939
X98.011 Y163.333
X98.032 Y163.319
X98.936 Y162.703
X98.954 Y162.691
X99.854 Y162.067
X99.882 Y162.047
X101.669 Y160.772
X101.702 Y160.749
X103.473 Y159.442
X103.502 Y159.42
X105.258 Y158.084
X105.283 Y158.064
X107.026 Y156.702
X107.048 Y156.685
X108.78 Y155.301
X108.798 Y155.286
X110.52 Y153.883
X110.536 Y153.87
X112.249 Y152.45
X112.261 Y152.44
X113.968 Y151.008
X113.977 Y151
X115.679 Y149.558
X115.687 Y149.552
X119.082 Y146.651
X122.474 Y143.753
X124.167 Y142.318
X125.864 Y140.895
X127.563 Y139.486
X129.268 Y138.097
X130.979 Y136.73
X132.699 Y135.386
X134.428 Y134.071
X136.168 Y132.786
X137.925 Y131.533
X138.803 Y130.925
X139.688 Y130.322
X140.578 Y129.73
X141.47 Y129.147
X142.368 Y128.575
X143.27 Y128.014
X144.176 Y127.464
X145.087 Y126.926
X146.004 Y126.399
X146.925 Y125.885
X147.853 Y125.382
X148.784 Y124.893
X149.721 Y124.417
X150.665 Y123.954
X151.616 Y123.503
X152.571 Y123.067
X153.533 Y122.645
X154.502 Y122.237
X155.478 Y121.844
X156.46 Y121.465
X157.449 Y121.101
X158.446 Y120.752
X159.45 Y120.419
X160.463 Y120.101
X161.482 Y119.799
X162.509 Y119.514
X163.545 Y119.243
X164.589 Y118.991
X165.642 Y118.754
X166.702 Y118.534
X167.773 Y118.331
X168.852 Y118.145
X169.941 Y117.977
X171.039 Y117.824
X172.144 Y117.69
X173.262 Y117.575
X174.389 Y117.475
X175.523 Y117.394
X176.67 Y117.331
X177.825 Y117.286
X178.99 Y117.259
X180.176 Y117.25
X538.5
G2 X541 Y114.75 I0 J-2.5
G1 Y1
G2 X538.5 Y-1.5 I-2.5 J0
G1 X1
G2 X-1.5 Y1 I0 J2.5
G1 Y174.75
G2 X1 Y177.25 I2.5 J0
G1 X54.75
X54.769
X55.983 Y177.241
X56.022 Y177.24
X57.227 Y177.212
X57.268 Y177.211
X58.463 Y177.164
X58.502 Y177.162
X59.687 Y177.097
X59.729 Y177.095
X60.905 Y177.011
X60.947 Y177.007
X61.273 Y176.979
G0 Z5
X49.45 Y476.5
G1 Z-4.5 F333.3
G19 G2 Y476 Z-5 J-0.5 K0 F1000
G1 Y475.5
G17 G3 X49.95 Y476 I0 J0.5
G1 Y649.75
G2 X52.45 Y652.25 I2.5 J0
G1 X487.05
G2 X489.55 Y649.75 I0 J-2.5
G1 Y476
G2 X487.05 Y473.5 I-2.5 J0
G1 X52.45
G2 X49.95 Y476 I0 J2.5
G1 X49.45 Y476.5
Z-9.5 F333.3
G19 G2 Y476 Z-10 J-0.5 K0 F1000
G1 Y475.5
G17 G3 X49.95 Y476 I0 J0.5
G1 Y649.75
G2 X52.45 Y652.25 I2.5 J0
G1 X487.05
G2 X489.55 Y649.75 I0 J-2.5
G1 Y476
G2 X487.05 Y473.5 I-2.5 J0
G1 X52.45
G2 X49.95 Y476 I0 J2.5
G1 X49.45 Y476.5
Z-12 F333.3
G19 G2 Y476 Z-12.5 J-0.5 K0 F1000
G1 Y475.5
G17 G3 X49.95 Y476 I0 J0.5
G1 Y649.75
G2 X52.45 Y652.25 I2.5 J0
G1 X487.05
G2 X489.55 Y649.75 I0 J-2.5
G1 Y476
G2 X487.05 Y473.5 I-2.5 J0
G1 X52.45
G2 X49.95 Y476 I0 J2.5
G0 Z15
M9
G28 G91 Z0
G90
G28 G91 X0 Y0
G90
M5
M30
