(CamperSchubladeDosenhalter)
(T4  D=5 CR=0 - ZMIN=-20 - flat end mill)
G90 G94
G17
G21

(2D Contour1)
T4
S5000 M3
G54
M8
G0 X97.267 Y56.324
Z15
Z5
G1 Z-4.5 F333.3
G18 G2 X97.767 Z-5 I0.5 K0 F1000
G1 X98.267
G17 G3 X98.767 Y56.824 I0 J0.5
G1 Y128.824
G3 X92.267 Y135.324 I-6.5 J0
G1 X26.267
G3 X19.767 Y128.824 I0 J-6.5
G1 Y23.824
G3 X26.267 Y17.324 I6.5 J0
G1 X92.267
G3 X98.767 Y23.824 I0 J6.5
G1 Y56.824
G3 X98.267 Y57.324 I-0.5 J0
G1 X97.767
G18 G3 X97.267 Z-4.5 I0 K0.5
G0 Z5
Y56.324
G1 Z0 F333.3
Z-9.5
G2 X97.767 Z-10 I0.5 K0 F1000
G1 X98.267
G17 G3 X98.767 Y56.824 I0 J0.5
G1 Y128.824
G3 X92.267 Y135.324 I-6.5 J0
G1 X26.267
G3 X19.767 Y128.824 I0 J-6.5
G1 Y23.824
G3 X26.267 Y17.324 I6.5 J0
G1 X92.267
G3 X98.767 Y23.824 I0 J6.5
G1 Y56.824
G3 X98.267 Y57.324 I-0.5 J0
G1 X97.767
G18 G3 X97.267 Z-9.5 I0 K0.5
G0 Z5
Y56.324
G1 Z-5 F333.3
Z-14.5
G2 X97.767 Z-15 I0.5 K0 F1000
G1 X98.267
G17 G3 X98.767 Y56.824 I0 J0.5
G1 Y128.824
G3 X92.267 Y135.324 I-6.5 J0
G1 X26.267
G3 X19.767 Y128.824 I0 J-6.5
G1 Y23.824
G3 X26.267 Y17.324 I6.5 J0
G1 X92.267
G3 X98.767 Y23.824 I0 J6.5
G1 Y56.824
G3 X98.267 Y57.324 I-0.5 J0
G1 X97.767
G18 G3 X97.267 Z-14.5 I0 K0.5
G0 Z5
Y56.324
G1 Z-10 F333.3
Z-19.5
G2 X97.767 Z-20 I0.5 K0 F1000
G1 X98.267
G17 G3 X98.767 Y56.824 I0 J0.5
G1 Y128.824
G3 X92.267 Y135.324 I-6.5 J0
G1 X26.267
G3 X19.767 Y128.824 I0 J-6.5
G1 Y23.824
G3 X26.267 Y17.324 I6.5 J0
G1 X92.267
G3 X98.767 Y23.824 I0 J6.5
G1 Y56.824
G3 X98.267 Y57.324 I-0.5 J0
G1 X97.767
G18 G3 X97.267 Z-19.5 I0 K0.5
G0 Z15
G17
M9
M5
M30
