(CamperSchmutzfangerGross)
(T4 D=5 CR=0 - ZMIN=-6 - flat end mill)
G90 G94
G17
G21
(-Attention- Property Safe Retracts is set to Clearance Height.)
(Ensure the clearance height will clear the part and or fixtures.)
(Raise the Z-axis to a safe height before starting the program.)

(Circular1)
T4
S5000 M3
G54
M8
G0 X36.25 Y336.5
Z15
G0 Z1
G1 Z-0.5 F1000
G18 G3 X35.75 Z-1 I-0.5 K0
G1 X35.5
G17 G3 X35 Y336 I0 J-0.5
X37 Y336 I1 J0
X35 Y336 I-1 J0
X35.5 Y335.5 I0.5 J0
G1 X35.75
G18 G2 X36.25 Z-0.5 I0 K0.5
G0 Z5
Y336.5
Z0
G1 Z-1.5 F1000
G3 X35.75 Z-2 I-0.5 K0
G1 X35.5
G17 G3 X35 Y336 I0 J-0.5
X37 Y336 I1 J0
X35 Y336 I-1 J0
X35.5 Y335.5 I0.5 J0
G1 X35.75
G18 G2 X36.25 Z-1.5 I0 K0.5
G0 Z5
Y336.5
Z-1
G1 Z-2.5 F1000
G3 X35.75 Z-3 I-0.5 K0
G1 X35.5
G17 G3 X35 Y336 I0 J-0.5
X37 Y336 I1 J0
X35 Y336 I-1 J0
X35.5 Y335.5 I0.5 J0
G1 X35.75
G18 G2 X36.25 Z-2.5 I0 K0.5
G0 Z5
Y336.5
Z-2
G1 Z-3.5 F1000
G3 X35.75 Z-4 I-0.5 K0
G1 X35.5
G17 G3 X35 Y336 I0 J-0.5
X37 Y336 I1 J0
X35 Y336 I-1 J0
X35.5 Y335.5 I0.5 J0
G1 X35.75
G18 G2 X36.25 Z-3.5 I0 K0.5
G0 Z5
Y336.5
Z-3
G1 Z-4.5 F1000
G3 X35.75 Z-5 I-0.5 K0
G1 X35.5
G17 G3 X35 Y336 I0 J-0.5
X37 Y336 I1 J0
X35 Y336 I-1 J0
X35.5 Y335.5 I0.5 J0
G1 X35.75
G18 G2 X36.25 Z-4.5 I0 K0.5
G0 Z5
Y336.5
Z-3.5
G1 Z-5 F1000
G3 X35.75 Z-5.5 I-0.5 K0
G1 X35.5
G17 G3 X35 Y336 I0 J-0.5
X37 Y336 I1 J0
X35 Y336 I-1 J0
X35.5 Y335.5 I0.5 J0
G1 X35.75
G18 G2 X36.25 Z-5 I0 K0.5
G0 Z5
Y336.5
Z-4
G1 Z-5.5 F1000
G3 X35.75 Z-6 I-0.5 K0
G1 X35.5
G17 G3 X35 Y336 I0 J-0.5
X37 Y336 I1 J0
X35 Y336 I-1 J0
X35.5 Y335.5 I0.5 J0
G1 X35.75
G18 G2 X36.25 Z-5.5 I0 K0.5
G0 Z5
X110.25 Y336.5
Z1
G1 Z-0.5 F1000
G3 X109.75 Z-1 I-0.5 K0
G1 X109.5
G17 G3 X109 Y336 I0 J-0.5
X111 Y336 I1 J0
X109 Y336 I-1 J0
X109.5 Y335.5 I0.5 J0
G1 X109.75
G18 G2 X110.25 Z-0.5 I0 K0.5
G0 Z5
Y336.5
Z0
G1 Z-1.5 F1000
G3 X109.75 Z-2 I-0.5 K0
G1 X109.5
G17 G3 X109 Y336 I0 J-0.5
X111 Y336 I1 J0
X109 Y336 I-1 J0
X109.5 Y335.5 I0.5 J0
G1 X109.75
G18 G2 X110.25 Z-1.5 I0 K0.5
G0 Z5
Y336.5
Z-1
G1 Z-2.5 F1000
G3 X109.75 Z-3 I-0.5 K0
G1 X109.5
G17 G3 X109 Y336 I0 J-0.5
X111 Y336 I1 J0
X109 Y336 I-1 J0
X109.5 Y335.5 I0.5 J0
G1 X109.75
G18 G2 X110.25 Z-2.5 I0 K0.5
G0 Z5
Y336.5
Z-2
G1 Z-3.5 F1000
G3 X109.75 Z-4 I-0.5 K0
G1 X109.5
G17 G3 X109 Y336 I0 J-0.5
X111 Y336 I1 J0
X109 Y336 I-1 J0
X109.5 Y335.5 I0.5 J0
G1 X109.75
G18 G2 X110.25 Z-3.5 I0 K0.5
G0 Z5
Y336.5
Z-3
G1 Z-4.5 F1000
G3 X109.75 Z-5 I-0.5 K0
G1 X109.5
G17 G3 X109 Y336 I0 J-0.5
X111 Y336 I1 J0
X109 Y336 I-1 J0
X109.5 Y335.5 I0.5 J0
G1 X109.75
G18 G2 X110.25 Z-4.5 I0 K0.5
G0 Z5
Y336.5
Z-3.5
G1 Z-5 F1000
G3 X109.75 Z-5.5 I-0.5 K0
G1 X109.5
G17 G3 X109 Y336 I0 J-0.5
X111 Y336 I1 J0
X109 Y336 I-1 J0
X109.5 Y335.5 I0.5 J0
G1 X109.75
G18 G2 X110.25 Z-5 I0 K0.5
G0 Z5
Y336.5
Z-4
G1 Z-5.5 F1000
G3 X109.75 Z-6 I-0.5 K0
G1 X109.5
G17 G3 X109 Y336 I0 J-0.5
X111 Y336 I1 J0
X109 Y336 I-1 J0
X109.5 Y335.5 I0.5 J0
G1 X109.75
G18 G2 X110.25 Z-5.5 I0 K0.5
G0 Z5
X184.25 Y336.5
Z1
G1 Z-0.5 F1000
G3 X183.75 Z-1 I-0.5 K0
G1 X183.5
G17 G3 X183 Y336 I0 J-0.5
X185 Y336 I1 J0
X183 Y336 I-1 J0
X183.5 Y335.5 I0.5 J0
G1 X183.75
G18 G2 X184.25 Z-0.5 I0 K0.5
G0 Z5
Y336.5
Z0
G1 Z-1.5 F1000
G3 X183.75 Z-2 I-0.5 K0
G1 X183.5
G17 G3 X183 Y336 I0 J-0.5
X185 Y336 I1 J0
X183 Y336 I-1 J0
X183.5 Y335.5 I0.5 J0
G1 X183.75
G18 G2 X184.25 Z-1.5 I0 K0.5
G0 Z5
Y336.5
Z-1
G1 Z-2.5 F1000
G3 X183.75 Z-3 I-0.5 K0
G1 X183.5
G17 G3 X183 Y336 I0 J-0.5
X185 Y336 I1 J0
X183 Y336 I-1 J0
X183.5 Y335.5 I0.5 J0
G1 X183.75
G18 G2 X184.25 Z-2.5 I0 K0.5
G0 Z5
Y336.5
Z-2
G1 Z-3.5 F1000
G3 X183.75 Z-4 I-0.5 K0
G1 X183.5
G17 G3 X183 Y336 I0 J-0.5
X185 Y336 I1 J0
X183 Y336 I-1 J0
X183.5 Y335.5 I0.5 J0
G1 X183.75
G18 G2 X184.25 Z-3.5 I0 K0.5
G0 Z5
Y336.5
Z-3
G1 Z-4.5 F1000
G3 X183.75 Z-5 I-0.5 K0
G1 X183.5
G17 G3 X183 Y336 I0 J-0.5
X185 Y336 I1 J0
X183 Y336 I-1 J0
X183.5 Y335.5 I0.5 J0
G1 X183.75
G18 G2 X184.25 Z-4.5 I0 K0.5
G0 Z5
Y336.5
Z-3.5
G1 Z-5 F1000
G3 X183.75 Z-5.5 I-0.5 K0
G1 X183.5
G17 G3 X183 Y336 I0 J-0.5
X185 Y336 I1 J0
X183 Y336 I-1 J0
X183.5 Y335.5 I0.5 J0
G1 X183.75
G18 G2 X184.25 Z-5 I0 K0.5
G0 Z5
Y336.5
Z-4
G1 Z-5.5 F1000
G3 X183.75 Z-6 I-0.5 K0
G1 X183.5
G17 G3 X183 Y336 I0 J-0.5
X185 Y336 I1 J0
X183 Y336 I-1 J0
X183.5 Y335.5 I0.5 J0
G1 X183.75
G18 G2 X184.25 Z-5.5 I0 K0.5
G0 Z5
X258.25 Y336.5
Z1
G1 Z-0.5 F1000
G3 X257.75 Z-1 I-0.5 K0
G1 X257.5
G17 G3 X257 Y336 I0 J-0.5
X259 Y336 I1 J0
X257 Y336 I-1 J0
X257.5 Y335.5 I0.5 J0
G1 X257.75
G18 G2 X258.25 Z-0.5 I0 K0.5
G0 Z5
Y336.5
Z0
G1 Z-1.5 F1000
G3 X257.75 Z-2 I-0.5 K0
G1 X257.5
G17 G3 X257 Y336 I0 J-0.5
X259 Y336 I1 J0
X257 Y336 I-1 J0
X257.5 Y335.5 I0.5 J0
G1 X257.75
G18 G2 X258.25 Z-1.5 I0 K0.5
G0 Z5
Y336.5
Z-1
G1 Z-2.5 F1000
G3 X257.75 Z-3 I-0.5 K0
G1 X257.5
G17 G3 X257 Y336 I0 J-0.5
X259 Y336 I1 J0
X257 Y336 I-1 J0
X257.5 Y335.5 I0.5 J0
G1 X257.75
G18 G2 X258.25 Z-2.5 I0 K0.5
G0 Z5
Y336.5
Z-2
G1 Z-3.5 F1000
G3 X257.75 Z-4 I-0.5 K0
G1 X257.5
G17 G3 X257 Y336 I0 J-0.5
X259 Y336 I1 J0
X257 Y336 I-1 J0
X257.5 Y335.5 I0.5 J0
G1 X257.75
G18 G2 X258.25 Z-3.5 I0 K0.5
G0 Z5
Y336.5
Z-3
G1 Z-4.5 F1000
G3 X257.75 Z-5 I-0.5 K0
G1 X257.5
G17 G3 X257 Y336 I0 J-0.5
X259 Y336 I1 J0
X257 Y336 I-1 J0
X257.5 Y335.5 I0.5 J0
G1 X257.75
G18 G2 X258.25 Z-4.5 I0 K0.5
G0 Z5
Y336.5
Z-3.5
G1 Z-5 F1000
G3 X257.75 Z-5.5 I-0.5 K0
G1 X257.5
G17 G3 X257 Y336 I0 J-0.5
X259 Y336 I1 J0
X257 Y336 I-1 J0
X257.5 Y335.5 I0.5 J0
G1 X257.75
G18 G2 X258.25 Z-5 I0 K0.5
G0 Z5
Y336.5
Z-4
G1 Z-5.5 F1000
G3 X257.75 Z-6 I-0.5 K0
G1 X257.5
G17 G3 X257 Y336 I0 J-0.5
X259 Y336 I1 J0
X257 Y336 I-1 J0
X257.5 Y335.5 I0.5 J0
G1 X257.75
G18 G2 X258.25 Z-5.5 I0 K0.5
G0 Z5
X332.25 Y336.5
Z1
G1 Z-0.5 F1000
G3 X331.75 Z-1 I-0.5 K0
G1 X331.5
G17 G3 X331 Y336 I0 J-0.5
X333 Y336 I1 J0
X331 Y336 I-1 J0
X331.5 Y335.5 I0.5 J0
G1 X331.75
G18 G2 X332.25 Z-0.5 I0 K0.5
G0 Z5
Y336.5
Z0
G1 Z-1.5 F1000
G3 X331.75 Z-2 I-0.5 K0
G1 X331.5
G17 G3 X331 Y336 I0 J-0.5
X333 Y336 I1 J0
X331 Y336 I-1 J0
X331.5 Y335.5 I0.5 J0
G1 X331.75
G18 G2 X332.25 Z-1.5 I0 K0.5
G0 Z5
Y336.5
Z-1
G1 Z-2.5 F1000
G3 X331.75 Z-3 I-0.5 K0
G1 X331.5
G17 G3 X331 Y336 I0 J-0.5
X333 Y336 I1 J0
X331 Y336 I-1 J0
X331.5 Y335.5 I0.5 J0
G1 X331.75
G18 G2 X332.25 Z-2.5 I0 K0.5
G0 Z5
Y336.5
Z-2
G1 Z-3.5 F1000
G3 X331.75 Z-4 I-0.5 K0
G1 X331.5
G17 G3 X331 Y336 I0 J-0.5
X333 Y336 I1 J0
X331 Y336 I-1 J0
X331.5 Y335.5 I0.5 J0
G1 X331.75
G18 G2 X332.25 Z-3.5 I0 K0.5
G0 Z5
Y336.5
Z-3
G1 Z-4.5 F1000
G3 X331.75 Z-5 I-0.5 K0
G1 X331.5
G17 G3 X331 Y336 I0 J-0.5
X333 Y336 I1 J0
X331 Y336 I-1 J0
X331.5 Y335.5 I0.5 J0
G1 X331.75
G18 G2 X332.25 Z-4.5 I0 K0.5
G0 Z5
Y336.5
Z-3.5
G1 Z-5 F1000
G3 X331.75 Z-5.5 I-0.5 K0
G1 X331.5
G17 G3 X331 Y336 I0 J-0.5
X333 Y336 I1 J0
X331 Y336 I-1 J0
X331.5 Y335.5 I0.5 J0
G1 X331.75
G18 G2 X332.25 Z-5 I0 K0.5
G0 Z5
Y336.5
Z-4
G1 Z-5.5 F1000
G3 X331.75 Z-6 I-0.5 K0
G1 X331.5
G17 G3 X331 Y336 I0 J-0.5
X333 Y336 I1 J0
X331 Y336 I-1 J0
X331.5 Y335.5 I0.5 J0
G1 X331.75
G18 G2 X332.25 Z-5.5 I0 K0.5
G0 Z5
X406.25 Y336.5
Z1
G1 Z-0.5 F1000
G3 X405.75 Z-1 I-0.5 K0
G1 X405.5
G17 G3 X405 Y336 I0 J-0.5
X407 Y336 I1 J0
X405 Y336 I-1 J0
X405.5 Y335.5 I0.5 J0
G1 X405.75
G18 G2 X406.25 Z-0.5 I0 K0.5
G0 Z5
Y336.5
Z0
G1 Z-1.5 F1000
G3 X405.75 Z-2 I-0.5 K0
G1 X405.5
G17 G3 X405 Y336 I0 J-0.5
X407 Y336 I1 J0
X405 Y336 I-1 J0
X405.5 Y335.5 I0.5 J0
G1 X405.75
G18 G2 X406.25 Z-1.5 I0 K0.5
G0 Z5
Y336.5
Z-1
G1 Z-2.5 F1000
G3 X405.75 Z-3 I-0.5 K0
G1 X405.5
G17 G3 X405 Y336 I0 J-0.5
X407 Y336 I1 J0
X405 Y336 I-1 J0
X405.5 Y335.5 I0.5 J0
G1 X405.75
G18 G2 X406.25 Z-2.5 I0 K0.5
G0 Z5
Y336.5
Z-2
G1 Z-3.5 F1000
G3 X405.75 Z-4 I-0.5 K0
G1 X405.5
G17 G3 X405 Y336 I0 J-0.5
X407 Y336 I1 J0
X405 Y336 I-1 J0
X405.5 Y335.5 I0.5 J0
G1 X405.75
G18 G2 X406.25 Z-3.5 I0 K0.5
G0 Z5
Y336.5
Z-3
G1 Z-4.5 F1000
G3 X405.75 Z-5 I-0.5 K0
G1 X405.5
G17 G3 X405 Y336 I0 J-0.5
X407 Y336 I1 J0
X405 Y336 I-1 J0
X405.5 Y335.5 I0.5 J0
G1 X405.75
G18 G2 X406.25 Z-4.5 I0 K0.5
G0 Z5
Y336.5
Z-3.5
G1 Z-5 F1000
G3 X405.75 Z-5.5 I-0.5 K0
G1 X405.5
G17 G3 X405 Y336 I0 J-0.5
X407 Y336 I1 J0
X405 Y336 I-1 J0
X405.5 Y335.5 I0.5 J0
G1 X405.75
G18 G2 X406.25 Z-5 I0 K0.5
G0 Z5
Y336.5
Z-4
G1 Z-5.5 F1000
G3 X405.75 Z-6 I-0.5 K0
G1 X405.5
G17 G3 X405 Y336 I0 J-0.5
X407 Y336 I1 J0
X405 Y336 I-1 J0
X405.5 Y335.5 I0.5 J0
G1 X405.75
G18 G2 X406.25 Z-5.5 I0 K0.5
G0 Z15
G17

(2D Contour2)
G0 X-3 Y175.5
Z15
Z5
G1 Z3 F333.3
Z-1.5
G18 G2 X-2.5 Z-2 I0.5 K0 F1000
G1 X-2
G17 G3 X-1.5 Y176 I0 J0.5
G1 Y351
G2 X1 Y353.5 I2.5 J0
G1 X441
G2 X443.5 Y351 I0 J-2.5
G1 Y41
G2 X401 Y-1.5 I-42.5 J0
G1 X41
G2 X-1.5 Y41 I0 J42.5
G1 Y176
G3 X-2 Y176.5 I-0.5 J0
G1 X-2.5
G18 G3 X-3 Z-1.5 I0 K0.5
G0 Z5
Y175.5
G1 Z1 F333.3
Z-3.5
G2 X-2.5 Z-4 I0.5 K0 F1000
G1 X-2
G17 G3 X-1.5 Y176 I0 J0.5
G1 Y351
G2 X1 Y353.5 I2.5 J0
G1 X441
G2 X443.5 Y351 I0 J-2.5
G1 Y41
G2 X401 Y-1.5 I-42.5 J0
G1 X41
G2 X-1.5 Y41 I0 J42.5
G1 Y176
G3 X-2 Y176.5 I-0.5 J0
G1 X-2.5
G18 G3 X-3 Z-3.5 I0 K0.5
G0 Z5
Y175.5
G1 Z-1 F333.3
Z-5.5
G2 X-2.5 Z-6 I0.5 K0 F1000
G1 X-2
G17 G3 X-1.5 Y176 I0 J0.5
G1 Y351
G2 X1 Y353.5 I2.5 J0
G1 X441
G2 X443.5 Y351 I0 J-2.5
G1 Y41
G2 X401 Y-1.5 I-42.5 J0
G1 X41
G2 X-1.5 Y41 I0 J42.5
G1 Y176
G3 X-2 Y176.5 I-0.5 J0
G1 X-2.5
G18 G3 X-3 Z-5.5 I0 K0.5
G0 Z15
G17
M9
M5
M30
