(CamperSpueleSchraȈge)
(T3  D=3 CR=0 - ZMIN=-25.851 - flat end mill)
G90 G94
G17
G21

(Parallel1)
T3
S5000 M3
G54
M8
G0 X166.17 Y148.736
Z15
Z-3.466
G1 Z-5.551 F333.3
G18 G2 X166.5 Z-5.85 I0.3 K0 F1000
G1 X264.989 Z3.999
X265.016 Z4.004
X265.041 Z4.014
X265.073 Z4.025
X265.107 Z4.029
G17 G2 X265.557 Y148.286 I0 J-0.45
G1 Y146.437
G2 X265.107 Y145.987 I-0.45 J0
G1 X265.073 Z4.025
X265.041 Z4.014
X265.016 Z4.004
X264.989 Z3.999
X166.5 Z-5.85
X166.459 Z-5.848
X166.419 Z-5.835
X166.387 Z-5.824
X166.353 Z-5.82
G3 X165.903 Y145.537 I0 J-0.45
G1 Y143.687
G3 X166.353 Y143.237 I0.45 J0
G1 X166.387 Z-5.824
X166.419 Z-5.835
X166.459 Z-5.848
X166.5 Z-5.85
X264.989 Z3.999
X264.99
X265.016 Z4.004
X265.041 Z4.014
X265.073 Z4.025
X265.107 Z4.029
G2 X265.557 Y142.787 I0 J-0.45
G1 Y140.937
G2 X265.107 Y140.487 I-0.45 J0
G1 X265.073 Z4.025
X265.041 Z4.014
X265.016 Z4.004
X264.989 Z3.999
X166.5 Z-5.85
X166.459 Z-5.848
X166.419 Z-5.835
X166.387 Z-5.824
X166.353 Z-5.82
G3 X165.903 Y140.037 I0 J-0.45
G1 Y138.188
G3 X166.353 Y137.738 I0.45 J0
G1 X166.387 Z-5.824
X166.419 Z-5.835
X166.459 Z-5.848
X166.5 Z-5.85
X264.989 Z3.999
X265.016 Z4.004
X265.041 Z4.014
X265.073 Z4.025
X265.107 Z4.029
G2 X265.557 Y137.287 I0 J-0.45
G1 Y135.438
G2 X265.107 Y134.988 I-0.45 J0
G1 X265.073 Z4.025
X265.041 Z4.014
X265.016 Z4.004
X264.989 Z3.999
X166.5 Z-5.85
X166.459 Z-5.848
X166.419 Z-5.835
X166.387 Z-5.824
X166.353 Z-5.82
G3 X165.903 Y134.538 I0 J-0.45
G1 Y132.688
G3 X166.353 Y132.238 I0.45 J0
G1 X166.387 Z-5.824
X166.419 Z-5.835
X166.459 Z-5.848
X166.5 Z-5.85
X264.989 Z3.999
X265.016 Z4.004
X265.041 Z4.014
X265.073 Z4.025
X265.107 Z4.029
G2 X265.557 Y131.788 I0 J-0.45
G1 Y129.938
G2 X265.107 Y129.488 I-0.45 J0
G1 X265.073 Z4.025
X265.041 Z4.014
X265.016 Z4.004
X264.989 Z3.999
X166.5 Z-5.85
X166.459 Z-5.848
X166.419 Z-5.835
X166.387 Z-5.824
X166.353 Z-5.82
G3 X165.903 Y129.038 I0 J-0.45
G1 Y127.188
G3 X166.353 Y126.738 I0.45 J0
G1 X166.387 Z-5.824
X166.419 Z-5.835
X166.459 Z-5.848
X166.5 Z-5.85
X264.989 Z3.999
X265.016 Z4.004
X265.041 Z4.014
X265.073 Z4.025
X265.107 Z4.029
G2 X265.557 Y126.288 I0 J-0.45
G1 Y124.439
G2 X265.107 Y123.989 I-0.45 J0
G1 X265.073 Z4.025
X265.041 Z4.014
X265.016 Z4.004
X264.989 Z3.999
X166.5 Z-5.85
X166.459 Z-5.848
X166.419 Z-5.835
X166.387 Z-5.824
X166.353 Z-5.82
G3 X165.903 Y123.539 I0 J-0.45
G1 Y121.689
G3 X166.353 Y121.239 I0.45 J0
G1 X166.387 Z-5.824
X166.419 Z-5.835
X166.459 Z-5.848
X166.5 Z-5.85
X264.989 Z3.999
X265.016 Z4.004
X265.041 Z4.014
X265.073 Z4.025
X265.107 Z4.029
G2 X265.557 Y120.789 I0 J-0.45
G1 Y118.939
G2 X265.107 Y118.489 I-0.45 J0
G1 X265.073 Z4.025
X265.041 Z4.014
X265.016 Z4.004
X264.989 Z3.999
X166.5 Z-5.85
X166.459 Z-5.848
X166.419 Z-5.835
X166.387 Z-5.824
X166.353 Z-5.82
G3 X165.903 Y118.039 I0 J-0.45
G1 Y116.189
G3 X166.353 Y115.739 I0.45 J0
G1 X166.387 Z-5.824
X166.419 Z-5.835
X166.459 Z-5.848
X166.5 Z-5.85
X264.989 Z3.999
X265.016 Z4.004
X265.041 Z4.014
X265.073 Z4.025
X265.107 Z4.029
G2 X265.557 Y115.289 I0 J-0.45
G1 Y113.44
G2 X265.107 Y112.99 I-0.45 J0
G1 X265.073 Z4.025
X265.041 Z4.014
X265.016 Z4.004
X264.989 Z3.999
X166.5 Z-5.85
X166.459 Z-5.848
X166.419 Z-5.835
X166.387 Z-5.824
X166.353 Z-5.82
G3 X165.903 Y112.54 I0 J-0.45
G1 Y110.69
G3 X166.353 Y110.24 I0.45 J0
G1 X166.387 Z-5.824
X166.419 Z-5.835
X166.459 Z-5.848
X166.5 Z-5.85
X264.989 Z3.999
X265.016 Z4.004
X265.041 Z4.014
X265.073 Z4.025
X265.107 Z4.029
G2 X265.557 Y109.79 I0 J-0.45
G1 Y107.94
G2 X265.107 Y107.49 I-0.45 J0
G1 X265.073 Z4.025
X265.041 Z4.014
X265.016 Z4.004
X264.989 Z3.999
X166.5 Z-5.85
X166.459 Z-5.848
X166.419 Z-5.835
X166.387 Z-5.824
X166.353 Z-5.82
G3 X165.903 Y107.04 I0 J-0.45
G1 Y105.19
G3 X166.353 Y104.74 I0.45 J0
G1 X166.387 Z-5.824
X166.419 Z-5.835
X166.459 Z-5.848
X166.5 Z-5.85
X264.989 Z3.999
X265.016 Z4.004
X265.041 Z4.014
X265.073 Z4.025
X265.107 Z4.029
G2 X265.557 Y104.29 I0 J-0.45
G1 Y102.441
G2 X265.107 Y101.991 I-0.45 J0
G1 X265.073 Z4.025
X265.041 Z4.014
X265.016 Z4.004
X264.989 Z3.999
X166.5 Z-5.85
X166.459 Z-5.848
X166.419 Z-5.835
X166.387 Z-5.824
X166.353 Z-5.82
G3 X165.903 Y101.541 I0 J-0.45
G1 Y99.691
G3 X166.353 Y99.241 I0.45 J0
G1 X166.387 Z-5.824
X166.419 Z-5.835
X166.459 Z-5.848
X166.5 Z-5.85
X264.989 Z3.999
X265.016 Z4.004
X265.041 Z4.014
X265.073 Z4.025
X265.107 Z4.029
G2 X265.557 Y98.791 I0 J-0.45
G1 Y96.941
G2 X265.107 Y96.491 I-0.45 J0
G1 X265.073 Z4.025
X265.041 Z4.014
X265.016 Z4.004
X264.989 Z3.999
X166.5 Z-5.85
X166.459 Z-5.848
X166.419 Z-5.835
X166.387 Z-5.824
X166.353 Z-5.82
G3 X165.903 Y96.041 I0 J-0.45
G1 Y94.191
G3 X166.353 Y93.741 I0.45 J0
G1 X166.387 Z-5.824
X166.419 Z-5.835
X166.459 Z-5.848
X166.5 Z-5.85
X264.989 Z3.999
X265.016 Z4.004
X265.041 Z4.014
X265.073 Z4.025
X265.107 Z4.029
G2 X265.557 Y93.291 I0 J-0.45
G1 Y91.442
G2 X265.107 Y90.992 I-0.45 J0
G1 X265.073 Z4.025
X265.041 Z4.014
X265.016 Z4.004
X264.989 Z3.999
X166.5 Z-5.85
X166.459 Z-5.848
X166.419 Z-5.835
X166.387 Z-5.824
X166.353 Z-5.82
G3 X165.903 Y90.542 I0 J-0.45
G1 Y88.692
G3 X166.353 Y88.242 I0.45 J0
G1 X166.387 Z-5.824
X166.419 Z-5.835
X166.459 Z-5.848
X166.5 Z-5.85
X264.989 Z3.999
X265.016 Z4.004
X265.041 Z4.014
X265.073 Z4.025
X265.107 Z4.029
G2 X265.557 Y87.792 I0 J-0.45
G1 Y85.942
G2 X265.107 Y85.492 I-0.45 J0
G1 X265.073 Z4.025
X265.041 Z4.014
X265.016 Z4.004
X264.989 Z3.999
X166.5 Z-5.85
X166.459 Z-5.848
X166.419 Z-5.835
X166.387 Z-5.824
X166.353 Z-5.82
G3 X165.903 Y85.042 I0 J-0.45
G1 Y83.192
G3 X166.353 Y82.742 I0.45 J0
G1 X166.387 Z-5.824
X166.419 Z-5.835
X166.459 Z-5.848
X166.5 Z-5.85
X264.989 Z3.999
X265.016 Z4.004
X265.041 Z4.014
X265.073 Z4.025
X265.107 Z4.029
G2 X265.557 Y82.292 I0 J-0.45
G1 Y80.443
G2 X265.107 Y79.993 I-0.45 J0
G1 X265.073 Z4.025
X265.041 Z4.014
X265.016 Z4.004
X264.989 Z3.999
X166.5 Z-5.85
X166.459 Z-5.848
X166.419 Z-5.835
X166.387 Z-5.824
X166.353 Z-5.82
G3 X165.903 Y79.543 I0 J-0.45
G1 Y77.693
G3 X166.353 Y77.243 I0.45 J0
G1 X166.387 Z-5.824
X166.419 Z-5.835
X166.459 Z-5.848
X166.5 Z-5.85
X264.989 Z3.999
X265.016 Z4.004
X265.041 Z4.014
X265.073 Z4.025
X265.107 Z4.029
G2 X265.557 Y76.793 I0 J-0.45
G1 Y74.943
G2 X265.107 Y74.493 I-0.45 J0
G1 X265.073 Z4.025
X265.041 Z4.014
X265.016 Z4.004
X264.989 Z3.999
X166.5 Z-5.85
X166.459 Z-5.848
X166.419 Z-5.835
X166.387 Z-5.824
X166.353 Z-5.82
G3 X165.903 Y74.043 I0 J-0.45
G1 Y72.193
G3 X166.353 Y71.743 I0.45 J0
G1 X166.387 Z-5.824
X166.419 Z-5.835
X166.459 Z-5.848
X166.5 Z-5.85
X264.989 Z3.999
X265.016 Z4.004
X265.041 Z4.014
X265.073 Z4.025
X265.107 Z4.029
G2 X265.557 Y71.293 I0 J-0.45
G1 Y69.444
G2 X265.107 Y68.994 I-0.45 J0
G1 X265.073 Z4.025
X265.041 Z4.014
X265.016 Z4.004
X264.989 Z3.999
X166.5 Z-5.85
X166.459 Z-5.848
X166.419 Z-5.835
X166.387 Z-5.824
X166.353 Z-5.82
G3 X165.903 Y68.544 I0 J-0.45
G1 Y66.694
G3 X166.353 Y66.244 I0.45 J0
G1 X166.387 Z-5.824
X166.419 Z-5.835
X166.459 Z-5.848
X166.5 Z-5.85
X264.989 Z3.999
X265.016 Z4.004
X265.041 Z4.014
X265.073 Z4.025
X265.107 Z4.029
G2 X265.557 Y65.794 I0 J-0.45
G1 Y63.944
G2 X265.107 Y63.494 I-0.45 J0
G1 X265.073 Z4.025
X265.041 Z4.014
X265.016 Z4.004
X264.989 Z3.999
X166.5 Z-5.85
X166.459 Z-5.848
X166.419 Z-5.835
X166.387 Z-5.824
X166.353 Z-5.82
G3 X165.903 Y63.044 I0 J-0.45
G1 Y61.194
G3 X166.353 Y60.744 I0.45 J0
G1 X166.387 Z-5.824
X166.419 Z-5.835
X166.459 Z-5.848
X166.5 Z-5.85
X264.989 Z3.999
X265.016 Z4.004
X265.041 Z4.014
X265.073 Z4.025
X265.107 Z4.029
G2 X265.557 Y60.294 I0 J-0.45
G1 Y58.445
G2 X265.107 Y57.995 I-0.45 J0
G1 X265.073 Z4.025
X265.041 Z4.014
X265.016 Z4.004
X264.989 Z3.999
X166.5 Z-5.85
X166.459 Z-5.848
X166.419 Z-5.835
X166.387 Z-5.824
X166.353 Z-5.82
G3 X165.903 Y57.545 I0 J-0.45
G1 Y55.695
G3 X166.353 Y55.245 I0.45 J0
G1 X166.387 Z-5.824
X166.419 Z-5.835
X166.459 Z-5.848
X166.5 Z-5.85
X264.989 Z3.999
X265.016 Z4.004
X265.041 Z4.014
X265.073 Z4.025
X265.107 Z4.029
G2 X265.557 Y54.795 I0 J-0.45
G1 Y52.945
G2 X265.107 Y52.495 I-0.45 J0
G1 X265.073 Z4.025
X265.041 Z4.014
X265.016 Z4.004
X264.989 Z3.999
X166.5 Z-5.85
X166.459 Z-5.848
X166.419 Z-5.835
X166.387 Z-5.824
X166.353 Z-5.82
G3 X165.903 Y52.045 I0 J-0.45
G1 Y50.195
G3 X166.353 Y49.745 I0.45 J0
G1 X166.387 Z-5.824
X166.419 Z-5.835
X166.459 Z-5.848
X166.5 Z-5.85
X264.989 Z3.999
X265.016 Z4.004
X265.041 Z4.014
X265.073 Z4.025
X265.107 Z4.029
G2 X265.557 Y49.295 I0 J-0.45
G1 Y47.446
G2 X265.107 Y46.996 I-0.45 J0
G1 X265.073 Z4.025
X265.041 Z4.014
X265.016 Z4.004
X264.989 Z3.999
X166.5 Z-5.85
X166.459 Z-5.848
X166.419 Z-5.835
X166.387 Z-5.824
X166.353 Z-5.82
G3 X165.903 Y46.546 I0 J-0.45
G1 Y44.696
G3 X166.353 Y44.246 I0.45 J0
G1 X166.387 Z-5.824
X166.419 Z-5.835
X166.459 Z-5.848
X166.5 Z-5.85
X264.989 Z3.999
X265.016 Z4.004
X265.041 Z4.014
X265.073 Z4.025
X265.107 Z4.029
G2 X265.557 Y43.796 I0 J-0.45
G1 Y41.946
G2 X265.107 Y41.496 I-0.45 J0
G1 X265.073 Z4.025
X265.041 Z4.014
X265.016 Z4.004
X264.989 Z3.999
X166.5 Z-5.85
X166.459 Z-5.848
X166.419 Z-5.835
X166.387 Z-5.824
X166.353 Z-5.82
G3 X165.903 Y41.046 I0 J-0.45
G1 Y39.196
G3 X166.353 Y38.746 I0.45 J0
G1 X166.387 Z-5.824
X166.419 Z-5.835
X166.459 Z-5.848
X166.5 Z-5.85
X264.989 Z3.999
X265.016 Z4.004
X265.041 Z4.014
X265.073 Z4.025
X265.107 Z4.029
G2 X265.557 Y38.296 I0 J-0.45
G1 Y36.447
G2 X265.107 Y35.997 I-0.45 J0
G1 X265.073 Z4.025
X265.041 Z4.014
X265.016 Z4.004
X264.989 Z3.999
X166.5 Z-5.85
X166.459 Z-5.848
X166.419 Z-5.835
X166.387 Z-5.824
X166.353 Z-5.82
G3 X165.903 Y35.547 I0 J-0.45
G1 Y33.697
G3 X166.353 Y33.247 I0.45 J0
G1 X166.387 Z-5.824
X166.419 Z-5.835
X166.459 Z-5.848
X166.5 Z-5.85
X264.989 Z3.999
X265.016 Z4.004
X265.041 Z4.014
X265.073 Z4.025
X265.107 Z4.029
G2 X265.557 Y32.797 I0 J-0.45
G1 Y30.947
G2 X265.107 Y30.497 I-0.45 J0
G1 X265.073 Z4.025
X265.041 Z4.014
X265.016 Z4.004
X264.989 Z3.999
X166.5 Z-5.85
X166.459 Z-5.848
X166.419 Z-5.835
X166.387 Z-5.824
X166.353 Z-5.82
G3 X165.903 Y30.047 I0 J-0.45
G1 Y28.197
G3 X166.353 Y27.747 I0.45 J0
G1 X166.387 Z-5.824
X166.419 Z-5.835
X166.459 Z-5.848
X166.5 Z-5.85
X264.989 Z3.999
X265.016 Z4.004
X265.041 Z4.014
X265.073 Z4.025
X265.107 Z4.029
G2 X265.557 Y27.297 I0 J-0.45
G1 Y25.448
G2 X265.107 Y24.998 I-0.45 J0
G1 X265.073 Z4.025
X265.041 Z4.014
X265.016 Z4.004
X264.989 Z3.999
X166.5 Z-5.85
X166.459 Z-5.848
X166.419 Z-5.835
X166.387 Z-5.824
X166.353 Z-5.82
G3 X165.903 Y24.548 I0 J-0.45
G1 Y22.698
G3 X166.353 Y22.248 I0.45 J0
G1 X166.387 Z-5.824
X166.419 Z-5.835
X166.459 Z-5.848
X166.5 Z-5.85
X264.989 Z3.999
X265.016 Z4.004
X265.041 Z4.014
X265.073 Z4.025
X265.107 Z4.029
G2 X265.557 Y21.798 I0 J-0.45
G1 Y19.948
G2 X265.107 Y19.498 I-0.45 J0
G1 X265.073 Z4.025
X265.041 Z4.014
X265.016 Z4.004
X264.989 Z3.999
X166.5 Z-5.85
X166.459 Z-5.848
X166.419 Z-5.835
X166.387 Z-5.824
X166.353 Z-5.82
G3 X165.903 Y19.048 I0 J-0.45
G1 Y17.198
G3 X166.353 Y16.748 I0.45 J0
G1 X166.387 Z-5.824
X166.419 Z-5.835
X166.459 Z-5.848
X166.5 Z-5.85
X264.989 Z3.999
X265.016 Z4.004
X265.041 Z4.014
X265.073 Z4.025
X265.107 Z4.029
G2 X265.557 Y16.298 I0 J-0.45
G1 Y14.449
G2 X265.107 Y13.999 I-0.45 J0
G1 X265.073 Z4.025
X265.041 Z4.014
X265.016 Z4.004
X264.989 Z3.999
X166.5 Z-5.85
X166.459 Z-5.848
X166.419 Z-5.835
X166.387 Z-5.824
X166.353 Z-5.82
G3 X165.903 Y13.549 I0 J-0.45
G1 Y11.699
G3 X166.353 Y11.249 I0.45 J0
G1 X166.387 Z-5.824
X166.419 Z-5.835
X166.459 Z-5.848
X166.5 Z-5.85
X264.989 Z3.999
X265.016 Z4.004
X265.041 Z4.014
X265.073 Z4.025
X265.107 Z4.029
G2 X265.557 Y10.799 I0 J-0.45
G1 Y8.949
G2 X265.107 Y8.499 I-0.45 J0
G1 X265.073 Z4.025
X265.041 Z4.014
X265.016 Z4.004
X264.989 Z3.999
X166.5 Z-5.85
X166.459 Z-5.848
X166.419 Z-5.835
X166.387 Z-5.824
X166.353 Z-5.82
G3 X165.903 Y8.049 I0 J-0.45
G1 Y6.199
G3 X166.353 Y5.749 I0.45 J0
G1 X166.387 Z-5.824
X166.419 Z-5.835
X166.459 Z-5.848
X166.5 Z-5.85
X264.989 Z3.999
X265.016 Z4.004
X265.041 Z4.014
X265.073 Z4.025
X265.107 Z4.029
G2 X265.557 Y5.299 I0 J-0.45
G1 Y3.45
G2 X265.107 Y3 I-0.45 J0
G1 X265.073 Z4.025
X265.041 Z4.014
X265.016 Z4.004
X264.989 Z3.999
X166.5 Z-5.85
X166.459 Z-5.848
X166.419 Z-5.835
X166.387 Z-5.824
X166.353 Z-5.82
G3 X165.903 Y2.55 I0 J-0.45
G1 Y0.7
G3 X166.353 Y0.25 I0.45 J0
G1 X166.387 Z-5.824
X166.419 Z-5.835
X166.459 Z-5.848
X166.5 Z-5.85
X264.989 Z3.999
X265.016 Z4.004
X265.041 Z4.014
X265.073 Z4.025
X265.107 Z4.029
G2 X265.557 Y-0.2 I0 J-0.45
G1 Y-2.05
G2 X265.107 Y-2.5 I-0.45 J0
G1 X265.073 Z4.025
X265.041 Z4.014
X265.016 Z4.004
X264.989 Z3.999
X166.5 Z-5.85
X166.459 Z-5.848
X166.419 Z-5.835
X166.387 Z-5.824
X166.353 Z-5.82
G3 X165.903 Y-2.95 I0 J-0.45
G1 Y-4.8
G3 X166.353 Y-5.25 I0.45 J0
G1 X166.387 Z-5.824
X166.419 Z-5.835
X166.459 Z-5.848
X166.5 Z-5.85
X264.989 Z3.999
X265.016 Z4.004
X265.041 Z4.014
X265.073 Z4.025
X265.107 Z4.029
G2 X265.557 Y-5.7 I0 J-0.45
G1 Y-7.549
G2 X265.107 Y-7.999 I-0.45 J0
G1 X265.073 Z4.025
X265.041 Z4.014
X265.016 Z4.004
X264.989 Z3.999
X166.5 Z-5.85
X166.459 Z-5.848
X166.419 Z-5.835
X166.387 Z-5.824
X166.353 Z-5.82
G3 X165.903 Y-8.449 I0 J-0.45
G1 Y-10.299
G3 X166.353 Y-10.749 I0.45 J0
G1 X166.387 Z-5.824
X166.419 Z-5.835
X166.459 Z-5.848
X166.5 Z-5.85
X264.989 Z3.999
X265.016 Z4.004
X265.041 Z4.014
X265.073 Z4.025
X265.107 Z4.029
G2 X265.557 Y-11.199 I0 J-0.45
G1 Y-13.049
G2 X265.107 Y-13.499 I-0.45 J0
G1 X265.073 Z4.025
X265.041 Z4.014
X265.016 Z4.004
X264.989 Z3.999
X166.5 Z-5.85
X166.459 Z-5.848
X166.419 Z-5.835
X166.387 Z-5.824
X166.353 Z-5.82
G3 X165.903 Y-13.949 I0 J-0.45
G1 Y-15.799
G3 X166.353 Y-16.249 I0.45 J0
G1 X166.387 Z-5.824
X166.419 Z-5.835
X166.459 Z-5.848
X166.5 Z-5.85
X264.989 Z3.999
X265.016 Z4.004
X265.041 Z4.014
X265.073 Z4.025
X265.107 Z4.029
G2 X265.557 Y-16.699 I0 J-0.45
G1 Y-18.548
G2 X265.107 Y-18.998 I-0.45 J0
G1 X265.073 Z4.025
X265.041 Z4.014
X265.016 Z4.004
X264.989 Z3.999
X166.5 Z-5.85
X166.459 Z-5.848
X166.419 Z-5.835
X166.387 Z-5.824
X166.353 Z-5.82
G3 X165.903 Y-19.448 I0 J-0.45
G1 Y-21.298
G3 X166.353 Y-21.748 I0.45 J0
G1 X166.387 Z-5.824
X166.419 Z-5.835
X166.459 Z-5.848
X166.5 Z-5.85
X264.989 Z3.999
X265.016 Z4.004
X265.041 Z4.014
X265.073 Z4.025
X265.107 Z4.029
G2 X265.557 Y-22.198 I0 J-0.45
G1 Y-24.048
G2 X265.107 Y-24.498 I-0.45 J0
G1 X265.073 Z4.025
X265.041 Z4.014
X265.016 Z4.004
X264.989 Z3.999
X166.5 Z-5.85
X166.459 Z-5.848
X166.419 Z-5.835
X166.387 Z-5.824
X166.353 Z-5.82
G3 X165.903 Y-24.948 I0 J-0.45
G1 Y-26.798
G3 X166.353 Y-27.248 I0.45 J0
G1 X166.387 Z-5.824
X166.419 Z-5.835
X166.459 Z-5.848
X166.5 Z-5.85
X264.989 Z3.999
X265.016 Z4.004
X265.041 Z4.014
X265.073 Z4.025
X265.107 Z4.029
G2 X265.557 Y-27.698 I0 J-0.45
G1 Y-29.547
G2 X265.107 Y-29.997 I-0.45 J0
G1 X265.073 Z4.025
X265.041 Z4.014
X265.016 Z4.004
X264.989 Z3.999
X166.5 Z-5.85
X166.459 Z-5.848
X166.419 Z-5.835
X166.387 Z-5.824
X166.353 Z-5.82
G3 X165.903 Y-30.447 I0 J-0.45
G1 Y-32.297
G3 X166.353 Y-32.747 I0.45 J0
G1 X166.387 Z-5.824
X166.419 Z-5.835
X166.459 Z-5.848
X166.5 Z-5.85
X264.989 Z3.999
X265.016 Z4.004
X265.041 Z4.014
X265.073 Z4.025
X265.107 Z4.029
G2 X265.557 Y-33.197 I0 J-0.45
G1 Y-35.047
G2 X265.107 Y-35.497 I-0.45 J0
G1 X265.073 Z4.025
X265.041 Z4.014
X265.016 Z4.004
X264.989 Z3.999
X166.5 Z-5.85
X166.459 Z-5.848
X166.419 Z-5.835
X166.387 Z-5.824
X166.353 Z-5.82
G3 X165.903 Y-35.947 I0 J-0.45
G1 Y-37.797
G3 X166.353 Y-38.247 I0.45 J0
G1 X166.387 Z-5.824
X166.419 Z-5.835
X166.459 Z-5.848
X166.5 Z-5.85
X264.989 Z3.999
X265.016 Z4.004
X265.041 Z4.014
X265.073 Z4.025
X265.107 Z4.029
G2 X265.557 Y-38.697 I0 J-0.45
G1 Y-40.546
G2 X265.107 Y-40.996 I-0.45 J0
G1 X265.073 Z4.025
X265.041 Z4.014
X265.016 Z4.004
X264.989 Z3.999
X166.5 Z-5.85
X166.459 Z-5.848
X166.419 Z-5.835
X166.387 Z-5.824
X166.353 Z-5.82
G3 X165.903 Y-41.446 I0 J-0.45
G1 Y-43.296
G3 X166.353 Y-43.746 I0.45 J0
G1 X166.387 Z-5.824
X166.419 Z-5.835
X166.459 Z-5.848
X166.5 Z-5.85
X264.989 Z3.999
X265.016 Z4.004
X265.041 Z4.014
X265.073 Z4.025
X265.107 Z4.029
G2 X265.557 Y-44.196 I0 J-0.45
G1 Y-46.046
G2 X265.107 Y-46.496 I-0.45 J0
G1 X265.073 Z4.025
X265.041 Z4.014
X265.016 Z4.004
X264.989 Z3.999
X166.5 Z-5.85
X166.459 Z-5.848
X166.419 Z-5.835
X166.387 Z-5.824
X166.353 Z-5.82
G3 X165.903 Y-46.946 I0 J-0.45
G1 Y-48.796
G3 X166.353 Y-49.246 I0.45 J0
G1 X166.387 Z-5.824
X166.419 Z-5.835
X166.459 Z-5.848
X166.5 Z-5.85
X264.989 Z3.999
X265.016 Z4.004
X265.041 Z4.014
X265.073 Z4.025
X265.107 Z4.029
G2 X265.557 Y-49.696 I0 J-0.45
G1 Y-51.545
G2 X265.107 Y-51.995 I-0.45 J0
G1 X265.073 Z4.025
X265.041 Z4.014
X265.016 Z4.004
X264.989 Z3.999
X166.5 Z-5.85
X166.459 Z-5.848
X166.419 Z-5.835
X166.387 Z-5.824
X166.353 Z-5.82
G3 X165.903 Y-52.445 I0 J-0.45
G1 Y-54.295
G3 X166.353 Y-54.745 I0.45 J0
G1 X166.387 Z-5.824
X166.419 Z-5.835
X166.459 Z-5.848
X166.5 Z-5.85
X264.989 Z3.999
X265.016 Z4.004
X265.041 Z4.014
X265.073 Z4.025
X265.107 Z4.029
G2 X265.557 Y-55.195 I0 J-0.45
G1 Y-57.045
G2 X265.107 Y-57.495 I-0.45 J0
G1 X265.073 Z4.025
X265.041 Z4.014
X265.016 Z4.004
X264.989 Z3.999
X166.5 Z-5.85
X166.459 Z-5.848
X166.419 Z-5.835
X166.387 Z-5.824
X166.353 Z-5.82
G3 X165.903 Y-57.945 I0 J-0.45
G1 Y-59.795
G3 X166.353 Y-60.245 I0.45 J0
G1 X166.387 Z-5.824
X166.419 Z-5.835
X166.459 Z-5.848
X166.5 Z-5.85
X264.989 Z3.999
X265.016 Z4.004
X265.041 Z4.014
X265.073 Z4.025
X265.107 Z4.029
G2 X265.557 Y-60.695 I0 J-0.45
G1 Y-62.544
G2 X265.107 Y-62.994 I-0.45 J0
G1 X265.073 Z4.025
X265.041 Z4.014
X265.016 Z4.004
X264.989 Z3.999
X166.5 Z-5.85
X166.459 Z-5.848
X166.419 Z-5.835
X166.387 Z-5.824
X166.353 Z-5.82
G3 X165.903 Y-63.444 I0 J-0.45
G1 Y-65.294
G3 X166.353 Y-65.744 I0.45 J0
G1 X166.387 Z-5.824
X166.419 Z-5.835
X166.459 Z-5.848
X166.5 Z-5.85
X264.989 Z3.999
X265.016 Z4.004
X265.041 Z4.014
X265.073 Z4.025
X265.107 Z4.029
G2 X265.557 Y-66.194 I0 J-0.45
G1 Y-68.044
G2 X265.107 Y-68.494 I-0.45 J0
G1 X265.073 Z4.025
X265.041 Z4.014
X265.016 Z4.004
X264.989 Z3.999
X166.5 Z-5.85
X166.459 Z-5.848
X166.419 Z-5.835
X166.387 Z-5.824
X166.353 Z-5.82
G3 X165.903 Y-68.944 I0 J-0.45
G1 Y-70.794
G3 X166.353 Y-71.244 I0.45 J0
G1 X166.387 Z-5.824
X166.419 Z-5.835
X166.459 Z-5.848
X166.5 Z-5.85
X264.989 Z3.999
X265.016 Z4.004
X265.041 Z4.014
X265.073 Z4.025
X265.107 Z4.029
G2 X265.557 Y-71.694 I0 J-0.45
G1 Y-73.543
G2 X265.107 Y-73.993 I-0.45 J0
G1 X265.073 Z4.025
X265.041 Z4.014
X265.016 Z4.004
X264.989 Z3.999
X166.5 Z-5.85
X166.459 Z-5.848
X166.419 Z-5.835
X166.387 Z-5.824
X166.353 Z-5.82
G3 X165.903 Y-74.443 I0 J-0.45
G1 Y-76.293
G3 X166.353 Y-76.743 I0.45 J0
G1 X166.387 Z-5.824
X166.419 Z-5.835
X166.459 Z-5.848
X166.5 Z-5.85
X264.989 Z3.999
X265.016 Z4.004
X265.041 Z4.014
X265.073 Z4.025
X265.107 Z4.029
G2 X265.557 Y-77.193 I0 J-0.45
G1 Y-79.043
G2 X265.107 Y-79.493 I-0.45 J0
G1 X265.073 Z4.025
X265.041 Z4.014
X265.016 Z4.004
X264.989 Z3.999
X166.5 Z-5.85
X166.459 Z-5.848
X166.419 Z-5.835
X166.387 Z-5.824
X166.353 Z-5.82
G3 X165.903 Y-79.943 I0 J-0.45
G1 Y-81.793
G3 X166.353 Y-82.243 I0.45 J0
G1 X166.387 Z-5.824
X166.419 Z-5.835
X166.459 Z-5.848
X166.5 Z-5.85
X264.989 Z3.999
X265.016 Z4.004
X265.041 Z4.014
X265.073 Z4.025
X265.107 Z4.029
G2 X265.557 Y-82.693 I0 J-0.45
G1 Y-84.542
G2 X265.107 Y-84.992 I-0.45 J0
G1 X265.073 Z4.025
X265.041 Z4.014
X265.016 Z4.004
X264.989 Z3.999
X166.5 Z-5.85
X166.459 Z-5.848
X166.419 Z-5.835
X166.387 Z-5.824
X166.353 Z-5.82
G3 X165.903 Y-85.442 I0 J-0.45
G1 Y-87.292
G3 X166.353 Y-87.742 I0.45 J0
G1 X166.387 Z-5.824
X166.419 Z-5.835
X166.459 Z-5.848
X166.5 Z-5.85
X264.989 Z3.999
X265.016 Z4.004
X265.041 Z4.014
X265.073 Z4.025
X265.107 Z4.029
G2 X265.557 Y-88.192 I0 J-0.45
G1 Y-90.042
G2 X265.107 Y-90.492 I-0.45 J0
G1 X265.073 Z4.025
X265.041 Z4.014
X265.016 Z4.004
X264.989 Z3.999
X166.5 Z-5.85
X166.459 Z-5.848
X166.419 Z-5.835
X166.387 Z-5.824
X166.353 Z-5.82
G3 X165.903 Y-90.942 I0 J-0.45
G1 Y-92.792
G3 X166.353 Y-93.242 I0.45 J0
G1 X166.387 Z-5.824
X166.419 Z-5.835
X166.459 Z-5.848
X166.5 Z-5.85
X264.989 Z3.999
X265.016 Z4.004
X265.041 Z4.014
X265.073 Z4.025
X265.107 Z4.029
G2 X265.557 Y-93.692 I0 J-0.45
G1 Y-95.541
G2 X265.107 Y-95.991 I-0.45 J0
G1 X265.073 Z4.025
X265.041 Z4.014
X265.016 Z4.004
X264.989 Z3.999
X166.5 Z-5.85
X166.459 Z-5.848
X166.419 Z-5.835
X166.387 Z-5.824
X166.353 Z-5.82
G3 X165.903 Y-96.441 I0 J-0.45
G1 Y-98.291
G3 X166.353 Y-98.741 I0.45 J0
G1 X166.387 Z-5.824
X166.419 Z-5.835
X166.459 Z-5.848
X166.5 Z-5.85
X264.989 Z3.999
X265.016 Z4.004
X265.041 Z4.014
X265.073 Z4.025
X265.107 Z4.029
G2 X265.557 Y-99.191 I0 J-0.45
G1 Y-101.041
G2 X265.107 Y-101.491 I-0.45 J0
G1 X265.073 Z4.025
X265.041 Z4.014
X265.016 Z4.004
X264.989 Z3.999
X166.5 Z-5.85
X166.459 Z-5.848
X166.419 Z-5.835
X166.387 Z-5.824
X166.353 Z-5.82
G3 X165.903 Y-101.941 I0 J-0.45
G1 Y-103.791
G3 X166.353 Y-104.241 I0.45 J0
G1 X166.387 Z-5.824
X166.419 Z-5.835
X166.459 Z-5.848
X166.5 Z-5.85
X264.989 Z3.999
X265.016 Z4.004
X265.041 Z4.014
X265.073 Z4.025
X265.107 Z4.029
G2 X265.557 Y-104.691 I0 J-0.45
G1 Y-106.54
G2 X265.107 Y-106.99 I-0.45 J0
G1 X265.073 Z4.025
X265.041 Z4.014
X265.016 Z4.004
X264.989 Z3.999
X166.5 Z-5.85
X166.459 Z-5.848
X166.419 Z-5.835
X166.387 Z-5.824
X166.353 Z-5.82
G3 X165.903 Y-107.44 I0 J-0.45
G1 Y-109.29
G3 X166.353 Y-109.74 I0.45 J0
G1 X166.387 Z-5.824
X166.419 Z-5.835
X166.459 Z-5.848
X166.5 Z-5.85
X264.989 Z3.999
X265.016 Z4.004
X265.041 Z4.014
X265.073 Z4.025
X265.107 Z4.029
G2 X265.557 Y-110.19 I0 J-0.45
G1 Y-112.04
G2 X265.107 Y-112.49 I-0.45 J0
G1 X265.073 Z4.025
X265.041 Z4.014
X265.016 Z4.004
X264.989 Z3.999
X166.5 Z-5.85
X166.459 Z-5.848
X166.419 Z-5.835
X166.387 Z-5.824
X166.353 Z-5.82
G3 X165.903 Y-112.94 I0 J-0.45
G1 Y-114.79
G3 X166.353 Y-115.24 I0.45 J0
G1 X166.387 Z-5.824
X166.419 Z-5.835
X166.459 Z-5.848
X166.5 Z-5.85
X264.989 Z3.999
X265.016 Z4.004
X265.041 Z4.014
X265.073 Z4.025
X265.107 Z4.029
G2 X265.557 Y-115.69 I0 J-0.45
G1 Y-117.539
G2 X265.107 Y-117.989 I-0.45 J0
G1 X265.073 Z4.025
X265.041 Z4.014
X265.016 Z4.004
X264.989 Z3.999
X166.5 Z-5.85
X166.459 Z-5.848
X166.419 Z-5.835
X166.387 Z-5.824
X166.353 Z-5.82
G3 X165.903 Y-118.439 I0 J-0.45
G1 Y-120.289
G3 X166.353 Y-120.739 I0.45 J0
G1 X166.387 Z-5.824
X166.419 Z-5.835
X166.459 Z-5.848
X166.5 Z-5.85
X264.989 Z3.999
X265.016 Z4.004
X265.041 Z4.014
X265.073 Z4.025
X265.107 Z4.029
G2 X265.557 Y-121.189 I0 J-0.45
G1 Y-123.039
G2 X265.107 Y-123.489 I-0.45 J0
G1 X265.073 Z4.025
X265.041 Z4.014
X265.016 Z4.004
X264.989 Z3.999
X166.5 Z-5.85
X166.459 Z-5.848
X166.419 Z-5.835
X166.387 Z-5.824
X166.353 Z-5.82
G3 X165.903 Y-123.939 I0 J-0.45
G1 Y-125.789
G3 X166.353 Y-126.239 I0.45 J0
G1 X166.387 Z-5.824
X166.419 Z-5.835
X166.459 Z-5.848
X166.5 Z-5.85
X264.989 Z3.999
X265.016 Z4.004
X265.041 Z4.014
X265.073 Z4.025
X265.107 Z4.029
G2 X265.557 Y-126.689 I0 J-0.45
G1 Y-128.538
G2 X265.107 Y-128.988 I-0.45 J0
G1 X265.073 Z4.025
X265.041 Z4.014
X265.016 Z4.004
X264.989 Z3.999
X166.5 Z-5.85
X166.459 Z-5.848
X166.419 Z-5.835
X166.387 Z-5.824
X166.353 Z-5.82
G3 X165.903 Y-129.438 I0 J-0.45
G1 Y-131.288
G3 X166.353 Y-131.738 I0.45 J0
G1 X166.387 Z-5.824
X166.419 Z-5.835
X166.459 Z-5.848
X166.5 Z-5.85
X264.989 Z3.999
X265.016 Z4.004
X265.041 Z4.014
X265.073 Z4.025
X265.107 Z4.029
G2 X265.557 Y-132.188 I0 J-0.45
G1 Y-134.038
G2 X265.107 Y-134.488 I-0.45 J0
G1 X265.073 Z4.025
X265.041 Z4.014
X265.016 Z4.004
X264.989 Z3.999
X166.5 Z-5.85
X166.459 Z-5.848
X166.419 Z-5.835
X166.387 Z-5.824
X166.353 Z-5.82
G3 X165.903 Y-134.938 I0 J-0.45
G1 Y-136.788
G3 X166.353 Y-137.238 I0.45 J0
G1 X166.387 Z-5.824
X166.419 Z-5.835
X166.459 Z-5.848
X166.5 Z-5.85
X264.989 Z3.999
X265.016 Z4.004
X265.041 Z4.014
X265.073 Z4.025
X265.107 Z4.029
G2 X265.557 Y-137.688 I0 J-0.45
G1 Y-139.537
G2 X265.107 Y-139.987 I-0.45 J0
G1 X265.073 Z4.025
X265.041 Z4.014
X265.016 Z4.004
X264.989 Z3.999
X166.5 Z-5.85
X166.459 Z-5.848
X166.419 Z-5.835
X166.387 Z-5.824
X166.353 Z-5.82
G3 X165.903 Y-140.437 I0 J-0.45
G1 Y-142.287
G3 X166.353 Y-142.737 I0.45 J0
G1 X166.387 Z-5.824
X166.419 Z-5.835
X166.459 Z-5.848
X166.5 Z-5.85
X264.989 Z3.999
X265.016 Z4.004
X265.041 Z4.014
X265.073 Z4.025
X265.107 Z4.029
G2 X265.557 Y-143.187 I0 J-0.45
G1 Y-145.037
G2 X265.107 Y-145.487 I-0.45 J0
G1 X265.073 Z4.025
X265.041 Z4.014
X265.016 Z4.004
X264.989 Z3.999
X166.5 Z-5.85
X166.459 Z-5.848
X166.419 Z-5.835
X166.387 Z-5.824
X166.353 Z-5.82
G3 X165.903 Y-145.937 I0 J-0.45
G1 Y-147.787
G3 X166.353 Y-148.237 I0.45 J0
G1 X166.387 Z-5.824
X166.419 Z-5.835
X166.459 Z-5.848
X166.5 Z-5.85
X264.989 Z3.999
G18 G2 X265.26 Z4.297 I-0.03 K0.299
G0 Z5
Y148.736
Z0.297
G3 X264.989 Z-0.001 I-0.3 K0 F1000
G1 X166.5 Z-9.85
X166.459 Z-9.848
X166.419 Z-9.835
X166.387 Z-9.824
X166.353 Z-9.82
G17 G3 X165.903 Y148.286 I0 J-0.45
G1 Y146.437
G3 X166.353 Y145.987 I0.45 J0
G1 X166.387 Z-9.824
X166.419 Z-9.835
X166.459 Z-9.848
X166.5 Z-9.85
X264.989 Z-0.001
X265.016 Z0.004
X265.041 Z0.014
X265.073 Z0.025
X265.107 Z0.029
G2 X265.557 Y145.537 I0 J-0.45
G1 Y143.687
G2 X265.107 Y143.237 I-0.45 J0
G1 X265.073 Z0.025
X265.041 Z0.014
X265.016 Z0.004
X264.989 Z-0.001
X166.5 Z-9.85
X166.459 Z-9.848
X166.419 Z-9.835
X166.387 Z-9.824
X166.353 Z-9.82
G3 X165.903 Y142.787 I0 J-0.45
G1 Y140.937
G3 X166.353 Y140.487 I0.45 J0
G1 X166.387 Z-9.824
X166.419 Z-9.835
X166.459 Z-9.848
X166.5 Z-9.85
X264.989 Z-0.001
X265.016 Z0.004
X265.041 Z0.014
X265.073 Z0.025
X265.107 Z0.029
G2 X265.557 Y140.037 I0 J-0.45
G1 Y138.188
G2 X265.107 Y137.738 I-0.45 J0
G1 X265.073 Z0.025
X265.041 Z0.014
X265.016 Z0.004
X264.989 Z-0.001
X166.5 Z-9.85
X166.459 Z-9.848
X166.419 Z-9.835
X166.387 Z-9.824
X166.353 Z-9.82
G3 X165.903 Y137.287 I0 J-0.45
G1 Y135.438
G3 X166.353 Y134.988 I0.45 J0
G1 X166.387 Z-9.824
X166.419 Z-9.835
X166.459 Z-9.848
X166.5 Z-9.85
X264.989 Z-0.001
X265.016 Z0.004
X265.041 Z0.014
X265.073 Z0.025
X265.107 Z0.029
G2 X265.557 Y134.538 I0 J-0.45
G1 Y132.688
G2 X265.107 Y132.238 I-0.45 J0
G1 X265.073 Z0.025
X265.041 Z0.014
X265.016 Z0.004
X264.989 Z-0.001
X166.5 Z-9.85
X166.459 Z-9.848
X166.419 Z-9.835
X166.387 Z-9.824
X166.353 Z-9.82
G3 X165.903 Y131.788 I0 J-0.45
G1 Y129.938
G3 X166.353 Y129.488 I0.45 J0
G1 X166.387 Z-9.824
X166.419 Z-9.835
X166.459 Z-9.848
X166.5 Z-9.85
X264.989 Z-0.001
X265.016 Z0.004
X265.041 Z0.014
X265.073 Z0.025
X265.107 Z0.029
G2 X265.557 Y129.038 I0 J-0.45
G1 Y127.188
G2 X265.107 Y126.738 I-0.45 J0
G1 X265.073 Z0.025
X265.041 Z0.014
X265.016 Z0.004
X264.989 Z-0.001
X166.5 Z-9.85
X166.459 Z-9.848
X166.419 Z-9.835
X166.387 Z-9.824
X166.353 Z-9.82
G3 X165.903 Y126.288 I0 J-0.45
G1 Y124.439
G3 X166.353 Y123.989 I0.45 J0
G1 X166.387 Z-9.824
X166.419 Z-9.835
X166.459 Z-9.848
X166.5 Z-9.85
X264.989 Z-0.001
X265.016 Z0.004
X265.041 Z0.014
X265.073 Z0.025
X265.107 Z0.029
G2 X265.557 Y123.539 I0 J-0.45
G1 Y121.689
G2 X265.107 Y121.239 I-0.45 J0
G1 X265.073 Z0.025
X265.041 Z0.014
X265.016 Z0.004
X264.989 Z-0.001
X166.5 Z-9.85
X166.459 Z-9.848
X166.419 Z-9.835
X166.387 Z-9.824
X166.353 Z-9.82
G3 X165.903 Y120.789 I0 J-0.45
G1 Y118.939
G3 X166.353 Y118.489 I0.45 J0
G1 X166.387 Z-9.824
X166.419 Z-9.835
X166.459 Z-9.848
X166.5 Z-9.85
X264.989 Z-0.001
X265.016 Z0.004
X265.041 Z0.014
X265.073 Z0.025
X265.107 Z0.029
G2 X265.557 Y118.039 I0 J-0.45
G1 Y116.189
G2 X265.107 Y115.739 I-0.45 J0
G1 X265.073 Z0.025
X265.041 Z0.014
X265.016 Z0.004
X264.989 Z-0.001
X166.5 Z-9.85
X166.459 Z-9.848
X166.419 Z-9.835
X166.387 Z-9.824
X166.353 Z-9.82
G3 X165.903 Y115.289 I0 J-0.45
G1 Y113.44
G3 X166.353 Y112.99 I0.45 J0
G1 X166.387 Z-9.824
X166.419 Z-9.835
X166.459 Z-9.848
X166.5 Z-9.85
X264.989 Z-0.001
X265.016 Z0.004
X265.041 Z0.014
X265.073 Z0.025
X265.107 Z0.029
G2 X265.557 Y112.54 I0 J-0.45
G1 Y110.69
G2 X265.107 Y110.24 I-0.45 J0
G1 X265.073 Z0.025
X265.041 Z0.014
X265.016 Z0.004
X264.989 Z-0.001
X166.5 Z-9.85
X166.459 Z-9.848
X166.419 Z-9.835
X166.387 Z-9.824
X166.353 Z-9.82
G3 X165.903 Y109.79 I0 J-0.45
G1 Y107.94
G3 X166.353 Y107.49 I0.45 J0
G1 X166.387 Z-9.824
X166.419 Z-9.835
X166.459 Z-9.848
X166.5 Z-9.85
X264.989 Z-0.001
X265.016 Z0.004
X265.041 Z0.014
X265.073 Z0.025
X265.107 Z0.029
G2 X265.557 Y107.04 I0 J-0.45
G1 Y105.19
G2 X265.107 Y104.74 I-0.45 J0
G1 X265.073 Z0.025
X265.041 Z0.014
X265.016 Z0.004
X264.989 Z-0.001
X166.5 Z-9.85
X166.459 Z-9.848
X166.419 Z-9.835
X166.387 Z-9.824
X166.353 Z-9.82
G3 X165.903 Y104.29 I0 J-0.45
G1 Y102.441
G3 X166.353 Y101.991 I0.45 J0
G1 X166.387 Z-9.824
X166.419 Z-9.835
X166.459 Z-9.848
X166.5 Z-9.85
X264.989 Z-0.001
X265.016 Z0.004
X265.041 Z0.014
X265.073 Z0.025
X265.107 Z0.029
G2 X265.557 Y101.541 I0 J-0.45
G1 Y99.691
G2 X265.107 Y99.241 I-0.45 J0
G1 X265.073 Z0.025
X265.041 Z0.014
X265.016 Z0.004
X264.989 Z-0.001
X166.5 Z-9.85
X166.459 Z-9.848
X166.419 Z-9.835
X166.387 Z-9.824
X166.353 Z-9.82
G3 X165.903 Y98.791 I0 J-0.45
G1 Y96.941
G3 X166.353 Y96.491 I0.45 J0
G1 X166.387 Z-9.824
X166.419 Z-9.835
X166.459 Z-9.848
X166.5 Z-9.85
X264.989 Z-0.001
X265.016 Z0.004
X265.041 Z0.014
X265.073 Z0.025
X265.107 Z0.029
G2 X265.557 Y96.041 I0 J-0.45
G1 Y94.191
G2 X265.107 Y93.741 I-0.45 J0
G1 X265.073 Z0.025
X265.041 Z0.014
X265.016 Z0.004
X264.989 Z-0.001
X166.5 Z-9.85
X166.459 Z-9.848
X166.419 Z-9.835
X166.387 Z-9.824
X166.353 Z-9.82
G3 X165.903 Y93.291 I0 J-0.45
G1 Y91.442
G3 X166.353 Y90.992 I0.45 J0
G1 X166.387 Z-9.824
X166.419 Z-9.835
X166.459 Z-9.848
X166.5 Z-9.85
X264.989 Z-0.001
X265.016 Z0.004
X265.041 Z0.014
X265.073 Z0.025
X265.107 Z0.029
G2 X265.557 Y90.542 I0 J-0.45
G1 Y88.692
G2 X265.107 Y88.242 I-0.45 J0
G1 X265.073 Z0.025
X265.041 Z0.014
X265.016 Z0.004
X264.989 Z-0.001
X166.5 Z-9.85
X166.459 Z-9.848
X166.419 Z-9.835
X166.387 Z-9.824
X166.353 Z-9.82
G3 X165.903 Y87.792 I0 J-0.45
G1 Y85.942
G3 X166.353 Y85.492 I0.45 J0
G1 X166.387 Z-9.824
X166.419 Z-9.835
X166.459 Z-9.848
X166.5 Z-9.85
X264.989 Z-0.001
X265.016 Z0.004
X265.041 Z0.014
X265.073 Z0.025
X265.107 Z0.029
G2 X265.557 Y85.042 I0 J-0.45
G1 Y83.192
G2 X265.107 Y82.742 I-0.45 J0
G1 X265.073 Z0.025
X265.041 Z0.014
X265.016 Z0.004
X264.989 Z-0.001
X166.5 Z-9.85
X166.459 Z-9.848
X166.419 Z-9.835
X166.387 Z-9.824
X166.353 Z-9.82
G3 X165.903 Y82.292 I0 J-0.45
G1 Y80.443
G3 X166.353 Y79.993 I0.45 J0
G1 X166.387 Z-9.824
X166.419 Z-9.835
X166.459 Z-9.848
X166.5 Z-9.85
X264.989 Z-0.001
X265.016 Z0.004
X265.041 Z0.014
X265.073 Z0.025
X265.107 Z0.029
G2 X265.557 Y79.543 I0 J-0.45
G1 Y77.693
G2 X265.107 Y77.243 I-0.45 J0
G1 X265.073 Z0.025
X265.041 Z0.014
X265.016 Z0.004
X264.989 Z-0.001
X166.5 Z-9.85
X166.459 Z-9.848
X166.419 Z-9.835
X166.387 Z-9.824
X166.353 Z-9.82
G3 X165.903 Y76.793 I0 J-0.45
G1 Y74.943
G3 X166.353 Y74.493 I0.45 J0
G1 X166.387 Z-9.824
X166.419 Z-9.835
X166.459 Z-9.848
X166.5 Z-9.85
X264.989 Z-0.001
X265.016 Z0.004
X265.041 Z0.014
X265.073 Z0.025
X265.107 Z0.029
G2 X265.557 Y74.043 I0 J-0.45
G1 Y72.193
G2 X265.107 Y71.743 I-0.45 J0
G1 X265.073 Z0.025
X265.041 Z0.014
X265.016 Z0.004
X264.989 Z-0.001
X166.5 Z-9.85
X166.459 Z-9.848
X166.419 Z-9.835
X166.387 Z-9.824
X166.353 Z-9.82
G3 X165.903 Y71.293 I0 J-0.45
G1 Y69.444
G3 X166.353 Y68.994 I0.45 J0
G1 X166.387 Z-9.824
X166.419 Z-9.835
X166.459 Z-9.848
X166.5 Z-9.85
X264.989 Z-0.001
X265.016 Z0.004
X265.041 Z0.014
X265.073 Z0.025
X265.107 Z0.029
G2 X265.557 Y68.544 I0 J-0.45
G1 Y66.694
G2 X265.107 Y66.244 I-0.45 J0
G1 X265.073 Z0.025
X265.041 Z0.014
X265.016 Z0.004
X264.989 Z-0.001
X166.5 Z-9.85
X166.459 Z-9.848
X166.419 Z-9.835
X166.387 Z-9.824
X166.353 Z-9.82
G3 X165.903 Y65.794 I0 J-0.45
G1 Y63.944
G3 X166.353 Y63.494 I0.45 J0
G1 X166.387 Z-9.824
X166.419 Z-9.835
X166.459 Z-9.848
X166.5 Z-9.85
X264.989 Z-0.001
X265.016 Z0.004
X265.041 Z0.014
X265.073 Z0.025
X265.107 Z0.029
G2 X265.557 Y63.044 I0 J-0.45
G1 Y61.194
G2 X265.107 Y60.744 I-0.45 J0
G1 X265.073 Z0.025
X265.041 Z0.014
X265.016 Z0.004
X264.989 Z-0.001
X166.5 Z-9.85
X166.459 Z-9.848
X166.419 Z-9.835
X166.387 Z-9.824
X166.353 Z-9.82
G3 X165.903 Y60.294 I0 J-0.45
G1 Y58.445
G3 X166.353 Y57.995 I0.45 J0
G1 X166.387 Z-9.824
X166.419 Z-9.835
X166.459 Z-9.848
X166.5 Z-9.85
X264.989 Z-0.001
X265.016 Z0.004
X265.041 Z0.014
X265.073 Z0.025
X265.107 Z0.029
G2 X265.557 Y57.545 I0 J-0.45
G1 Y55.695
G2 X265.107 Y55.245 I-0.45 J0
G1 X265.073 Z0.025
X265.041 Z0.014
X265.016 Z0.004
X264.989 Z-0.001
X166.5 Z-9.85
X166.459 Z-9.848
X166.419 Z-9.835
X166.387 Z-9.824
X166.353 Z-9.82
G3 X165.903 Y54.795 I0 J-0.45
G1 Y52.945
G3 X166.353 Y52.495 I0.45 J0
G1 X166.387 Z-9.824
X166.419 Z-9.835
X166.459 Z-9.848
X166.5 Z-9.85
X264.989 Z-0.001
X265.016 Z0.004
X265.041 Z0.014
X265.073 Z0.025
X265.107 Z0.029
G2 X265.557 Y52.045 I0 J-0.45
G1 Y50.195
G2 X265.107 Y49.745 I-0.45 J0
G1 X265.073 Z0.025
X265.041 Z0.014
X265.016 Z0.004
X264.989 Z-0.001
X166.5 Z-9.85
X166.459 Z-9.848
X166.419 Z-9.835
X166.387 Z-9.824
X166.353 Z-9.82
G3 X165.903 Y49.295 I0 J-0.45
G1 Y47.446
G3 X166.353 Y46.996 I0.45 J0
G1 X166.387 Z-9.824
X166.419 Z-9.835
X166.459 Z-9.848
X166.5 Z-9.85
X264.989 Z-0.001
X265.016 Z0.004
X265.041 Z0.014
X265.073 Z0.025
X265.107 Z0.029
G2 X265.557 Y46.546 I0 J-0.45
G1 Y44.696
G2 X265.107 Y44.246 I-0.45 J0
G1 X265.073 Z0.025
X265.041 Z0.014
X265.016 Z0.004
X264.989 Z-0.001
X166.5 Z-9.85
X166.459 Z-9.848
X166.419 Z-9.835
X166.387 Z-9.824
X166.353 Z-9.82
G3 X165.903 Y43.796 I0 J-0.45
G1 Y41.946
G3 X166.353 Y41.496 I0.45 J0
G1 X166.387 Z-9.824
X166.419 Z-9.835
X166.459 Z-9.848
X166.5 Z-9.85
X264.989 Z-0.001
X265.016 Z0.004
X265.041 Z0.014
X265.073 Z0.025
X265.107 Z0.029
G2 X265.557 Y41.046 I0 J-0.45
G1 Y39.196
G2 X265.107 Y38.746 I-0.45 J0
G1 X265.073 Z0.025
X265.041 Z0.014
X265.016 Z0.004
X264.989 Z-0.001
X166.5 Z-9.85
X166.459 Z-9.848
X166.419 Z-9.835
X166.387 Z-9.824
X166.353 Z-9.82
G3 X165.903 Y38.296 I0 J-0.45
G1 Y36.447
G3 X166.353 Y35.997 I0.45 J0
G1 X166.387 Z-9.824
X166.419 Z-9.835
X166.459 Z-9.848
X166.5 Z-9.85
X264.989 Z-0.001
X265.016 Z0.004
X265.041 Z0.014
X265.073 Z0.025
X265.107 Z0.029
G2 X265.557 Y35.547 I0 J-0.45
G1 Y33.697
G2 X265.107 Y33.247 I-0.45 J0
G1 X265.073 Z0.025
X265.041 Z0.014
X265.016 Z0.004
X264.989 Z-0.001
X166.5 Z-9.85
X166.459 Z-9.848
X166.419 Z-9.835
X166.387 Z-9.824
X166.353 Z-9.82
G3 X165.903 Y32.797 I0 J-0.45
G1 Y30.947
G3 X166.353 Y30.497 I0.45 J0
G1 X166.387 Z-9.824
X166.419 Z-9.835
X166.459 Z-9.848
X166.5 Z-9.85
X264.989 Z-0.001
X265.016 Z0.004
X265.041 Z0.014
X265.073 Z0.025
X265.107 Z0.029
G2 X265.557 Y30.047 I0 J-0.45
G1 Y28.197
G2 X265.107 Y27.747 I-0.45 J0
G1 X265.073 Z0.025
X265.041 Z0.014
X265.016 Z0.004
X264.989 Z-0.001
X166.5 Z-9.85
X166.459 Z-9.848
X166.419 Z-9.835
X166.387 Z-9.824
X166.353 Z-9.82
G3 X165.903 Y27.297 I0 J-0.45
G1 Y25.448
G3 X166.353 Y24.998 I0.45 J0
G1 X166.387 Z-9.824
X166.419 Z-9.835
X166.459 Z-9.848
X166.5 Z-9.85
X264.989 Z-0.001
X265.016 Z0.004
X265.041 Z0.014
X265.073 Z0.025
X265.107 Z0.029
G2 X265.557 Y24.548 I0 J-0.45
G1 Y22.698
G2 X265.107 Y22.248 I-0.45 J0
G1 X265.073 Z0.025
X265.041 Z0.014
X265.016 Z0.004
X264.989 Z-0.001
X166.5 Z-9.85
X166.459 Z-9.848
X166.419 Z-9.835
X166.387 Z-9.824
X166.353 Z-9.82
G3 X165.903 Y21.798 I0 J-0.45
G1 Y19.948
G3 X166.353 Y19.498 I0.45 J0
G1 X166.387 Z-9.824
X166.419 Z-9.835
X166.459 Z-9.848
X166.5 Z-9.85
X264.989 Z-0.001
X265.016 Z0.004
X265.041 Z0.014
X265.073 Z0.025
X265.107 Z0.029
G2 X265.557 Y19.048 I0 J-0.45
G1 Y17.198
G2 X265.107 Y16.748 I-0.45 J0
G1 X265.073 Z0.025
X265.041 Z0.014
X265.016 Z0.004
X264.989 Z-0.001
X166.5 Z-9.85
X166.459 Z-9.848
X166.419 Z-9.835
X166.387 Z-9.824
X166.353 Z-9.82
G3 X165.903 Y16.298 I0 J-0.45
G1 Y14.449
G3 X166.353 Y13.999 I0.45 J0
G1 X166.387 Z-9.824
X166.419 Z-9.835
X166.459 Z-9.848
X166.5 Z-9.85
X264.989 Z-0.001
X265.016 Z0.004
X265.041 Z0.014
X265.073 Z0.025
X265.107 Z0.029
G2 X265.557 Y13.549 I0 J-0.45
G1 Y11.699
G2 X265.107 Y11.249 I-0.45 J0
G1 X265.073 Z0.025
X265.041 Z0.014
X265.016 Z0.004
X264.989 Z-0.001
X166.5 Z-9.85
X166.459 Z-9.848
X166.419 Z-9.835
X166.387 Z-9.824
X166.353 Z-9.82
G3 X165.903 Y10.799 I0 J-0.45
G1 Y8.949
G3 X166.353 Y8.499 I0.45 J0
G1 X166.387 Z-9.824
X166.419 Z-9.835
X166.459 Z-9.848
X166.5 Z-9.85
X264.989 Z-0.001
X265.016 Z0.004
X265.041 Z0.014
X265.073 Z0.025
X265.107 Z0.029
G2 X265.557 Y8.049 I0 J-0.45
G1 Y6.199
G2 X265.107 Y5.749 I-0.45 J0
G1 X265.073 Z0.025
X265.041 Z0.014
X265.016 Z0.004
X264.989 Z-0.001
X166.5 Z-9.85
X166.459 Z-9.848
X166.419 Z-9.835
X166.387 Z-9.824
X166.353 Z-9.82
G3 X165.903 Y5.299 I0 J-0.45
G1 Y3.45
G3 X166.353 Y3 I0.45 J0
G1 X166.387 Z-9.824
X166.419 Z-9.835
X166.459 Z-9.848
X166.5 Z-9.85
X264.989 Z-0.001
X265.016 Z0.004
X265.041 Z0.014
X265.073 Z0.025
X265.107 Z0.029
G2 X265.557 Y2.55 I0 J-0.45
G1 Y0.7
G2 X265.107 Y0.25 I-0.45 J0
G1 X265.073 Z0.025
X265.041 Z0.014
X265.016 Z0.004
X264.989 Z-0.001
X166.5 Z-9.85
X166.459 Z-9.848
X166.419 Z-9.835
X166.387 Z-9.824
X166.353 Z-9.82
G3 X165.903 Y-0.2 I0 J-0.45
G1 Y-2.05
G3 X166.353 Y-2.5 I0.45 J0
G1 X166.387 Z-9.824
X166.419 Z-9.835
X166.459 Z-9.848
X166.5 Z-9.85
X264.989 Z-0.001
X265.016 Z0.004
X265.041 Z0.014
X265.073 Z0.025
X265.107 Z0.029
G2 X265.557 Y-2.95 I0 J-0.45
G1 Y-4.8
G2 X265.107 Y-5.25 I-0.45 J0
G1 X265.073 Z0.025
X265.041 Z0.014
X265.016 Z0.004
X264.989 Z-0.001
X166.5 Z-9.85
X166.459 Z-9.848
X166.419 Z-9.835
X166.387 Z-9.824
X166.353 Z-9.82
G3 X165.903 Y-5.7 I0 J-0.45
G1 Y-7.549
G3 X166.353 Y-7.999 I0.45 J0
G1 X166.387 Z-9.824
X166.419 Z-9.835
X166.459 Z-9.848
X166.5 Z-9.85
X264.989 Z-0.001
X265.016 Z0.004
X265.041 Z0.014
X265.073 Z0.025
X265.107 Z0.029
G2 X265.557 Y-8.449 I0 J-0.45
G1 Y-10.299
G2 X265.107 Y-10.749 I-0.45 J0
G1 X265.073 Z0.025
X265.041 Z0.014
X265.016 Z0.004
X264.989 Z-0.001
X166.5 Z-9.85
X166.459 Z-9.848
X166.419 Z-9.835
X166.387 Z-9.824
X166.353 Z-9.82
G3 X165.903 Y-11.199 I0 J-0.45
G1 Y-13.049
G3 X166.353 Y-13.499 I0.45 J0
G1 X166.387 Z-9.824
X166.419 Z-9.835
X166.459 Z-9.848
X166.5 Z-9.85
X264.989 Z-0.001
X265.016 Z0.004
X265.041 Z0.014
X265.073 Z0.025
X265.107 Z0.029
G2 X265.557 Y-13.949 I0 J-0.45
G1 Y-15.799
G2 X265.107 Y-16.249 I-0.45 J0
G1 X265.073 Z0.025
X265.041 Z0.014
X265.016 Z0.004
X264.989 Z-0.001
X166.5 Z-9.85
X166.459 Z-9.848
X166.419 Z-9.835
X166.387 Z-9.824
X166.353 Z-9.82
G3 X165.903 Y-16.699 I0 J-0.45
G1 Y-18.548
G3 X166.353 Y-18.998 I0.45 J0
G1 X166.387 Z-9.824
X166.419 Z-9.835
X166.459 Z-9.848
X166.5 Z-9.85
X264.989 Z-0.001
X265.016 Z0.004
X265.041 Z0.014
X265.073 Z0.025
X265.107 Z0.029
G2 X265.557 Y-19.448 I0 J-0.45
G1 Y-21.298
G2 X265.107 Y-21.748 I-0.45 J0
G1 X265.073 Z0.025
X265.041 Z0.014
X265.016 Z0.004
X264.989 Z-0.001
X166.5 Z-9.85
X166.459 Z-9.848
X166.419 Z-9.835
X166.387 Z-9.824
X166.353 Z-9.82
G3 X165.903 Y-22.198 I0 J-0.45
G1 Y-24.048
G3 X166.353 Y-24.498 I0.45 J0
G1 X166.387 Z-9.824
X166.419 Z-9.835
X166.459 Z-9.848
X166.5 Z-9.85
X264.989 Z-0.001
X265.016 Z0.004
X265.041 Z0.014
X265.073 Z0.025
X265.107 Z0.029
G2 X265.557 Y-24.948 I0 J-0.45
G1 Y-26.798
G2 X265.107 Y-27.248 I-0.45 J0
G1 X265.073 Z0.025
X265.041 Z0.014
X265.016 Z0.004
X264.989 Z-0.001
X166.5 Z-9.85
X166.459 Z-9.848
X166.419 Z-9.835
X166.387 Z-9.824
X166.353 Z-9.82
G3 X165.903 Y-27.698 I0 J-0.45
G1 Y-29.547
G3 X166.353 Y-29.997 I0.45 J0
G1 X166.387 Z-9.824
X166.419 Z-9.835
X166.459 Z-9.848
X166.5 Z-9.85
X264.989 Z-0.001
X265.016 Z0.004
X265.041 Z0.014
X265.073 Z0.025
X265.107 Z0.029
G2 X265.557 Y-30.447 I0 J-0.45
G1 Y-32.297
G2 X265.107 Y-32.747 I-0.45 J0
G1 X265.073 Z0.025
X265.041 Z0.014
X265.016 Z0.004
X264.989 Z-0.001
X166.5 Z-9.85
X166.459 Z-9.848
X166.419 Z-9.835
X166.387 Z-9.824
X166.353 Z-9.82
G3 X165.903 Y-33.197 I0 J-0.45
G1 Y-35.047
G3 X166.353 Y-35.497 I0.45 J0
G1 X166.387 Z-9.824
X166.419 Z-9.835
X166.459 Z-9.848
X166.5 Z-9.85
X264.989 Z-0.001
X265.016 Z0.004
X265.041 Z0.014
X265.073 Z0.025
X265.107 Z0.029
G2 X265.557 Y-35.947 I0 J-0.45
G1 Y-37.797
G2 X265.107 Y-38.247 I-0.45 J0
G1 X265.073 Z0.025
X265.041 Z0.014
X265.016 Z0.004
X264.989 Z-0.001
X166.5 Z-9.85
X166.459 Z-9.848
X166.419 Z-9.835
X166.387 Z-9.824
X166.353 Z-9.82
G3 X165.903 Y-38.697 I0 J-0.45
G1 Y-40.546
G3 X166.353 Y-40.996 I0.45 J0
G1 X166.387 Z-9.824
X166.419 Z-9.835
X166.459 Z-9.848
X166.5 Z-9.85
X264.989 Z-0.001
X265.016 Z0.004
X265.041 Z0.014
X265.073 Z0.025
X265.107 Z0.029
G2 X265.557 Y-41.446 I0 J-0.45
G1 Y-43.296
G2 X265.107 Y-43.746 I-0.45 J0
G1 X265.073 Z0.025
X265.041 Z0.014
X265.016 Z0.004
X264.989 Z-0.001
X166.5 Z-9.85
X166.459 Z-9.848
X166.419 Z-9.835
X166.387 Z-9.824
X166.353 Z-9.82
G3 X165.903 Y-44.196 I0 J-0.45
G1 Y-46.046
G3 X166.353 Y-46.496 I0.45 J0
G1 X166.387 Z-9.824
X166.419 Z-9.835
X166.459 Z-9.848
X166.5 Z-9.85
X264.989 Z-0.001
X265.016 Z0.004
X265.041 Z0.014
X265.073 Z0.025
X265.107 Z0.029
G2 X265.557 Y-46.946 I0 J-0.45
G1 Y-48.796
G2 X265.107 Y-49.246 I-0.45 J0
G1 X265.073 Z0.025
X265.041 Z0.014
X265.016 Z0.004
X264.989 Z-0.001
X166.5 Z-9.85
X166.459 Z-9.848
X166.419 Z-9.835
X166.387 Z-9.824
X166.353 Z-9.82
G3 X165.903 Y-49.696 I0 J-0.45
G1 Y-51.545
G3 X166.353 Y-51.995 I0.45 J0
G1 X166.387 Z-9.824
X166.419 Z-9.835
X166.459 Z-9.848
X166.5 Z-9.85
X264.989 Z-0.001
X265.016 Z0.004
X265.041 Z0.014
X265.073 Z0.025
X265.107 Z0.029
G2 X265.557 Y-52.445 I0 J-0.45
G1 Y-54.295
G2 X265.107 Y-54.745 I-0.45 J0
G1 X265.073 Z0.025
X265.041 Z0.014
X265.016 Z0.004
X264.989 Z-0.001
X166.5 Z-9.85
X166.459 Z-9.848
X166.419 Z-9.835
X166.387 Z-9.824
X166.353 Z-9.82
G3 X165.903 Y-55.195 I0 J-0.45
G1 Y-57.045
G3 X166.353 Y-57.495 I0.45 J0
G1 X166.387 Z-9.824
X166.419 Z-9.835
X166.459 Z-9.848
X166.5 Z-9.85
X264.989 Z-0.001
X265.016 Z0.004
X265.041 Z0.014
X265.073 Z0.025
X265.107 Z0.029
G2 X265.557 Y-57.945 I0 J-0.45
G1 Y-59.795
G2 X265.107 Y-60.245 I-0.45 J0
G1 X265.073 Z0.025
X265.041 Z0.014
X265.016 Z0.004
X264.989 Z-0.001
X166.5 Z-9.85
X166.459 Z-9.848
X166.419 Z-9.835
X166.387 Z-9.824
X166.353 Z-9.82
G3 X165.903 Y-60.695 I0 J-0.45
G1 Y-62.544
G3 X166.353 Y-62.994 I0.45 J0
G1 X166.387 Z-9.824
X166.419 Z-9.835
X166.459 Z-9.848
X166.5 Z-9.85
X264.989 Z-0.001
X265.016 Z0.004
X265.041 Z0.014
X265.073 Z0.025
X265.107 Z0.029
G2 X265.557 Y-63.444 I0 J-0.45
G1 Y-65.294
G2 X265.107 Y-65.744 I-0.45 J0
G1 X265.073 Z0.025
X265.041 Z0.014
X265.016 Z0.004
X264.989 Z-0.001
X166.5 Z-9.85
X166.459 Z-9.848
X166.419 Z-9.835
X166.387 Z-9.824
X166.353 Z-9.82
G3 X165.903 Y-66.194 I0 J-0.45
G1 Y-68.044
G3 X166.353 Y-68.494 I0.45 J0
G1 X166.387 Z-9.824
X166.419 Z-9.835
X166.459 Z-9.848
X166.5 Z-9.85
X264.989 Z-0.001
X265.016 Z0.004
X265.041 Z0.014
X265.073 Z0.025
X265.107 Z0.029
G2 X265.557 Y-68.944 I0 J-0.45
G1 Y-70.794
G2 X265.107 Y-71.244 I-0.45 J0
G1 X265.073 Z0.025
X265.041 Z0.014
X265.016 Z0.004
X264.989 Z-0.001
X166.5 Z-9.85
X166.459 Z-9.848
X166.419 Z-9.835
X166.387 Z-9.824
X166.353 Z-9.82
G3 X165.903 Y-71.694 I0 J-0.45
G1 Y-73.543
G3 X166.353 Y-73.993 I0.45 J0
G1 X166.387 Z-9.824
X166.419 Z-9.835
X166.459 Z-9.848
X166.5 Z-9.85
X264.989 Z-0.001
X265.016 Z0.004
X265.041 Z0.014
X265.073 Z0.025
X265.107 Z0.029
G2 X265.557 Y-74.443 I0 J-0.45
G1 Y-76.293
G2 X265.107 Y-76.743 I-0.45 J0
G1 X265.073 Z0.025
X265.041 Z0.014
X265.016 Z0.004
X264.989 Z-0.001
X166.5 Z-9.85
X166.459 Z-9.848
X166.419 Z-9.835
X166.387 Z-9.824
X166.353 Z-9.82
G3 X165.903 Y-77.193 I0 J-0.45
G1 Y-79.043
G3 X166.353 Y-79.493 I0.45 J0
G1 X166.387 Z-9.824
X166.419 Z-9.835
X166.459 Z-9.848
X166.5 Z-9.85
X264.989 Z-0.001
X265.016 Z0.004
X265.041 Z0.014
X265.073 Z0.025
X265.107 Z0.029
G2 X265.557 Y-79.943 I0 J-0.45
G1 Y-81.793
G2 X265.107 Y-82.243 I-0.45 J0
G1 X265.073 Z0.025
X265.041 Z0.014
X265.016 Z0.004
X264.989 Z-0.001
X166.5 Z-9.85
X166.459 Z-9.848
X166.419 Z-9.835
X166.387 Z-9.824
X166.353 Z-9.82
G3 X165.903 Y-82.693 I0 J-0.45
G1 Y-84.542
G3 X166.353 Y-84.992 I0.45 J0
G1 X166.387 Z-9.824
X166.419 Z-9.835
X166.459 Z-9.848
X166.5 Z-9.85
X264.989 Z-0.001
X265.016 Z0.004
X265.041 Z0.014
X265.073 Z0.025
X265.107 Z0.029
G2 X265.557 Y-85.442 I0 J-0.45
G1 Y-87.292
G2 X265.107 Y-87.742 I-0.45 J0
G1 X265.073 Z0.025
X265.041 Z0.014
X265.016 Z0.004
X264.989 Z-0.001
X166.5 Z-9.85
X166.459 Z-9.848
X166.419 Z-9.835
X166.387 Z-9.824
X166.353 Z-9.82
G3 X165.903 Y-88.192 I0 J-0.45
G1 Y-90.042
G3 X166.353 Y-90.492 I0.45 J0
G1 X166.387 Z-9.824
X166.419 Z-9.835
X166.459 Z-9.848
X166.5 Z-9.85
X264.989 Z-0.001
X265.016 Z0.004
X265.041 Z0.014
X265.073 Z0.025
X265.107 Z0.029
G2 X265.557 Y-90.942 I0 J-0.45
G1 Y-92.792
G2 X265.107 Y-93.242 I-0.45 J0
G1 X265.073 Z0.025
X265.041 Z0.014
X265.016 Z0.004
X264.989 Z-0.001
X166.5 Z-9.85
X166.459 Z-9.848
X166.419 Z-9.835
X166.387 Z-9.824
X166.353 Z-9.82
G3 X165.903 Y-93.692 I0 J-0.45
G1 Y-95.541
G3 X166.353 Y-95.991 I0.45 J0
G1 X166.387 Z-9.824
X166.419 Z-9.835
X166.459 Z-9.848
X166.5 Z-9.85
X264.989 Z-0.001
X265.016 Z0.004
X265.041 Z0.014
X265.073 Z0.025
X265.107 Z0.029
G2 X265.557 Y-96.441 I0 J-0.45
G1 Y-98.291
G2 X265.107 Y-98.741 I-0.45 J0
G1 X265.073 Z0.025
X265.041 Z0.014
X265.016 Z0.004
X264.989 Z-0.001
X166.5 Z-9.85
X166.459 Z-9.848
X166.419 Z-9.835
X166.387 Z-9.824
X166.353 Z-9.82
G3 X165.903 Y-99.191 I0 J-0.45
G1 Y-101.041
G3 X166.353 Y-101.491 I0.45 J0
G1 X166.387 Z-9.824
X166.419 Z-9.835
X166.459 Z-9.848
X166.5 Z-9.85
X264.989 Z-0.001
X265.016 Z0.004
X265.041 Z0.014
X265.073 Z0.025
X265.107 Z0.029
G2 X265.557 Y-101.941 I0 J-0.45
G1 Y-103.791
G2 X265.107 Y-104.241 I-0.45 J0
G1 X265.073 Z0.025
X265.041 Z0.014
X265.016 Z0.004
X264.989 Z-0.001
X166.5 Z-9.85
X166.459 Z-9.848
X166.419 Z-9.835
X166.387 Z-9.824
X166.353 Z-9.82
G3 X165.903 Y-104.691 I0 J-0.45
G1 Y-106.54
G3 X166.353 Y-106.99 I0.45 J0
G1 X166.387 Z-9.824
X166.419 Z-9.835
X166.459 Z-9.848
X166.5 Z-9.85
X264.989 Z-0.001
X265.016 Z0.004
X265.041 Z0.014
X265.073 Z0.025
X265.107 Z0.029
G2 X265.557 Y-107.44 I0 J-0.45
G1 Y-109.29
G2 X265.107 Y-109.74 I-0.45 J0
G1 X265.073 Z0.025
X265.041 Z0.014
X265.016 Z0.004
X264.989 Z-0.001
X166.5 Z-9.85
X166.459 Z-9.848
X166.419 Z-9.835
X166.387 Z-9.824
X166.353 Z-9.82
G3 X165.903 Y-110.19 I0 J-0.45
G1 Y-112.04
G3 X166.353 Y-112.49 I0.45 J0
G1 X166.387 Z-9.824
X166.419 Z-9.835
X166.459 Z-9.848
X166.5 Z-9.85
X264.989 Z-0.001
X265.016 Z0.004
X265.041 Z0.014
X265.073 Z0.025
X265.107 Z0.029
G2 X265.557 Y-112.94 I0 J-0.45
G1 Y-114.79
G2 X265.107 Y-115.24 I-0.45 J0
G1 X265.073 Z0.025
X265.041 Z0.014
X265.016 Z0.004
X264.989 Z-0.001
X166.5 Z-9.85
X166.459 Z-9.848
X166.419 Z-9.835
X166.387 Z-9.824
X166.353 Z-9.82
G3 X165.903 Y-115.69 I0 J-0.45
G1 Y-117.539
G3 X166.353 Y-117.989 I0.45 J0
G1 X166.387 Z-9.824
X166.419 Z-9.835
X166.459 Z-9.848
X166.5 Z-9.85
X264.989 Z-0.001
X265.016 Z0.004
X265.041 Z0.014
X265.073 Z0.025
X265.107 Z0.029
G2 X265.557 Y-118.439 I0 J-0.45
G1 Y-120.289
G2 X265.107 Y-120.739 I-0.45 J0
G1 X265.073 Z0.025
X265.041 Z0.014
X265.016 Z0.004
X264.989 Z-0.001
X166.5 Z-9.85
X166.459 Z-9.848
X166.419 Z-9.835
X166.387 Z-9.824
X166.353 Z-9.82
G3 X165.903 Y-121.189 I0 J-0.45
G1 Y-123.039
G3 X166.353 Y-123.489 I0.45 J0
G1 X166.387 Z-9.824
X166.419 Z-9.835
X166.459 Z-9.848
X166.5 Z-9.85
X264.989 Z-0.001
X265.016 Z0.004
X265.041 Z0.014
X265.073 Z0.025
X265.107 Z0.029
G2 X265.557 Y-123.939 I0 J-0.45
G1 Y-125.789
G2 X265.107 Y-126.239 I-0.45 J0
G1 X265.073 Z0.025
X265.041 Z0.014
X265.016 Z0.004
X264.989 Z-0.001
X166.5 Z-9.85
X166.459 Z-9.848
X166.419 Z-9.835
X166.387 Z-9.824
X166.353 Z-9.82
G3 X165.903 Y-126.689 I0 J-0.45
G1 Y-128.538
G3 X166.353 Y-128.988 I0.45 J0
G1 X166.387 Z-9.824
X166.419 Z-9.835
X166.459 Z-9.848
X166.5 Z-9.85
X264.989 Z-0.001
X265.016 Z0.004
X265.041 Z0.014
X265.073 Z0.025
X265.107 Z0.029
G2 X265.557 Y-129.438 I0 J-0.45
G1 Y-131.288
G2 X265.107 Y-131.738 I-0.45 J0
G1 X265.073 Z0.025
X265.041 Z0.014
X265.016 Z0.004
X264.989 Z-0.001
X166.5 Z-9.85
X166.459 Z-9.848
X166.419 Z-9.835
X166.387 Z-9.824
X166.353 Z-9.82
G3 X165.903 Y-132.188 I0 J-0.45
G1 Y-134.038
G3 X166.353 Y-134.488 I0.45 J0
G1 X166.387 Z-9.824
X166.419 Z-9.835
X166.459 Z-9.848
X166.5 Z-9.85
X264.989 Z-0.001
X265.016 Z0.004
X265.041 Z0.014
X265.073 Z0.025
X265.107 Z0.029
G2 X265.557 Y-134.938 I0 J-0.45
G1 Y-136.788
G2 X265.107 Y-137.238 I-0.45 J0
G1 X265.073 Z0.025
X265.041 Z0.014
X265.016 Z0.004
X264.989 Z-0.001
X166.5 Z-9.85
X166.459 Z-9.848
X166.419 Z-9.835
X166.387 Z-9.824
X166.353 Z-9.82
G3 X165.903 Y-137.688 I0 J-0.45
G1 Y-139.537
G3 X166.353 Y-139.987 I0.45 J0
G1 X166.387 Z-9.824
X166.419 Z-9.835
X166.459 Z-9.848
X166.5 Z-9.85
X264.989 Z-0.001
X265.016 Z0.004
X265.041 Z0.014
X265.073 Z0.025
X265.107 Z0.029
G2 X265.557 Y-140.437 I0 J-0.45
G1 Y-142.287
G2 X265.107 Y-142.737 I-0.45 J0
G1 X265.073 Z0.025
X265.041 Z0.014
X265.016 Z0.004
X264.989 Z-0.001
X166.5 Z-9.85
X166.459 Z-9.848
X166.419 Z-9.835
X166.387 Z-9.824
X166.353 Z-9.82
G3 X165.903 Y-143.187 I0 J-0.45
G1 Y-145.037
G3 X166.353 Y-145.487 I0.45 J0
G1 X166.387 Z-9.824
X166.419 Z-9.835
X166.459 Z-9.848
X166.5 Z-9.85
X264.989 Z-0.001
X265.016 Z0.004
X265.041 Z0.014
X265.073 Z0.025
X265.107 Z0.029
G2 X265.557 Y-145.937 I0 J-0.45
G1 Y-147.787
G2 X265.107 Y-148.237 I-0.45 J0
G1 X265.073 Z0.025
X265.041 Z0.014
X265.016 Z0.004
X264.989 Z-0.001
X166.5 Z-9.85
G18 G3 X166.17 Z-9.551 I-0.03 K0.299
G0 Z5
Y148.736
Z-3.466
G1 Z-13.551 F333.3
G2 X166.5 Z-13.85 I0.3 K0 F1000
G1 X264.989 Z-4.001
X265.016 Z-3.996
X265.041 Z-3.986
X265.073 Z-3.975
X265.107 Z-3.971
G17 G2 X265.557 Y148.286 I0 J-0.45
G1 Y146.437
G2 X265.107 Y145.987 I-0.45 J0
G1 X265.073 Z-3.975
X265.041 Z-3.986
X265.016 Z-3.996
X264.989 Z-4.001
X166.5 Z-13.85
X166.459 Z-13.848
X166.419 Z-13.835
X166.387 Z-13.824
X166.353 Z-13.82
G3 X165.903 Y145.537 I0 J-0.45
G1 Y143.687
G3 X166.353 Y143.237 I0.45 J0
G1 X166.387 Z-13.824
X166.419 Z-13.835
X166.459 Z-13.848
X166.5 Z-13.85
X264.989 Z-4.001
X264.99
X265.016 Z-3.996
X265.041 Z-3.986
X265.073 Z-3.975
X265.107 Z-3.971
G2 X265.557 Y142.787 I0 J-0.45
G1 Y140.937
G2 X265.107 Y140.487 I-0.45 J0
G1 X265.073 Z-3.975
X265.041 Z-3.986
X265.016 Z-3.996
X264.989 Z-4.001
X166.5 Z-13.85
X166.459 Z-13.848
X166.419 Z-13.835
X166.387 Z-13.824
X166.353 Z-13.82
G3 X165.903 Y140.037 I0 J-0.45
G1 Y138.188
G3 X166.353 Y137.738 I0.45 J0
G1 X166.387 Z-13.824
X166.419 Z-13.835
X166.459 Z-13.848
X166.5 Z-13.85
X264.989 Z-4.001
X265.016 Z-3.996
X265.041 Z-3.986
X265.073 Z-3.975
X265.107 Z-3.971
G2 X265.557 Y137.287 I0 J-0.45
G1 Y135.438
G2 X265.107 Y134.988 I-0.45 J0
G1 X265.073 Z-3.975
X265.041 Z-3.986
X265.016 Z-3.996
X264.989 Z-4.001
X166.5 Z-13.85
X166.459 Z-13.848
X166.419 Z-13.835
X166.387 Z-13.824
X166.353 Z-13.82
G3 X165.903 Y134.538 I0 J-0.45
G1 Y132.688
G3 X166.353 Y132.238 I0.45 J0
G1 X166.387 Z-13.824
X166.419 Z-13.835
X166.459 Z-13.848
X166.5 Z-13.85
X264.989 Z-4.001
X265.016 Z-3.996
X265.041 Z-3.986
X265.073 Z-3.975
X265.107 Z-3.971
G2 X265.557 Y131.788 I0 J-0.45
G1 Y129.938
G2 X265.107 Y129.488 I-0.45 J0
G1 X265.073 Z-3.975
X265.041 Z-3.986
X265.016 Z-3.996
X264.989 Z-4.001
X166.5 Z-13.85
X166.459 Z-13.848
X166.419 Z-13.835
X166.387 Z-13.824
X166.353 Z-13.82
G3 X165.903 Y129.038 I0 J-0.45
G1 Y127.188
G3 X166.353 Y126.738 I0.45 J0
G1 X166.387 Z-13.824
X166.419 Z-13.835
X166.459 Z-13.848
X166.5 Z-13.85
X264.989 Z-4.001
X265.016 Z-3.996
X265.041 Z-3.986
X265.073 Z-3.975
X265.107 Z-3.971
G2 X265.557 Y126.288 I0 J-0.45
G1 Y124.439
G2 X265.107 Y123.989 I-0.45 J0
G1 X265.073 Z-3.975
X265.041 Z-3.986
X265.016 Z-3.996
X264.989 Z-4.001
X166.5 Z-13.85
X166.459 Z-13.848
X166.419 Z-13.835
X166.387 Z-13.824
X166.353 Z-13.82
G3 X165.903 Y123.539 I0 J-0.45
G1 Y121.689
G3 X166.353 Y121.239 I0.45 J0
G1 X166.387 Z-13.824
X166.419 Z-13.835
X166.459 Z-13.848
X166.5 Z-13.85
X264.989 Z-4.001
X265.016 Z-3.996
X265.041 Z-3.986
X265.073 Z-3.975
X265.107 Z-3.971
G2 X265.557 Y120.789 I0 J-0.45
G1 Y118.939
G2 X265.107 Y118.489 I-0.45 J0
G1 X265.073 Z-3.975
X265.041 Z-3.986
X265.016 Z-3.996
X264.989 Z-4.001
X166.5 Z-13.85
X166.459 Z-13.848
X166.419 Z-13.835
X166.387 Z-13.824
X166.353 Z-13.82
G3 X165.903 Y118.039 I0 J-0.45
G1 Y116.189
G3 X166.353 Y115.739 I0.45 J0
G1 X166.387 Z-13.824
X166.419 Z-13.835
X166.459 Z-13.848
X166.5 Z-13.85
X264.989 Z-4.001
X265.016 Z-3.996
X265.041 Z-3.986
X265.073 Z-3.975
X265.107 Z-3.971
G2 X265.557 Y115.289 I0 J-0.45
G1 Y113.44
G2 X265.107 Y112.99 I-0.45 J0
G1 X265.073 Z-3.975
X265.041 Z-3.986
X265.016 Z-3.996
X264.989 Z-4.001
X166.5 Z-13.85
X166.459 Z-13.848
X166.419 Z-13.835
X166.387 Z-13.824
X166.353 Z-13.82
G3 X165.903 Y112.54 I0 J-0.45
G1 Y110.69
G3 X166.353 Y110.24 I0.45 J0
G1 X166.387 Z-13.824
X166.419 Z-13.835
X166.459 Z-13.848
X166.5 Z-13.85
X264.989 Z-4.001
X265.016 Z-3.996
X265.041 Z-3.986
X265.073 Z-3.975
X265.107 Z-3.971
G2 X265.557 Y109.79 I0 J-0.45
G1 Y107.94
G2 X265.107 Y107.49 I-0.45 J0
G1 X265.073 Z-3.975
X265.041 Z-3.986
X265.016 Z-3.996
X264.989 Z-4.001
X166.5 Z-13.85
X166.459 Z-13.848
X166.419 Z-13.835
X166.387 Z-13.824
X166.353 Z-13.82
G3 X165.903 Y107.04 I0 J-0.45
G1 Y105.19
G3 X166.353 Y104.74 I0.45 J0
G1 X166.387 Z-13.824
X166.419 Z-13.835
X166.459 Z-13.848
X166.5 Z-13.85
X264.989 Z-4.001
X265.016 Z-3.996
X265.041 Z-3.986
X265.073 Z-3.975
X265.107 Z-3.971
G2 X265.557 Y104.29 I0 J-0.45
G1 Y102.441
G2 X265.107 Y101.991 I-0.45 J0
G1 X265.073 Z-3.975
X265.041 Z-3.986
X265.016 Z-3.996
X264.989 Z-4.001
X166.5 Z-13.85
X166.459 Z-13.848
X166.419 Z-13.835
X166.387 Z-13.824
X166.353 Z-13.82
G3 X165.903 Y101.541 I0 J-0.45
G1 Y99.691
G3 X166.353 Y99.241 I0.45 J0
G1 X166.387 Z-13.824
X166.419 Z-13.835
X166.459 Z-13.848
X166.5 Z-13.85
X264.989 Z-4.001
X265.016 Z-3.996
X265.041 Z-3.986
X265.073 Z-3.975
X265.107 Z-3.971
G2 X265.557 Y98.791 I0 J-0.45
G1 Y96.941
G2 X265.107 Y96.491 I-0.45 J0
G1 X265.073 Z-3.975
X265.041 Z-3.986
X265.016 Z-3.996
X264.989 Z-4.001
X166.5 Z-13.85
X166.459 Z-13.848
X166.419 Z-13.835
X166.387 Z-13.824
X166.353 Z-13.82
G3 X165.903 Y96.041 I0 J-0.45
G1 Y94.191
G3 X166.353 Y93.741 I0.45 J0
G1 X166.387 Z-13.824
X166.419 Z-13.835
X166.459 Z-13.848
X166.5 Z-13.85
X264.989 Z-4.001
X265.016 Z-3.996
X265.041 Z-3.986
X265.073 Z-3.975
X265.107 Z-3.971
G2 X265.557 Y93.291 I0 J-0.45
G1 Y91.442
G2 X265.107 Y90.992 I-0.45 J0
G1 X265.073 Z-3.975
X265.041 Z-3.986
X265.016 Z-3.996
X264.989 Z-4.001
X166.5 Z-13.85
X166.459 Z-13.848
X166.419 Z-13.835
X166.387 Z-13.824
X166.353 Z-13.82
G3 X165.903 Y90.542 I0 J-0.45
G1 Y88.692
G3 X166.353 Y88.242 I0.45 J0
G1 X166.387 Z-13.824
X166.419 Z-13.835
X166.459 Z-13.848
X166.5 Z-13.85
X264.989 Z-4.001
X265.016 Z-3.996
X265.041 Z-3.986
X265.073 Z-3.975
X265.107 Z-3.971
G2 X265.557 Y87.792 I0 J-0.45
G1 Y85.942
G2 X265.107 Y85.492 I-0.45 J0
G1 X265.073 Z-3.975
X265.041 Z-3.986
X265.016 Z-3.996
X264.989 Z-4.001
X166.5 Z-13.85
X166.459 Z-13.848
X166.419 Z-13.835
X166.387 Z-13.824
X166.353 Z-13.82
G3 X165.903 Y85.042 I0 J-0.45
G1 Y83.192
G3 X166.353 Y82.742 I0.45 J0
G1 X166.387 Z-13.824
X166.419 Z-13.835
X166.459 Z-13.848
X166.5 Z-13.85
X264.989 Z-4.001
X265.016 Z-3.996
X265.041 Z-3.986
X265.073 Z-3.975
X265.107 Z-3.971
G2 X265.557 Y82.292 I0 J-0.45
G1 Y80.443
G2 X265.107 Y79.993 I-0.45 J0
G1 X265.073 Z-3.975
X265.041 Z-3.986
X265.016 Z-3.996
X264.989 Z-4.001
X166.5 Z-13.85
X166.459 Z-13.848
X166.419 Z-13.835
X166.387 Z-13.824
X166.353 Z-13.82
G3 X165.903 Y79.543 I0 J-0.45
G1 Y77.693
G3 X166.353 Y77.243 I0.45 J0
G1 X166.387 Z-13.824
X166.419 Z-13.835
X166.459 Z-13.848
X166.5 Z-13.85
X264.989 Z-4.001
X265.016 Z-3.996
X265.041 Z-3.986
X265.073 Z-3.975
X265.107 Z-3.971
G2 X265.557 Y76.793 I0 J-0.45
G1 Y74.943
G2 X265.107 Y74.493 I-0.45 J0
G1 X265.073 Z-3.975
X265.041 Z-3.986
X265.016 Z-3.996
X264.989 Z-4.001
X166.5 Z-13.85
X166.459 Z-13.848
X166.419 Z-13.835
X166.387 Z-13.824
X166.353 Z-13.82
G3 X165.903 Y74.043 I0 J-0.45
G1 Y72.193
G3 X166.353 Y71.743 I0.45 J0
G1 X166.387 Z-13.824
X166.419 Z-13.835
X166.459 Z-13.848
X166.5 Z-13.85
X264.989 Z-4.001
X265.016 Z-3.996
X265.041 Z-3.986
X265.073 Z-3.975
X265.107 Z-3.971
G2 X265.557 Y71.293 I0 J-0.45
G1 Y69.444
G2 X265.107 Y68.994 I-0.45 J0
G1 X265.073 Z-3.975
X265.041 Z-3.986
X265.016 Z-3.996
X264.989 Z-4.001
X166.5 Z-13.85
X166.459 Z-13.848
X166.419 Z-13.835
X166.387 Z-13.824
X166.353 Z-13.82
G3 X165.903 Y68.544 I0 J-0.45
G1 Y66.694
G3 X166.353 Y66.244 I0.45 J0
G1 X166.387 Z-13.824
X166.419 Z-13.835
X166.459 Z-13.848
X166.5 Z-13.85
X264.989 Z-4.001
X265.016 Z-3.996
X265.041 Z-3.986
X265.073 Z-3.975
X265.107 Z-3.971
G2 X265.557 Y65.794 I0 J-0.45
G1 Y63.944
G2 X265.107 Y63.494 I-0.45 J0
G1 X265.073 Z-3.975
X265.041 Z-3.986
X265.016 Z-3.996
X264.989 Z-4.001
X166.5 Z-13.85
X166.459 Z-13.848
X166.419 Z-13.835
X166.387 Z-13.824
X166.353 Z-13.82
G3 X165.903 Y63.044 I0 J-0.45
G1 Y61.194
G3 X166.353 Y60.744 I0.45 J0
G1 X166.387 Z-13.824
X166.419 Z-13.835
X166.459 Z-13.848
X166.5 Z-13.85
X264.989 Z-4.001
X265.016 Z-3.996
X265.041 Z-3.986
X265.073 Z-3.975
X265.107 Z-3.971
G2 X265.557 Y60.294 I0 J-0.45
G1 Y58.445
G2 X265.107 Y57.995 I-0.45 J0
G1 X265.073 Z-3.975
X265.041 Z-3.986
X265.016 Z-3.996
X264.989 Z-4.001
X166.5 Z-13.85
X166.459 Z-13.848
X166.419 Z-13.835
X166.387 Z-13.824
X166.353 Z-13.82
G3 X165.903 Y57.545 I0 J-0.45
G1 Y55.695
G3 X166.353 Y55.245 I0.45 J0
G1 X166.387 Z-13.824
X166.419 Z-13.835
X166.459 Z-13.848
X166.5 Z-13.85
X264.989 Z-4.001
X265.016 Z-3.996
X265.041 Z-3.986
X265.073 Z-3.975
X265.107 Z-3.971
G2 X265.557 Y54.795 I0 J-0.45
G1 Y52.945
G2 X265.107 Y52.495 I-0.45 J0
G1 X265.073 Z-3.975
X265.041 Z-3.986
X265.016 Z-3.996
X264.989 Z-4.001
X166.5 Z-13.85
X166.459 Z-13.848
X166.419 Z-13.835
X166.387 Z-13.824
X166.353 Z-13.82
G3 X165.903 Y52.045 I0 J-0.45
G1 Y50.195
G3 X166.353 Y49.745 I0.45 J0
G1 X166.387 Z-13.824
X166.419 Z-13.835
X166.459 Z-13.848
X166.5 Z-13.85
X264.989 Z-4.001
X265.016 Z-3.996
X265.041 Z-3.986
X265.073 Z-3.975
X265.107 Z-3.971
G2 X265.557 Y49.295 I0 J-0.45
G1 Y47.446
G2 X265.107 Y46.996 I-0.45 J0
G1 X265.073 Z-3.975
X265.041 Z-3.986
X265.016 Z-3.996
X264.989 Z-4.001
X166.5 Z-13.85
X166.459 Z-13.848
X166.419 Z-13.835
X166.387 Z-13.824
X166.353 Z-13.82
G3 X165.903 Y46.546 I0 J-0.45
G1 Y44.696
G3 X166.353 Y44.246 I0.45 J0
G1 X166.387 Z-13.824
X166.419 Z-13.835
X166.459 Z-13.848
X166.5 Z-13.85
X264.989 Z-4.001
X265.016 Z-3.996
X265.041 Z-3.986
X265.073 Z-3.975
X265.107 Z-3.971
G2 X265.557 Y43.796 I0 J-0.45
G1 Y41.946
G2 X265.107 Y41.496 I-0.45 J0
G1 X265.073 Z-3.975
X265.041 Z-3.986
X265.016 Z-3.996
X264.989 Z-4.001
X166.5 Z-13.85
X166.459 Z-13.848
X166.419 Z-13.835
X166.387 Z-13.824
X166.353 Z-13.82
G3 X165.903 Y41.046 I0 J-0.45
G1 Y39.196
G3 X166.353 Y38.746 I0.45 J0
G1 X166.387 Z-13.824
X166.419 Z-13.835
X166.459 Z-13.848
X166.5 Z-13.85
X264.989 Z-4.001
X265.016 Z-3.996
X265.041 Z-3.986
X265.073 Z-3.975
X265.107 Z-3.971
G2 X265.557 Y38.296 I0 J-0.45
G1 Y36.447
G2 X265.107 Y35.997 I-0.45 J0
G1 X265.073 Z-3.975
X265.041 Z-3.986
X265.016 Z-3.996
X264.989 Z-4.001
X166.5 Z-13.85
X166.459 Z-13.848
X166.419 Z-13.835
X166.387 Z-13.824
X166.353 Z-13.82
G3 X165.903 Y35.547 I0 J-0.45
G1 Y33.697
G3 X166.353 Y33.247 I0.45 J0
G1 X166.387 Z-13.824
X166.419 Z-13.835
X166.459 Z-13.848
X166.5 Z-13.85
X264.989 Z-4.001
X265.016 Z-3.996
X265.041 Z-3.986
X265.073 Z-3.975
X265.107 Z-3.971
G2 X265.557 Y32.797 I0 J-0.45
G1 Y30.947
G2 X265.107 Y30.497 I-0.45 J0
G1 X265.073 Z-3.975
X265.041 Z-3.986
X265.016 Z-3.996
X264.989 Z-4.001
X166.5 Z-13.85
X166.459 Z-13.848
X166.419 Z-13.835
X166.387 Z-13.824
X166.353 Z-13.82
G3 X165.903 Y30.047 I0 J-0.45
G1 Y28.197
G3 X166.353 Y27.747 I0.45 J0
G1 X166.387 Z-13.824
X166.419 Z-13.835
X166.459 Z-13.848
X166.5 Z-13.85
X264.989 Z-4.001
X265.016 Z-3.996
X265.041 Z-3.986
X265.073 Z-3.975
X265.107 Z-3.971
G2 X265.557 Y27.297 I0 J-0.45
G1 Y25.448
G2 X265.107 Y24.998 I-0.45 J0
G1 X265.073 Z-3.975
X265.041 Z-3.986
X265.016 Z-3.996
X264.989 Z-4.001
X166.5 Z-13.85
X166.459 Z-13.848
X166.419 Z-13.835
X166.387 Z-13.824
X166.353 Z-13.82
G3 X165.903 Y24.548 I0 J-0.45
G1 Y22.698
G3 X166.353 Y22.248 I0.45 J0
G1 X166.387 Z-13.824
X166.419 Z-13.835
X166.459 Z-13.848
X166.5 Z-13.85
X264.989 Z-4.001
X265.016 Z-3.996
X265.041 Z-3.986
X265.073 Z-3.975
X265.107 Z-3.971
G2 X265.557 Y21.798 I0 J-0.45
G1 Y19.948
G2 X265.107 Y19.498 I-0.45 J0
G1 X265.073 Z-3.975
X265.041 Z-3.986
X265.016 Z-3.996
X264.989 Z-4.001
X166.5 Z-13.85
X166.459 Z-13.848
X166.419 Z-13.835
X166.387 Z-13.824
X166.353 Z-13.82
G3 X165.903 Y19.048 I0 J-0.45
G1 Y17.198
G3 X166.353 Y16.748 I0.45 J0
G1 X166.387 Z-13.824
X166.419 Z-13.835
X166.459 Z-13.848
X166.5 Z-13.85
X264.989 Z-4.001
X265.016 Z-3.996
X265.041 Z-3.986
X265.073 Z-3.975
X265.107 Z-3.971
G2 X265.557 Y16.298 I0 J-0.45
G1 Y14.449
G2 X265.107 Y13.999 I-0.45 J0
G1 X265.073 Z-3.975
X265.041 Z-3.986
X265.016 Z-3.996
X264.989 Z-4.001
X166.5 Z-13.85
X166.459 Z-13.848
X166.419 Z-13.835
X166.387 Z-13.824
X166.353 Z-13.82
G3 X165.903 Y13.549 I0 J-0.45
G1 Y11.699
G3 X166.353 Y11.249 I0.45 J0
G1 X166.387 Z-13.824
X166.419 Z-13.835
X166.459 Z-13.848
X166.5 Z-13.85
X264.989 Z-4.001
X265.016 Z-3.996
X265.041 Z-3.986
X265.073 Z-3.975
X265.107 Z-3.971
G2 X265.557 Y10.799 I0 J-0.45
G1 Y8.949
G2 X265.107 Y8.499 I-0.45 J0
G1 X265.073 Z-3.975
X265.041 Z-3.986
X265.016 Z-3.996
X264.989 Z-4.001
X166.5 Z-13.85
X166.459 Z-13.848
X166.419 Z-13.835
X166.387 Z-13.824
X166.353 Z-13.82
G3 X165.903 Y8.049 I0 J-0.45
G1 Y6.199
G3 X166.353 Y5.749 I0.45 J0
G1 X166.387 Z-13.824
X166.419 Z-13.835
X166.459 Z-13.848
X166.5 Z-13.85
X264.989 Z-4.001
X265.016 Z-3.996
X265.041 Z-3.986
X265.073 Z-3.975
X265.107 Z-3.971
G2 X265.557 Y5.299 I0 J-0.45
G1 Y3.45
G2 X265.107 Y3 I-0.45 J0
G1 X265.073 Z-3.975
X265.041 Z-3.986
X265.016 Z-3.996
X264.989 Z-4.001
X166.5 Z-13.85
X166.459 Z-13.848
X166.419 Z-13.835
X166.387 Z-13.824
X166.353 Z-13.82
G3 X165.903 Y2.55 I0 J-0.45
G1 Y0.7
G3 X166.353 Y0.25 I0.45 J0
G1 X166.387 Z-13.824
X166.419 Z-13.835
X166.459 Z-13.848
X166.5 Z-13.85
X264.989 Z-4.001
X265.016 Z-3.996
X265.041 Z-3.986
X265.073 Z-3.975
X265.107 Z-3.971
G2 X265.557 Y-0.2 I0 J-0.45
G1 Y-2.05
G2 X265.107 Y-2.5 I-0.45 J0
G1 X265.073 Z-3.975
X265.041 Z-3.986
X265.016 Z-3.996
X264.989 Z-4.001
X166.5 Z-13.85
X166.459 Z-13.848
X166.419 Z-13.835
X166.387 Z-13.824
X166.353 Z-13.82
G3 X165.903 Y-2.95 I0 J-0.45
G1 Y-4.8
G3 X166.353 Y-5.25 I0.45 J0
G1 X166.387 Z-13.824
X166.419 Z-13.835
X166.459 Z-13.848
X166.5 Z-13.85
X264.989 Z-4.001
X265.016 Z-3.996
X265.041 Z-3.986
X265.073 Z-3.975
X265.107 Z-3.971
G2 X265.557 Y-5.7 I0 J-0.45
G1 Y-7.549
G2 X265.107 Y-7.999 I-0.45 J0
G1 X265.073 Z-3.975
X265.041 Z-3.986
X265.016 Z-3.996
X264.989 Z-4.001
X166.5 Z-13.85
X166.459 Z-13.848
X166.419 Z-13.835
X166.387 Z-13.824
X166.353 Z-13.82
G3 X165.903 Y-8.449 I0 J-0.45
G1 Y-10.299
G3 X166.353 Y-10.749 I0.45 J0
G1 X166.387 Z-13.824
X166.419 Z-13.835
X166.459 Z-13.848
X166.5 Z-13.85
X264.989 Z-4.001
X265.016 Z-3.996
X265.041 Z-3.986
X265.073 Z-3.975
X265.107 Z-3.971
G2 X265.557 Y-11.199 I0 J-0.45
G1 Y-13.049
G2 X265.107 Y-13.499 I-0.45 J0
G1 X265.073 Z-3.975
X265.041 Z-3.986
X265.016 Z-3.996
X264.989 Z-4.001
X166.5 Z-13.85
X166.459 Z-13.848
X166.419 Z-13.835
X166.387 Z-13.824
X166.353 Z-13.82
G3 X165.903 Y-13.949 I0 J-0.45
G1 Y-15.799
G3 X166.353 Y-16.249 I0.45 J0
G1 X166.387 Z-13.824
X166.419 Z-13.835
X166.459 Z-13.848
X166.5 Z-13.85
X264.989 Z-4.001
X265.016 Z-3.996
X265.041 Z-3.986
X265.073 Z-3.975
X265.107 Z-3.971
G2 X265.557 Y-16.699 I0 J-0.45
G1 Y-18.548
G2 X265.107 Y-18.998 I-0.45 J0
G1 X265.073 Z-3.975
X265.041 Z-3.986
X265.016 Z-3.996
X264.989 Z-4.001
X166.5 Z-13.85
X166.459 Z-13.848
X166.419 Z-13.835
X166.387 Z-13.824
X166.353 Z-13.82
G3 X165.903 Y-19.448 I0 J-0.45
G1 Y-21.298
G3 X166.353 Y-21.748 I0.45 J0
G1 X166.387 Z-13.824
X166.419 Z-13.835
X166.459 Z-13.848
X166.5 Z-13.85
X264.989 Z-4.001
X265.016 Z-3.996
X265.041 Z-3.986
X265.073 Z-3.975
X265.107 Z-3.971
G2 X265.557 Y-22.198 I0 J-0.45
G1 Y-24.048
G2 X265.107 Y-24.498 I-0.45 J0
G1 X265.073 Z-3.975
X265.041 Z-3.986
X265.016 Z-3.996
X264.989 Z-4.001
X166.5 Z-13.85
X166.459 Z-13.848
X166.419 Z-13.835
X166.387 Z-13.824
X166.353 Z-13.82
G3 X165.903 Y-24.948 I0 J-0.45
G1 Y-26.798
G3 X166.353 Y-27.248 I0.45 J0
G1 X166.387 Z-13.824
X166.419 Z-13.835
X166.459 Z-13.848
X166.5 Z-13.85
X264.989 Z-4.001
X265.016 Z-3.996
X265.041 Z-3.986
X265.073 Z-3.975
X265.107 Z-3.971
G2 X265.557 Y-27.698 I0 J-0.45
G1 Y-29.547
G2 X265.107 Y-29.997 I-0.45 J0
G1 X265.073 Z-3.975
X265.041 Z-3.986
X265.016 Z-3.996
X264.989 Z-4.001
X166.5 Z-13.85
X166.459 Z-13.848
X166.419 Z-13.835
X166.387 Z-13.824
X166.353 Z-13.82
G3 X165.903 Y-30.447 I0 J-0.45
G1 Y-32.297
G3 X166.353 Y-32.747 I0.45 J0
G1 X166.387 Z-13.824
X166.419 Z-13.835
X166.459 Z-13.848
X166.5 Z-13.85
X264.989 Z-4.001
X265.016 Z-3.996
X265.041 Z-3.986
X265.073 Z-3.975
X265.107 Z-3.971
G2 X265.557 Y-33.197 I0 J-0.45
G1 Y-35.047
G2 X265.107 Y-35.497 I-0.45 J0
G1 X265.073 Z-3.975
X265.041 Z-3.986
X265.016 Z-3.996
X264.989 Z-4.001
X166.5 Z-13.85
X166.459 Z-13.848
X166.419 Z-13.835
X166.387 Z-13.824
X166.353 Z-13.82
G3 X165.903 Y-35.947 I0 J-0.45
G1 Y-37.797
G3 X166.353 Y-38.247 I0.45 J0
G1 X166.387 Z-13.824
X166.419 Z-13.835
X166.459 Z-13.848
X166.5 Z-13.85
X264.989 Z-4.001
X265.016 Z-3.996
X265.041 Z-3.986
X265.073 Z-3.975
X265.107 Z-3.971
G2 X265.557 Y-38.697 I0 J-0.45
G1 Y-40.546
G2 X265.107 Y-40.996 I-0.45 J0
G1 X265.073 Z-3.975
X265.041 Z-3.986
X265.016 Z-3.996
X264.989 Z-4.001
X166.5 Z-13.85
X166.459 Z-13.848
X166.419 Z-13.835
X166.387 Z-13.824
X166.353 Z-13.82
G3 X165.903 Y-41.446 I0 J-0.45
G1 Y-43.296
G3 X166.353 Y-43.746 I0.45 J0
G1 X166.387 Z-13.824
X166.419 Z-13.835
X166.459 Z-13.848
X166.5 Z-13.85
X264.989 Z-4.001
X265.016 Z-3.996
X265.041 Z-3.986
X265.073 Z-3.975
X265.107 Z-3.971
G2 X265.557 Y-44.196 I0 J-0.45
G1 Y-46.046
G2 X265.107 Y-46.496 I-0.45 J0
G1 X265.073 Z-3.975
X265.041 Z-3.986
X265.016 Z-3.996
X264.989 Z-4.001
X166.5 Z-13.85
X166.459 Z-13.848
X166.419 Z-13.835
X166.387 Z-13.824
X166.353 Z-13.82
G3 X165.903 Y-46.946 I0 J-0.45
G1 Y-48.796
G3 X166.353 Y-49.246 I0.45 J0
G1 X166.387 Z-13.824
X166.419 Z-13.835
X166.459 Z-13.848
X166.5 Z-13.85
X264.989 Z-4.001
X265.016 Z-3.996
X265.041 Z-3.986
X265.073 Z-3.975
X265.107 Z-3.971
G2 X265.557 Y-49.696 I0 J-0.45
G1 Y-51.545
G2 X265.107 Y-51.995 I-0.45 J0
G1 X265.073 Z-3.975
X265.041 Z-3.986
X265.016 Z-3.996
X264.989 Z-4.001
X166.5 Z-13.85
X166.459 Z-13.848
X166.419 Z-13.835
X166.387 Z-13.824
X166.353 Z-13.82
G3 X165.903 Y-52.445 I0 J-0.45
G1 Y-54.295
G3 X166.353 Y-54.745 I0.45 J0
G1 X166.387 Z-13.824
X166.419 Z-13.835
X166.459 Z-13.848
X166.5 Z-13.85
X264.989 Z-4.001
X265.016 Z-3.996
X265.041 Z-3.986
X265.073 Z-3.975
X265.107 Z-3.971
G2 X265.557 Y-55.195 I0 J-0.45
G1 Y-57.045
G2 X265.107 Y-57.495 I-0.45 J0
G1 X265.073 Z-3.975
X265.041 Z-3.986
X265.016 Z-3.996
X264.989 Z-4.001
X166.5 Z-13.85
X166.459 Z-13.848
X166.419 Z-13.835
X166.387 Z-13.824
X166.353 Z-13.82
G3 X165.903 Y-57.945 I0 J-0.45
G1 Y-59.795
G3 X166.353 Y-60.245 I0.45 J0
G1 X166.387 Z-13.824
X166.419 Z-13.835
X166.459 Z-13.848
X166.5 Z-13.85
X264.989 Z-4.001
X265.016 Z-3.996
X265.041 Z-3.986
X265.073 Z-3.975
X265.107 Z-3.971
G2 X265.557 Y-60.695 I0 J-0.45
G1 Y-62.544
G2 X265.107 Y-62.994 I-0.45 J0
G1 X265.073 Z-3.975
X265.041 Z-3.986
X265.016 Z-3.996
X264.989 Z-4.001
X166.5 Z-13.85
X166.459 Z-13.848
X166.419 Z-13.835
X166.387 Z-13.824
X166.353 Z-13.82
G3 X165.903 Y-63.444 I0 J-0.45
G1 Y-65.294
G3 X166.353 Y-65.744 I0.45 J0
G1 X166.387 Z-13.824
X166.419 Z-13.835
X166.459 Z-13.848
X166.5 Z-13.85
X264.989 Z-4.001
X265.016 Z-3.996
X265.041 Z-3.986
X265.073 Z-3.975
X265.107 Z-3.971
G2 X265.557 Y-66.194 I0 J-0.45
G1 Y-68.044
G2 X265.107 Y-68.494 I-0.45 J0
G1 X265.073 Z-3.975
X265.041 Z-3.986
X265.016 Z-3.996
X264.989 Z-4.001
X166.5 Z-13.85
X166.459 Z-13.848
X166.419 Z-13.835
X166.387 Z-13.824
X166.353 Z-13.82
G3 X165.903 Y-68.944 I0 J-0.45
G1 Y-70.794
G3 X166.353 Y-71.244 I0.45 J0
G1 X166.387 Z-13.824
X166.419 Z-13.835
X166.459 Z-13.848
X166.5 Z-13.85
X264.989 Z-4.001
X265.016 Z-3.996
X265.041 Z-3.986
X265.073 Z-3.975
X265.107 Z-3.971
G2 X265.557 Y-71.694 I0 J-0.45
G1 Y-73.543
G2 X265.107 Y-73.993 I-0.45 J0
G1 X265.073 Z-3.975
X265.041 Z-3.986
X265.016 Z-3.996
X264.989 Z-4.001
X166.5 Z-13.85
X166.459 Z-13.848
X166.419 Z-13.835
X166.387 Z-13.824
X166.353 Z-13.82
G3 X165.903 Y-74.443 I0 J-0.45
G1 Y-76.293
G3 X166.353 Y-76.743 I0.45 J0
G1 X166.387 Z-13.824
X166.419 Z-13.835
X166.459 Z-13.848
X166.5 Z-13.85
X264.989 Z-4.001
X265.016 Z-3.996
X265.041 Z-3.986
X265.073 Z-3.975
X265.107 Z-3.971
G2 X265.557 Y-77.193 I0 J-0.45
G1 Y-79.043
G2 X265.107 Y-79.493 I-0.45 J0
G1 X265.073 Z-3.975
X265.041 Z-3.986
X265.016 Z-3.996
X264.989 Z-4.001
X166.5 Z-13.85
X166.459 Z-13.848
X166.419 Z-13.835
X166.387 Z-13.824
X166.353 Z-13.82
G3 X165.903 Y-79.943 I0 J-0.45
G1 Y-81.793
G3 X166.353 Y-82.243 I0.45 J0
G1 X166.387 Z-13.824
X166.419 Z-13.835
X166.459 Z-13.848
X166.5 Z-13.85
X264.989 Z-4.001
X265.016 Z-3.996
X265.041 Z-3.986
X265.073 Z-3.975
X265.107 Z-3.971
G2 X265.557 Y-82.693 I0 J-0.45
G1 Y-84.542
G2 X265.107 Y-84.992 I-0.45 J0
G1 X265.073 Z-3.975
X265.041 Z-3.986
X265.016 Z-3.996
X264.989 Z-4.001
X166.5 Z-13.85
X166.459 Z-13.848
X166.419 Z-13.835
X166.387 Z-13.824
X166.353 Z-13.82
G3 X165.903 Y-85.442 I0 J-0.45
G1 Y-87.292
G3 X166.353 Y-87.742 I0.45 J0
G1 X166.387 Z-13.824
X166.419 Z-13.835
X166.459 Z-13.848
X166.5 Z-13.85
X264.989 Z-4.001
X265.016 Z-3.996
X265.041 Z-3.986
X265.073 Z-3.975
X265.107 Z-3.971
G2 X265.557 Y-88.192 I0 J-0.45
G1 Y-90.042
G2 X265.107 Y-90.492 I-0.45 J0
G1 X265.073 Z-3.975
X265.041 Z-3.986
X265.016 Z-3.996
X264.989 Z-4.001
X166.5 Z-13.85
X166.459 Z-13.848
X166.419 Z-13.835
X166.387 Z-13.824
X166.353 Z-13.82
G3 X165.903 Y-90.942 I0 J-0.45
G1 Y-92.792
G3 X166.353 Y-93.242 I0.45 J0
G1 X166.387 Z-13.824
X166.419 Z-13.835
X166.459 Z-13.848
X166.5 Z-13.85
X264.989 Z-4.001
X265.016 Z-3.996
X265.041 Z-3.986
X265.073 Z-3.975
X265.107 Z-3.971
G2 X265.557 Y-93.692 I0 J-0.45
G1 Y-95.541
G2 X265.107 Y-95.991 I-0.45 J0
G1 X265.073 Z-3.975
X265.041 Z-3.986
X265.016 Z-3.996
X264.989 Z-4.001
X166.5 Z-13.85
X166.459 Z-13.848
X166.419 Z-13.835
X166.387 Z-13.824
X166.353 Z-13.82
G3 X165.903 Y-96.441 I0 J-0.45
G1 Y-98.291
G3 X166.353 Y-98.741 I0.45 J0
G1 X166.387 Z-13.824
X166.419 Z-13.835
X166.459 Z-13.848
X166.5 Z-13.85
X264.989 Z-4.001
X265.016 Z-3.996
X265.041 Z-3.986
X265.073 Z-3.975
X265.107 Z-3.971
G2 X265.557 Y-99.191 I0 J-0.45
G1 Y-101.041
G2 X265.107 Y-101.491 I-0.45 J0
G1 X265.073 Z-3.975
X265.041 Z-3.986
X265.016 Z-3.996
X264.989 Z-4.001
X166.5 Z-13.85
X166.459 Z-13.848
X166.419 Z-13.835
X166.387 Z-13.824
X166.353 Z-13.82
G3 X165.903 Y-101.941 I0 J-0.45
G1 Y-103.791
G3 X166.353 Y-104.241 I0.45 J0
G1 X166.387 Z-13.824
X166.419 Z-13.835
X166.459 Z-13.848
X166.5 Z-13.85
X264.989 Z-4.001
X265.016 Z-3.996
X265.041 Z-3.986
X265.073 Z-3.975
X265.107 Z-3.971
G2 X265.557 Y-104.691 I0 J-0.45
G1 Y-106.54
G2 X265.107 Y-106.99 I-0.45 J0
G1 X265.073 Z-3.975
X265.041 Z-3.986
X265.016 Z-3.996
X264.989 Z-4.001
X166.5 Z-13.85
X166.459 Z-13.848
X166.419 Z-13.835
X166.387 Z-13.824
X166.353 Z-13.82
G3 X165.903 Y-107.44 I0 J-0.45
G1 Y-109.29
G3 X166.353 Y-109.74 I0.45 J0
G1 X166.387 Z-13.824
X166.419 Z-13.835
X166.459 Z-13.848
X166.5 Z-13.85
X264.989 Z-4.001
X265.016 Z-3.996
X265.041 Z-3.986
X265.073 Z-3.975
X265.107 Z-3.971
G2 X265.557 Y-110.19 I0 J-0.45
G1 Y-112.04
G2 X265.107 Y-112.49 I-0.45 J0
G1 X265.073 Z-3.975
X265.041 Z-3.986
X265.016 Z-3.996
X264.989 Z-4.001
X166.5 Z-13.85
X166.459 Z-13.848
X166.419 Z-13.835
X166.387 Z-13.824
X166.353 Z-13.82
G3 X165.903 Y-112.94 I0 J-0.45
G1 Y-114.79
G3 X166.353 Y-115.24 I0.45 J0
G1 X166.387 Z-13.824
X166.419 Z-13.835
X166.459 Z-13.848
X166.5 Z-13.85
X264.989 Z-4.001
X265.016 Z-3.996
X265.041 Z-3.986
X265.073 Z-3.975
X265.107 Z-3.971
G2 X265.557 Y-115.69 I0 J-0.45
G1 Y-117.539
G2 X265.107 Y-117.989 I-0.45 J0
G1 X265.073 Z-3.975
X265.041 Z-3.986
X265.016 Z-3.996
X264.989 Z-4.001
X166.5 Z-13.85
X166.459 Z-13.848
X166.419 Z-13.835
X166.387 Z-13.824
X166.353 Z-13.82
G3 X165.903 Y-118.439 I0 J-0.45
G1 Y-120.289
G3 X166.353 Y-120.739 I0.45 J0
G1 X166.387 Z-13.824
X166.419 Z-13.835
X166.459 Z-13.848
X166.5 Z-13.85
X264.989 Z-4.001
X265.016 Z-3.996
X265.041 Z-3.986
X265.073 Z-3.975
X265.107 Z-3.971
G2 X265.557 Y-121.189 I0 J-0.45
G1 Y-123.039
G2 X265.107 Y-123.489 I-0.45 J0
G1 X265.073 Z-3.975
X265.041 Z-3.986
X265.016 Z-3.996
X264.989 Z-4.001
X166.5 Z-13.85
X166.459 Z-13.848
X166.419 Z-13.835
X166.387 Z-13.824
X166.353 Z-13.82
G3 X165.903 Y-123.939 I0 J-0.45
G1 Y-125.789
G3 X166.353 Y-126.239 I0.45 J0
G1 X166.387 Z-13.824
X166.419 Z-13.835
X166.459 Z-13.848
X166.5 Z-13.85
X264.989 Z-4.001
X265.016 Z-3.996
X265.041 Z-3.986
X265.073 Z-3.975
X265.107 Z-3.971
G2 X265.557 Y-126.689 I0 J-0.45
G1 Y-128.538
G2 X265.107 Y-128.988 I-0.45 J0
G1 X265.073 Z-3.975
X265.041 Z-3.986
X265.016 Z-3.996
X264.989 Z-4.001
X166.5 Z-13.85
X166.459 Z-13.848
X166.419 Z-13.835
X166.387 Z-13.824
X166.353 Z-13.82
G3 X165.903 Y-129.438 I0 J-0.45
G1 Y-131.288
G3 X166.353 Y-131.738 I0.45 J0
G1 X166.387 Z-13.824
X166.419 Z-13.835
X166.459 Z-13.848
X166.5 Z-13.85
X264.989 Z-4.001
X265.016 Z-3.996
X265.041 Z-3.986
X265.073 Z-3.975
X265.107 Z-3.971
G2 X265.557 Y-132.188 I0 J-0.45
G1 Y-134.038
G2 X265.107 Y-134.488 I-0.45 J0
G1 X265.073 Z-3.975
X265.041 Z-3.986
X265.016 Z-3.996
X264.989 Z-4.001
X166.5 Z-13.85
X166.459 Z-13.848
X166.419 Z-13.835
X166.387 Z-13.824
X166.353 Z-13.82
G3 X165.903 Y-134.938 I0 J-0.45
G1 Y-136.788
G3 X166.353 Y-137.238 I0.45 J0
G1 X166.387 Z-13.824
X166.419 Z-13.835
X166.459 Z-13.848
X166.5 Z-13.85
X264.989 Z-4.001
X265.016 Z-3.996
X265.041 Z-3.986
X265.073 Z-3.975
X265.107 Z-3.971
G2 X265.557 Y-137.688 I0 J-0.45
G1 Y-139.537
G2 X265.107 Y-139.987 I-0.45 J0
G1 X265.073 Z-3.975
X265.041 Z-3.986
X265.016 Z-3.996
X264.989 Z-4.001
X166.5 Z-13.85
X166.459 Z-13.848
X166.419 Z-13.835
X166.387 Z-13.824
X166.353 Z-13.82
G3 X165.903 Y-140.437 I0 J-0.45
G1 Y-142.287
G3 X166.353 Y-142.737 I0.45 J0
G1 X166.387 Z-13.824
X166.419 Z-13.835
X166.459 Z-13.848
X166.5 Z-13.85
X264.989 Z-4.001
X265.016 Z-3.996
X265.041 Z-3.986
X265.073 Z-3.975
X265.107 Z-3.971
G2 X265.557 Y-143.187 I0 J-0.45
G1 Y-145.037
G2 X265.107 Y-145.487 I-0.45 J0
G1 X265.073 Z-3.975
X265.041 Z-3.986
X265.016 Z-3.996
X264.989 Z-4.001
X166.5 Z-13.85
X166.459 Z-13.848
X166.419 Z-13.835
X166.387 Z-13.824
X166.353 Z-13.82
G3 X165.903 Y-145.937 I0 J-0.45
G1 Y-147.787
G3 X166.353 Y-148.237 I0.45 J0
G1 X166.387 Z-13.824
X166.419 Z-13.835
X166.459 Z-13.848
X166.5 Z-13.85
X264.989 Z-4.001
G18 G2 X265.26 Z-3.703 I-0.03 K0.299
G0 Z5
X264.989 Y148.736
Z-3
G1 Z-8.001 F333.3
X166.5 Z-17.85 F1000
X166.459 Z-17.848
X166.419 Z-17.835
X166.387 Z-17.824
X166.353 Z-17.82
G17 G3 X165.903 Y148.286 I0 J-0.45
G1 Y146.437
G3 X166.353 Y145.987 I0.45 J0
G1 X166.387 Z-17.824
X166.419 Z-17.835
X166.459 Z-17.848
X166.5 Z-17.85
X264.989 Z-8.001
Y145.979 Z-7.955
Y145.958 Z-7.913
Y145.925 Z-7.88
Y145.883 Z-7.858
Y145.837 Z-7.851
Y143.387
Y143.341 Z-7.858
Y143.299 Z-7.88
Y143.266 Z-7.913
Y143.244 Z-7.955
Y143.237 Z-8.001
X166.5 Z-17.85
X166.459 Z-17.848
X166.419 Z-17.835
X166.387 Z-17.824
X166.353 Z-17.82
G3 X165.903 Y142.787 I0 J-0.45
G1 Y140.937
G3 X166.353 Y140.487 I0.45 J0
G1 X166.387 Z-17.824
X166.419 Z-17.835
X166.459 Z-17.848
X166.5 Z-17.85
X264.989 Z-8.001
Y140.48 Z-7.955
Y140.459 Z-7.913
Y140.425 Z-7.88
Y140.384 Z-7.858
Y140.337 Z-7.851
Y137.887
Y137.841 Z-7.858
Y137.799 Z-7.88
Y137.766 Z-7.913
Y137.745 Z-7.955
Y137.738 Z-8.001
X166.5 Z-17.85
X166.459 Z-17.848
X166.419 Z-17.835
X166.387 Z-17.824
X166.353 Z-17.82
G3 X165.903 Y137.287 I0 J-0.45
G1 Y135.438
G3 X166.353 Y134.988 I0.45 J0
G1 X166.387 Z-17.824
X166.419 Z-17.835
X166.459 Z-17.848
X166.5 Z-17.85
X264.989 Z-8.001
Y134.98 Z-7.955
Y134.959 Z-7.913
Y134.926 Z-7.88
Y134.884 Z-7.858
Y134.838 Z-7.851
Y132.388
Y132.342 Z-7.858
Y132.3 Z-7.88
Y132.267 Z-7.913
Y132.245 Z-7.955
Y132.238 Z-8.001
X166.5 Z-17.85
X166.459 Z-17.848
X166.419 Z-17.835
X166.387 Z-17.824
X166.353 Z-17.82
G3 X165.903 Y131.788 I0 J-0.45
G1 Y129.938
G3 X166.353 Y129.488 I0.45 J0
G1 X166.387 Z-17.824
X166.419 Z-17.835
X166.459 Z-17.848
X166.5 Z-17.85
X264.989 Z-8.001
Y129.481 Z-7.955
Y129.46 Z-7.913
Y129.426 Z-7.88
Y129.385 Z-7.858
Y129.338 Z-7.851
Y126.888
Y126.842 Z-7.858
Y126.8 Z-7.88
Y126.767 Z-7.913
Y126.746 Z-7.955
Y126.738 Z-8.001
X166.5 Z-17.85
X166.459 Z-17.848
X166.419 Z-17.835
X166.387 Z-17.824
X166.353 Z-17.82
G3 X165.903 Y126.288 I0 J-0.45
G1 Y124.439
G3 X166.353 Y123.989 I0.45 J0
G1 X166.387 Z-17.824
X166.419 Z-17.835
X166.459 Z-17.848
X166.5 Z-17.85
X264.989 Z-8.001
Y123.981 Z-7.955
Y123.96 Z-7.913
Y123.927 Z-7.88
Y123.885 Z-7.858
Y123.839 Z-7.851
Y121.389
Y121.343 Z-7.858
Y121.301 Z-7.88
Y121.268 Z-7.913
Y121.246 Z-7.955
Y121.239 Z-8.001
X166.5 Z-17.85
X166.459 Z-17.848
X166.419 Z-17.835
X166.387 Z-17.824
X166.353 Z-17.82
G3 X165.903 Y120.789 I0 J-0.45
G1 Y118.939
G3 X166.353 Y118.489 I0.45 J0
G1 X166.387 Z-17.824
X166.419 Z-17.835
X166.459 Z-17.848
X166.5 Z-17.85
X264.989 Z-8.001
Y118.482 Z-7.955
Y118.461 Z-7.913
Y118.427 Z-7.88
Y118.386 Z-7.858
Y118.339 Z-7.851
Y115.889
Y115.843 Z-7.858
Y115.801 Z-7.88
Y115.768 Z-7.913
Y115.747 Z-7.955
Y115.739 Z-8.001
X166.5 Z-17.85
X166.459 Z-17.848
X166.419 Z-17.835
X166.387 Z-17.824
X166.353 Z-17.82
G3 X165.903 Y115.289 I0 J-0.45
G1 Y113.44
G3 X166.353 Y112.99 I0.45 J0
G1 X166.387 Z-17.824
X166.419 Z-17.835
X166.459 Z-17.848
X166.5 Z-17.85
X264.989 Z-8.001
Y112.982 Z-7.955
Y112.961 Z-7.913
Y112.928 Z-7.88
Y112.886 Z-7.858
Y112.84 Z-7.851
Y110.39
Y110.344 Z-7.858
Y110.302 Z-7.88
Y110.269 Z-7.913
Y110.247 Z-7.955
Y110.24 Z-8.001
X166.5 Z-17.85
X166.459 Z-17.848
X166.419 Z-17.835
X166.387 Z-17.824
X166.353 Z-17.82
G3 X165.903 Y109.79 I0 J-0.45
G1 Y107.94
G3 X166.353 Y107.49 I0.45 J0
G1 X166.387 Z-17.824
X166.419 Z-17.835
X166.459 Z-17.848
X166.5 Z-17.85
X264.989 Z-8.001
Y107.483 Z-7.955
Y107.462 Z-7.913
Y107.428 Z-7.88
Y107.387 Z-7.858
Y107.34 Z-7.851
Y104.89
Y104.844 Z-7.858
Y104.802 Z-7.88
Y104.769 Z-7.913
Y104.748 Z-7.955
Y104.74 Z-8.001
X166.5 Z-17.85
X166.459 Z-17.848
X166.419 Z-17.835
X166.387 Z-17.824
X166.353 Z-17.82
G3 X165.903 Y104.29 I0 J-0.45
G1 Y102.441
G3 X166.353 Y101.991 I0.45 J0
G1 X166.387 Z-17.824
X166.419 Z-17.835
X166.459 Z-17.848
X166.5 Z-17.85
X264.989 Z-8.001
Y101.983 Z-7.955
Y101.962 Z-7.913
Y101.929 Z-7.88
Y101.887 Z-7.858
Y101.841 Z-7.851
Y99.391
Y99.345 Z-7.858
Y99.303 Z-7.88
Y99.27 Z-7.913
Y99.248 Z-7.955
Y99.241 Z-8.001
X166.5 Z-17.85
X166.459 Z-17.848
X166.419 Z-17.835
X166.387 Z-17.824
X166.353 Z-17.82
G3 X165.903 Y98.791 I0 J-0.45
G1 Y96.941
G3 X166.353 Y96.491 I0.45 J0
G1 X166.387 Z-17.824
X166.419 Z-17.835
X166.459 Z-17.848
X166.5 Z-17.85
X264.989 Z-8.001
Y96.484 Z-7.955
Y96.463 Z-7.913
Y96.429 Z-7.88
Y96.388 Z-7.858
Y96.341 Z-7.851
Y93.891
Y93.845 Z-7.858
Y93.803 Z-7.88
Y93.77 Z-7.913
Y93.749 Z-7.955
Y93.741 Z-8.001
X166.5 Z-17.85
X166.459 Z-17.848
X166.419 Z-17.835
X166.387 Z-17.824
X166.353 Z-17.82
G3 X165.903 Y93.291 I0 J-0.45
G1 Y91.442
G3 X166.353 Y90.992 I0.45 J0
G1 X166.387 Z-17.824
X166.419 Z-17.835
X166.459 Z-17.848
X166.5 Z-17.85
X264.989 Z-8.001
Y90.984 Z-7.955
Y90.963 Z-7.913
Y90.93 Z-7.88
Y90.888 Z-7.858
Y90.842 Z-7.851
Y88.392
Y88.346 Z-7.858
Y88.304 Z-7.88
Y88.271 Z-7.913
Y88.249 Z-7.955
Y88.242 Z-8.001
X166.5 Z-17.85
X166.459 Z-17.848
X166.419 Z-17.835
X166.387 Z-17.824
X166.353 Z-17.82
G3 X165.903 Y87.792 I0 J-0.45
G1 Y85.942
G3 X166.353 Y85.492 I0.45 J0
G1 X166.387 Z-17.824
X166.419 Z-17.835
X166.459 Z-17.848
X166.5 Z-17.85
X264.989 Z-8.001
Y85.485 Z-7.955
Y85.464 Z-7.913
Y85.43 Z-7.88
Y85.389 Z-7.858
Y85.342 Z-7.851
Y82.892
Y82.846 Z-7.858
Y82.804 Z-7.88
Y82.771 Z-7.913
Y82.75 Z-7.955
Y82.742 Z-8.001
X166.5 Z-17.85
X166.459 Z-17.848
X166.419 Z-17.835
X166.387 Z-17.824
X166.353 Z-17.82
G3 X165.903 Y82.292 I0 J-0.45
G1 Y80.443
G3 X166.353 Y79.993 I0.45 J0
G1 X166.387 Z-17.824
X166.419 Z-17.835
X166.459 Z-17.848
X166.5 Z-17.85
X264.989 Z-8.001
Y79.985 Z-7.955
Y79.964 Z-7.913
Y79.931 Z-7.88
Y79.889 Z-7.858
Y79.843 Z-7.851
Y77.393
Y77.347 Z-7.858
Y77.305 Z-7.88
Y77.272 Z-7.913
Y77.25 Z-7.955
Y77.243 Z-8.001
X166.5 Z-17.85
X166.459 Z-17.848
X166.419 Z-17.835
X166.387 Z-17.824
X166.353 Z-17.82
G3 X165.903 Y76.793 I0 J-0.45
G1 Y74.943
G3 X166.353 Y74.493 I0.45 J0
G1 X166.387 Z-17.824
X166.419 Z-17.835
X166.459 Z-17.848
X166.5 Z-17.85
X264.989 Z-8.001
Y74.486 Z-7.955
Y74.465 Z-7.913
Y74.431 Z-7.88
Y74.39 Z-7.858
Y74.343 Z-7.851
Y71.893
Y71.847 Z-7.858
Y71.805 Z-7.88
Y71.772 Z-7.913
Y71.751 Z-7.955
Y71.743 Z-8.001
X166.5 Z-17.85
X166.459 Z-17.848
X166.419 Z-17.835
X166.387 Z-17.824
X166.353 Z-17.82
G3 X165.903 Y71.293 I0 J-0.45
G1 Y69.444
G3 X166.353 Y68.994 I0.45 J0
G1 X166.387 Z-17.824
X166.419 Z-17.835
X166.459 Z-17.848
X166.5 Z-17.85
X264.989 Z-8.001
Y68.986 Z-7.955
Y68.965 Z-7.913
Y68.932 Z-7.88
Y68.89 Z-7.858
Y68.844 Z-7.851
Y66.394
Y66.348 Z-7.858
Y66.306 Z-7.88
Y66.273 Z-7.913
Y66.251 Z-7.955
Y66.244 Z-8.001
X166.5 Z-17.85
X166.459 Z-17.848
X166.419 Z-17.835
X166.387 Z-17.824
X166.353 Z-17.82
G3 X165.903 Y65.794 I0 J-0.45
G1 Y63.944
G3 X166.353 Y63.494 I0.45 J0
G1 X166.387 Z-17.824
X166.419 Z-17.835
X166.459 Z-17.848
X166.5 Z-17.85
X264.989 Z-8.001
Y63.487 Z-7.955
Y63.466 Z-7.913
Y63.432 Z-7.88
Y63.391 Z-7.858
Y63.344 Z-7.851
Y60.894
Y60.848 Z-7.858
Y60.806 Z-7.88
Y60.773 Z-7.913
Y60.752 Z-7.955
Y60.744 Z-8.001
X166.5 Z-17.85
X166.459 Z-17.848
X166.419 Z-17.835
X166.387 Z-17.824
X166.353 Z-17.82
G3 X165.903 Y60.294 I0 J-0.45
G1 Y58.445
G3 X166.353 Y57.995 I0.45 J0
G1 X166.387 Z-17.824
X166.419 Z-17.835
X166.459 Z-17.848
X166.5 Z-17.85
X264.989 Z-8.001
Y57.987 Z-7.955
Y57.966 Z-7.913
Y57.933 Z-7.88
Y57.891 Z-7.858
Y57.845 Z-7.851
Y55.395
Y55.349 Z-7.858
Y55.307 Z-7.88
Y55.274 Z-7.913
Y55.252 Z-7.955
Y55.245 Z-8.001
X166.5 Z-17.85
X166.459 Z-17.848
X166.419 Z-17.835
X166.387 Z-17.824
X166.353 Z-17.82
G3 X165.903 Y54.795 I0 J-0.45
G1 Y52.945
G3 X166.353 Y52.495 I0.45 J0
G1 X166.387 Z-17.824
X166.419 Z-17.835
X166.459 Z-17.848
X166.5 Z-17.85
X264.989 Z-8.001
Y52.488 Z-7.955
Y52.467 Z-7.913
Y52.433 Z-7.88
Y52.392 Z-7.858
Y52.345 Z-7.851
Y49.895
Y49.849 Z-7.858
Y49.807 Z-7.88
Y49.774 Z-7.913
Y49.753 Z-7.955
Y49.745 Z-8.001
X166.5 Z-17.85
X166.459 Z-17.848
X166.419 Z-17.835
X166.387 Z-17.824
X166.353 Z-17.82
G3 X165.903 Y49.295 I0 J-0.45
G1 Y47.446
G3 X166.353 Y46.996 I0.45 J0
G1 X166.387 Z-17.824
X166.419 Z-17.835
X166.459 Z-17.848
X166.5 Z-17.85
X264.989 Z-8.001
Y46.988 Z-7.955
Y46.967 Z-7.913
Y46.934 Z-7.88
Y46.892 Z-7.858
Y46.846 Z-7.851
Y44.396
Y44.35 Z-7.858
Y44.308 Z-7.88
Y44.275 Z-7.913
Y44.253 Z-7.955
Y44.246 Z-8.001
X166.5 Z-17.85
X166.459 Z-17.848
X166.419 Z-17.835
X166.387 Z-17.824
X166.353 Z-17.82
G3 X165.903 Y43.796 I0 J-0.45
G1 Y41.946
G3 X166.353 Y41.496 I0.45 J0
G1 X166.387 Z-17.824
X166.419 Z-17.835
X166.459 Z-17.848
X166.5 Z-17.85
X264.989 Z-8.001
Y41.489 Z-7.955
Y41.468 Z-7.913
Y41.434 Z-7.88
Y41.393 Z-7.858
Y41.346 Z-7.851
Y38.896
Y38.85 Z-7.858
Y38.808 Z-7.88
Y38.775 Z-7.913
Y38.754 Z-7.955
Y38.746 Z-8.001
X166.5 Z-17.85
X166.459 Z-17.848
X166.419 Z-17.835
X166.387 Z-17.824
X166.353 Z-17.82
G3 X165.903 Y38.296 I0 J-0.45
G1 Y36.447
G3 X166.353 Y35.997 I0.45 J0
G1 X166.387 Z-17.824
X166.419 Z-17.835
X166.459 Z-17.848
X166.5 Z-17.85
X264.989 Z-8.001
Y35.989 Z-7.955
Y35.968 Z-7.913
Y35.935 Z-7.88
Y35.893 Z-7.858
Y35.847 Z-7.851
Y33.397
Y33.351 Z-7.858
Y33.309 Z-7.88
Y33.276 Z-7.913
Y33.254 Z-7.955
Y33.247 Z-8.001
X166.5 Z-17.85
X166.459 Z-17.848
X166.419 Z-17.835
X166.387 Z-17.824
X166.353 Z-17.82
G3 X165.903 Y32.797 I0 J-0.45
G1 Y30.947
G3 X166.353 Y30.497 I0.45 J0
G1 X166.387 Z-17.824
X166.419 Z-17.835
X166.459 Z-17.848
X166.5 Z-17.85
X264.989 Z-8.001
Y30.49 Z-7.955
Y30.469 Z-7.913
Y30.435 Z-7.88
Y30.394 Z-7.858
Y30.347 Z-7.851
Y27.897
Y27.851 Z-7.858
Y27.809 Z-7.88
Y27.776 Z-7.913
Y27.755 Z-7.955
Y27.747 Z-8.001
X166.5 Z-17.85
X166.459 Z-17.848
X166.419 Z-17.835
X166.387 Z-17.824
X166.353 Z-17.82
G3 X165.903 Y27.297 I0 J-0.45
G1 Y25.448
G3 X166.353 Y24.998 I0.45 J0
G1 X166.387 Z-17.824
X166.419 Z-17.835
X166.459 Z-17.848
X166.5 Z-17.85
X264.989 Z-8.001
Y24.99 Z-7.955
Y24.969 Z-7.913
Y24.936 Z-7.88
Y24.894 Z-7.858
Y24.848 Z-7.851
Y22.398
Y22.352 Z-7.858
Y22.31 Z-7.88
Y22.277 Z-7.913
Y22.255 Z-7.955
Y22.248 Z-8.001
X166.5 Z-17.85
X166.459 Z-17.848
X166.419 Z-17.835
X166.387 Z-17.824
X166.353 Z-17.82
G3 X165.903 Y21.798 I0 J-0.45
G1 Y19.948
G3 X166.353 Y19.498 I0.45 J0
G1 X166.387 Z-17.824
X166.419 Z-17.835
X166.459 Z-17.848
X166.5 Z-17.85
X264.989 Z-8.001
Y19.491 Z-7.955
Y19.47 Z-7.913
Y19.436 Z-7.88
Y19.395 Z-7.858
Y19.348 Z-7.851
Y16.898
Y16.852 Z-7.858
Y16.81 Z-7.88
Y16.777 Z-7.913
Y16.756 Z-7.955
Y16.748 Z-8.001
X166.5 Z-17.85
X166.459 Z-17.848
X166.419 Z-17.835
X166.387 Z-17.824
X166.353 Z-17.82
G3 X165.903 Y16.298 I0 J-0.45
G1 Y14.449
G3 X166.353 Y13.999 I0.45 J0
G1 X166.387 Z-17.824
X166.419 Z-17.835
X166.459 Z-17.848
X166.5 Z-17.85
X264.989 Z-8.001
Y13.991 Z-7.955
Y13.97 Z-7.913
Y13.937 Z-7.88
Y13.895 Z-7.858
Y13.849 Z-7.851
Y11.399
Y11.353 Z-7.858
Y11.311 Z-7.88
Y11.278 Z-7.913
Y11.256 Z-7.955
Y11.249 Z-8.001
X166.5 Z-17.85
X166.459 Z-17.848
X166.419 Z-17.835
X166.387 Z-17.824
X166.353 Z-17.82
G3 X165.903 Y10.799 I0 J-0.45
G1 Y8.949
G3 X166.353 Y8.499 I0.45 J0
G1 X166.387 Z-17.824
X166.419 Z-17.835
X166.459 Z-17.848
X166.5 Z-17.85
X264.989 Z-8.001
Y8.492 Z-7.955
Y8.471 Z-7.913
Y8.437 Z-7.88
Y8.396 Z-7.858
Y8.349 Z-7.851
Y5.899
Y5.853 Z-7.858
Y5.811 Z-7.88
Y5.778 Z-7.913
Y5.757 Z-7.955
Y5.749 Z-8.001
X166.5 Z-17.85
X166.459 Z-17.848
X166.419 Z-17.835
X166.387 Z-17.824
X166.353 Z-17.82
G3 X165.903 Y5.299 I0 J-0.45
G1 Y3.45
G3 X166.353 Y3 I0.45 J0
G1 X166.387 Z-17.824
X166.419 Z-17.835
X166.459 Z-17.848
X166.5 Z-17.85
X264.989 Z-8.001
Y2.992 Z-7.955
Y2.971 Z-7.913
Y2.938 Z-7.88
Y2.896 Z-7.858
Y2.85 Z-7.851
Y0.4
Y0.354 Z-7.858
Y0.312 Z-7.88
Y0.279 Z-7.913
Y0.257 Z-7.955
Y0.25 Z-8.001
X166.5 Z-17.85
X166.459 Z-17.848
X166.419 Z-17.835
X166.387 Z-17.824
X166.353 Z-17.82
G3 X165.903 Y-0.2 I0 J-0.45
G1 Y-2.05
G3 X166.353 Y-2.5 I0.45 J0
G1 X166.387 Z-17.824
X166.419 Z-17.835
X166.459 Z-17.848
X166.5 Z-17.85
X264.989 Z-8.001
Y-2.507 Z-7.955
Y-2.528 Z-7.913
Y-2.562 Z-7.88
Y-2.603 Z-7.858
Y-2.65 Z-7.851
Y-5.1
Y-5.146 Z-7.858
Y-5.188 Z-7.88
Y-5.221 Z-7.913
Y-5.242 Z-7.955
Y-5.25 Z-8.001
X166.5 Z-17.85
X166.459 Z-17.848
X166.419 Z-17.835
X166.387 Z-17.824
X166.353 Z-17.82
G3 X165.903 Y-5.7 I0 J-0.45
G1 Y-7.549
G3 X166.353 Y-7.999 I0.45 J0
G1 X166.387 Z-17.824
X166.419 Z-17.835
X166.459 Z-17.848
X166.5 Z-17.85
X264.989 Z-8.001
Y-8.007 Z-7.955
Y-8.028 Z-7.913
Y-8.061 Z-7.88
Y-8.103 Z-7.858
Y-8.149 Z-7.851
Y-10.599
Y-10.645 Z-7.858
Y-10.687 Z-7.88
Y-10.72 Z-7.913
Y-10.742 Z-7.955
Y-10.749 Z-8.001
X166.5 Z-17.85
X166.459 Z-17.848
X166.419 Z-17.835
X166.387 Z-17.824
X166.353 Z-17.82
G3 X165.903 Y-11.199 I0 J-0.45
G1 Y-13.049
G3 X166.353 Y-13.499 I0.45 J0
G1 X166.387 Z-17.824
X166.419 Z-17.835
X166.459 Z-17.848
X166.5 Z-17.85
X264.989 Z-8.001
Y-13.506 Z-7.955
Y-13.527 Z-7.913
Y-13.561 Z-7.88
Y-13.602 Z-7.858
Y-13.649 Z-7.851
Y-16.099
Y-16.145 Z-7.858
Y-16.187 Z-7.88
Y-16.22 Z-7.913
Y-16.241 Z-7.955
Y-16.249 Z-8.001
X166.5 Z-17.85
X166.459 Z-17.848
X166.419 Z-17.835
X166.387 Z-17.824
X166.353 Z-17.82
G3 X165.903 Y-16.699 I0 J-0.45
G1 Y-18.548
G3 X166.353 Y-18.998 I0.45 J0
G1 X166.387 Z-17.824
X166.419 Z-17.835
X166.459 Z-17.848
X166.5 Z-17.85
X264.989 Z-8.001
Y-19.006 Z-7.955
Y-19.027 Z-7.913
Y-19.06 Z-7.88
Y-19.102 Z-7.858
Y-19.148 Z-7.851
Y-21.598
Y-21.644 Z-7.858
Y-21.686 Z-7.88
Y-21.719 Z-7.913
Y-21.741 Z-7.955
Y-21.748 Z-8.001
X166.5 Z-17.85
X166.459 Z-17.848
X166.419 Z-17.835
X166.387 Z-17.824
X166.353 Z-17.82
G3 X165.903 Y-22.198 I0 J-0.45
G1 Y-24.048
G3 X166.353 Y-24.498 I0.45 J0
G1 X166.387 Z-17.824
X166.419 Z-17.835
X166.459 Z-17.848
X166.5 Z-17.85
X264.989 Z-8.001
Y-24.505 Z-7.955
Y-24.526 Z-7.913
Y-24.56 Z-7.88
Y-24.601 Z-7.858
Y-24.648 Z-7.851
Y-27.098
Y-27.144 Z-7.858
Y-27.186 Z-7.88
Y-27.219 Z-7.913
Y-27.24 Z-7.955
Y-27.248 Z-8.001
X166.5 Z-17.85
X166.459 Z-17.848
X166.419 Z-17.835
X166.387 Z-17.824
X166.353 Z-17.82
G3 X165.903 Y-27.698 I0 J-0.45
G1 Y-29.547
G3 X166.353 Y-29.997 I0.45 J0
G1 X166.387 Z-17.824
X166.419 Z-17.835
X166.459 Z-17.848
X166.5 Z-17.85
X264.989 Z-8.001
Y-30.005 Z-7.955
Y-30.026 Z-7.913
Y-30.059 Z-7.88
Y-30.101 Z-7.858
Y-30.147 Z-7.851
Y-32.597
Y-32.643 Z-7.858
Y-32.685 Z-7.88
Y-32.718 Z-7.913
Y-32.74 Z-7.955
Y-32.747 Z-8.001
X166.5 Z-17.85
X166.459 Z-17.848
X166.419 Z-17.835
X166.387 Z-17.824
X166.353 Z-17.82
G3 X165.903 Y-33.197 I0 J-0.45
G1 Y-35.047
G3 X166.353 Y-35.497 I0.45 J0
G1 X166.387 Z-17.824
X166.419 Z-17.835
X166.459 Z-17.848
X166.5 Z-17.85
X264.989 Z-8.001
Y-35.504 Z-7.955
Y-35.525 Z-7.913
Y-35.559 Z-7.88
Y-35.6 Z-7.858
Y-35.647 Z-7.851
Y-38.097
Y-38.143 Z-7.858
Y-38.185 Z-7.88
Y-38.218 Z-7.913
Y-38.239 Z-7.955
Y-38.247 Z-8.001
X166.5 Z-17.85
X166.459 Z-17.848
X166.419 Z-17.835
X166.387 Z-17.824
X166.353 Z-17.82
G3 X165.903 Y-38.697 I0 J-0.45
G1 Y-40.546
G3 X166.353 Y-40.996 I0.45 J0
G1 X166.387 Z-17.824
X166.419 Z-17.835
X166.459 Z-17.848
X166.5 Z-17.85
X264.989 Z-8.001
Y-41.004 Z-7.955
Y-41.025 Z-7.913
Y-41.058 Z-7.88
Y-41.1 Z-7.858
Y-41.146 Z-7.851
Y-43.596
Y-43.642 Z-7.858
Y-43.684 Z-7.88
Y-43.717 Z-7.913
Y-43.739 Z-7.955
Y-43.746 Z-8.001
X166.5 Z-17.85
X166.459 Z-17.848
X166.419 Z-17.835
X166.387 Z-17.824
X166.353 Z-17.82
G3 X165.903 Y-44.196 I0 J-0.45
G1 Y-46.046
G3 X166.353 Y-46.496 I0.45 J0
G1 X166.387 Z-17.824
X166.419 Z-17.835
X166.459 Z-17.848
X166.5 Z-17.85
X264.989 Z-8.001
Y-46.503 Z-7.955
Y-46.524 Z-7.913
Y-46.558 Z-7.88
Y-46.599 Z-7.858
Y-46.646 Z-7.851
Y-49.096
Y-49.142 Z-7.858
Y-49.184 Z-7.88
Y-49.217 Z-7.913
Y-49.238 Z-7.955
Y-49.246 Z-8.001
X166.5 Z-17.85
X166.459 Z-17.848
X166.419 Z-17.835
X166.387 Z-17.824
X166.353 Z-17.82
G3 X165.903 Y-49.696 I0 J-0.45
G1 Y-51.545
G3 X166.353 Y-51.995 I0.45 J0
G1 X166.387 Z-17.824
X166.419 Z-17.835
X166.459 Z-17.848
X166.5 Z-17.85
X264.989 Z-8.001
Y-52.003 Z-7.955
Y-52.024 Z-7.913
Y-52.057 Z-7.88
Y-52.099 Z-7.858
Y-52.145 Z-7.851
Y-54.595
Y-54.641 Z-7.858
Y-54.683 Z-7.88
Y-54.716 Z-7.913
Y-54.738 Z-7.955
Y-54.745 Z-8.001
X166.5 Z-17.85
X166.459 Z-17.848
X166.419 Z-17.835
X166.387 Z-17.824
X166.353 Z-17.82
G3 X165.903 Y-55.195 I0 J-0.45
G1 Y-57.045
G3 X166.353 Y-57.495 I0.45 J0
G1 X166.387 Z-17.824
X166.419 Z-17.835
X166.459 Z-17.848
X166.5 Z-17.85
X264.989 Z-8.001
Y-57.502 Z-7.955
Y-57.523 Z-7.913
Y-57.557 Z-7.88
Y-57.598 Z-7.858
Y-57.645 Z-7.851
Y-60.095
Y-60.141 Z-7.858
Y-60.183 Z-7.88
Y-60.216 Z-7.913
Y-60.237 Z-7.955
Y-60.245 Z-8.001
X166.5 Z-17.85
X166.459 Z-17.848
X166.419 Z-17.835
X166.387 Z-17.824
X166.353 Z-17.82
G3 X165.903 Y-60.695 I0 J-0.45
G1 Y-62.544
G3 X166.353 Y-62.994 I0.45 J0
G1 X166.387 Z-17.824
X166.419 Z-17.835
X166.459 Z-17.848
X166.5 Z-17.85
X264.989 Z-8.001
Y-63.002 Z-7.955
Y-63.023 Z-7.913
Y-63.056 Z-7.88
Y-63.098 Z-7.858
Y-63.144 Z-7.851
Y-65.594
Y-65.64 Z-7.858
Y-65.682 Z-7.88
Y-65.715 Z-7.913
Y-65.737 Z-7.955
Y-65.744 Z-8.001
X166.5 Z-17.85
X166.459 Z-17.848
X166.419 Z-17.835
X166.387 Z-17.824
X166.353 Z-17.82
G3 X165.903 Y-66.194 I0 J-0.45
G1 Y-68.044
G3 X166.353 Y-68.494 I0.45 J0
G1 X166.387 Z-17.824
X166.419 Z-17.835
X166.459 Z-17.848
X166.5 Z-17.85
X264.989 Z-8.001
Y-68.501 Z-7.955
Y-68.522 Z-7.913
Y-68.556 Z-7.88
Y-68.597 Z-7.858
Y-68.644 Z-7.851
Y-71.094
Y-71.14 Z-7.858
Y-71.182 Z-7.88
Y-71.215 Z-7.913
Y-71.236 Z-7.955
Y-71.244 Z-8.001
X166.5 Z-17.85
X166.459 Z-17.848
X166.419 Z-17.835
X166.387 Z-17.824
X166.353 Z-17.82
G3 X165.903 Y-71.694 I0 J-0.45
G1 Y-73.543
G3 X166.353 Y-73.993 I0.45 J0
G1 X166.387 Z-17.824
X166.419 Z-17.835
X166.459 Z-17.848
X166.5 Z-17.85
X264.989 Z-8.001
Y-74.001 Z-7.955
Y-74.022 Z-7.913
Y-74.055 Z-7.88
Y-74.097 Z-7.858
Y-74.143 Z-7.851
Y-76.593
Y-76.639 Z-7.858
Y-76.681 Z-7.88
Y-76.714 Z-7.913
Y-76.736 Z-7.955
Y-76.743 Z-8.001
X166.5 Z-17.85
X166.459 Z-17.848
X166.419 Z-17.835
X166.387 Z-17.824
X166.353 Z-17.82
G3 X165.903 Y-77.193 I0 J-0.45
G1 Y-79.043
G3 X166.353 Y-79.493 I0.45 J0
G1 X166.387 Z-17.824
X166.419 Z-17.835
X166.459 Z-17.848
X166.5 Z-17.85
X264.989 Z-8.001
Y-79.5 Z-7.955
Y-79.521 Z-7.913
Y-79.555 Z-7.88
Y-79.596 Z-7.858
Y-79.643 Z-7.851
Y-82.093
Y-82.139 Z-7.858
Y-82.181 Z-7.88
Y-82.214 Z-7.913
Y-82.235 Z-7.955
Y-82.243 Z-8.001
X166.5 Z-17.85
X166.459 Z-17.848
X166.419 Z-17.835
X166.387 Z-17.824
X166.353 Z-17.82
G3 X165.903 Y-82.693 I0 J-0.45
G1 Y-84.542
G3 X166.353 Y-84.992 I0.45 J0
G1 X166.387 Z-17.824
X166.419 Z-17.835
X166.459 Z-17.848
X166.5 Z-17.85
X264.989 Z-8.001
Y-85 Z-7.955
Y-85.021 Z-7.913
Y-85.054 Z-7.88
Y-85.096 Z-7.858
Y-85.142 Z-7.851
Y-87.592
Y-87.638 Z-7.858
Y-87.68 Z-7.88
Y-87.713 Z-7.913
Y-87.735 Z-7.955
Y-87.742 Z-8.001
X166.5 Z-17.85
X166.459 Z-17.848
X166.419 Z-17.835
X166.387 Z-17.824
X166.353 Z-17.82
G3 X165.903 Y-88.192 I0 J-0.45
G1 Y-90.042
G3 X166.353 Y-90.492 I0.45 J0
G1 X166.387 Z-17.824
X166.419 Z-17.835
X166.459 Z-17.848
X166.5 Z-17.85
X264.989 Z-8.001
Y-90.499 Z-7.955
Y-90.52 Z-7.913
Y-90.554 Z-7.88
Y-90.595 Z-7.858
Y-90.642 Z-7.851
Y-93.092
Y-93.138 Z-7.858
Y-93.18 Z-7.88
Y-93.213 Z-7.913
Y-93.234 Z-7.955
Y-93.242 Z-8.001
X166.5 Z-17.85
X166.459 Z-17.848
X166.419 Z-17.835
X166.387 Z-17.824
X166.353 Z-17.82
G3 X165.903 Y-93.692 I0 J-0.45
G1 Y-95.541
G3 X166.353 Y-95.991 I0.45 J0
G1 X166.387 Z-17.824
X166.419 Z-17.835
X166.459 Z-17.848
X166.5 Z-17.85
X264.989 Z-8.001
Y-95.999 Z-7.955
Y-96.02 Z-7.913
Y-96.053 Z-7.88
Y-96.095 Z-7.858
Y-96.141 Z-7.851
Y-98.591
Y-98.637 Z-7.858
Y-98.679 Z-7.88
Y-98.712 Z-7.913
Y-98.734 Z-7.955
Y-98.741 Z-8.001
X166.5 Z-17.85
X166.459 Z-17.848
X166.419 Z-17.835
X166.387 Z-17.824
X166.353 Z-17.82
G3 X165.903 Y-99.191 I0 J-0.45
G1 Y-101.041
G3 X166.353 Y-101.491 I0.45 J0
G1 X166.387 Z-17.824
X166.419 Z-17.835
X166.459 Z-17.848
X166.5 Z-17.85
X264.989 Z-8.001
Y-101.498 Z-7.955
Y-101.519 Z-7.913
Y-101.553 Z-7.88
Y-101.594 Z-7.858
Y-101.641 Z-7.851
Y-104.091
Y-104.137 Z-7.858
Y-104.179 Z-7.88
Y-104.212 Z-7.913
Y-104.233 Z-7.955
Y-104.241 Z-8.001
X166.5 Z-17.85
X166.459 Z-17.848
X166.419 Z-17.835
X166.387 Z-17.824
X166.353 Z-17.82
G3 X165.903 Y-104.691 I0 J-0.45
G1 Y-106.54
G3 X166.353 Y-106.99 I0.45 J0
G1 X166.387 Z-17.824
X166.419 Z-17.835
X166.459 Z-17.848
X166.5 Z-17.85
X264.989 Z-8.001
Y-106.998 Z-7.955
Y-107.019 Z-7.913
Y-107.052 Z-7.88
Y-107.094 Z-7.858
Y-107.14 Z-7.851
Y-109.59
Y-109.636 Z-7.858
Y-109.678 Z-7.88
Y-109.711 Z-7.913
Y-109.733 Z-7.955
Y-109.74 Z-8.001
X166.5 Z-17.85
X166.459 Z-17.848
X166.419 Z-17.835
X166.387 Z-17.824
X166.353 Z-17.82
G3 X165.903 Y-110.19 I0 J-0.45
G1 Y-112.04
G3 X166.353 Y-112.49 I0.45 J0
G1 X166.387 Z-17.824
X166.419 Z-17.835
X166.459 Z-17.848
X166.5 Z-17.85
X264.989 Z-8.001
Y-112.497 Z-7.955
Y-112.518 Z-7.913
Y-112.552 Z-7.88
Y-112.593 Z-7.858
Y-112.64 Z-7.851
Y-115.09
Y-115.136 Z-7.858
Y-115.178 Z-7.88
Y-115.211 Z-7.913
Y-115.232 Z-7.955
Y-115.24 Z-8.001
X166.5 Z-17.85
X166.459 Z-17.848
X166.419 Z-17.835
X166.387 Z-17.824
X166.353 Z-17.82
G3 X165.903 Y-115.69 I0 J-0.45
G1 Y-117.539
G3 X166.353 Y-117.989 I0.45 J0
G1 X166.387 Z-17.824
X166.419 Z-17.835
X166.459 Z-17.848
X166.5 Z-17.85
X264.989 Z-8.001
Y-117.997 Z-7.955
Y-118.018 Z-7.913
Y-118.051 Z-7.88
Y-118.093 Z-7.858
Y-118.139 Z-7.851
Y-120.589
Y-120.635 Z-7.858
Y-120.677 Z-7.88
Y-120.71 Z-7.913
Y-120.732 Z-7.955
Y-120.739 Z-8.001
X166.5 Z-17.85
X166.459 Z-17.848
X166.419 Z-17.835
X166.387 Z-17.824
X166.353 Z-17.82
G3 X165.903 Y-121.189 I0 J-0.45
G1 Y-123.039
G3 X166.353 Y-123.489 I0.45 J0
G1 X166.387 Z-17.824
X166.419 Z-17.835
X166.459 Z-17.848
X166.5 Z-17.85
X264.989 Z-8.001
Y-123.496 Z-7.955
Y-123.517 Z-7.913
Y-123.551 Z-7.88
Y-123.592 Z-7.858
Y-123.639 Z-7.851
Y-126.089
Y-126.135 Z-7.858
Y-126.177 Z-7.88
Y-126.21 Z-7.913
Y-126.231 Z-7.955
Y-126.239 Z-8.001
X166.5 Z-17.85
X166.459 Z-17.848
X166.419 Z-17.835
X166.387 Z-17.824
X166.353 Z-17.82
G3 X165.903 Y-126.689 I0 J-0.45
G1 Y-128.538
G3 X166.353 Y-128.988 I0.45 J0
G1 X166.387 Z-17.824
X166.419 Z-17.835
X166.459 Z-17.848
X166.5 Z-17.85
X264.989 Z-8.001
Y-128.996 Z-7.955
Y-129.017 Z-7.913
Y-129.05 Z-7.88
Y-129.092 Z-7.858
Y-129.138 Z-7.851
Y-131.588
Y-131.634 Z-7.858
Y-131.676 Z-7.88
Y-131.709 Z-7.913
Y-131.731 Z-7.955
Y-131.738 Z-8.001
X166.5 Z-17.85
X166.459 Z-17.848
X166.419 Z-17.835
X166.387 Z-17.824
X166.353 Z-17.82
G3 X165.903 Y-132.188 I0 J-0.45
G1 Y-134.038
G3 X166.353 Y-134.488 I0.45 J0
G1 X166.387 Z-17.824
X166.419 Z-17.835
X166.459 Z-17.848
X166.5 Z-17.85
X264.989 Z-8.001
Y-134.495 Z-7.955
Y-134.516 Z-7.913
Y-134.55 Z-7.88
Y-134.591 Z-7.858
Y-134.638 Z-7.851
Y-137.088
Y-137.134 Z-7.858
Y-137.176 Z-7.88
Y-137.209 Z-7.913
Y-137.23 Z-7.955
Y-137.238 Z-8.001
X166.5 Z-17.85
X166.459 Z-17.848
X166.419 Z-17.835
X166.387 Z-17.824
X166.353 Z-17.82
G3 X165.903 Y-137.688 I0 J-0.45
G1 Y-139.537
G3 X166.353 Y-139.987 I0.45 J0
G1 X166.387 Z-17.824
X166.419 Z-17.835
X166.459 Z-17.848
X166.5 Z-17.85
X264.989 Z-8.001
Y-139.995 Z-7.955
Y-140.016 Z-7.913
Y-140.049 Z-7.88
Y-140.091 Z-7.858
Y-140.137 Z-7.851
Y-142.587
Y-142.633 Z-7.858
Y-142.675 Z-7.88
Y-142.708 Z-7.913
Y-142.73 Z-7.955
Y-142.737 Z-8.001
X166.5 Z-17.85
X166.459 Z-17.848
X166.419 Z-17.835
X166.387 Z-17.824
X166.353 Z-17.82
G3 X165.903 Y-143.187 I0 J-0.45
G1 Y-145.037
G3 X166.353 Y-145.487 I0.45 J0
G1 X166.387 Z-17.824
X166.419 Z-17.835
X166.459 Z-17.848
X166.5 Z-17.85
X264.989 Z-8.001
Y-145.494 Z-7.955
Y-145.515 Z-7.913
Y-145.549 Z-7.88
Y-145.59 Z-7.858
Y-145.637 Z-7.851
Y-148.087
Y-148.133 Z-7.858
Y-148.175 Z-7.88
Y-148.208 Z-7.913
Y-148.229 Z-7.955
Y-148.237 Z-8.001
X166.5 Z-17.85
G18 G3 X166.17 Z-17.551 I-0.03 K0.299
G0 Z5
Y148.736
Z-3.466
G1 Z-21.551 F333.3
G2 X166.5 Z-21.85 I0.3 K0 F1000
G1 X264.989 Z-12.001
Y148.729 Z-11.955
Y148.708 Z-11.913
Y148.675 Z-11.88
Y148.633 Z-11.858
Y148.587 Z-11.851
Y146.137
Y146.09 Z-11.858
Y146.049 Z-11.88
Y146.015 Z-11.913
Y145.994 Z-11.955
Y145.987 Z-12.001
X166.5 Z-21.85
X166.459 Z-21.848
X166.419 Z-21.835
X166.387 Z-21.824
X166.353 Z-21.82
G17 G3 X165.903 Y145.537 I0 J-0.45
G1 Y143.687
G3 X166.353 Y143.237 I0.45 J0
G1 X166.387 Z-21.824
X166.419 Z-21.835
X166.459 Z-21.848
X166.5 Z-21.85
X264.989 Z-12.001
Y143.23 Z-11.955
Y143.208 Z-11.913
Y143.175 Z-11.88
Y143.133 Z-11.858
Y143.087 Z-11.851
Y140.637
Y140.591 Z-11.858
Y140.549 Z-11.88
Y140.516 Z-11.913
Y140.495 Z-11.955
Y140.487 Z-12.001
X166.5 Z-21.85
X166.459 Z-21.848
X166.419 Z-21.835
X166.387 Z-21.824
X166.353 Z-21.82
G3 X165.903 Y140.037 I0 J-0.45
G1 Y138.188
G3 X166.353 Y137.738 I0.45 J0
G1 X166.387 Z-21.824
X166.419 Z-21.835
X166.459 Z-21.848
X166.5 Z-21.85
X264.989 Z-12.001
Y137.73 Z-11.955
Y137.709 Z-11.913
Y137.676 Z-11.88
Y137.634 Z-11.858
Y137.587 Z-11.851
Y135.138
Y135.091 Z-11.858
Y135.05 Z-11.88
Y135.016 Z-11.913
Y134.995 Z-11.955
Y134.988 Z-12.001
X166.5 Z-21.85
X166.459 Z-21.848
X166.419 Z-21.835
X166.387 Z-21.824
X166.353 Z-21.82
G3 X165.903 Y134.538 I0 J-0.45
G1 Y132.688
G3 X166.353 Y132.238 I0.45 J0
G1 X166.387 Z-21.824
X166.419 Z-21.835
X166.459 Z-21.848
X166.5 Z-21.85
X264.989 Z-12.001
Y132.231 Z-11.955
Y132.209 Z-11.913
Y132.176 Z-11.88
Y132.134 Z-11.858
Y132.088 Z-11.851
Y129.638
Y129.592 Z-11.858
Y129.55 Z-11.88
Y129.517 Z-11.913
Y129.496 Z-11.955
Y129.488 Z-12.001
X166.5 Z-21.85
X166.459 Z-21.848
X166.419 Z-21.835
X166.387 Z-21.824
X166.353 Z-21.82
G3 X165.903 Y129.038 I0 J-0.45
G1 Y127.188
G3 X166.353 Y126.738 I0.45 J0
G1 X166.387 Z-21.824
X166.419 Z-21.835
X166.459 Z-21.848
X166.5 Z-21.85
X264.989 Z-12.001
Y126.731 Z-11.955
Y126.71 Z-11.913
Y126.677 Z-11.88
Y126.635 Z-11.858
Y126.588 Z-11.851
Y124.139
Y124.092 Z-11.858
Y124.051 Z-11.88
Y124.017 Z-11.913
Y123.996 Z-11.955
Y123.989 Z-12.001
X166.5 Z-21.85
X166.459 Z-21.848
X166.419 Z-21.835
X166.387 Z-21.824
X166.353 Z-21.82
G3 X165.903 Y123.539 I0 J-0.45
G1 Y121.689
G3 X166.353 Y121.239 I0.45 J0
G1 X166.387 Z-21.824
X166.419 Z-21.835
X166.459 Z-21.848
X166.5 Z-21.85
X264.989 Z-12.001
Y121.232 Z-11.955
Y121.21 Z-11.913
Y121.177 Z-11.88
Y121.135 Z-11.858
Y121.089 Z-11.851
Y118.639
Y118.593 Z-11.858
Y118.551 Z-11.88
Y118.518 Z-11.913
Y118.497 Z-11.955
Y118.489 Z-12.001
X166.5 Z-21.85
X166.459 Z-21.848
X166.419 Z-21.835
X166.387 Z-21.824
X166.353 Z-21.82
G3 X165.903 Y118.039 I0 J-0.45
G1 Y116.189
G3 X166.353 Y115.739 I0.45 J0
G1 X166.387 Z-21.824
X166.419 Z-21.835
X166.459 Z-21.848
X166.5 Z-21.85
X264.989 Z-12.001
Y115.732 Z-11.955
Y115.711 Z-11.913
Y115.678 Z-11.88
Y115.636 Z-11.858
Y115.589 Z-11.851
Y113.14
Y113.093 Z-11.858
Y113.052 Z-11.88
Y113.018 Z-11.913
Y112.997 Z-11.955
Y112.99 Z-12.001
X166.5 Z-21.85
X166.459 Z-21.848
X166.419 Z-21.835
X166.387 Z-21.824
X166.353 Z-21.82
G3 X165.903 Y112.54 I0 J-0.45
G1 Y110.69
G3 X166.353 Y110.24 I0.45 J0
G1 X166.387 Z-21.824
X166.419 Z-21.835
X166.459 Z-21.848
X166.5 Z-21.85
X264.989 Z-12.001
Y110.233 Z-11.955
Y110.211 Z-11.913
Y110.178 Z-11.88
Y110.136 Z-11.858
Y110.09 Z-11.851
Y107.64
Y107.594 Z-11.858
Y107.552 Z-11.88
Y107.519 Z-11.913
Y107.498 Z-11.955
Y107.49 Z-12.001
X166.5 Z-21.85
X166.459 Z-21.848
X166.419 Z-21.835
X166.387 Z-21.824
X166.353 Z-21.82
G3 X165.903 Y107.04 I0 J-0.45
G1 Y105.19
G3 X166.353 Y104.74 I0.45 J0
G1 X166.387 Z-21.824
X166.419 Z-21.835
X166.459 Z-21.848
X166.5 Z-21.85
X264.989 Z-12.001
Y104.733 Z-11.955
Y104.712 Z-11.913
Y104.679 Z-11.88
Y104.637 Z-11.858
Y104.59 Z-11.851
Y102.141
Y102.094 Z-11.858
Y102.053 Z-11.88
Y102.019 Z-11.913
Y101.998 Z-11.955
Y101.991 Z-12.001
X166.5 Z-21.85
X166.459 Z-21.848
X166.419 Z-21.835
X166.387 Z-21.824
X166.353 Z-21.82
G3 X165.903 Y101.541 I0 J-0.45
G1 Y99.691
G3 X166.353 Y99.241 I0.45 J0
G1 X166.387 Z-21.824
X166.419 Z-21.835
X166.459 Z-21.848
X166.5 Z-21.85
X264.989 Z-12.001
Y99.234 Z-11.955
Y99.212 Z-11.913
Y99.179 Z-11.88
Y99.137 Z-11.858
Y99.091 Z-11.851
Y96.641
Y96.595 Z-11.858
Y96.553 Z-11.88
Y96.52 Z-11.913
Y96.499 Z-11.955
Y96.491 Z-12.001
X166.5 Z-21.85
X166.459 Z-21.848
