(CamperGewuerzregal)
(T1  D=5 CR=0 - ZMIN=-9.5 - flat end mill)
G90 G94
G17
G21
G28 G91 Z0
G90

(2D Pocket1)
T1
S5000 M3
G54
M8
G0 X-0.168 Y43.155
Z15
Z5
G1 Z-4.25 F333.3
G18 G2 X0.332 Z-4.75 I0.5 K0 F1000
G1 X0.835
X350.277
X350.297
G2 X350.797 Z-4.25 I0 K0.5
G0 Z5
X-0.347 Y40.404
G1 Z-4.3 F333.3
X-0.34 Y40.402 Z-4.378 F1000
X-0.32 Y40.399 Z-4.454
X-0.287 Y40.394 Z-4.525
X-0.243 Y40.387 Z-4.589
X-0.188 Y40.378 Z-4.645
X-0.125 Y40.368 Z-4.69
X-0.054 Y40.357 Z-4.723
X0.02 Y40.345 Z-4.743
X0.098 Y40.333 Z-4.75
X0.584 Y40.256
X0.662 Y40.25
X348.058
X350.453
X350.532 Y40.256
X350.956 Y40.323
X351.042 Y40.337 Z-4.742
X351.125 Y40.35 Z-4.72
X351.203 Y40.362 Z-4.683
X351.273 Y40.374 Z-4.633
X351.334 Y40.383 Z-4.571
X351.384 Y40.391 Z-4.5
X351.42 Y40.397 Z-4.421
X351.442 Y40.4 Z-4.337
X351.45 Y40.402 Z-4.25
G0 Z15
X348.258 Y65.469
Z5
G1 Z-4.25 F333.3
G3 X347.758 Z-4.75 I-0.5 K0 F1000
G1 X347.223
X-2.219
X-2.239
G3 X-2.739 Z-4.25 I0 K0.5
G0 Z5
X348.397 Y68.222
G1 Z-4.3 F333.3
X348.39 Y68.223 Z-4.378 F1000
X348.37 Y68.226 Z-4.454
X348.338 Y68.232 Z-4.525
X348.293 Y68.239 Z-4.589
X348.238 Y68.247 Z-4.645
X348.175 Y68.257 Z-4.69
X348.105 Y68.268 Z-4.723
X348.03 Y68.28 Z-4.743
X347.953 Y68.292 Z-4.75
X347.474 Y68.368
X347.396 Y68.374
X0
X-2.395
X-2.474 Y68.368
X-2.898 Y68.301
X-2.984 Y68.287 Z-4.742
X-3.067 Y68.274 Z-4.72
X-3.145 Y68.262 Z-4.683
X-3.215 Y68.251 Z-4.633
X-3.276 Y68.241 Z-4.571
X-3.326 Y68.233 Z-4.5
X-3.362 Y68.228 Z-4.421
X-3.384 Y68.224 Z-4.337
X-3.392 Y68.223 Z-4.25
G0 Z15
G17

(2D Contour1)
G0 X349 Y82.362
Z15
Z5
G1 Z-4.5 F333.3
G18 G3 X348.5 Z-5 I-0.5 K0 F1000
G1 X348
G17 G3 X347.5 Y81.862 I0 J-0.5
G1 Y66.124
G2 X345 Y63.624 I-2.5 J0
G1 X0
G2 X-2.5 Y66.124 I0 J2.5
G1 Y140.624
G2 X0 Y143.124 I2.5 J0
G1 X345
G2 X347.5 Y140.624 I0 J-2.5
G1 Y81.862
G3 X348 Y81.362 I0.5 J0
G1 X348.5
G18 G2 X349 Z-4.5 I0 K0.5
G0 Z5
Y82.362
G1 Z0 F333.3
Z-9
G3 X348.5 Z-9.5 I-0.5 K0 F1000
G1 X348
G17 G3 X347.5 Y81.862 I0 J-0.5
G1 Y66.124
G2 X345 Y63.624 I-2.5 J0
G1 X0
G2 X-2.5 Y66.124 I0 J2.5
G1 Y140.624
G2 X0 Y143.124 I2.5 J0
G1 X345
G2 X347.5 Y140.624 I0 J-2.5
G1 Y81.862
G3 X348 Y81.362 I0.5 J0
G1 X348.5
G18 G2 X349 Z-9 I0 K0.5
G0 Z5
X348.558 Y-4
G1 Z-4.5 F333.3
G19 G3 Y-3.5 Z-5 J0.5 K0 F1000
G1 Y-3
G17 G3 X348.058 Y-2.5 I-0.5 J0
G1 X3.058
G2 X0.558 Y0 I0 J2.5
G1 Y42.5
G2 X3.058 Y45 I2.5 J0
G1 X348.058
G2 X350.558 Y42.5 I0 J-2.5
G1 Y0
G2 X348.058 Y-2.5 I-2.5 J0
G3 X347.558 Y-3 I0 J-0.5
G1 Y-3.5
G19 G2 Y-4 Z-4.5 J0 K0.5
G0 Z5
X348.558
G1 Z0 F333.3
Z-9
G3 Y-3.5 Z-9.5 J0.5 K0 F1000
G1 Y-3
G17 G3 X348.058 Y-2.5 I-0.5 J0
G1 X3.058
G2 X0.558 Y0 I0 J2.5
G1 Y42.5
G2 X3.058 Y45 I2.5 J0
G1 X348.058
G2 X350.558 Y42.5 I0 J-2.5
G1 Y0
G2 X348.058 Y-2.5 I-2.5 J0
G3 X347.558 Y-3 I0 J-0.5
G1 Y-3.5
G19 G2 Y-4 Z-9 J0 K0.5
G0 Z15
G17
M9
G28 G91 Z0
G90
G28 G91 X0 Y0
G90
M5
M30
