(CamperArbeitsplatteKochfeld)
(T3  D=3 CR=0 - ZMIN=-19 - flat end mill)
G90 G94
G17
G21

(2D Contour1)
T3
S5000 M3
G54
M8
G0 X155.897 Y211.307
Z15
Z5
G1 Z3 F333.3
Z-1.7
G18 G2 X156.197 Z-2 I0.3 K0 F1000
G1 X156.497
G17 G3 X156.797 Y211.607 I0 J0.3
G1 Y253.11
G3 X38.8 Y371.107 I-117.997 J0
G1 X-44.206
G3 X-162.203 Y253.11 I0 J-117.997
G1 Y-247.895
G3 X-44.205 Y-365.893 I117.998 J0
G1 X38.799
G3 X156.797 Y-247.895 I0 J117.998
G1 Y211.607
G3 X156.497 Y211.907 I-0.3 J0
G1 X156.197
G18 G3 X155.897 Z-1.7 I0 K0.3
G1 Y211.307
Z-3.7 F333.3
G2 X156.197 Z-4 I0.3 K0 F1000
G1 X156.497
G17 G3 X156.797 Y211.607 I0 J0.3
G1 Y253.11
G3 X38.8 Y371.107 I-117.997 J0
G1 X-44.206
G3 X-162.203 Y253.11 I0 J-117.997
G1 Y-247.895
G3 X-44.205 Y-365.893 I117.998 J0
G1 X38.799
G3 X156.797 Y-247.895 I0 J117.998
G1 Y211.607
G3 X156.497 Y211.907 I-0.3 J0
G1 X156.197
G18 G3 X155.897 Z-3.7 I0 K0.3
G1 Y211.307
Z-5.7 F333.3
G2 X156.197 Z-6 I0.3 K0 F1000
G1 X156.497
G17 G3 X156.797 Y211.607 I0 J0.3
G1 Y253.11
G3 X38.8 Y371.107 I-117.997 J0
G1 X-44.206
G3 X-162.203 Y253.11 I0 J-117.997
G1 Y-247.895
G3 X-44.205 Y-365.893 I117.998 J0
G1 X38.799
G3 X156.797 Y-247.895 I0 J117.998
G1 Y211.607
G3 X156.497 Y211.907 I-0.3 J0
G1 X156.197
G18 G3 X155.897 Z-5.7 I0 K0.3
G1 Y211.307
Z-7.7 F333.3
G2 X156.197 Z-8 I0.3 K0 F1000
G1 X156.497
G17 G3 X156.797 Y211.607 I0 J0.3
G1 Y253.11
G3 X38.8 Y371.107 I-117.997 J0
G1 X-44.206
G3 X-162.203 Y253.11 I0 J-117.997
G1 Y-247.895
G3 X-44.205 Y-365.893 I117.998 J0
G1 X38.799
G3 X156.797 Y-247.895 I0 J117.998
G1 Y211.607
G3 X156.497 Y211.907 I-0.3 J0
G1 X156.197
G18 G3 X155.897 Z-7.7 I0 K0.3
G1 Y211.307
Z-9.7 F333.3
G2 X156.197 Z-10 I0.3 K0 F1000
G1 X156.497
G17 G3 X156.797 Y211.607 I0 J0.3
G1 Y253.11
G3 X38.8 Y371.107 I-117.997 J0
G1 X-44.206
G3 X-162.203 Y253.11 I0 J-117.997
G1 Y-247.895
G3 X-44.205 Y-365.893 I117.998 J0
G1 X38.799
G3 X156.797 Y-247.895 I0 J117.998
G1 Y211.607
G3 X156.497 Y211.907 I-0.3 J0
G1 X156.197
G18 G3 X155.897 Z-9.7 I0 K0.3
G1 Y211.307
Z-11.7 F333.3
G2 X156.197 Z-12 I0.3 K0 F1000
G1 X156.497
G17 G3 X156.797 Y211.607 I0 J0.3
G1 Y253.11
G3 X38.8 Y371.107 I-117.997 J0
G1 X-44.206
G3 X-162.203 Y253.11 I0 J-117.997
G1 Y-247.895
G3 X-44.205 Y-365.893 I117.998 J0
G1 X38.799
G3 X156.797 Y-247.895 I0 J117.998
G1 Y211.607
G3 X156.497 Y211.907 I-0.3 J0
G1 X156.197
G18 G3 X155.897 Z-11.7 I0 K0.3
G1 Y211.307
Z-13.7 F333.3
G2 X156.197 Z-14 I0.3 K0 F1000
G1 X156.497
G17 G3 X156.797 Y211.607 I0 J0.3
G1 Y253.11
G3 X38.8 Y371.107 I-117.997 J0
G1 X-44.206
G3 X-162.203 Y253.11 I0 J-117.997
G1 Y-247.895
G3 X-44.205 Y-365.893 I117.998 J0
G1 X38.799
G3 X156.797 Y-247.895 I0 J117.998
G1 Y211.607
G3 X156.497 Y211.907 I-0.3 J0
G1 X156.197
G18 G3 X155.897 Z-13.7 I0 K0.3
G1 Y211.307
Z-15.7 F333.3
G2 X156.197 Z-16 I0.3 K0 F1000
G1 X156.497
G17 G3 X156.797 Y211.607 I0 J0.3
G1 Y253.11
G3 X38.8 Y371.107 I-117.997 J0
G1 X-44.206
G3 X-162.203 Y253.11 I0 J-117.997
G1 Y-247.895
G3 X-44.205 Y-365.893 I117.998 J0
G1 X38.799
G3 X156.797 Y-247.895 I0 J117.998
G1 Y211.607
G3 X156.497 Y211.907 I-0.3 J0
G1 X156.197
G18 G3 X155.897 Z-15.7 I0 K0.3
G1 Y211.307
Z-17.7 F333.3
G2 X156.197 Z-18 I0.3 K0 F1000
G1 X156.497
G17 G3 X156.797 Y211.607 I0 J0.3
G1 Y253.11
G3 X38.8 Y371.107 I-117.997 J0
G1 X-44.206
G3 X-162.203 Y253.11 I0 J-117.997
G1 Y-247.895
G3 X-44.205 Y-365.893 I117.998 J0
G1 X38.799
G3 X156.797 Y-247.895 I0 J117.998
G1 Y211.607
G3 X156.497 Y211.907 I-0.3 J0
G1 X156.197
G18 G3 X155.897 Z-17.7 I0 K0.3
G1 Y211.307
Z-18.7 F333.3
G2 X156.197 Z-19 I0.3 K0 F1000
G1 X156.497
G17 G3 X156.797 Y211.607 I0 J0.3
G1 Y253.11
G3 X38.8 Y371.107 I-117.997 J0
G1 X-44.206
G3 X-162.203 Y253.11 I0 J-117.997
G1 Y-247.895
G3 X-44.205 Y-365.893 I117.998 J0
G1 X38.799
G3 X156.797 Y-247.895 I0 J117.998
G1 Y211.607
G3 X156.497 Y211.907 I-0.3 J0
G1 X156.197
G18 G3 X155.897 Z-18.7 I0 K0.3
G0 Z15
G17

(2D Pocket1)
G0 X-150.379 Y-356.001
Z15
Z5
G1 Z2.8 F333.3
X-150.342 Y-356.012 Z2.653
X-150.24 Y-356.038 Z2.544
X-150.096 Y-356.06 Z2.5
G3 X-149.798 Y-353.226 Z2.344 I0.149 J1.417
X-150.096 Y-356.06 Z2.187 I-0.149 J-1.417
X-149.798 Y-353.226 Z2.031 I0.149 J1.417
X-150.096 Y-356.06 Z1.875 I-0.149 J-1.417
X-149.798 Y-353.226 Z1.718 I0.149 J1.417
X-150.096 Y-356.06 Z1.562 I-0.149 J-1.417
X-149.798 Y-353.226 Z1.406 I0.149 J1.417
X-150.096 Y-356.06 Z1.249 I-0.149 J-1.417
X-149.798 Y-353.226 Z1.093 I0.149 J1.417
X-150.096 Y-356.06 Z0.937 I-0.149 J-1.417
X-149.798 Y-353.226 Z0.78 I0.149 J1.417
X-150.096 Y-356.06 Z0.624 I-0.149 J-1.417
X-149.798 Y-353.226 Z0.468 I0.149 J1.417
X-150.096 Y-356.06 Z0.311 I-0.149 J-1.417
X-149.798 Y-353.226 Z0.155 I0.149 J1.417
X-150.096 Y-356.06 Z-0.001 I-0.149 J-1.417
X-149.798 Y-353.226 Z-0.158 I0.149 J1.417
X-150.096 Y-356.06 Z-0.314 I-0.149 J-1.417
X-149.798 Y-353.226 Z-0.47 I0.149 J1.417
X-150.096 Y-356.06 Z-0.627 I-0.149 J-1.417
X-149.798 Y-353.226 Z-0.783 I0.149 J1.417
X-150.096 Y-356.06 Z-0.939 I-0.149 J-1.417
X-149.798 Y-353.226 Z-1.096 I0.149 J1.417
X-150.096 Y-356.06 Z-1.252 I-0.149 J-1.417
X-149.798 Y-353.226 Z-1.408 I0.149 J1.417
X-150.096 Y-356.06 Z-1.565 I-0.149 J-1.417
X-149.798 Y-353.226 Z-1.721 I0.149 J1.417
X-150.096 Y-356.06 Z-1.877 I-0.149 J-1.417
X-148.944 Y-353.631 Z-2 I0.149 J1.417
G2 X-149.649 Y-352.928 I104.739 J105.735 F1000
G1 X-149.684 Y-352.903
X-149.726 Y-352.89
X-149.77 Y-352.893
X-149.81 Y-352.909
X-149.843 Y-352.938
X-149.864 Y-352.977
X-149.871 Y-353.02
Y-354.242
G3 X-149.552 Y-354.561 I0.319 J0
G1 X-148.316
X-148.273 Y-354.554
X-148.235 Y-354.533
X-148.206 Y-354.5
X-148.189 Y-354.459
X-148.187 Y-354.416
X-148.199 Y-354.374
X-148.225 Y-354.338
G2 X-148.944 Y-353.631 I104.02 J106.443
X-149.145 Y-352.643 I0.638 J0.644
G3 X-149.341 Y-351.655 I-0.847 J0.346
G2 X-150.762 Y-350.195 I105.136 J103.76
G1 X-150.798 Y-350.169
X-150.84 Y-350.156
X-150.884 Y-350.158
X-150.924 Y-350.174
X-150.957 Y-350.203
X-150.979 Y-350.242
X-150.986 Y-350.285
Y-355.357
G3 X-150.667 Y-355.676 I0.319 J0
G1 X-145.543
X-145.5 Y-355.669
X-145.461 Y-355.647
X-145.432 Y-355.614
X-145.416 Y-355.573
X-145.414 Y-355.529
X-145.427 Y-355.487
X-145.454 Y-355.451
G2 X-149.341 Y-351.655 I101.249 J107.556
X-149.63 Y-350.144 I0.985 J0.972
G3 X-149.906 Y-348.63 I-1.291 J0.547
G2 X-152.46 Y-345.881 I105.701 J100.735
G1 X-152.495 Y-345.854
X-152.537 Y-345.84
X-152.581 Y-345.841
X-152.623 Y-345.857
X-152.657 Y-345.886
X-152.679 Y-345.925
X-152.686 Y-345.969
Y-357.057
G3 X-152.367 Y-357.376 I0.319 J0
G1 X-141.162
X-141.118 Y-357.369
X-141.079 Y-357.346
X-141.05 Y-357.312
X-141.035 Y-357.271
X-141.034 Y-357.226
X-141.048 Y-357.184
X-141.076 Y-357.149
G2 X-149.906 Y-348.63 I96.871 J109.253
X-150.169 Y-347.114 I1.001 J0.954
G3 X-150.419 Y-345.596 I-1.281 J0.569
G2 X-154.157 Y-341.369 I106.213 J97.701
G1 X-154.192 Y-341.34
X-154.234 Y-341.325
X-154.279
X-154.321 Y-341.341
X-154.356 Y-341.37
X-154.378 Y-341.409
X-154.386 Y-341.453
Y-358.757
G3 X-154.067 Y-359.076 I0.319 J0
G1 X-136.574
X-136.529 Y-359.068
X-136.49 Y-359.046
X-136.461 Y-359.011
X-136.446 Y-358.968
Y-358.923
X-136.462 Y-358.881
X-136.491 Y-358.846
G2 X-150.419 Y-345.596 I92.286 J110.951
X-150.654 Y-344.076 I1.018 J0.937
G3 X-150.877 Y-342.553 I-1.271 J0.592
G2 X-155.854 Y-336.628 I106.672 J94.658
G1 X-155.884 Y-336.6
X-155.92 Y-336.584
X-155.96 Y-336.578
X-155.999 Y-336.586
X-156.034 Y-336.605
X-156.062 Y-336.633
X-156.08 Y-336.669
X-156.086 Y-336.709
Y-360.457
G3 X-155.767 Y-360.776 I0.319 J0
G1 X-131.746
X-131.706 Y-360.77
X-131.67 Y-360.752
X-131.641 Y-360.724
X-131.622 Y-360.688
X-131.615 Y-360.649
X-131.621 Y-360.609
X-131.638 Y-360.573
X-131.666 Y-360.543
G2 X-150.877 Y-342.553 I87.46 J112.648
X-151.086 Y-341.028 I1.035 J0.918
G3 X-151.28 Y-339.502 I-1.261 J0.615
G2 X-157.551 Y-331.618 I107.075 J91.607
G1 X-157.58 Y-331.59
X-157.617 Y-331.572
X-157.657 Y-331.566
X-157.697 Y-331.572
X-157.733 Y-331.591
X-157.762 Y-331.619
X-157.78 Y-331.656
X-157.786 Y-331.696
Y-362.157
G3 X-157.467 Y-362.476 I0.319 J0
G1 X-126.635
X-126.594 Y-362.47
X-126.558 Y-362.451
X-126.529 Y-362.422
X-126.511 Y-362.386
X-126.505 Y-362.346
X-126.511 Y-362.305
X-126.53 Y-362.269
X-126.559 Y-362.24
G2 X-151.28 Y-339.502 I82.353 J114.345
X-151.462 Y-337.974 I1.051 J0.899
G3 X-151.629 Y-336.444 I-1.249 J0.638
G2 X-159.249 Y-326.29 I107.423 J88.549
G1 X-159.277 Y-326.26
X-159.313 Y-326.24
X-159.354 Y-326.233
X-159.394 Y-326.239
X-159.431 Y-326.257
X-159.461 Y-326.286
X-159.48 Y-326.323
X-159.486 Y-326.363
Y-363.857
G3 X-159.167 Y-364.176 I0.319 J0
G1 X-121.185
X-121.144 Y-364.17
X-121.108 Y-364.151
X-121.079 Y-364.121
X-121.061 Y-364.084
X-121.055 Y-364.043
X-121.063 Y-364.002
X-121.083 Y-363.966
X-121.113 Y-363.938
G2 X-151.629 Y-336.444 I76.908 J116.042
X-151.782 Y-334.913 I1.068 J0.88
G3 X-151.92 Y-333.38 I-1.238 J0.661
G2 X-160.946 Y-320.572 I107.715 J85.485
G3 X-161.186 Y-320.641 I-0.111 J-0.069
G1 Y-365.557
G3 X-160.867 Y-365.876 I0.319 J0
G1 X-115.32
G3 X-115.252 Y-365.635 I0 J0.13
G2 X-151.92 Y-333.38 I71.047 J117.739
X-152.045 Y-331.846 I1.084 J0.86
G3 X-152.155 Y-330.311 I-1.225 J0.684
G2 X-162.706 Y-314.252 I107.95 J82.416
G1 X-162.729 Y-314.224
X-162.761 Y-314.207
X-162.796 Y-314.203
X-162.831 Y-314.212
X-162.86 Y-314.233
X-162.879 Y-314.264
X-162.886 Y-314.299
Y-367.257
G3 X-162.567 Y-367.576 I0.319 J0
G1 X-108.791
X-108.755 Y-367.569
X-108.725 Y-367.55
X-108.704 Y-367.521
X-108.695 Y-367.485
X-108.699 Y-367.45
X-108.717 Y-367.418
X-108.745 Y-367.395
G2 X-152.155 Y-330.311 I64.54 J119.5
X-152.251 Y-328.775 I1.1 J0.84
G3 X-152.332 Y-327.238 I-1.213 J0.707
G2 X-164.403 Y-307.386 I108.127 J79.343
G1 X-164.426 Y-307.356
X-164.457 Y-307.338
X-164.494 Y-307.332
X-164.529 Y-307.34
X-164.559 Y-307.361
X-164.579 Y-307.392
X-164.586 Y-307.428
Y-368.957
G3 X-164.267 Y-369.276 I0.319 J0
G1 X-101.674
X-101.637 Y-369.269
X-101.606 Y-369.249
X-101.585 Y-369.219
X-101.577 Y-369.183
X-101.583 Y-369.146
X-101.603 Y-369.115
X-101.632 Y-369.093
G2 X-152.332 Y-327.238 I57.427 J121.198
X-152.398 Y-325.707 I1.111 J0.815
G3 X-152.45 Y-324.175 I-1.194 J0.727
G2 X-166.094 Y-299.649 I108.244 J76.279
G1 X-166.115 Y-299.618
X-166.147 Y-299.597
X-166.184 Y-299.59
X-166.22 Y-299.598
X-166.251 Y-299.619
X-166.272 Y-299.65
X-166.279 Y-299.687
Y-370.65
G3 X-165.96 Y-370.969 I0.319 J0
G1 X-93.575
X-93.538 Y-370.962
X-93.507 Y-370.941
X-93.486 Y-370.91
X-93.479 Y-370.872
X-93.487 Y-370.835
X-93.508 Y-370.804
X-93.539 Y-370.784
G2 X-152.45 Y-324.175 I49.334 J122.888
X-152.486 Y-322.677 I1.101 J0.776
G3 X-152.508 Y-321.18 I-1.153 J0.732
G2 X-167.746 Y-290.762 I108.302 J73.285
G1 X-167.766 Y-290.729
X-167.797 Y-290.706
X-167.834 Y-290.698
X-167.872 Y-290.704
X-167.904 Y-290.725
X-167.926 Y-290.756
X-167.934 Y-290.794
Y-372.304
G3 X-167.614 Y-372.624 I0.319 J0
G1 X-84.105
X-84.068 Y-372.616
X-84.036 Y-372.594
X-84.015 Y-372.561
X-84.009 Y-372.523
X-84.019 Y-372.485
X-84.042 Y-372.455
X-84.076 Y-372.436
G2 X-152.508 Y-321.18 I39.871 J124.54
X-152.515 Y-319.723 I1.085 J0.734
G3 X-152.509 Y-318.266 I-1.108 J0.733
G2 X-169.353 Y-279.827 I108.303 J70.371
G1 X-169.368 Y-279.795
X-169.393 Y-279.771
X-169.424 Y-279.757
X-169.459 Y-279.755
X-169.492 Y-279.765
X-169.519 Y-279.787
X-169.537 Y-279.816
X-169.543 Y-279.851
Y-373.914
G3 X-169.224 Y-374.233 I0.319 J0
G1 X-71.948
X-71.913 Y-374.227
X-71.884 Y-374.209
X-71.862 Y-374.181
X-71.852 Y-374.147
X-71.855 Y-374.112
X-71.87 Y-374.081
X-71.895 Y-374.056
X-71.927 Y-374.043
G2 X-152.509 Y-318.266 I27.722 J126.147
G1 X-152.544 Y-318.221 Z-1.989
X-152.588 Y-318.184 Z-1.977
X-152.63 Y-318.159 Z-1.945
X-152.675 Y-318.142 Z-1.912
X-152.739 Y-318.13 Z-1.815
X-152.762 Y-318.129 Z-1.7
G0 Z5
X145.895 Y-355.088
G1 Z2.8 F333.3
X145.906 Y-355.051 Z2.653
X145.933 Y-354.949 Z2.544
X145.957 Y-354.805 Z2.5
G3 X143.125 Y-354.481 Z2.344 I-1.416 J0.162
X145.957 Y-354.805 Z2.187 I1.416 J-0.162
X143.125 Y-354.481 Z2.031 I-1.416 J0.162
X145.957 Y-354.805 Z1.875 I1.416 J-0.162
X143.125 Y-354.481 Z1.718 I-1.416 J0.162
X145.957 Y-354.805 Z1.562 I1.416 J-0.162
X143.125 Y-354.481 Z1.406 I-1.416 J0.162
X145.957 Y-354.805 Z1.249 I1.416 J-0.162
X143.125 Y-354.481 Z1.093 I-1.416 J0.162
X145.957 Y-354.805 Z0.937 I1.416 J-0.162
X143.125 Y-354.481 Z0.78 I-1.416 J0.162
X145.957 Y-354.805 Z0.624 I1.416 J-0.162
X143.125 Y-354.481 Z0.468 I-1.416 J0.162
X145.957 Y-354.805 Z0.311 I1.416 J-0.162
X143.125 Y-354.481 Z0.155 I-1.416 J0.162
X145.957 Y-354.805 Z-0.001 I1.416 J-0.162
X143.125 Y-354.481 Z-0.158 I-1.416 J0.162
X145.957 Y-354.805 Z-0.314 I1.416 J-0.162
X143.125 Y-354.481 Z-0.47 I-1.416 J0.162
X145.957 Y-354.805 Z-0.627 I1.416 J-0.162
X143.125 Y-354.481 Z-0.783 I-1.416 J0.162
X145.957 Y-354.805 Z-0.939 I1.416 J-0.162
X143.125 Y-354.481 Z-1.096 I-1.416 J0.162
X145.957 Y-354.805 Z-1.252 I1.416 J-0.162
X143.125 Y-354.481 Z-1.408 I-1.416 J0.162
X145.957 Y-354.805 Z-1.565 I1.416 J-0.162
X143.125 Y-354.481 Z-1.721 I-1.416 J0.162
X145.957 Y-354.805 Z-1.877 I1.416 J-0.162
X143.538 Y-353.631 Z-2 I-1.416 J0.162
G2 X142.819 Y-354.338 I-104.739 J105.735 F1000
G1 X142.793 Y-354.374
X142.781 Y-354.416
X142.783 Y-354.459
X142.8 Y-354.5
X142.829 Y-354.533
X142.867 Y-354.554
X142.91 Y-354.561
X144.146
G3 X144.465 Y-354.242 I0 J0.319
G1 Y-353.02
X144.458 Y-352.977
X144.437 Y-352.938
X144.404 Y-352.909
X144.364 Y-352.893
X144.32 Y-352.89
X144.278 Y-352.903
X144.243 Y-352.928
G2 X143.538 Y-353.631 I-105.444 J105.033
X142.549 Y-353.822 I-0.638 J0.644
G3 X141.559 Y-354.009 I-0.354 J-0.843
G2 X140.048 Y-355.451 I-102.76 J106.113
G1 X140.021 Y-355.487
X140.008 Y-355.529
X140.01 Y-355.573
X140.026 Y-355.614
X140.055 Y-355.647
X140.094 Y-355.669
X140.137 Y-355.676
X145.261
G3 X145.58 Y-355.357 I0 J0.319
G1 Y-350.285
X145.573 Y-350.242
X145.551 Y-350.203
X145.518 Y-350.174
X145.478 Y-350.158
X145.434 Y-350.156
X145.392 Y-350.169
X145.356 Y-350.195
G2 X141.559 Y-354.009 I-106.557 J102.3
X140.045 Y-354.284 I-0.962 J0.994
G3 X138.529 Y-354.545 I-0.559 J-1.285
G2 X135.67 Y-357.149 I-99.73 J106.65
G1 X135.642 Y-357.184
X135.628 Y-357.226
X135.629 Y-357.271
X135.644 Y-357.312
X135.673 Y-357.346
X135.712 Y-357.369
X135.756 Y-357.376
X146.961
G3 X147.28 Y-357.057 I0 J0.319
G1 Y-345.969
X147.273 Y-345.925
X147.251 Y-345.886
X147.217 Y-345.857
X147.175 Y-345.841
X147.131 Y-345.84
X147.089 Y-345.854
X147.054 Y-345.881
G2 X138.529 Y-354.545 I-108.254 J97.986
X137.011 Y-354.794 I-0.945 J1.01
G3 X135.49 Y-355.029 I-0.581 J-1.276
G2 X131.085 Y-358.846 I-96.691 J107.133
G1 X131.056 Y-358.881
X131.04 Y-358.923
Y-358.968
X131.055 Y-359.011
X131.084 Y-359.046
X131.123 Y-359.068
X131.168 Y-359.076
X148.661
G3 X148.98 Y-358.757 I0 J0.319
G1 Y-341.453
X148.972 Y-341.409
X148.95 Y-341.37
X148.915 Y-341.341
X148.873 Y-341.325
X148.828
X148.786 Y-341.34
X148.751 Y-341.369
G2 X135.49 Y-355.029 I-109.952 J93.474
X133.967 Y-355.25 I-0.927 J1.027
G3 X132.443 Y-355.458 I-0.604 J-1.265
G2 X126.26 Y-360.543 I-93.644 J107.563
G1 X126.232 Y-360.573
X126.215 Y-360.609
X126.209 Y-360.649
X126.216 Y-360.688
X126.235 Y-360.724
X126.264 Y-360.752
X126.3 Y-360.77
X126.34 Y-360.776
X150.361
G3 X150.68 Y-360.457 I0 J0.319
G1 Y-336.709
X150.674 Y-336.669
X150.656 Y-336.633
X150.628 Y-336.605
X150.593 Y-336.586
X150.554 Y-336.578
X150.514 Y-336.584
X150.478 Y-336.6
X150.448 Y-336.628
G2 X132.443 Y-355.458 I-111.649 J88.732
X130.916 Y-355.652 I-0.908 J1.043
G3 X129.388 Y-355.833 I-0.627 J-1.255
G2 X121.153 Y-362.24 I-90.589 J107.938
G1 X121.124 Y-362.269
X121.105 Y-362.305
X121.099 Y-362.346
X121.105 Y-362.386
X121.123 Y-362.422
X121.152 Y-362.451
X121.188 Y-362.47
X121.229 Y-362.476
X152.061
G3 X152.38 Y-362.157 I0 J0.319
G1 Y-331.696
X152.374 Y-331.656
X152.356 Y-331.619
X152.327 Y-331.591
X152.291 Y-331.572
X152.251 Y-331.566
X152.211 Y-331.572
X152.174 Y-331.59
X152.145 Y-331.618
G2 X129.388 Y-355.833 I-113.346 J83.723
X127.858 Y-356 I-0.889 J1.06
G3 X126.327 Y-356.152 I-0.649 J-1.243
G2 X115.707 Y-363.938 I-87.528 J108.257
G1 X115.677 Y-363.966
X115.657 Y-364.002
X115.649 Y-364.043
X115.655 Y-364.084
X115.673 Y-364.121
X115.702 Y-364.151
X115.738 Y-364.17
X115.779 Y-364.176
X153.761
G3 X154.08 Y-363.857 I0 J0.319
G1 Y-326.363
X154.074 Y-326.323
X154.055 Y-326.286
X154.025 Y-326.257
X153.988 Y-326.239
X153.948 Y-326.233
X153.907 Y-326.24
X153.871 Y-326.26
X153.842 Y-326.29
G2 X126.327 Y-356.152 I-115.043 J78.395
X124.795 Y-356.291 I-0.87 J1.076
G3 X123.261 Y-356.415 I-0.672 J-1.231
G2 X109.846 Y-365.635 I-84.461 J108.52
G3 X109.914 Y-365.876 I0.067 J-0.111
G1 X155.461
G3 X155.78 Y-365.557 I0 J0.319
G1 Y-320.641
G3 X155.54 Y-320.572 I-0.13 J0
G2 X123.261 Y-356.415 I-116.74 J72.677
X121.726 Y-356.525 I-0.85 J1.092
G3 X120.19 Y-356.621 I-0.695 J-1.219
G2 X103.339 Y-367.395 I-81.39 J108.725
G1 X103.311 Y-367.418
X103.293 Y-367.45
X103.289 Y-367.485
X103.298 Y-367.521
X103.319 Y-367.55
X103.349 Y-367.569
X103.385 Y-367.576
X157.161
G3 X157.48 Y-367.257 I0 J0.319
G1 Y-314.299
X157.473 Y-314.264
X157.454 Y-314.233
X157.425 Y-314.212
X157.39 Y-314.203
X157.355 Y-314.207
X157.323 Y-314.224
X157.3 Y-314.252
G2 X120.19 Y-356.621 I-118.501 J66.357
X118.653 Y-356.702 I-0.829 J1.108
G3 X117.115 Y-356.768 I-0.718 J-1.206
G2 X96.226 Y-369.093 I-78.316 J108.873
G1 X96.197 Y-369.115
X96.177 Y-369.146
X96.171 Y-369.183
X96.179 Y-369.219
X96.2 Y-369.249
X96.231 Y-369.269
X96.268 Y-369.276
X158.861
G3 X159.18 Y-368.957 I0 J0.319
G1 Y-307.428
X159.173 Y-307.392
X159.153 Y-307.361
X159.123 Y-307.34
X159.088 Y-307.332
X159.051 Y-307.338
X159.02 Y-307.356
X158.997 Y-307.386
G2 X117.115 Y-356.768 I-120.198 J59.49
X115.583 Y-356.82 I-0.805 J1.119
G3 X114.05 Y-356.857 I-0.738 J-1.187
G2 X88.133 Y-370.784 I-75.251 J108.962
G1 X88.102 Y-370.804
X88.081 Y-370.835
X88.073 Y-370.872
X88.08 Y-370.91
X88.101 Y-370.941
X88.132 Y-370.962
X88.169 Y-370.969
X160.554
G3 X160.873 Y-370.65 I0 J0.319
G1 Y-299.687
X160.866 Y-299.65
X160.845 Y-299.619
X160.814 Y-299.598
X160.778 Y-299.59
X160.741 Y-299.597
X160.709 Y-299.618
X160.688 Y-299.649
G2 X114.05 Y-356.857 I-121.889 J51.754
X112.553 Y-356.879 I-0.765 J1.108
G3 X111.055 Y-356.886 I-0.743 J-1.146
G2 X78.67 Y-372.436 I-72.256 J108.991
G1 X78.636 Y-372.455
X78.613 Y-372.485
X78.603 Y-372.523
X78.609 Y-372.561
X78.63 Y-372.594
X78.662 Y-372.616
X78.699 Y-372.624
X162.208
G3 X162.528 Y-372.304 I0 J0.319
G1 Y-290.794
X162.52 Y-290.756
X162.498 Y-290.725
X162.466 Y-290.704
X162.428 Y-290.698
X162.391 Y-290.706
X162.36 Y-290.729
X162.34 Y-290.762
G2 X111.055 Y-356.886 I-123.541 J42.867
X109.598 Y-356.88 I-0.724 J1.092
G3 X108.141 Y-356.86 I-0.744 J-1.101
G2 X66.521 Y-374.043 I-69.342 J108.965
G1 X66.489 Y-374.056
X66.464 Y-374.081
X66.449 Y-374.112
X66.446 Y-374.147
X66.456 Y-374.181
X66.478 Y-374.209
X66.507 Y-374.227
X66.542 Y-374.233
X163.818
G3 X164.137 Y-373.914 I0 J0.319
G1 Y-279.851
X164.131 Y-279.816
X164.113 Y-279.787
X164.086 Y-279.765
X164.053 Y-279.755
X164.018 Y-279.757
X163.987 Y-279.771
X163.962 Y-279.795
X163.947 Y-279.827
G2 X108.141 Y-356.86 I-125.148 J31.931
X106.753 Y-356.828 I-0.671 J1.054
G3 X105.364 Y-356.784 I-0.728 J-1.036
G2 X38.8 Y-375.543 I-66.614 J108.895
G1 X-44.206
G2 X-170.908 Y-263.032 I0 J127.598
G1 X-170.919 Y-262.998
X-170.942 Y-262.971
X-170.973 Y-262.954
X-171.008 Y-262.949
X-171.042 Y-262.958
X-171.071 Y-262.979
X-171.09 Y-263.009
X-171.097 Y-263.043
Y-375.474
G3 X-170.784 Y-375.787 I0.313 J0
G1 X165.378
G3 X165.691 Y-375.474 I0 J0.313
G1 Y-263.043
X165.684 Y-263.009
X165.665 Y-262.979
X165.636 Y-262.958
X165.602 Y-262.949
X165.567 Y-262.954
X165.536 Y-262.971
X165.513 Y-262.998
X165.502 Y-263.032
G2 X105.364 Y-356.784 I-126.753 J15.143
G1 X105.318 Y-356.819 Z-1.989
X105.28 Y-356.861 Z-1.977
X105.254 Y-356.902 Z-1.945
X105.235 Y-356.947 Z-1.912
X105.222 Y-357.011 Z-1.815
X105.221 Y-357.034 Z-1.7
G0 Z5
X141.772 Y358.582
G1 Z2.8 F333.3
X141.79 Y358.548 Z2.653
X141.844 Y358.458 Z2.544
X141.929 Y358.34 Z2.5
G3 X144.152 Y360.123 Z2.344 I1.112 J0.891
X141.929 Y358.34 Z2.187 I-1.112 J-0.891
X144.152 Y360.123 Z2.031 I1.112 J0.891
X141.929 Y358.34 Z1.875 I-1.112 J-0.891
X144.152 Y360.123 Z1.718 I1.112 J0.891
X141.929 Y358.34 Z1.562 I-1.112 J-0.891
X144.152 Y360.123 Z1.406 I1.112 J0.891
X141.929 Y358.34 Z1.249 I-1.112 J-0.891
X144.152 Y360.123 Z1.093 I1.112 J0.891
X141.929 Y358.34 Z0.937 I-1.112 J-0.891
X144.152 Y360.123 Z0.78 I1.112 J0.891
X141.929 Y358.34 Z0.624 I-1.112 J-0.891
X144.152 Y360.123 Z0.468 I1.112 J0.891
X141.929 Y358.34 Z0.311 I-1.112 J-0.891
X144.152 Y360.123 Z0.155 I1.112 J0.891
X141.929 Y358.34 Z-0.001 I-1.112 J-0.891
X144.152 Y360.123 Z-0.158 I1.112 J0.891
X141.929 Y358.34 Z-0.314 I-1.112 J-0.891
X144.152 Y360.123 Z-0.47 I1.112 J0.891
X141.929 Y358.34 Z-0.627 I-1.112 J-0.891
X144.152 Y360.123 Z-0.783 I1.112 J0.891
X141.929 Y358.34 Z-0.939 I-1.112 J-0.891
X144.152 Y360.123 Z-1.096 I1.112 J0.891
X141.929 Y358.34 Z-1.252 I-1.112 J-0.891
X144.152 Y360.123 Z-1.408 I1.112 J0.891
X141.929 Y358.34 Z-1.565 I-1.112 J-0.891
X144.152 Y360.123 Z-1.721 I1.112 J0.891
X141.929 Y358.34 Z-1.877 I-1.112 J-0.891
X144.465 Y359.231 Z-2 I1.112 J0.891
G1 Y359.456 F1000
G3 X144.146 Y359.775 I-0.319 J0
G1 X142.91
X142.867 Y359.768
X142.829 Y359.747
X142.8 Y359.714
X142.783 Y359.673
X142.781 Y359.63
X142.794 Y359.588
X142.819 Y359.552
G2 X144.243 Y358.142 I-104.02 J-106.442
G1 X144.279 Y358.117
X144.32 Y358.105
X144.364 Y358.107
X144.404 Y358.124
X144.437 Y358.153
X144.458 Y358.191
X144.465 Y358.234
Y359.231
G2 X144.873 Y360.034 I0.994 J0
G3 X144.594 Y360.89 I-0.279 J0.382
G1 X140.137
X140.094 Y360.883
X140.055 Y360.861
X140.026 Y360.828
X140.01 Y360.787
X140.008 Y360.743
X140.022 Y360.701
X140.048 Y360.665
G2 X145.356 Y355.409 I-101.248 J-107.556
G1 X145.392 Y355.383
X145.434 Y355.37
X145.478 Y355.372
X145.518 Y355.388
X145.551 Y355.418
X145.573 Y355.456
X145.58 Y355.499
Y360.571
G3 X145.261 Y360.89 I-0.319 J0
G1 X144.594
G2 X143.319 Y361.74 I0 J1.381
G3 X142.044 Y362.59 I-1.275 J-0.531
G1 X135.757
X135.713 Y362.583
X135.674 Y362.56
X135.645 Y362.526
X135.629 Y362.485
X135.628 Y362.44
X135.642 Y362.398
X135.67 Y362.363
G2 X147.054 Y351.096 I-96.871 J-109.253
G1 X147.089 Y351.068
X147.131 Y351.054
X147.175 Y351.055
X147.217 Y351.071
X147.251 Y351.1
X147.273 Y351.139
X147.28 Y351.183
Y362.271
G3 X146.961 Y362.59 I-0.319 J0
G1 X142.044
G2 X140.769 Y363.44 I0 J1.381
G3 X139.494 Y364.29 I-1.275 J-0.531
G1 X131.168
X131.124 Y364.282
X131.085 Y364.26
X131.056 Y364.225
X131.04 Y364.182
Y364.137
X131.056 Y364.095
X131.085 Y364.06
G2 X148.751 Y346.583 I-92.285 J-110.95
G1 X148.786 Y346.554
X148.828 Y346.539
X148.873
X148.915 Y346.555
X148.95 Y346.584
X148.972 Y346.623
X148.98 Y346.668
Y363.971
G3 X148.661 Y364.29 I-0.319 J0
G1 X139.494
G2 X138.219 Y365.14 I0 J1.381
G3 X136.944 Y365.99 I-1.275 J-0.531
G1 X126.34
X126.3 Y365.984
X126.264 Y365.966
X126.236 Y365.938
X126.217 Y365.902
X126.21 Y365.863
X126.215 Y365.823
X126.232 Y365.787
X126.26 Y365.757
G2 X150.448 Y341.842 I-87.46 J-112.648
G1 X150.478 Y341.815
X150.514 Y341.798
X150.554 Y341.793
X150.593 Y341.8
X150.628 Y341.819
X150.656 Y341.848
X150.674 Y341.883
X150.68 Y341.923
Y365.671
G3 X150.361 Y365.99 I-0.319 J0
G1 X136.944
G2 X135.669 Y366.84 I0 J1.381
G3 X134.394 Y367.69 I-1.275 J-0.531
G1 X121.229
X121.189 Y367.684
X121.152 Y367.665
X121.124 Y367.636
X121.105 Y367.6
X121.099 Y367.56
X121.105 Y367.519
X121.124 Y367.483
X121.153 Y367.454
G2 X152.145 Y336.833 I-82.353 J-114.345
G1 X152.174 Y336.804
X152.211 Y336.786
X152.251 Y336.78
X152.291 Y336.786
X152.327 Y336.805
X152.355 Y336.834
X152.374 Y336.87
X152.38 Y336.91
Y367.371
G3 X152.061 Y367.69 I-0.319 J0
G1 X134.394
G2 X133.119 Y368.54 I0 J1.381
G3 X131.844 Y369.39 I-1.275 J-0.531
G1 X115.78
X115.739 Y369.384
X115.702 Y369.365
X115.673 Y369.335
X115.655 Y369.298
X115.65 Y369.257
X115.657 Y369.216
X115.677 Y369.18
X115.708 Y369.152
G2 X153.842 Y331.504 I-76.908 J-116.042
G1 X153.871 Y331.474
X153.907 Y331.455
X153.948 Y331.448
X153.988 Y331.453
X154.025 Y331.472
X154.055 Y331.5
X154.074 Y331.537
X154.08 Y331.578
Y369.071
G3 X153.761 Y369.39 I-0.319 J0
G1 X131.844
G2 X130.569 Y370.24 I0 J1.381
G3 X129.294 Y371.09 I-1.275 J-0.531
G1 X109.914
G3 X109.847 Y370.849 I0 J-0.13
G2 X155.54 Y325.787 I-71.047 J-117.739
G3 X155.78 Y325.855 I0.11 J0.069
G1 Y370.771
G3 X155.461 Y371.09 I-0.319 J0
G1 X129.294
G2 X128.019 Y371.94 I0 J1.381
G3 X126.744 Y372.79 I-1.275 J-0.531
G1 X103.385
X103.35 Y372.783
X103.319 Y372.764
X103.298 Y372.735
X103.289 Y372.699
X103.294 Y372.664
X103.311 Y372.632
X103.339 Y372.609
G2 X157.3 Y319.466 I-64.54 J-119.499
G1 X157.323 Y319.439
X157.355 Y319.422
X157.39 Y319.417
X157.425 Y319.426
X157.454 Y319.448
X157.473 Y319.478
X157.48 Y319.513
Y372.471
G3 X157.161 Y372.79 I-0.319 J0
G1 X126.744
G2 X125.469 Y373.64 I0 J1.381
G3 X124.194 Y374.49 I-1.275 J-0.531
G1 X96.268
X96.232 Y374.483
X96.201 Y374.463
X96.18 Y374.433
X96.172 Y374.397
X96.178 Y374.36
X96.197 Y374.329
X96.227 Y374.307
G2 X158.997 Y312.6 I-57.427 J-121.197
G1 X159.02 Y312.571
X159.051 Y312.552
X159.088 Y312.546
X159.123 Y312.555
X159.153 Y312.576
X159.173 Y312.607
X159.18 Y312.643
Y374.171
G3 X158.861 Y374.49 I-0.319 J0
G1 X124.194
G2 X122.924 Y375.337 I0 J1.376
G3 X121.654 Y376.183 I-1.27 J-0.529
G1 X88.17
X88.133 Y376.176
X88.101 Y376.155
X88.081 Y376.123
X88.073 Y376.086
X88.081 Y376.049
X88.102 Y376.018
X88.134 Y375.998
G2 X160.688 Y304.863 I-49.334 J-122.888
G1 X160.709 Y304.832
X160.741 Y304.812
X160.778 Y304.805
X160.814 Y304.812
X160.845 Y304.833
X160.866 Y304.864
X160.873 Y304.901
Y375.864
G3 X160.554 Y376.183 I-0.319 J0
G1 X121.654
G2 X120.413 Y377.011 I0 J1.344
G3 X119.172 Y377.838 I-1.241 J-0.517
G1 X78.7
X78.662 Y377.83
X78.63 Y377.808
X78.61 Y377.775
X78.604 Y377.737
X78.613 Y377.699
X78.637 Y377.669
X78.671 Y377.65
G2 X162.34 Y295.977 I-39.871 J-124.54
G1 X162.36 Y295.944
X162.391 Y295.921
X162.428 Y295.912
X162.466 Y295.918
X162.498 Y295.939
X162.52 Y295.971
X162.528 Y296.008
Y377.518
G3 X162.208 Y377.838 I-0.319 J0
G1 X119.172
G2 X117.965 Y378.642 I0 J1.308
G3 X116.758 Y379.447 I-1.207 J-0.503
G1 X66.542
X66.508 Y379.441
X66.478 Y379.423
X66.457 Y379.395
X66.447 Y379.361
X66.449 Y379.326
X66.464 Y379.295
X66.489 Y379.27
X66.522 Y379.257
G2 X163.947 Y285.041 I-27.722 J-126.147
G1 X163.962 Y285.01
X163.987 Y284.985
X164.018 Y284.971
X164.053 Y284.969
X164.086 Y284.98
X164.113 Y285.001
X164.131 Y285.031
X164.137 Y285.065
Y379.128
G3 X163.818 Y379.447 I-0.319 J0
G1 X116.758
X116.701 Y379.442 Z-1.989
X116.646 Y379.425 Z-1.977
X116.603 Y379.404 Z-1.945
X116.563 Y379.375 Z-1.912
X116.519 Y379.328 Z-1.815
X116.506 Y379.309 Z-1.7
G0 Z5
X-151.301 Y360.302
G1 Z2.8 F333.3
X-151.313 Y360.265 Z2.653
X-151.339 Y360.163 Z2.544
X-151.363 Y360.019 Z2.5
G3 X-148.531 Y359.695 Z2.344 I1.416 J-0.162
X-151.363 Y360.019 Z2.187 I-1.416 J0.162
X-148.531 Y359.695 Z2.031 I1.416 J-0.162
X-151.363 Y360.019 Z1.875 I-1.416 J0.162
X-148.531 Y359.695 Z1.718 I1.416 J-0.162
X-151.363 Y360.019 Z1.562 I-1.416 J0.162
X-148.531 Y359.695 Z1.406 I1.416 J-0.162
X-151.363 Y360.019 Z1.249 I-1.416 J0.162
X-148.531 Y359.695 Z1.093 I1.416 J-0.162
X-151.363 Y360.019 Z0.937 I-1.416 J0.162
X-148.531 Y359.695 Z0.78 I1.416 J-0.162
X-151.363 Y360.019 Z0.624 I-1.416 J0.162
X-148.531 Y359.695 Z0.468 I1.416 J-0.162
X-151.363 Y360.019 Z0.311 I-1.416 J0.162
X-148.531 Y359.695 Z0.155 I1.416 J-0.162
X-151.363 Y360.019 Z-0.001 I-1.416 J0.162
X-148.531 Y359.695 Z-0.158 I1.416 J-0.162
X-151.363 Y360.019 Z-0.314 I-1.416 J0.162
X-148.531 Y359.695 Z-0.47 I1.416 J-0.162
X-151.363 Y360.019 Z-0.627 I-1.416 J0.162
X-148.531 Y359.695 Z-0.783 I1.416 J-0.162
X-151.363 Y360.019 Z-0.939 I-1.416 J0.162
X-148.531 Y359.695 Z-1.096 I1.416 J-0.162
X-151.363 Y360.019 Z-1.252 I-1.416 J0.162
X-148.531 Y359.695 Z-1.408 I1.416 J-0.162
X-151.363 Y360.019 Z-1.565 I-1.416 J0.162
X-148.531 Y359.695 Z-1.721 I1.416 J-0.162
X-151.363 Y360.019 Z-1.877 I-1.416 J0.162
X-148.944 Y358.845 Z-2 I1.416 J-0.162
G2 X-148.225 Y359.552 I104.739 J-105.735 F1000
G1 X-148.2 Y359.588
X-148.187 Y359.63
X-148.189 Y359.673
X-148.206 Y359.714
X-148.235 Y359.747
X-148.273 Y359.768
X-148.316 Y359.775
X-149.552
G3 X-149.871 Y359.456 I0 J-0.319
G1 Y358.234
X-149.864 Y358.191
X-149.843 Y358.153
X-149.81 Y358.124
X-149.77 Y358.107
X-149.726 Y358.105
X-149.685 Y358.117
X-149.649 Y358.142
G2 X-148.944 Y358.845 I105.443 J-105.032
X-147.955 Y359.037 I0.638 J-0.644
G3 X-146.965 Y359.223 I0.354 J0.843
G2 X-145.454 Y360.665 I102.759 J-106.113
G1 X-145.428 Y360.701
X-145.414 Y360.743
X-145.416 Y360.787
X-145.432 Y360.828
X-145.461 Y360.861
X-145.5 Y360.883
X-145.543 Y360.89
X-150.667
G3 X-150.986 Y360.571 I0 J-0.319
G1 Y355.499
X-150.979 Y355.456
X-150.957 Y355.418
X-150.924 Y355.388
X-150.884 Y355.372
X-150.84 Y355.37
X-150.798 Y355.383
X-150.762 Y355.409
G2 X-146.965 Y359.223 I106.556 J-102.299
X-145.451 Y359.498 I0.962 J-0.994
G3 X-143.935 Y359.759 I0.559 J1.285
G2 X-141.076 Y362.363 I99.729 J-106.65
G1 X-141.048 Y362.398
X-141.034 Y362.44
X-141.035 Y362.485
X-141.051 Y362.526
X-141.08 Y362.56
X-141.119 Y362.583
X-141.163 Y362.59
X-152.367
G3 X-152.686 Y362.271 I0 J-0.319
G1 Y351.183
X-152.679 Y351.139
X-152.657 Y351.1
X-152.623 Y351.071
X-152.581 Y351.055
X-152.537 Y351.054
X-152.495 Y351.068
X-152.46 Y351.096
G2 X-143.935 Y359.759 I108.254 J-97.986
X-142.417 Y360.008 I0.945 J-1.01
G3 X-140.896 Y360.243 I0.581 J1.276
G2 X-136.491 Y364.06 I96.69 J-107.133
G1 X-136.462 Y364.095
X-136.446 Y364.137
Y364.182
X-136.462 Y364.225
X-136.491 Y364.26
X-136.53 Y364.282
X-136.574 Y364.29
X-154.067
G3 X-154.386 Y363.971 I0 J-0.319
G1 Y346.668
X-154.378 Y346.623
X-154.356 Y346.584
X-154.321 Y346.555
X-154.279 Y346.539
X-154.234
X-154.192 Y346.554
X-154.157 Y346.583
G2 X-140.896 Y360.243 I109.951 J-93.473
X-139.374 Y360.464 I0.927 J-1.027
G3 X-137.849 Y360.672 I0.604 J1.265
G2 X-131.666 Y365.757 I93.643 J-107.563
G1 X-131.638 Y365.787
X-131.621 Y365.823
X-131.616 Y365.863
X-131.623 Y365.902
X-131.642 Y365.938
X-131.67 Y365.966
X-131.706 Y365.984
X-131.746 Y365.99
X-155.767
G3 X-156.086 Y365.671 I0 J-0.319
G1 Y341.923
X-156.08 Y341.883
X-156.062 Y341.848
X-156.034 Y341.819
X-155.999 Y341.8
X-155.96 Y341.793
X-155.92 Y341.798
X-155.884 Y341.815
X-155.854 Y341.842
G2 X-137.849 Y360.672 I111.648 J-88.732
X-136.323 Y360.867 I0.908 J-1.043
G3 X-134.794 Y361.047 I0.627 J1.255
G2 X-126.559 Y367.454 I90.589 J-107.937
G1 X-126.53 Y367.483
X-126.511 Y367.519
X-126.505 Y367.56
X-126.511 Y367.6
X-126.53 Y367.636
X-126.558 Y367.665
X-126.595 Y367.684
X-126.635 Y367.69
X-157.467
G3 X-157.786 Y367.371 I0 J-0.319
G1 Y336.91
X-157.78 Y336.87
X-157.762 Y336.834
X-157.733 Y336.805
X-157.697 Y336.786
X-157.657 Y336.78
X-157.617 Y336.786
X-157.58 Y336.804
X-157.551 Y336.833
G2 X-134.794 Y361.047 I113.346 J-83.723
X-133.265 Y361.214 I0.889 J-1.06
G3 X-131.733 Y361.366 I0.649 J1.243
G2 X-121.114 Y369.152 I87.528 J-108.256
G1 X-121.083 Y369.18
X-121.063 Y369.216
X-121.056 Y369.257
X-121.061 Y369.298
X-121.079 Y369.335
X-121.108 Y369.365
X-121.145 Y369.384
X-121.186 Y369.39
X-159.167
G3 X-159.486 Y369.071 I0 J-0.319
G1 Y331.578
X-159.48 Y331.537
X-159.461 Y331.5
X-159.431 Y331.472
X-159.394 Y331.453
X-159.354 Y331.448
X-159.313 Y331.455
X-159.277 Y331.474
X-159.249 Y331.504
G2 X-131.733 Y361.366 I115.043 J-78.395
X-130.201 Y361.505 I0.87 J-1.076
G3 X-128.667 Y361.629 I0.672 J1.231
G2 X-115.253 Y370.849 I84.461 J-108.519
G3 X-115.32 Y371.09 I-0.067 J0.111
G1 X-160.867
G3 X-161.186 Y370.771 I0 J-0.319
G1 Y325.855
G3 X-160.946 Y325.787 I0.13 J0
G2 X-128.667 Y361.629 I116.74 J-72.677
X-127.132 Y361.739 I0.85 J-1.092
G3 X-125.596 Y361.835 I0.695 J1.219
G2 X-108.745 Y372.609 I81.39 J-108.725
G1 X-108.717 Y372.632
X-108.7 Y372.664
X-108.695 Y372.699
X-108.704 Y372.735
X-108.725 Y372.764
X-108.756 Y372.783
X-108.791 Y372.79
X-162.567
G3 X-162.886 Y372.471 I0 J-0.319
G1 Y319.513
X-162.879 Y319.478
X-162.86 Y319.448
X-162.831 Y319.426
X-162.796 Y319.417
X-162.761 Y319.422
X-162.729 Y319.439
X-162.706 Y319.466
G2 X-125.596 Y361.835 I118.5 J-66.357
X-124.059 Y361.916 I0.829 J-1.108
G3 X-122.521 Y361.982 I0.718 J1.206
G2 X-101.633 Y374.307 I78.316 J-108.873
G1 X-101.603 Y374.329
X-101.584 Y374.36
X-101.578 Y374.397
X-101.586 Y374.433
X-101.607 Y374.463
X-101.638 Y374.483
X-101.674 Y374.49
X-164.267
G3 X-164.586 Y374.171 I0 J-0.319
G1 Y312.643
X-164.579 Y312.607
X-164.559 Y312.576
X-164.529 Y312.555
X-164.494 Y312.546
X-164.457 Y312.552
X-164.426 Y312.571
X-164.403 Y312.6
G2 X-122.521 Y361.982 I120.198 J-59.49
X-120.989 Y362.034 I0.805 J-1.119
G3 X-119.457 Y362.071 I0.738 J1.187
G2 X-93.54 Y375.998 I75.251 J-108.961
G1 X-93.508 Y376.018
X-93.487 Y376.049
X-93.479 Y376.086
X-93.487 Y376.123
X-93.507 Y376.155
X-93.539 Y376.176
X-93.576 Y376.183
X-165.96
G3 X-166.279 Y375.864 I0 J-0.319
G1 Y304.901
X-166.272 Y304.864
X-166.251 Y304.833
X-166.22 Y304.812
X-166.184 Y304.805
X-166.147 Y304.812
X-166.115 Y304.832
X-166.094 Y304.863
G2 X-119.457 Y362.071 I121.889 J-51.754
X-117.959 Y362.093 I0.765 J-1.108
G3 X-116.461 Y362.101 I0.743 J1.146
G2 X-84.076 Y377.65 I72.256 J-108.991
G1 X-84.043 Y377.669
X-84.019 Y377.699
X-84.01 Y377.737
X-84.016 Y377.775
X-84.036 Y377.808
X-84.068 Y377.83
X-84.106 Y377.838
X-167.614
G3 X-167.934 Y377.518 I0 J-0.319
G1 Y296.008
X-167.926 Y295.971
X-167.904 Y295.939
X-167.872 Y295.918
X-167.834 Y295.912
X-167.797 Y295.921
X-167.766 Y295.944
X-167.746 Y295.977
G2 X-116.461 Y362.101 I123.541 J-42.867
X-115.004 Y362.094 I0.724 J-1.092
G3 X-113.548 Y362.074 I0.744 J1.101
G2 X-71.928 Y379.257 I69.342 J-108.964
G1 X-71.895 Y379.27
X-71.87 Y379.295
X-71.855 Y379.326
X-71.853 Y379.361
X-71.863 Y379.395
X-71.884 Y379.423
X-71.914 Y379.441
X-71.948 Y379.447
X-169.224
G3 X-169.543 Y379.128 I0 J-0.319
G1 Y285.065
X-169.537 Y285.031
X-169.519 Y285.001
X-169.492 Y284.98
X-169.459 Y284.969
X-169.424 Y284.971
X-169.393 Y284.985
X-169.368 Y285.01
X-169.353 Y285.041
G2 X-113.548 Y362.074 I125.148 J-31.931
X-112.159 Y362.042 I0.671 J-1.054
G3 X-110.77 Y361.998 I0.728 J1.036
G2 X-44.205 Y380.757 I66.614 J-108.895
G1 X38.8
G2 X165.502 Y268.247 I0 J-127.598
G1 X165.513 Y268.213
X165.536 Y268.185
X165.567 Y268.168
X165.602 Y268.164
X165.636 Y268.172
X165.665 Y268.193
X165.684 Y268.223
X165.691 Y268.258
Y380.688
G3 X165.378 Y381.001 I-0.313 J0
G1 X-170.784
G3 X-171.097 Y380.688 I0 J-0.313
G1 Y268.258
X-171.09 Y268.223
X-171.071 Y268.193
X-171.042 Y268.172
X-171.008 Y268.164
X-170.973 Y268.168
X-170.942 Y268.185
X-170.919 Y268.213
X-170.908 Y268.247
G2 X-110.77 Y361.998 I126.752 J-15.143
X-109.436 Y361.944 I0.626 J-1.024
G3 X-108.102 Y361.877 I0.717 J0.983
G2 X-44.205 Y379.257 I63.896 J-108.767
G1 X38.8
G2 X164.947 Y253.11 I0 J-126.147
G1 Y-247.895
G2 X38.8 Y-374.043 I-126.148 J0
G1 X-44.206
G2 X-170.353 Y-247.895 I0 J126.148
G1 Y253.11
G2 X-108.102 Y361.877 I126.147 J0
X-106.565 Y361.787 I0.701 J-1.193
G3 X-105.029 Y361.681 I0.849 J1.12
G2 X-44.205 Y377.557 I60.823 J-108.571
G1 X38.8
G2 X163.247 Y253.11 I0 J-124.447
G1 Y-247.895
G2 X38.8 Y-372.343 I-124.448 J0
G1 X-44.206
G2 X-168.653 Y-247.895 I0 J124.447
G1 Y253.11
G2 X-105.029 Y361.681 I124.447 J0
X-103.494 Y361.559 I0.676 J-1.207
G3 X-101.961 Y361.421 I0.872 J1.102
G2 X-44.205 Y375.857 I57.755 J-108.311
G1 X38.8
G2 X161.547 Y253.11 I0 J-122.747
G1 Y-247.895
G2 X38.8 Y-370.643 I-122.748 J0
G1 X-44.206
G2 X-166.953 Y-247.895 I0 J122.748
G1 Y253.11
G2 X-101.961 Y361.421 I122.747 J0
X-100.383 Y361.262 I0.67 J-1.257
G3 X-98.808 Y361.086 I0.922 J1.117
G2 X-44.205 Y374.107 I54.602 J-107.977
G1 X38.799
G2 X159.797 Y253.11 I0 J-120.997
G1 Y-247.895
G2 X38.8 Y-368.893 I-120.998 J0
G1 X-44.206
G2 X-165.203 Y-247.895 I0 J120.998
G1 Y253.11
G2 X-98.808 Y361.086 I120.997 J0
G1 X-98.759 Y361.117 Z-1.989
X-98.718 Y361.156 Z-1.977
X-98.689 Y361.195 Z-1.945
X-98.666 Y361.238 Z-1.912
X-98.648 Y361.301 Z-1.815
X-98.645 Y361.323 Z-1.7
G0 Z5
X143.921 Y377.971
G1 Z3 F333.3
Z-1.7
G19 G3 Y378.271 Z-2 J0.3 K0
G17 G2 X143.99 Y378.647 I1.058 J0 F1000
G1 X144.91 Y381.069
G3 X143.921 Y382.502 I-0.989 J0.376
G1 X-149.328
X-172.279
G3 X-172.598 Y382.183 I0 J-0.319
G1 Y-376.969
G3 X-172.279 Y-377.288 I0.319 J0
G1 X166.873
G3 X167.192 Y-376.969 I0 J0.319
G1 Y382.183
G3 X166.873 Y382.502 I-0.319 J0
G1 X143.921
G2 X142.68 Y383.329 I0 J1.345
G3 X141.439 Y384.157 I-1.241 J-0.517
G1 X-173.203
G3 X-174.253 Y383.107 I0 J-1.05
G1 Y-377.893
G3 X-173.203 Y-378.943 I1.05 J0
G1 X167.797
G3 X168.847 Y-377.893 I0 J1.05
G1 Y253.11
Y383.107
G3 X167.797 Y384.157 I-1.05 J0
G1 X141.439
G2 X140.164 Y385.007 I0 J1.381
G3 X138.889 Y385.857 I-1.275 J-0.531
G1 X-173.203
G3 X-175.953 Y383.107 I0 J-2.75
G1 Y-247.895
Y-377.893
G3 X-173.203 Y-380.643 I2.75 J0
G1 X167.797
G3 X170.547 Y-377.893 I0 J2.75
G1 Y383.107
G3 X167.797 Y385.857 I-2.75 J0
G1 X138.889
G2 X137.576 Y386.732 I0 J1.422
G3 X136.264 Y387.607 I-1.313 J-0.547
G1 X-173.203
G3 X-177.703 Y383.107 I0 J-4.5
G1 Y-377.893
G3 X-173.203 Y-382.393 I4.5 J0
G1 X167.797
G3 X172.297 Y-377.893 I0 J4.5
G1 Y383.107
G3 X167.797 Y387.607 I-4.5 J0
G1 X136.264
G3 X136.068 Y387.368 I0 J-0.2
G1 X141.869 Y358.451
X141.882 Y358.408
X141.905 Y358.369
G3 X144.175 Y360.093 Z-2.156 I1.135 J0.862 F333.3
X141.905 Y358.369 Z-2.313 I-1.135 J-0.862
X144.175 Y360.093 Z-2.469 I1.135 J0.862
X141.905 Y358.369 Z-2.625 I-1.135 J-0.862
X144.175 Y360.093 Z-2.782 I1.135 J0.862
X141.905 Y358.369 Z-2.938 I-1.135 J-0.862
X144.175 Y360.093 Z-3.094 I1.135 J0.862
X141.905 Y358.369 Z-3.251 I-1.135 J-0.862
X144.175 Y360.093 Z-3.407 I1.135 J0.862
X141.905 Y358.369 Z-3.563 I-1.135 J-0.862
X144.175 Y360.093 Z-3.72 I1.135 J0.862
X141.905 Y358.369 Z-3.876 I-1.135 J-0.862
X144.465 Y359.231 Z-4 I1.135 J0.862
G1 Y359.456 F1000
G3 X144.146 Y359.775 I-0.319 J0
G1 X142.91
X142.867 Y359.768
X142.829 Y359.747
X142.8 Y359.714
X142.783 Y359.673
X142.781 Y359.63
X142.794 Y359.588
X142.819 Y359.552
G2 X144.243 Y358.142 I-104.02 J-106.442
G1 X144.279 Y358.117
X144.32 Y358.105
X144.364 Y358.107
X144.404 Y358.124
X144.437 Y358.153
X144.458 Y358.191
X144.465 Y358.234
Y359.231
G2 X144.873 Y360.034 I0.994 J0
G3 X144.594 Y360.89 I-0.279 J0.382
G1 X140.137
X140.094 Y360.883
X140.055 Y360.861
X140.026 Y360.828
X140.01 Y360.787
X140.008 Y360.743
X140.022 Y360.701
X140.048 Y360.665
G2 X145.356 Y355.409 I-101.248 J-107.556
G1 X145.392 Y355.383
X145.434 Y355.37
X145.478 Y355.372
X145.518 Y355.388
X145.551 Y355.418
X145.573 Y355.456
X145.58 Y355.499
Y360.571
G3 X145.261 Y360.89 I-0.319 J0
G1 X144.594
G2 X143.319 Y361.74 I0 J1.381
G3 X142.044 Y362.59 I-1.275 J-0.531
G1 X135.757
X135.713 Y362.583
X135.674 Y362.56
X135.645 Y362.526
X135.629 Y362.485
X135.628 Y362.44
X135.642 Y362.398
X135.67 Y362.363
G2 X147.054 Y351.096 I-96.871 J-109.253
G1 X147.089 Y351.068
X147.131 Y351.054
X147.175 Y351.055
X147.217 Y351.071
X147.251 Y351.1
X147.273 Y351.139
X147.28 Y351.183
Y362.271
G3 X146.961 Y362.59 I-0.319 J0
G1 X142.044
G2 X140.769 Y363.44 I0 J1.381
G3 X139.494 Y364.29 I-1.275 J-0.531
G1 X131.168
X131.124 Y364.282
X131.085 Y364.26
X131.056 Y364.225
X131.04 Y364.182
Y364.137
X131.056 Y364.095
X131.085 Y364.06
G2 X148.751 Y346.583 I-92.285 J-110.95
G1 X148.786 Y346.554
X148.828 Y346.539
X148.873
X148.915 Y346.555
X148.95 Y346.584
X148.972 Y346.623
X148.98 Y346.668
Y363.971
G3 X148.661 Y364.29 I-0.319 J0
G1 X139.494
G2 X138.219 Y365.14 I0 J1.381
G3 X136.944 Y365.99 I-1.275 J-0.531
G1 X126.34
X126.3 Y365.984
X126.264 Y365.966
X126.236 Y365.938
X126.217 Y365.902
X126.21 Y365.863
X126.215 Y365.823
X126.232 Y365.787
X126.26 Y365.757
G2 X150.448 Y341.842 I-87.46 J-112.648
G1 X150.478 Y341.815
X150.514 Y341.798
X150.554 Y341.793
X150.593 Y341.8
X150.628 Y341.819
X150.656 Y341.848
X150.674 Y341.883
X150.68 Y341.923
Y365.671
G3 X150.361 Y365.99 I-0.319 J0
G1 X136.944
G2 X135.669 Y366.84 I0 J1.381
G3 X134.394 Y367.69 I-1.275 J-0.531
G1 X121.229
X121.189 Y367.684
X121.152 Y367.665
X121.124 Y367.636
X121.105 Y367.6
X121.099 Y367.56
X121.105 Y367.519
X121.124 Y367.483
X121.153 Y367.454
G2 X152.145 Y336.833 I-82.353 J-114.345
G1 X152.174 Y336.804
X152.211 Y336.786
X152.251 Y336.78
X152.291 Y336.786
X152.327 Y336.805
X152.355 Y336.834
X152.374 Y336.87
X152.38 Y336.91
Y367.371
G3 X152.061 Y367.69 I-0.319 J0
G1 X134.394
G2 X133.119 Y368.54 I0 J1.381
G3 X131.844 Y369.39 I-1.275 J-0.531
G1 X115.78
X115.739 Y369.384
X115.702 Y369.365
X115.673 Y369.335
X115.655 Y369.298
X115.65 Y369.257
X115.657 Y369.216
X115.677 Y369.18
X115.708 Y369.152
G2 X153.842 Y331.504 I-76.908 J-116.042
G1 X153.871 Y331.474
X153.907 Y331.455
X153.948 Y331.448
X153.988 Y331.453
X154.025 Y331.472
X154.055 Y331.5
X154.074 Y331.537
X154.08 Y331.578
Y369.071
G3 X153.761 Y369.39 I-0.319 J0
G1 X131.844
G2 X130.569 Y370.24 I0 J1.381
G3 X129.294 Y371.09 I-1.275 J-0.531
G1 X109.914
G3 X109.847 Y370.849 I0 J-0.13
G2 X155.54 Y325.787 I-71.047 J-117.739
G3 X155.78 Y325.855 I0.11 J0.069
G1 Y370.771
G3 X155.461 Y371.09 I-0.319 J0
G1 X129.294
G2 X128.019 Y371.94 I0 J1.381
G3 X126.744 Y372.79 I-1.275 J-0.531
G1 X103.385
X103.35 Y372.783
X103.319 Y372.764
X103.298 Y372.735
X103.289 Y372.699
X103.294 Y372.664
X103.311 Y372.632
X103.339 Y372.609
G2 X157.3 Y319.466 I-64.54 J-119.499
G1 X157.323 Y319.439
X157.355 Y319.422
X157.39 Y319.417
X157.425 Y319.426
X157.454 Y319.448
X157.473 Y319.478
X157.48 Y319.513
Y372.471
G3 X157.161 Y372.79 I-0.319 J0
G1 X126.744
G2 X125.469 Y373.64 I0 J1.381
G3 X124.194 Y374.49 I-1.275 J-0.531
G1 X96.268
X96.232 Y374.483
X96.201 Y374.463
X96.18 Y374.433
X96.172 Y374.397
X96.178 Y374.36
X96.197 Y374.329
X96.227 Y374.307
G2 X158.997 Y312.6 I-57.427 J-121.197
G1 X159.02 Y312.571
X159.051 Y312.552
X159.088 Y312.546
X159.123 Y312.555
X159.153 Y312.576
X159.173 Y312.607
X159.18 Y312.643
Y374.171
G3 X158.861 Y374.49 I-0.319 J0
G1 X124.194
G2 X122.924 Y375.337 I0 J1.376
G3 X121.654 Y376.183 I-1.27 J-0.529
G1 X88.17
X88.133 Y376.176
X88.101 Y376.155
X88.081 Y376.123
X88.073 Y376.086
X88.081 Y376.049
X88.102 Y376.018
X88.134 Y375.998
G2 X160.688 Y304.863 I-49.334 J-122.888
G1 X160.709 Y304.832
X160.741 Y304.812
X160.778 Y304.805
X160.814 Y304.812
X160.845 Y304.833
X160.866 Y304.864
X160.873 Y304.901
Y375.864
G3 X160.554 Y376.183 I-0.319 J0
G1 X121.654
G2 X120.413 Y377.011 I0 J1.344
G3 X119.172 Y377.838 I-1.241 J-0.517
G1 X78.7
X78.662 Y377.83
X78.63 Y377.808
X78.61 Y377.775
X78.604 Y377.737
X78.613 Y377.699
X78.637 Y377.669
X78.671 Y377.65
G2 X162.34 Y295.977 I-39.871 J-124.54
G1 X162.36 Y295.944
X162.391 Y295.921
X162.428 Y295.912
X162.466 Y295.918
X162.498 Y295.939
X162.52 Y295.971
X162.528 Y296.008
Y377.518
G3 X162.208 Y377.838 I-0.319 J0
G1 X119.172
G2 X117.965 Y378.642 I0 J1.308
G3 X116.758 Y379.447 I-1.207 J-0.503
G1 X66.542
X66.508 Y379.441
X66.478 Y379.423
X66.457 Y379.395
X66.447 Y379.361
X66.449 Y379.326
X66.464 Y379.295
X66.489 Y379.27
X66.522 Y379.257
G2 X163.947 Y285.041 I-27.722 J-126.147
G1 X163.962 Y285.01
X163.987 Y284.985
X164.018 Y284.971
X164.053 Y284.969
X164.086 Y284.98
X164.113 Y285.001
X164.131 Y285.031
X164.137 Y285.065
Y379.128
G3 X163.818 Y379.447 I-0.319 J0
G1 X116.758
X116.701 Y379.442 Z-3.989
X116.646 Y379.425 Z-3.977
X116.603 Y379.404 Z-3.945
X116.563 Y379.375 Z-3.912
X116.519 Y379.328 Z-3.815
X116.506 Y379.309 Z-3.7
G0 Z5
X-151.301 Y360.302
G1 Z0.8 F333.3
X-151.313 Y360.265 Z0.653
X-151.339 Y360.163 Z0.544
X-151.363 Y360.019 Z0.5
G3 X-148.531 Y359.695 Z0.344 I1.416 J-0.162
X-151.363 Y360.019 Z0.187 I-1.416 J0.162
X-148.531 Y359.695 Z0.031 I1.416 J-0.162
X-151.363 Y360.019 Z-0.125 I-1.416 J0.162
X-148.531 Y359.695 Z-0.282 I1.416 J-0.162
X-151.363 Y360.019 Z-0.438 I-1.416 J0.162
X-148.531 Y359.695 Z-0.594 I1.416 J-0.162
X-151.363 Y360.019 Z-0.751 I-1.416 J0.162
X-148.531 Y359.695 Z-0.907 I1.416 J-0.162
X-151.363 Y360.019 Z-1.063 I-1.416 J0.162
X-148.531 Y359.695 Z-1.22 I1.416 J-0.162
X-151.363 Y360.019 Z-1.376 I-1.416 J0.162
X-148.531 Y359.695 Z-1.532 I1.416 J-0.162
X-151.363 Y360.019 Z-1.689 I-1.416 J0.162
X-148.531 Y359.695 Z-1.845 I1.416 J-0.162
X-151.363 Y360.019 Z-2.001 I-1.416 J0.162
X-148.531 Y359.695 Z-2.158 I1.416 J-0.162
X-151.363 Y360.019 Z-2.314 I-1.416 J0.162
X-148.531 Y359.695 Z-2.47 I1.416 J-0.162
X-151.363 Y360.019 Z-2.627 I-1.416 J0.162
X-148.531 Y359.695 Z-2.783 I1.416 J-0.162
X-151.363 Y360.019 Z-2.939 I-1.416 J0.162
X-148.531 Y359.695 Z-3.096 I1.416 J-0.162
X-151.363 Y360.019 Z-3.252 I-1.416 J0.162
X-148.531 Y359.695 Z-3.408 I1.416 J-0.162
X-151.363 Y360.019 Z-3.565 I-1.416 J0.162
X-148.531 Y359.695 Z-3.721 I1.416 J-0.162
X-151.363 Y360.019 Z-3.877 I-1.416 J0.162
X-148.944 Y358.845 Z-4 I1.416 J-0.162
G2 X-148.225 Y359.552 I104.739 J-105.735 F1000
G1 X-148.2 Y359.588
X-148.187 Y359.63
X-148.189 Y359.673
X-148.206 Y359.714
X-148.235 Y359.747
X-148.273 Y359.768
X-148.316 Y359.775
X-149.552
G3 X-149.871 Y359.456 I0 J-0.319
G1 Y358.234
X-149.864 Y358.191
X-149.843 Y358.153
X-149.81 Y358.124
X-149.77 Y358.107
X-149.726 Y358.105
X-149.685 Y358.117
X-149.649 Y358.142
G2 X-148.944 Y358.845 I105.443 J-105.032
X-147.955 Y359.037 I0.638 J-0.644
G3 X-146.965 Y359.223 I0.354 J0.843
G2 X-145.454 Y360.665 I102.759 J-106.113
G1 X-145.428 Y360.701
X-145.414 Y360.743
X-145.416 Y360.787
X-145.432 Y360.828
X-145.461 Y360.861
X-145.5 Y360.883
X-145.543 Y360.89
X-150.667
G3 X-150.986 Y360.571 I0 J-0.319
G1 Y355.499
X-150.979 Y355.456
X-150.957 Y355.418
X-150.924 Y355.388
X-150.884 Y355.372
X-150.84 Y355.37
X-150.798 Y355.383
X-150.762 Y355.409
G2 X-146.965 Y359.223 I106.556 J-102.299
X-145.451 Y359.498 I0.962 J-0.994
G3 X-143.935 Y359.759 I0.559 J1.285
G2 X-141.076 Y362.363 I99.729 J-106.65
G1 X-141.048 Y362.398
X-141.034 Y362.44
X-141.035 Y362.485
X-141.051 Y362.526
X-141.08 Y362.56
X-141.119 Y362.583
X-141.163 Y362.59
X-152.367
G3 X-152.686 Y362.271 I0 J-0.319
G1 Y351.183
X-152.679 Y351.139
X-152.657 Y351.1
X-152.623 Y351.071
X-152.581 Y351.055
X-152.537 Y351.054
X-152.495 Y351.068
X-152.46 Y351.096
G2 X-143.935 Y359.759 I108.254 J-97.986
X-142.417 Y360.008 I0.945 J-1.01
G3 X-140.896 Y360.243 I0.581 J1.276
G2 X-136.491 Y364.06 I96.69 J-107.133
G1 X-136.462 Y364.095
X-136.446 Y364.137
Y364.182
X-136.462 Y364.225
X-136.491 Y364.26
X-136.53 Y364.282
X-136.574 Y364.29
X-154.067
G3 X-154.386 Y363.971 I0 J-0.319
G1 Y346.668
X-154.378 Y346.623
X-154.356 Y346.584
X-154.321 Y346.555
X-154.279 Y346.539
X-154.234
X-154.192 Y346.554
X-154.157 Y346.583
G2 X-140.896 Y360.243 I109.951 J-93.473
X-139.374 Y360.464 I0.927 J-1.027
G3 X-137.849 Y360.672 I0.604 J1.265
G2 X-131.666 Y365.757 I93.643 J-107.563
G1 X-131.638 Y365.787
X-131.621 Y365.823
X-131.616 Y365.863
X-131.623 Y365.902
X-131.642 Y365.938
X-131.67 Y365.966
X-131.706 Y365.984
X-131.746 Y365.99
X-155.767
G3 X-156.086 Y365.671 I0 J-0.319
G1 Y341.923
X-156.08 Y341.883
X-156.062 Y341.848
X-156.034 Y341.819
X-155.999 Y341.8
X-155.96 Y341.793
X-155.92 Y341.798
X-155.884 Y341.815
X-155.854 Y341.842
G2 X-137.849 Y360.672 I111.648 J-88.732
X-136.323 Y360.867 I0.908 J-1.043
G3 X-134.794 Y361.047 I0.627 J1.255
G2 X-126.559 Y367.454 I90.589 J-107.937
G1 X-126.53 Y367.483
X-126.511 Y367.519
X-126.505 Y367.56
X-126.511 Y367.6
X-126.53 Y367.636
X-126.558 Y367.665
X-126.595 Y367.684
X-126.635 Y367.69
X-157.467
G3 X-157.786 Y367.371 I0 J-0.319
G1 Y336.91
X-157.78 Y336.87
X-157.762 Y336.834
X-157.733 Y336.805
X-157.697 Y336.786
X-157.657 Y336.78
X-157.617 Y336.786
X-157.58 Y336.804
X-157.551 Y336.833
G2 X-134.794 Y361.047 I113.346 J-83.723
X-133.265 Y361.214 I0.889 J-1.06
G3 X-131.733 Y361.366 I0.649 J1.243
G2 X-121.114 Y369.152 I87.528 J-108.256
G1 X-121.083 Y369.18
X-121.063 Y369.216
X-121.056 Y369.257
X-121.061 Y369.298
X-121.079 Y369.335
X-121.108 Y369.365
X-121.145 Y369.384
X-121.186 Y369.39
X-159.167
G3 X-159.486 Y369.071 I0 J-0.319
G1 Y331.578
X-159.48 Y331.537
X-159.461 Y331.5
X-159.431 Y331.472
X-159.394 Y331.453
X-159.354 Y331.448
X-159.313 Y331.455
X-159.277 Y331.474
X-159.249 Y331.504
G2 X-131.733 Y361.366 I115.043 J-78.395
X-130.201 Y361.505 I0.87 J-1.076
G3 X-128.667 Y361.629 I0.672 J1.231
G2 X-115.253 Y370.849 I84.461 J-108.519
G3 X-115.32 Y371.09 I-0.067 J0.111
G1 X-160.867
G3 X-161.186 Y370.771 I0 J-0.319
G1 Y325.855
G3 X-160.946 Y325.787 I0.13 J0
G2 X-128.667 Y361.629 I116.74 J-72.677
X-127.132 Y361.739 I0.85 J-1.092
G3 X-125.596 Y361.835 I0.695 J1.219
G2 X-108.745 Y372.609 I81.39 J-108.725
G1 X-108.717 Y372.632
X-108.7 Y372.664
X-108.695 Y372.699
X-108.704 Y372.735
X-108.725 Y372.764
X-108.756 Y372.783
X-108.791 Y372.79
X-162.567
G3 X-162.886 Y372.471 I0 J-0.319
G1 Y319.513
X-162.879 Y319.478
X-162.86 Y319.448
X-162.831 Y319.426
X-162.796 Y319.417
X-162.761 Y319.422
X-162.729 Y319.439
X-162.706 Y319.466
G2 X-125.596 Y361.835 I118.5 J-66.357
X-124.059 Y361.916 I0.829 J-1.108
G3 X-122.521 Y361.982 I0.718 J1.206
G2 X-101.633 Y374.307 I78.316 J-108.873
G1 X-101.603 Y374.329
X-101.584 Y374.36
X-101.578 Y374.397
X-101.586 Y374.433
X-101.607 Y374.463
X-101.638 Y374.483
X-101.674 Y374.49
X-164.267
G3 X-164.586 Y374.171 I0 J-0.319
G1 Y312.643
X-164.579 Y312.607
X-164.559 Y312.576
X-164.529 Y312.555
X-164.494 Y312.546
X-164.457 Y312.552
X-164.426 Y312.571
X-164.403 Y312.6
G2 X-122.521 Y361.982 I120.198 J-59.49
X-120.989 Y362.034 I0.805 J-1.119
G3 X-119.457 Y362.071 I0.738 J1.187
G2 X-93.54 Y375.998 I75.251 J-108.961
G1 X-93.508 Y376.018
X-93.487 Y376.049
X-93.479 Y376.086
X-93.487 Y376.123
X-93.507 Y376.155
X-93.539 Y376.176
X-93.576 Y376.183
X-165.96
G3 X-166.279 Y375.864 I0 J-0.319
G1 Y304.901
X-166.272 Y304.864
X-166.251 Y304.833
X-166.22 Y304.812
X-166.184 Y304.805
X-166.147 Y304.812
X-166.115 Y304.832
X-166.094 Y304.863
G2 X-119.457 Y362.071 I121.889 J-51.754
X-117.959 Y362.093 I0.765 J-1.108
G3 X-116.461 Y362.101 I0.743 J1.146
G2 X-84.076 Y377.65 I72.256 J-108.991
G1 X-84.043 Y377.669
X-84.019 Y377.699
X-84.01 Y377.737
X-84.016 Y377.775
X-84.036 Y377.808
X-84.068 Y377.83
X-84.106 Y377.838
X-167.614
G3 X-167.934 Y377.518 I0 J-0.319
G1 Y296.008
X-167.926 Y295.971
X-167.904 Y295.939
X-167.872 Y295.918
X-167.834 Y295.912
X-167.797 Y295.921
X-167.766 Y295.944
X-167.746 Y295.977
G2 X-116.461 Y362.101 I123.541 J-42.867
X-115.004 Y362.094 I0.724 J-1.092
G3 X-113.548 Y362.074 I0.744 J1.101
G2 X-71.928 Y379.257 I69.342 J-108.964
G1 X-71.895 Y379.27
X-71.87 Y379.295
X-71.855 Y379.326
X-71.853 Y379.361
X-71.863 Y379.395
X-71.884 Y379.423
X-71.914 Y379.441
X-71.948 Y379.447
X-169.224
G3 X-169.543 Y379.128 I0 J-0.319
G1 Y285.065
X-169.537 Y285.031
X-169.519 Y285.001
X-169.492 Y284.98
X-169.459 Y284.969
X-169.424 Y284.971
X-169.393 Y284.985
X-169.368 Y285.01
X-169.353 Y285.041
G2 X-113.548 Y362.074 I125.148 J-31.931
X-112.159 Y362.042 I0.671 J-1.054
G3 X-110.77 Y361.998 I0.728 J1.036
G2 X-44.205 Y380.757 I66.614 J-108.895
G1 X38.8
G2 X165.502 Y268.247 I0 J-127.598
G1 X165.513 Y268.213
X165.536 Y268.185
X165.567 Y268.168
X165.602 Y268.164
X165.636 Y268.172
X165.665 Y268.193
X165.684 Y268.223
X165.691 Y268.258
Y380.688
G3 X165.378 Y381.001 I-0.313 J0
G1 X-170.784
G3 X-171.097 Y380.688 I0 J-0.313
G1 Y268.258
X-171.09 Y268.223
X-171.071 Y268.193
X-171.042 Y268.172
X-171.008 Y268.164
X-170.973 Y268.168
X-170.942 Y268.185
X-170.919 Y268.213
X-170.908 Y268.247
G2 X-110.77 Y361.998 I126.752 J-15.143
G1 X-110.724 Y362.033 Z-3.989
X-110.686 Y362.075 Z-3.977
X-110.66 Y362.117 Z-3.945
X-110.641 Y362.161 Z-3.912
X-110.628 Y362.225 Z-3.815
X-110.627 Y362.248 Z-3.7
G0 Z5
X-150.379 Y-356.001
G1 Z0.8 F333.3
X-150.342 Y-356.012 Z0.653
X-150.24 Y-356.038 Z0.544
X-150.096 Y-356.06 Z0.5
G3 X-149.798 Y-353.226 Z0.344 I0.149 J1.417
X-150.096 Y-356.06 Z0.187 I-0.149 J-1.417
X-149.798 Y-353.226 Z0.031 I0.149 J1.417
X-150.096 Y-356.06 Z-0.125 I-0.149 J-1.417
X-149.798 Y-353.226 Z-0.282 I0.149 J1.417
X-150.096 Y-356.06 Z-0.438 I-0.149 J-1.417
X-149.798 Y-353.226 Z-0.594 I0.149 J1.417
X-150.096 Y-356.06 Z-0.751 I-0.149 J-1.417
X-149.798 Y-353.226 Z-0.907 I0.149 J1.417
X-150.096 Y-356.06 Z-1.063 I-0.149 J-1.417
X-149.798 Y-353.226 Z-1.22 I0.149 J1.417
X-150.096 Y-356.06 Z-1.376 I-0.149 J-1.417
X-149.798 Y-353.226 Z-1.532 I0.149 J1.417
X-150.096 Y-356.06 Z-1.689 I-0.149 J-1.417
X-149.798 Y-353.226 Z-1.845 I0.149 J1.417
X-150.096 Y-356.06 Z-2.001 I-0.149 J-1.417
X-149.798 Y-353.226 Z-2.158 I0.149 J1.417
X-150.096 Y-356.06 Z-2.314 I-0.149 J-1.417
X-149.798 Y-353.226 Z-2.47 I0.149 J1.417
X-150.096 Y-356.06 Z-2.627 I-0.149 J-1.417
X-149.798 Y-353.226 Z-2.783 I0.149 J1.417
X-150.096 Y-356.06 Z-2.939 I-0.149 J-1.417
X-149.798 Y-353.226 Z-3.096 I0.149 J1.417
X-150.096 Y-356.06 Z-3.252 I-0.149 J-1.417
X-149.798 Y-353.226 Z-3.408 I0.149 J1.417
X-150.096 Y-356.06 Z-3.565 I-0.149 J-1.417
X-149.798 Y-353.226 Z-3.721 I0.149 J1.417
X-150.096 Y-356.06 Z-3.877 I-0.149 J-1.417
X-148.944 Y-353.631 Z-4 I0.149 J1.417
G2 X-149.649 Y-352.928 I104.739 J105.735 F1000
G1 X-149.684 Y-352.903
X-149.726 Y-352.89
X-149.77 Y-352.893
X-149.81 Y-352.909
X-149.843 Y-352.938
X-149.864 Y-352.977
X-149.871 Y-353.02
Y-354.242
G3 X-149.552 Y-354.561 I0.319 J0
G1 X-148.316
X-148.273 Y-354.554
X-148.235 Y-354.533
X-148.206 Y-354.5
X-148.189 Y-354.459
X-148.187 Y-354.416
X-148.199 Y-354.374
X-148.225 Y-354.338
G2 X-148.944 Y-353.631 I104.02 J106.443
X-149.145 Y-352.643 I0.638 J0.644
G3 X-149.341 Y-351.655 I-0.847 J0.346
G2 X-150.762 Y-350.195 I105.136 J103.76
G1 X-150.798 Y-350.169
X-150.84 Y-350.156
X-150.884 Y-350.158
X-150.924 Y-350.174
X-150.957 Y-350.203
X-150.979 Y-350.242
X-150.986 Y-350.285
Y-355.357
G3 X-150.667 Y-355.676 I0.319 J0
G1 X-145.543
X-145.5 Y-355.669
X-145.461 Y-355.647
X-145.432 Y-355.614
X-145.416 Y-355.573
X-145.414 Y-355.529
X-145.427 Y-355.487
X-145.454 Y-355.451
G2 X-149.341 Y-351.655 I101.249 J107.556
X-149.63 Y-350.144 I0.985 J0.972
G3 X-149.906 Y-348.63 I-1.291 J0.547
G2 X-152.46 Y-345.881 I105.701 J100.735
G1 X-152.495 Y-345.854
X-152.537 Y-345.84
X-152.581 Y-345.841
X-152.623 Y-345.857
X-152.657 Y-345.886
X-152.679 Y-345.925
X-152.686 Y-345.969
Y-357.057
G3 X-152.367 Y-357.376 I0.319 J0
G1 X-141.162
X-141.118 Y-357.369
X-141.079 Y-357.346
X-141.05 Y-357.312
X-141.035 Y-357.271
X-141.034 Y-357.226
X-141.048 Y-357.184
X-141.076 Y-357.149
G2 X-149.906 Y-348.63 I96.871 J109.253
X-150.169 Y-347.114 I1.001 J0.954
G3 X-150.419 Y-345.596 I-1.281 J0.569
G2 X-154.157 Y-341.369 I106.213 J97.701
G1 X-154.192 Y-341.34
X-154.234 Y-341.325
X-154.279
X-154.321 Y-341.341
X-154.356 Y-341.37
X-154.378 Y-341.409
X-154.386 Y-341.453
Y-358.757
G3 X-154.067 Y-359.076 I0.319 J0
G1 X-136.574
X-136.529 Y-359.068
X-136.49 Y-359.046
X-136.461 Y-359.011
X-136.446 Y-358.968
Y-358.923
X-136.462 Y-358.881
X-136.491 Y-358.846
G2 X-150.419 Y-345.596 I92.286 J110.951
X-150.654 Y-344.076 I1.018 J0.937
G3 X-150.877 Y-342.553 I-1.271 J0.592
G2 X-155.854 Y-336.628 I106.672 J94.658
G1 X-155.884 Y-336.6
X-155.92 Y-336.584
X-155.96 Y-336.578
X-155.999 Y-336.586
X-156.034 Y-336.605
X-156.062 Y-336.633
X-156.08 Y-336.669
X-156.086 Y-336.709
Y-360.457
G3 X-155.767 Y-360.776 I0.319 J0
G1 X-131.746
X-131.706 Y-360.77
X-131.67 Y-360.752
X-131.641 Y-360.724
X-131.622 Y-360.688
X-131.615 Y-360.649
X-131.621 Y-360.609
X-131.638 Y-360.573
X-131.666 Y-360.543
G2 X-150.877 Y-342.553 I87.46 J112.648
X-151.086 Y-341.028 I1.035 J0.918
G3 X-151.28 Y-339.502 I-1.261 J0.615
G2 X-157.551 Y-331.618 I107.075 J91.607
G1 X-157.58 Y-331.59
X-157.617 Y-331.572
X-157.657 Y-331.566
X-157.697 Y-331.572
X-157.733 Y-331.591
X-157.762 Y-331.619
X-157.78 Y-331.656
X-157.786 Y-331.696
Y-362.157
G3 X-157.467 Y-362.476 I0.319 J0
G1 X-126.635
X-126.594 Y-362.47
X-126.558 Y-362.451
X-126.529 Y-362.422
X-126.511 Y-362.386
X-126.505 Y-362.346
X-126.511 Y-362.305
X-126.53 Y-362.269
X-126.559 Y-362.24
G2 X-151.28 Y-339.502 I82.353 J114.345
X-151.462 Y-337.974 I1.051 J0.899
G3 X-151.629 Y-336.444 I-1.249 J0.638
G2 X-159.249 Y-326.29 I107.423 J88.549
G1 X-159.277 Y-326.26
X-159.313 Y-326.24
X-159.354 Y-326.233
X-159.394 Y-326.239
X-159.431 Y-326.257
X-159.461 Y-326.286
X-159.48 Y-326.323
X-159.486 Y-326.363
Y-363.857
G3 X-159.167 Y-364.176 I0.319 J0
G1 X-121.185
X-121.144 Y-364.17
X-121.108 Y-364.151
X-121.079 Y-364.121
X-121.061 Y-364.084
X-121.055 Y-364.043
X-121.063 Y-364.002
X-121.083 Y-363.966
X-121.113 Y-363.938
G2 X-151.629 Y-336.444 I76.908 J116.042
X-151.782 Y-334.913 I1.068 J0.88
G3 X-151.92 Y-333.38 I-1.238 J0.661
G2 X-160.946 Y-320.572 I107.715 J85.485
G3 X-161.186 Y-320.641 I-0.111 J-0.069
G1 Y-365.557
G3 X-160.867 Y-365.876 I0.319 J0
G1 X-115.32
G3 X-115.252 Y-365.635 I0 J0.13
G2 X-151.92 Y-333.38 I71.047 J117.739
X-152.045 Y-331.846 I1.084 J0.86
G3 X-152.155 Y-330.311 I-1.225 J0.684
G2 X-162.706 Y-314.252 I107.95 J82.416
G1 X-162.729 Y-314.224
X-162.761 Y-314.207
X-162.796 Y-314.203
X-162.831 Y-314.212
X-162.86 Y-314.233
X-162.879 Y-314.264
X-162.886 Y-314.299
Y-367.257
G3 X-162.567 Y-367.576 I0.319 J0
G1 X-108.791
X-108.755 Y-367.569
X-108.725 Y-367.55
X-108.704 Y-367.521
X-108.695 Y-367.485
X-108.699 Y-367.45
X-108.717 Y-367.418
X-108.745 Y-367.395
G2 X-152.155 Y-330.311 I64.54 J119.5
X-152.251 Y-328.775 I1.1 J0.84
G3 X-152.332 Y-327.238 I-1.213 J0.707
G2 X-164.403 Y-307.386 I108.127 J79.343
G1 X-164.426 Y-307.356
X-164.457 Y-307.338
X-164.494 Y-307.332
X-164.529 Y-307.34
X-164.559 Y-307.361
X-164.579 Y-307.392
X-164.586 Y-307.428
Y-368.957
G3 X-164.267 Y-369.276 I0.319 J0
G1 X-101.674
X-101.637 Y-369.269
X-101.606 Y-369.249
X-101.585 Y-369.219
X-101.577 Y-369.183
X-101.583 Y-369.146
X-101.603 Y-369.115
X-101.632 Y-369.093
G2 X-152.332 Y-327.238 I57.427 J121.198
X-152.398 Y-325.707 I1.111 J0.815
G3 X-152.45 Y-324.175 I-1.194 J0.727
G2 X-166.094 Y-299.649 I108.244 J76.279
G1 X-166.115 Y-299.618
X-166.147 Y-299.597
X-166.184 Y-299.59
X-166.22 Y-299.598
X-166.251 Y-299.619
X-166.272 Y-299.65
X-166.279 Y-299.687
Y-370.65
G3 X-165.96 Y-370.969 I0.319 J0
G1 X-93.575
X-93.538 Y-370.962
X-93.507 Y-370.941
X-93.486 Y-370.91
X-93.479 Y-370.872
X-93.487 Y-370.835
X-93.508 Y-370.804
X-93.539 Y-370.784
G2 X-152.45 Y-324.175 I49.334 J122.888
X-152.486 Y-322.677 I1.101 J0.776
G3 X-152.508 Y-321.18 I-1.153 J0.732
G2 X-167.746 Y-290.762 I108.302 J73.285
G1 X-167.766 Y-290.729
X-167.797 Y-290.706
X-167.834 Y-290.698
X-167.872 Y-290.704
X-167.904 Y-290.725
X-167.926 Y-290.756
X-167.934 Y-290.794
Y-372.304
G3 X-167.614 Y-372.624 I0.319 J0
G1 X-84.105
X-84.068 Y-372.616
X-84.036 Y-372.594
X-84.015 Y-372.561
X-84.009 Y-372.523
X-84.019 Y-372.485
X-84.042 Y-372.455
X-84.076 Y-372.436
G2 X-152.508 Y-321.18 I39.871 J124.54
X-152.515 Y-319.723 I1.085 J0.734
G3 X-152.509 Y-318.266 I-1.108 J0.733
G2 X-169.353 Y-279.827 I108.303 J70.371
G1 X-169.368 Y-279.795
X-169.393 Y-279.771
X-169.424 Y-279.757
X-169.459 Y-279.755
X-169.492 Y-279.765
X-169.519 Y-279.787
X-169.537 Y-279.816
X-169.543 Y-279.851
Y-373.914
G3 X-169.224 Y-374.233 I0.319 J0
G1 X-71.948
X-71.913 Y-374.227
X-71.884 Y-374.209
X-71.862 Y-374.181
X-71.852 Y-374.147
X-71.855 Y-374.112
X-71.87 Y-374.081
X-71.895 Y-374.056
X-71.927 Y-374.043
G2 X-152.509 Y-318.266 I27.722 J126.147
G1 X-152.544 Y-318.221 Z-3.989
X-152.588 Y-318.184 Z-3.977
X-152.63 Y-318.159 Z-3.945
X-152.675 Y-318.142 Z-3.912
X-152.739 Y-318.13 Z-3.815
X-152.762 Y-318.129 Z-3.7
G0 Z5
X145.895 Y-355.088
G1 Z0.8 F333.3
X145.906 Y-355.051 Z0.653
X145.933 Y-354.949 Z0.544
X145.957 Y-354.805 Z0.5
G3 X143.125 Y-354.481 Z0.344 I-1.416 J0.162
X145.957 Y-354.805 Z0.187 I1.416 J-0.162
X143.125 Y-354.481 Z0.031 I-1.416 J0.162
X145.957 Y-354.805 Z-0.125 I1.416 J-0.162
X143.125 Y-354.481 Z-0.282 I-1.416 J0.162
X145.957 Y-354.805 Z-0.438 I1.416 J-0.162
X143.125 Y-354.481 Z-0.594 I-1.416 J0.162
X145.957 Y-354.805 Z-0.751 I1.416 J-0.162
X143.125 Y-354.481 Z-0.907 I-1.416 J0.162
X145.957 Y-354.805 Z-1.063 I1.416 J-0.162
X143.125 Y-354.481 Z-1.22 I-1.416 J0.162
X145.957 Y-354.805 Z-1.376 I1.416 J-0.162
X143.125 Y-354.481 Z-1.532 I-1.416 J0.162
X145.957 Y-354.805 Z-1.689 I1.416 J-0.162
X143.125 Y-354.481 Z-1.845 I-1.416 J0.162
X145.957 Y-354.805 Z-2.001 I1.416 J-0.162
X143.125 Y-354.481 Z-2.158 I-1.416 J0.162
X145.957 Y-354.805 Z-2.314 I1.416 J-0.162
X143.125 Y-354.481 Z-2.47 I-1.416 J0.162
X145.957 Y-354.805 Z-2.627 I1.416 J-0.162
X143.125 Y-354.481 Z-2.783 I-1.416 J0.162
X145.957 Y-354.805 Z-2.939 I1.416 J-0.162
X143.125 Y-354.481 Z-3.096 I-1.416 J0.162
X145.957 Y-354.805 Z-3.252 I1.416 J-0.162
X143.125 Y-354.481 Z-3.408 I-1.416 J0.162
X145.957 Y-354.805 Z-3.565 I1.416 J-0.162
X143.125 Y-354.481 Z-3.721 I-1.416 J0.162
X145.957 Y-354.805 Z-3.877 I1.416 J-0.162
X143.538 Y-353.631 Z-4 I-1.416 J0.162
G2 X142.819 Y-354.338 I-104.739 J105.735 F1000
G1 X142.793 Y-354.374
X142.781 Y-354.416
X142.783 Y-354.459
X142.8 Y-354.5
X142.829 Y-354.533
X142.867 Y-354.554
X142.91 Y-354.561
X144.146
G3 X144.465 Y-354.242 I0 J0.319
G1 Y-353.02
X144.458 Y-352.977
X144.437 Y-352.938
X144.404 Y-352.909
X144.364 Y-352.893
X144.32 Y-352.89
X144.278 Y-352.903
X144.243 Y-352.928
G2 X143.538 Y-353.631 I-105.444 J105.033
X142.549 Y-353.822 I-0.638 J0.644
G3 X141.559 Y-354.009 I-0.354 J-0.843
G2 X140.048 Y-355.451 I-102.76 J106.113
G1 X140.021 Y-355.487
X140.008 Y-355.529
X140.01 Y-355.573
X140.026 Y-355.614
X140.055 Y-355.647
X140.094 Y-355.669
X140.137 Y-355.676
X145.261
G3 X145.58 Y-355.357 I0 J0.319
G1 Y-350.285
X145.573 Y-350.242
X145.551 Y-350.203
X145.518 Y-350.174
X145.478 Y-350.158
X145.434 Y-350.156
X145.392 Y-350.169
X145.356 Y-350.195
G2 X141.559 Y-354.009 I-106.557 J102.3
X140.045 Y-354.284 I-0.962 J0.994
G3 X138.529 Y-354.545 I-0.559 J-1.285
G2 X135.67 Y-357.149 I-99.73 J106.65
G1 X135.642 Y-357.184
X135.628 Y-357.226
X135.629 Y-357.271
X135.644 Y-357.312
X135.673 Y-357.346
X135.712 Y-357.369
X135.756 Y-357.376
X146.961
G3 X147.28 Y-357.057 I0 J0.319
G1 Y-345.969
X147.273 Y-345.925
X147.251 Y-345.886
X147.217 Y-345.857
X147.175 Y-345.841
X147.131 Y-345.84
X147.089 Y-345.854
X147.054 Y-345.881
G2 X138.529 Y-354.545 I-108.254 J97.986
X137.011 Y-354.794 I-0.945 J1.01
G3 X135.49 Y-355.029 I-0.581 J-1.276
G2 X131.085 Y-358.846 I-96.691 J107.133
G1 X131.056 Y-358.881
X131.04 Y-358.923
Y-358.968
X131.055 Y-359.011
X131.084 Y-359.046
X131.123 Y-359.068
X131.168 Y-359.076
X148.661
G3 X148.98 Y-358.757 I0 J0.319
G1 Y-341.453
X148.972 Y-341.409
X148.95 Y-341.37
X148.915 Y-341.341
X148.873 Y-341.325
X148.828
X148.786 Y-341.34
X148.751 Y-341.369
G2 X135.49 Y-355.029 I-109.952 J93.474
X133.967 Y-355.25 I-0.927 J1.027
G3 X132.443 Y-355.458 I-0.604 J-1.265
G2 X126.26 Y-360.543 I-93.644 J107.563
G1 X126.232 Y-360.573
X126.215 Y-360.609
X126.209 Y-360.649
X126.216 Y-360.688
X126.235 Y-360.724
X126.264 Y-360.752
X126.3 Y-360.77
X126.34 Y-360.776
X150.361
G3 X150.68 Y-360.457 I0 J0.319
G1 Y-336.709
X150.674 Y-336.669
X150.656 Y-336.633
X150.628 Y-336.605
X150.593 Y-336.586
X150.554 Y-336.578
X150.514 Y-336.584
X150.478 Y-336.6
X150.448 Y-336.628
G2 X132.443 Y-355.458 I-111.649 J88.732
X130.916 Y-355.652 I-0.908 J1.043
G3 X129.388 Y-355.833 I-0.627 J-1.255
G2 X121.153 Y-362.24 I-90.589 J107.938
G1 X121.124 Y-362.269
X121.105 Y-362.305
X121.099 Y-362.346
X121.105 Y-362.386
X121.123 Y-362.422
X121.152 Y-362.451
X121.188 Y-362.47
X121.229 Y-362.476
X152.061
G3 X152.38 Y-362.157 I0 J0.319
G1 Y-331.696
X152.374 Y-331.656
X152.356 Y-331.619
X152.327 Y-331.591
X152.291 Y-331.572
X152.251 Y-331.566
X152.211 Y-331.572
X152.174 Y-331.59
X152.145 Y-331.618
G2 X129.388 Y-355.833 I-113.346 J83.723
X127.858 Y-356 I-0.889 J1.06
G3 X126.327 Y-356.152 I-0.649 J-1.243
G2 X115.707 Y-363.938 I-87.528 J108.257
G1 X115.677 Y-363.966
X115.657 Y-364.002
X115.649 Y-364.043
X115.655 Y-364.084
X115.673 Y-364.121
X115.702 Y-364.151
X115.738 Y-364.17
X115.779 Y-364.176
X153.761
G3 X154.08 Y-363.857 I0 J0.319
G1 Y-326.363
X154.074 Y-326.323
X154.055 Y-326.286
X154.025 Y-326.257
X153.988 Y-326.239
X153.948 Y-326.233
X153.907 Y-326.24
X153.871 Y-326.26
X153.842 Y-326.29
G2 X126.327 Y-356.152 I-115.043 J78.395
X124.795 Y-356.291 I-0.87 J1.076
G3 X123.261 Y-356.415 I-0.672 J-1.231
G2 X109.846 Y-365.635 I-84.461 J108.52
G3 X109.914 Y-365.876 I0.067 J-0.111
G1 X155.461
G3 X155.78 Y-365.557 I0 J0.319
G1 Y-320.641
G3 X155.54 Y-320.572 I-0.13 J0
G2 X123.261 Y-356.415 I-116.74 J72.677
X121.726 Y-356.525 I-0.85 J1.092
G3 X120.19 Y-356.621 I-0.695 J-1.219
G2 X103.339 Y-367.395 I-81.39 J108.725
G1 X103.311 Y-367.418
X103.293 Y-367.45
X103.289 Y-367.485
X103.298 Y-367.521
X103.319 Y-367.55
X103.349 Y-367.569
X103.385 Y-367.576
X157.161
G3 X157.48 Y-367.257 I0 J0.319
G1 Y-314.299
X157.473 Y-314.264
X157.454 Y-314.233
X157.425 Y-314.212
X157.39 Y-314.203
X157.355 Y-314.207
X157.323 Y-314.224
X157.3 Y-314.252
G2 X120.19 Y-356.621 I-118.501 J66.357
X118.653 Y-356.702 I-0.829 J1.108
G3 X117.115 Y-356.768 I-0.718 J-1.206
G2 X96.226 Y-369.093 I-78.316 J108.873
G1 X96.197 Y-369.115
X96.177 Y-369.146
X96.171 Y-369.183
X96.179 Y-369.219
X96.2 Y-369.249
X96.231 Y-369.269
X96.268 Y-369.276
X158.861
G3 X159.18 Y-368.957 I0 J0.319
G1 Y-307.428
X159.173 Y-307.392
X159.153 Y-307.361
X159.123 Y-307.34
X159.088 Y-307.332
X159.051 Y-307.338
X159.02 Y-307.356
X158.997 Y-307.386
G2 X117.115 Y-356.768 I-120.198 J59.49
X115.583 Y-356.82 I-0.805 J1.119
G3 X114.05 Y-356.857 I-0.738 J-1.187
G2 X88.133 Y-370.784 I-75.251 J108.962
G1 X88.102 Y-370.804
X88.081 Y-370.835
X88.073 Y-370.872
X88.08 Y-370.91
X88.101 Y-370.941
X88.132 Y-370.962
X88.169 Y-370.969
X160.554
G3 X160.873 Y-370.65 I0 J0.319
G1 Y-299.687
X160.866 Y-299.65
X160.845 Y-299.619
X160.814 Y-299.598
X160.778 Y-299.59
X160.741 Y-299.597
X160.709 Y-299.618
X160.688 Y-299.649
G2 X114.05 Y-356.857 I-121.889 J51.754
X112.553 Y-356.879 I-0.765 J1.108
G3 X111.055 Y-356.886 I-0.743 J-1.146
G2 X78.67 Y-372.436 I-72.256 J108.991
G1 X78.636 Y-372.455
X78.613 Y-372.485
X78.603 Y-372.523
X78.609 Y-372.561
X78.63 Y-372.594
X78.662 Y-372.616
X78.699 Y-372.624
X162.208
G3 X162.528 Y-372.304 I0 J0.319
G1 Y-290.794
X162.52 Y-290.756
X162.498 Y-290.725
X162.466 Y-290.704
X162.428 Y-290.698
X162.391 Y-290.706
X162.36 Y-290.729
X162.34 Y-290.762
G2 X111.055 Y-356.886 I-123.541 J42.867
X109.598 Y-356.88 I-0.724 J1.092
G3 X108.141 Y-356.86 I-0.744 J-1.101
G2 X66.521 Y-374.043 I-69.342 J108.965
G1 X66.489 Y-374.056
X66.464 Y-374.081
X66.449 Y-374.112
X66.446 Y-374.147
X66.456 Y-374.181
X66.478 Y-374.209
X66.507 Y-374.227
X66.542 Y-374.233
X163.818
G3 X164.137 Y-373.914 I0 J0.319
G1 Y-279.851
X164.131 Y-279.816
X164.113 Y-279.787
X164.086 Y-279.765
X164.053 Y-279.755
X164.018 Y-279.757
X163.987 Y-279.771
X163.962 Y-279.795
X163.947 Y-279.827
G2 X108.141 Y-356.86 I-125.148 J31.931
X106.753 Y-356.828 I-0.671 J1.054
G3 X105.364 Y-356.784 I-0.728 J-1.036
G2 X38.8 Y-375.543 I-66.614 J108.895
G1 X-44.206
G2 X-170.908 Y-263.032 I0 J127.598
G1 X-170.919 Y-262.998
X-170.942 Y-262.971
X-170.973 Y-262.954
X-171.008 Y-262.949
X-171.042 Y-262.958
X-171.071 Y-262.979
X-171.09 Y-263.009
X-171.097 Y-263.043
Y-375.474
G3 X-170.784 Y-375.787 I0.313 J0
G1 X165.378
G3 X165.691 Y-375.474 I0 J0.313
G1 Y-263.043
X165.684 Y-263.009
X165.665 Y-262.979
X165.636 Y-262.958
X165.602 Y-262.949
X165.567 Y-262.954
X165.536 Y-262.971
X165.513 Y-262.998
X165.502 Y-263.032
G2 X105.364 Y-356.784 I-126.753 J15.143
X104.03 Y-356.73 I-0.626 J1.024
G3 X102.696 Y-356.663 I-0.718 J-0.983
G2 X38.8 Y-374.043 I-63.896 J108.768
G1 X-44.206
G2 X-170.353 Y-247.895 I0 J126.148
G1 Y253.11
G2 X-44.205 Y379.257 I126.147 J0
G1 X38.8
G2 X164.947 Y253.11 I0 J-126.147
G1 Y-247.895
G2 X102.696 Y-356.663 I-126.148 J0
X101.159 Y-356.573 I-0.701 J1.193
G3 X99.623 Y-356.467 I-0.849 J-1.12
G2 X38.8 Y-372.343 I-60.824 J108.571
G1 X-44.206
G2 X-168.653 Y-247.895 I0 J124.447
G1 Y253.11
G2 X-44.205 Y377.557 I124.447 J0
G1 X38.8
G2 X163.247 Y253.11 I0 J-124.447
G1 Y-247.895
G2 X99.623 Y-356.467 I-124.448 J0
X98.088 Y-356.345 I-0.676 J1.207
G3 X96.555 Y-356.207 I-0.872 J-1.102
G2 X38.8 Y-370.643 I-57.755 J108.311
G1 X-44.206
G2 X-166.953 Y-247.895 I0 J122.748
G1 Y253.11
G2 X-44.205 Y375.857 I122.747 J0
G1 X38.8
G2 X161.547 Y253.11 I0 J-122.747
G1 Y-247.895
G2 X96.555 Y-356.207 I-122.748 J0
X94.977 Y-356.048 I-0.67 J1.257
G3 X93.402 Y-355.872 I-0.922 J-1.117
G2 X38.8 Y-368.893 I-54.602 J107.977
G1 X-44.206
G2 X-165.203 Y-247.895 I0 J120.998
G1 Y253.11
G2 X-44.205 Y374.107 I120.997 J0
G1 X38.799
G2 X159.797 Y253.11 I0 J-120.997
G1 Y-247.895
G2 X93.402 Y-355.872 I-120.998 J0
G1 X93.353 Y-355.903 Z-3.989
X93.311 Y-355.942 Z-3.977
X93.282 Y-355.981 Z-3.945
X93.26 Y-356.024 Z-3.912
X93.242 Y-356.087 Z-3.815
X93.239 Y-356.109 Z-3.7
G0 Z5
X143.921 Y377.971
G1 Z1 F333.3
Z-3.7
G19 G3 Y378.271 Z-4 J0.3 K0
G17 G2 X143.99 Y378.647 I1.058 J0 F1000
G1 X144.91 Y381.069
G3 X143.921 Y382.502 I-0.989 J0.376
G1 X-172.279
G3 X-172.598 Y382.183 I0 J-0.319
G1 Y-376.969
G3 X-172.279 Y-377.288 I0.319 J0
G1 X143.922
X166.873
G3 X167.192 Y-376.969 I0 J0.319
G1 Y382.183
G3 X166.873 Y382.502 I-0.319 J0
G1 X143.921
G2 X142.68 Y383.329 I0 J1.345
G3 X141.439 Y384.157 I-1.241 J-0.517
G1 X-173.203
G3 X-174.253 Y383.107 I0 J-1.05
G1 Y-377.893
G3 X-173.203 Y-378.943 I1.05 J0
G1 X167.797
G3 X168.847 Y-377.893 I0 J1.05
G1 Y253.11
Y383.107
G3 X167.797 Y384.157 I-1.05 J0
G1 X141.439
G2 X140.164 Y385.007 I0 J1.381
G3 X138.889 Y385.857 I-1.275 J-0.531
G1 X-173.203
G3 X-175.953 Y383.107 I0 J-2.75
G1 Y-247.895
Y-377.893
G3 X-173.203 Y-380.643 I2.75 J0
G1 X167.797
G3 X170.547 Y-377.893 I0 J2.75
G1 Y383.107
G3 X167.797 Y385.857 I-2.75 J0
G1 X138.889
G2 X137.576 Y386.732 I0 J1.422
G3 X136.264 Y387.607 I-1.313 J-0.547
G1 X-173.203
G3 X-177.703 Y383.107 I0 J-4.5
G1 Y-377.893
G3 X-173.203 Y-382.393 I4.5 J0
G1 X167.797
G3 X172.297 Y-377.893 I0 J4.5
G1 Y383.107
G3 X167.797 Y387.607 I-4.5 J0
G1 X136.264
G3 X136.068 Y387.368 I0 J-0.2
G1 X141.869 Y358.451
X141.882 Y358.408
X141.905 Y358.369
G3 X144.175 Y360.093 Z-4.156 I1.135 J0.862 F333.3
X141.905 Y358.369 Z-4.313 I-1.135 J-0.862
X144.175 Y360.093 Z-4.469 I1.135 J0.862
X141.905 Y358.369 Z-4.625 I-1.135 J-0.862
X144.175 Y360.093 Z-4.782 I1.135 J0.862
X141.905 Y358.369 Z-4.938 I-1.135 J-0.862
X144.175 Y360.093 Z-5.094 I1.135 J0.862
X141.905 Y358.369 Z-5.251 I-1.135 J-0.862
X144.175 Y360.093 Z-5.407 I1.135 J0.862
X141.905 Y358.369 Z-5.563 I-1.135 J-0.862
X144.175 Y360.093 Z-5.72 I1.135 J0.862
X141.905 Y358.369 Z-5.876 I-1.135 J-0.862
X144.465 Y359.231 Z-6 I1.135 J0.862
G1 Y359.456 F1000
G3 X144.146 Y359.775 I-0.319 J0
G1 X142.91
X142.867 Y359.768
X142.829 Y359.747
X142.8 Y359.714
X142.783 Y359.673
X142.781 Y359.63
X142.794 Y359.588
X142.819 Y359.552
G2 X144.243 Y358.142 I-104.02 J-106.442
G1 X144.279 Y358.117
X144.32 Y358.105
X144.364 Y358.107
X144.404 Y358.124
X144.437 Y358.153
X144.458 Y358.191
X144.465 Y358.234
Y359.231
G2 X144.873 Y360.034 I0.994 J0
G3 X144.594 Y360.89 I-0.279 J0.382
G1 X140.137
X140.094 Y360.883
X140.055 Y360.861
X140.026 Y360.828
X140.01 Y360.787
X140.008 Y360.743
X140.022 Y360.701
X140.048 Y360.665
G2 X145.356 Y355.409 I-101.248 J-107.556
G1 X145.392 Y355.383
X145.434 Y355.37
X145.478 Y355.372
X145.518 Y355.388
X145.551 Y355.418
X145.573 Y355.456
X145.58 Y355.499
Y360.571
G3 X145.261 Y360.89 I-0.319 J0
G1 X144.594
G2 X143.319 Y361.74 I0 J1.381
G3 X142.044 Y362.59 I-1.275 J-0.531
G1 X135.757
X135.713 Y362.583
X135.674 Y362.56
X135.645 Y362.526
X135.629 Y362.485
X135.628 Y362.44
X135.642 Y362.398
X135.67 Y362.363
G2 X147.054 Y351.096 I-96.871 J-109.253
G1 X147.089 Y351.068
X147.131 Y351.054
X147.175 Y351.055
X147.217 Y351.071
X147.251 Y351.1
X147.273 Y351.139
X147.28 Y351.183
Y362.271
G3 X146.961 Y362.59 I-0.319 J0
G1 X142.044
G2 X140.769 Y363.44 I0 J1.381
G3 X139.494 Y364.29 I-1.275 J-0.531
G1 X131.168
X131.124 Y364.282
X131.085 Y364.26
X131.056 Y364.225
X131.04 Y364.182
Y364.137
X131.056 Y364.095
X131.085 Y364.06
G2 X148.751 Y346.583 I-92.285 J-110.95
G1 X148.786 Y346.554
X148.828 Y346.539
X148.873
X148.915 Y346.555
X148.95 Y346.584
X148.972 Y346.623
X148.98 Y346.668
Y363.971
G3 X148.661 Y364.29 I-0.319 J0
G1 X139.494
G2 X138.219 Y365.14 I0 J1.381
G3 X136.944 Y365.99 I-1.275 J-0.531
G1 X126.34
X126.3 Y365.984
X126.264 Y365.966
X126.236 Y365.938
X126.217 Y365.902
X126.21 Y365.863
X126.215 Y365.823
X126.232 Y365.787
X126.26 Y365.757
G2 X150.448 Y341.842 I-87.46 J-112.648
G1 X150.478 Y341.815
X150.514 Y341.798
X150.554 Y341.793
X150.593 Y341.8
X150.628 Y341.819
X150.656 Y341.848
X150.674 Y341.883
X150.68 Y341.923
Y365.671
G3 X150.361 Y365.99 I-0.319 J0
G1 X136.944
G2 X135.669 Y366.84 I0 J1.381
G3 X134.394 Y367.69 I-1.275 J-0.531
G1 X121.229
X121.189 Y367.684
X121.152 Y367.665
X121.124 Y367.636
X121.105 Y367.6
X121.099 Y367.56
X121.105 Y367.519
X121.124 Y367.483
X121.153 Y367.454
G2 X152.145 Y336.833 I-82.353 J-114.345
G1 X152.174 Y336.804
X152.211 Y336.786
X152.251 Y336.78
X152.291 Y336.786
X152.327 Y336.805
X152.355 Y336.834
X152.374 Y336.87
X152.38 Y336.91
Y367.371
G3 X152.061 Y367.69 I-0.319 J0
G1 X134.394
G2 X133.119 Y368.54 I0 J1.381
G3 X131.844 Y369.39 I-1.275 J-0.531
G1 X115.78
X115.739 Y369.384
X115.702 Y369.365
X115.673 Y369.335
X115.655 Y369.298
X115.65 Y369.257
X115.657 Y369.216
X115.677 Y369.18
X115.708 Y369.152
G2 X153.842 Y331.504 I-76.908 J-116.042
G1 X153.871 Y331.474
X153.907 Y331.455
X153.948 Y331.448
X153.988 Y331.453
X154.025 Y331.472
X154.055 Y331.5
X154.074 Y331.537
X154.08 Y331.578
Y369.071
G3 X153.761 Y369.39 I-0.319 J0
G1 X131.844
G2 X130.569 Y370.24 I0 J1.381
G3 X129.294 Y371.09 I-1.275 J-0.531
G1 X109.914
G3 X109.847 Y370.849 I0 J-0.13
G2 X155.54 Y325.787 I-71.047 J-117.739
G3 X155.78 Y325.855 I0.11 J0.069
G1 Y370.771
G3 X155.461 Y371.09 I-0.319 J0
G1 X129.294
G2 X128.019 Y371.94 I0 J1.381
G3 X126.744 Y372.79 I-1.275 J-0.531
G1 X103.385
X103.35 Y372.783
X103.319 Y372.764
X103.298 Y372.735
X103.289 Y372.699
X103.294 Y372.664
X103.311 Y372.632
X103.339 Y372.609
G2 X157.3 Y319.466 I-64.54 J-119.499
G1 X157.323 Y319.439
X157.355 Y319.422
X157.39 Y319.417
X157.425 Y319.426
X157.454 Y319.448
X157.473 Y319.478
X157.48 Y319.513
Y372.471
G3 X157.161 Y372.79 I-0.319 J0
G1 X126.744
G2 X125.469 Y373.64 I0 J1.381
G3 X124.194 Y374.49 I-1.275 J-0.531
G1 X96.268
X96.232 Y374.483
X96.201 Y374.463
X96.18 Y374.433
X96.172 Y374.397
X96.178 Y374.36
X96.197 Y374.329
X96.227 Y374.307
G2 X158.997 Y312.6 I-57.427 J-121.197
G1 X159.02 Y312.571
X159.051 Y312.552
X159.088 Y312.546
X159.123 Y312.555
X159.153 Y312.576
X159.173 Y312.607
X159.18 Y312.643
Y374.171
G3 X158.861 Y374.49 I-0.319 J0
G1 X124.194
G2 X122.924 Y375.337 I0 J1.376
G3 X121.654 Y376.183 I-1.27 J-0.529
G1 X88.17
X88.133 Y376.176
X88.101 Y376.155
X88.081 Y376.123
X88.073 Y376.086
X88.081 Y376.049
X88.102 Y376.018
X88.134 Y375.998
G2 X160.688 Y304.863 I-49.334 J-122.888
G1 X160.709 Y304.832
X160.741 Y304.812
X160.778 Y304.805
X160.814 Y304.812
X160.845 Y304.833
X160.866 Y304.864
X160.873 Y304.901
Y375.864
G3 X160.554 Y376.183 I-0.319 J0
G1 X121.654
G2 X120.413 Y377.011 I0 J1.344
G3 X119.172 Y377.838 I-1.241 J-0.517
G1 X78.7
X78.662 Y377.83
X78.63 Y377.808
X78.61 Y377.775
X78.604 Y377.737
X78.613 Y377.699
X78.637 Y377.669
X78.671 Y377.65
G2 X162.34 Y295.977 I-39.871 J-124.54
G1 X162.36 Y295.944
X162.391 Y295.921
X162.428 Y295.912
X162.466 Y295.918
X162.498 Y295.939
X162.52 Y295.971
X162.528 Y296.008
Y377.518
G3 X162.208 Y377.838 I-0.319 J0
G1 X119.172
G2 X117.965 Y378.642 I0 J1.308
G3 X116.758 Y379.447 I-1.207 J-0.503
G1 X66.542
X66.508 Y379.441
X66.478 Y379.423
X66.457 Y379.395
X66.447 Y379.361
X66.449 Y379.326
X66.464 Y379.295
X66.489 Y379.27
X66.522 Y379.257
G2 X163.947 Y285.041 I-27.722 J-126.147
G1 X163.962 Y285.01
X163.987 Y284.985
X164.018 Y284.971
X164.053 Y284.969
X164.086 Y284.98
X164.113 Y285.001
X164.131 Y285.031
X164.137 Y285.065
Y379.128
G3 X163.818 Y379.447 I-0.319 J0
G1 X116.758
X116.701 Y379.442 Z-5.989
X116.646 Y379.425 Z-5.977
X116.603 Y379.404 Z-5.945
X116.563 Y379.375 Z-5.912
X116.519 Y379.328 Z-5.815
X116.506 Y379.309 Z-5.7
G0 Z5
X-151.301 Y360.302
G1 Z0.075 F333.3
Z-1.2 F1000
X-151.313 Y360.265 Z-1.347 F333.3
X-151.339 Y360.163 Z-1.456
X-151.363 Y360.019 Z-1.5
G3 X-148.531 Y359.695 Z-1.656 I1.416 J-0.162
X-151.363 Y360.019 Z-1.813 I-1.416 J0.162
X-148.531 Y359.695 Z-1.969 I1.416 J-0.162
X-151.363 Y360.019 Z-2.125 I-1.416 J0.162
X-148.531 Y359.695 Z-2.282 I1.416 J-0.162
X-151.363 Y360.019 Z-2.438 I-1.416 J0.162
X-148.531 Y359.695 Z-2.594 I1.416 J-0.162
X-151.363 Y360.019 Z-2.751 I-1.416 J0.162
X-148.531 Y359.695 Z-2.907 I1.416 J-0.162
X-151.363 Y360.019 Z-3.063 I-1.416 J0.162
X-148.531 Y359.695 Z-3.22 I1.416 J-0.162
X-151.363 Y360.019 Z-3.376 I-1.416 J0.162
X-148.531 Y359.695 Z-3.532 I1.416 J-0.162
X-151.363 Y360.019 Z-3.689 I-1.416 J0.162
X-148.531 Y359.695 Z-3.845 I1.416 J-0.162
X-151.363 Y360.019 Z-4.001 I-1.416 J0.162
X-148.531 Y359.695 Z-4.158 I1.416 J-0.162
X-151.363 Y360.019 Z-4.314 I-1.416 J0.162
X-148.531 Y359.695 Z-4.47 I1.416 J-0.162
X-151.363 Y360.019 Z-4.627 I-1.416 J0.162
X-148.531 Y359.695 Z-4.783 I1.416 J-0.162
X-151.363 Y360.019 Z-4.939 I-1.416 J0.162
X-148.531 Y359.695 Z-5.096 I1.416 J-0.162
X-151.363 Y360.019 Z-5.252 I-1.416 J0.162
X-148.531 Y359.695 Z-5.408 I1.416 J-0.162
X-151.363 Y360.019 Z-5.565 I-1.416 J0.162
X-148.531 Y359.695 Z-5.721 I1.416 J-0.162
X-151.363 Y360.019 Z-5.877 I-1.416 J0.162
X-148.944 Y358.845 Z-6 I1.416 J-0.162
G2 X-148.225 Y359.552 I104.739 J-105.735 F1000
G1 X-148.2 Y359.588
X-148.187 Y359.63
X-148.189 Y359.673
X-148.206 Y359.714
X-148.235 Y359.747
X-148.273 Y359.768
X-148.316 Y359.775
X-149.552
G3 X-149.871 Y359.456 I0 J-0.319
G1 Y358.234
X-149.864 Y358.191
X-149.843 Y358.153
X-149.81 Y358.124
X-149.77 Y358.107
X-149.726 Y358.105
X-149.685 Y358.117
X-149.649 Y358.142
G2 X-148.944 Y358.845 I105.443 J-105.032
X-147.955 Y359.037 I0.638 J-0.644
G3 X-146.965 Y359.223 I0.354 J0.843
G2 X-145.454 Y360.665 I102.759 J-106.113
G1 X-145.428 Y360.701
X-145.414 Y360.743
X-145.416 Y360.787
X-145.432 Y360.828
X-145.461 Y360.861
X-145.5 Y360.883
X-145.543 Y360.89
X-150.667
G3 X-150.986 Y360.571 I0 J-0.319
G1 Y355.499
X-150.979 Y355.456
X-150.957 Y355.418
X-150.924 Y355.388
X-150.884 Y355.372
X-150.84 Y355.37
X-150.798 Y355.383
X-150.762 Y355.409
G2 X-146.965 Y359.223 I106.556 J-102.299
X-145.451 Y359.498 I0.962 J-0.994
G3 X-143.935 Y359.759 I0.559 J1.285
G2 X-141.076 Y362.363 I99.729 J-106.65
G1 X-141.048 Y362.398
X-141.034 Y362.44
X-141.035 Y362.485
X-141.051 Y362.526
X-141.08 Y362.56
X-141.119 Y362.583
X-141.163 Y362.59
X-152.367
G3 X-152.686 Y362.271 I0 J-0.319
G1 Y351.183
X-152.679 Y351.139
X-152.657 Y351.1
X-152.623 Y351.071
X-152.581 Y351.055
X-152.537 Y351.054
X-152.495 Y351.068
X-152.46 Y351.096
G2 X-143.935 Y359.759 I108.254 J-97.986
X-142.417 Y360.008 I0.945 J-1.01
G3 X-140.896 Y360.243 I0.581 J1.276
G2 X-136.491 Y364.06 I96.69 J-107.133
G1 X-136.462 Y364.095
X-136.446 Y364.137
Y364.182
X-136.462 Y364.225
X-136.491 Y364.26
X-136.53 Y364.282
X-136.574 Y364.29
X-154.067
G3 X-154.386 Y363.971 I0 J-0.319
G1 Y346.668
X-154.378 Y346.623
X-154.356 Y346.584
X-154.321 Y346.555
X-154.279 Y346.539
X-154.234
X-154.192 Y346.554
X-154.157 Y346.583
G2 X-140.896 Y360.243 I109.951 J-93.473
X-139.374 Y360.464 I0.927 J-1.027
G3 X-137.849 Y360.672 I0.604 J1.265
G2 X-131.666 Y365.757 I93.643 J-107.563
G1 X-131.638 Y365.787
X-131.621 Y365.823
X-131.616 Y365.863
X-131.623 Y365.902
X-131.642 Y365.938
X-131.67 Y365.966
X-131.706 Y365.984
X-131.746 Y365.99
X-155.767
G3 X-156.086 Y365.671 I0 J-0.319
G1 Y341.923
X-156.08 Y341.883
X-156.062 Y341.848
X-156.034 Y341.819
X-155.999 Y341.8
X-155.96 Y341.793
X-155.92 Y341.798
X-155.884 Y341.815
X-155.854 Y341.842
G2 X-137.849 Y360.672 I111.648 J-88.732
X-136.323 Y360.867 I0.908 J-1.043
G3 X-134.794 Y361.047 I0.627 J1.255
G2 X-126.559 Y367.454 I90.589 J-107.937
G1 X-126.53 Y367.483
X-126.511 Y367.519
X-126.505 Y367.56
X-126.511 Y367.6
X-126.53 Y367.636
X-126.558 Y367.665
X-126.595 Y367.684
X-126.635 Y367.69
X-157.467
G3 X-157.786 Y367.371 I0 J-0.319
G1 Y336.91
X-157.78 Y336.87
X-157.762 Y336.834
X-157.733 Y336.805
X-157.697 Y336.786
X-157.657 Y336.78
X-157.617 Y336.786
X-157.58 Y336.804
X-157.551 Y336.833
G2 X-134.794 Y361.047 I113.346 J-83.723
X-133.265 Y361.214 I0.889 J-1.06
G3 X-131.733 Y361.366 I0.649 J1.243
G2 X-121.114 Y369.152 I87.528 J-108.256
G1 X-121.083 Y369.18
X-121.063 Y369.216
X-121.056 Y369.257
X-121.061 Y369.298
X-121.079 Y369.335
X-121.108 Y369.365
X-121.145 Y369.384
X-121.186 Y369.39
X-159.167
G3 X-159.486 Y369.071 I0 J-0.319
G1 Y331.578
X-159.48 Y331.537
X-159.461 Y331.5
X-159.431 Y331.472
X-159.394 Y331.453
X-159.354 Y331.448
X-159.313 Y331.455
X-159.277 Y331.474
X-159.249 Y331.504
G2 X-131.733 Y361.366 I115.043 J-78.395
X-130.201 Y361.505 I0.87 J-1.076
G3 X-128.667 Y361.629 I0.672 J1.231
G2 X-115.253 Y370.849 I84.461 J-108.519
G3 X-115.32 Y371.09 I-0.067 J0.111
G1 X-160.867
G3 X-161.186 Y370.771 I0 J-0.319
G1 Y325.855
G3 X-160.946 Y325.787 I0.13 J0
G2 X-128.667 Y361.629 I116.74 J-72.677
X-127.132 Y361.739 I0.85 J-1.092
G3 X-125.596 Y361.835 I0.695 J1.219
G2 X-108.745 Y372.609 I81.39 J-108.725
G1 X-108.717 Y372.632
X-108.7 Y372.664
X-108.695 Y372.699
X-108.704 Y372.735
X-108.725 Y372.764
X-108.756 Y372.783
X-108.791 Y372.79
X-162.567
G3 X-162.886 Y372.471 I0 J-0.319
G1 Y319.513
X-162.879 Y319.478
X-162.86 Y319.448
X-162.831 Y319.426
X-162.796 Y319.417
X-162.761 Y319.422
X-162.729 Y319.439
X-162.706 Y319.466
G2 X-125.596 Y361.835 I118.5 J-66.357
X-124.059 Y361.916 I0.829 J-1.108
G3 X-122.521 Y361.982 I0.718 J1.206
G2 X-101.633 Y374.307 I78.316 J-108.873
G1 X-101.603 Y374.329
X-101.584 Y374.36
X-101.578 Y374.397
X-101.586 Y374.433
X-101.607 Y374.463
X-101.638 Y374.483
X-101.674 Y374.49
X-164.267
G3 X-164.586 Y374.171 I0 J-0.319
G1 Y312.643
X-164.579 Y312.607
X-164.559 Y312.576
X-164.529 Y312.555
X-164.494 Y312.546
X-164.457 Y312.552
X-164.426 Y312.571
X-164.403 Y312.6
G2 X-122.521 Y361.982 I120.198 J-59.49
X-120.989 Y362.034 I0.805 J-1.119
G3 X-119.457 Y362.071 I0.738 J1.187
G2 X-93.54 Y375.998 I75.251 J-108.961
G1 X-93.508 Y376.018
X-93.487 Y376.049
X-93.479 Y376.086
X-93.487 Y376.123
X-93.507 Y376.155
X-93.539 Y376.176
X-93.576 Y376.183
X-165.96
G3 X-166.279 Y375.864 I0 J-0.319
G1 Y304.901
X-166.272 Y304.864
X-166.251 Y304.833
X-166.22 Y304.812
X-166.184 Y304.805
X-166.147 Y304.812
X-166.115 Y304.832
X-166.094 Y304.863
G2 X-119.457 Y362.071 I121.889 J-51.754
X-117.959 Y362.093 I0.765 J-1.108
G3 X-116.461 Y362.101 I0.743 J1.146
G2 X-84.076 Y377.65 I72.256 J-108.991
G1 X-84.043 Y377.669
X-84.019 Y377.699
X-84.01 Y377.737
X-84.016 Y377.775
X-84.036 Y377.808
X-84.068 Y377.83
X-84.106 Y377.838
X-167.614
G3 X-167.934 Y377.518 I0 J-0.319
G1 Y296.008
X-167.926 Y295.971
X-167.904 Y295.939
X-167.872 Y295.918
X-167.834 Y295.912
X-167.797 Y295.921
X-167.766 Y295.944
X-167.746 Y295.977
G2 X-116.461 Y362.101 I123.541 J-42.867
X-115.004 Y362.094 I0.724 J-1.092
G3 X-113.548 Y362.074 I0.744 J1.101
G2 X-71.928 Y379.257 I69.342 J-108.964
G1 X-71.895 Y379.27
X-71.87 Y379.295
X-71.855 Y379.326
X-71.853 Y379.361
X-71.863 Y379.395
X-71.884 Y379.423
X-71.914 Y379.441
X-71.948 Y379.447
X-169.224
G3 X-169.543 Y379.128 I0 J-0.319
G1 Y285.065
X-169.537 Y285.031
X-169.519 Y285.001
X-169.492 Y284.98
X-169.459 Y284.969
X-169.424 Y284.971
X-169.393 Y284.985
X-169.368 Y285.01
X-169.353 Y285.041
G2 X-113.548 Y362.074 I125.148 J-31.931
X-112.159 Y362.042 I0.671 J-1.054
G3 X-110.77 Y361.998 I0.728 J1.036
G2 X-44.205 Y380.757 I66.614 J-108.895
G1 X38.8
G2 X165.502 Y268.247 I0 J-127.598
G1 X165.513 Y268.213
X165.536 Y268.185
X165.567 Y268.168
X165.602 Y268.164
X165.636 Y268.172
X165.665 Y268.193
X165.684 Y268.223
X165.691 Y268.258
Y380.688
G3 X165.378 Y381.001 I-0.313 J0
G1 X-170.784
G3 X-171.097 Y380.688 I0 J-0.313
G1 Y268.258
X-171.09 Y268.223
X-171.071 Y268.193
X-171.042 Y268.172
X-171.008 Y268.164
X-170.973 Y268.168
X-170.942 Y268.185
X-170.919 Y268.213
X-170.908 Y268.247
G2 X-110.77 Y361.998 I126.752 J-15.143
G1 X-110.724 Y362.033 Z-5.989
X-110.686 Y362.075 Z-5.977
X-110.66 Y362.117 Z-5.945
X-110.641 Y362.161 Z-5.912
X-110.628 Y362.225 Z-5.815
X-110.627 Y362.248 Z-5.7
G0 Z5
X-150.379 Y-356.001
G1 Z0.075 F333.3
Z-1.2 F1000
X-150.342 Y-356.012 Z-1.347 F333.3
X-150.24 Y-356.038 Z-1.456
X-150.096 Y-356.06 Z-1.5
G3 X-149.798 Y-353.226 Z-1.656 I0.149 J1.417
X-150.096 Y-356.06 Z-1.813 I-0.149 J-1.417
X-149.798 Y-353.226 Z-1.969 I0.149 J1.417
X-150.096 Y-356.06 Z-2.125 I-0.149 J-1.417
X-149.798 Y-353.226 Z-2.282 I0.149 J1.417
X-150.096 Y-356.06 Z-2.438 I-0.149 J-1.417
X-149.798 Y-353.226 Z-2.594 I0.149 J1.417
X-150.096 Y-356.06 Z-2.751 I-0.149 J-1.417
X-149.798 Y-353.226 Z-2.907 I0.149 J1.417
X-150.096 Y-356.06 Z-3.063 I-0.149 J-1.417
X-149.798 Y-353.226 Z-3.22 I0.149 J1.417
X-150.096 Y-356.06 Z-3.376 I-0.149 J-1.417
X-149.798 Y-353.226 Z-3.532 I0.149 J1.417
X-150.096 Y-356.06 Z-3.689 I-0.149 J-1.417
X-149.798 Y-353.226 Z-3.845 I0.149 J1.417
X-150.096 Y-356.06 Z-4.001 I-0.149 J-1.417
X-149.798 Y-353.226 Z-4.158 I0.149 J1.417
X-150.096 Y-356.06 Z-4.314 I-0.149 J-1.417
X-149.798 Y-353.226 Z-4.47 I0.149 J1.417
X-150.096 Y-356.06 Z-4.627 I-0.149 J-1.417
X-149.798 Y-353.226 Z-4.783 I0.149 J1.417
X-150.096 Y-356.06 Z-4.939 I-0.149 J-1.417
X-149.798 Y-353.226 Z-5.096 I0.149 J1.417
X-150.096 Y-356.06 Z-5.252 I-0.149 J-1.417
X-149.798 Y-353.226 Z-5.408 I0.149 J1.417
X-150.096 Y-356.06 Z-5.565 I-0.149 J-1.417
X-149.798 Y-353.226 Z-5.721 I0.149 J1.417
X-150.096 Y-356.06 Z-5.877 I-0.149 J-1.417
X-148.944 Y-353.631 Z-6 I0.149 J1.417
G2 X-149.649 Y-352.928 I104.739 J105.735 F1000
G1 X-149.684 Y-352.903
X-149.726 Y-352.89
X-149.77 Y-352.893
X-149.81 Y-352.909
X-149.843 Y-352.938
X-149.864 Y-352.977
X-149.871 Y-353.02
Y-354.242
G3 X-149.552 Y-354.561 I0.319 J0
G1 X-148.316
X-148.273 Y-354.554
X-148.235 Y-354.533
X-148.206 Y-354.5
X-148.189 Y-354.459
X-148.187 Y-354.416
X-148.199 Y-354.374
X-148.225 Y-354.338
G2 X-148.944 Y-353.631 I104.02 J106.443
X-149.145 Y-352.643 I0.638 J0.644
G3 X-149.341 Y-351.655 I-0.847 J0.346
G2 X-150.762 Y-350.195 I105.136 J103.76
G1 X-150.798 Y-350.169
X-150.84 Y-350.156
X-150.884 Y-350.158
X-150.924 Y-350.174
X-150.957 Y-350.203
X-150.979 Y-350.242
X-150.986 Y-350.285
Y-355.357
G3 X-150.667 Y-355.676 I0.319 J0
G1 X-145.543
X-145.5 Y-355.669
X-145.461 Y-355.647
X-145.432 Y-355.614
X-145.416 Y-355.573
X-145.414 Y-355.529
X-145.427 Y-355.487
X-145.454 Y-355.451
G2 X-149.341 Y-351.655 I101.249 J107.556
X-149.63 Y-350.144 I0.985 J0.972
G3 X-149.906 Y-348.63 I-1.291 J0.547
G2 X-152.46 Y-345.881 I105.701 J100.735
G1 X-152.495 Y-345.854
X-152.537 Y-345.84
X-152.581 Y-345.841
X-152.623 Y-345.857
X-152.657 Y-345.886
X-152.679 Y-345.925
X-152.686 Y-345.969
Y-357.057
G3 X-152.367 Y-357.376 I0.319 J0
G1 X-141.162
X-141.118 Y-357.369
X-141.079 Y-357.346
X-141.05 Y-357.312
X-141.035 Y-357.271
X-141.034 Y-357.226
X-141.048 Y-357.184
X-141.076 Y-357.149
G2 X-149.906 Y-348.63 I96.871 J109.253
X-150.169 Y-347.114 I1.001 J0.954
G3 X-150.419 Y-345.596 I-1.281 J0.569
G2 X-154.157 Y-341.369 I106.213 J97.701
G1 X-154.192 Y-341.34
X-154.234 Y-341.325
X-154.279
X-154.321 Y-341.341
X-154.356 Y-341.37
X-154.378 Y-341.409
X-154.386 Y-341.453
Y-358.757
G3 X-154.067 Y-359.076 I0.319 J0
G1 X-136.574
X-136.529 Y-359.068
X-136.49 Y-359.046
X-136.461 Y-359.011
X-136.446 Y-358.968
Y-358.923
X-136.462 Y-358.881
X-136.491 Y-358.846
G2 X-150.419 Y-345.596 I92.286 J110.951
X-150.654 Y-344.076 I1.018 J0.937
G3 X-150.877 Y-342.553 I-1.271 J0.592
G2 X-155.854 Y-336.628 I106.672 J94.658
G1 X-155.884 Y-336.6
X-155.92 Y-336.584
X-155.96 Y-336.578
X-155.999 Y-336.586
X-156.034 Y-336.605
X-156.062 Y-336.633
X-156.08 Y-336.669
X-156.086 Y-336.709
Y-360.457
G3 X-155.767 Y-360.776 I0.319 J0
G1 X-131.746
X-131.706 Y-360.77
X-131.67 Y-360.752
X-131.641 Y-360.724
X-131.622 Y-360.688
X-131.615 Y-360.649
X-131.621 Y-360.609
X-131.638 Y-360.573
X-131.666 Y-360.543
G2 X-150.877 Y-342.553 I87.46 J112.648
X-151.086 Y-341.028 I1.035 J0.918
G3 X-151.28 Y-339.502 I-1.261 J0.615
G2 X-157.551 Y-331.618 I107.075 J91.607
G1 X-157.58 Y-331.59
X-157.617 Y-331.572
X-157.657 Y-331.566
X-157.697 Y-331.572
X-157.733 Y-331.591
X-157.762 Y-331.619
X-157.78 Y-331.656
X-157.786 Y-331.696
Y-362.157
G3 X-157.467 Y-362.476 I0.319 J0
G1 X-126.635
X-126.594 Y-362.47
X-126.558 Y-362.451
X-126.529 Y-362.422
X-126.511 Y-362.386
X-126.505 Y-362.346
X-126.511 Y-362.305
X-126.53 Y-362.269
X-126.559 Y-362.24
G2 X-151.28 Y-339.502 I82.353 J114.345
X-151.462 Y-337.974 I1.051 J0.899
G3 X-151.629 Y-336.444 I-1.249 J0.638
G2 X-159.249 Y-326.29 I107.423 J88.549
G1 X-159.277 Y-326.26
X-159.313 Y-326.24
X-159.354 Y-326.233
X-159.394 Y-326.239
X-159.431 Y-326.257
X-159.461 Y-326.286
X-159.48 Y-326.323
X-159.486 Y-326.363
Y-363.857
G3 X-159.167 Y-364.176 I0.319 J0
G1 X-121.185
X-121.144 Y-364.17
X-121.108 Y-364.151
X-121.079 Y-364.121
X-121.061 Y-364.084
X-121.055 Y-364.043
X-121.063 Y-364.002
X-121.083 Y-363.966
X-121.113 Y-363.938
G2 X-151.629 Y-336.444 I76.908 J116.042
X-151.782 Y-334.913 I1.068 J0.88
G3 X-151.92 Y-333.38 I-1.238 J0.661
G2 X-160.946 Y-320.572 I107.715 J85.485
G3 X-161.186 Y-320.641 I-0.111 J-0.069
G1 Y-365.557
G3 X-160.867 Y-365.876 I0.319 J0
G1 X-115.32
G3 X-115.252 Y-365.635 I0 J0.13
G2 X-151.92 Y-333.38 I71.047 J117.739
X-152.045 Y-331.846 I1.084 J0.86
G3 X-152.155 Y-330.311 I-1.225 J0.684
G2 X-162.706 Y-314.252 I107.95 J82.416
G1 X-162.729 Y-314.224
X-162.761 Y-314.207
X-162.796 Y-314.203
X-162.831 Y-314.212
X-162.86 Y-314.233
X-162.879 Y-314.264
X-162.886 Y-314.299
Y-367.257
G3 X-162.567 Y-367.576 I0.319 J0
G1 X-108.791
X-108.755 Y-367.569
X-108.725 Y-367.55
X-108.704 Y-367.521
X-108.695 Y-367.485
X-108.699 Y-367.45
X-108.717 Y-367.418
X-108.745 Y-367.395
G2 X-152.155 Y-330.311 I64.54 J119.5
X-152.251 Y-328.775 I1.1 J0.84
G3 X-152.332 Y-327.238 I-1.213 J0.707
G2 X-164.403 Y-307.386 I108.127 J79.343
G1 X-164.426 Y-307.356
X-164.457 Y-307.338
X-164.494 Y-307.332
X-164.529 Y-307.34
X-164.559 Y-307.361
X-164.579 Y-307.392
X-164.586 Y-307.428
Y-368.957
G3 X-164.267 Y-369.276 I0.319 J0
G1 X-101.674
X-101.637 Y-369.269
X-101.606 Y-369.249
X-101.585 Y-369.219
X-101.577 Y-369.183
X-101.583 Y-369.146
X-101.603 Y-369.115
X-101.632 Y-369.093
G2 X-152.332 Y-327.238 I57.427 J121.198
X-152.398 Y-325.707 I1.111 J0.815
G3 X-152.45 Y-324.175 I-1.194 J0.727
G2 X-166.094 Y-299.649 I108.244 J76.279
G1 X-166.115 Y-299.618
X-166.147 Y-299.597
X-166.184 Y-299.59
X-166.22 Y-299.598
X-166.251 Y-299.619
X-166.272 Y-299.65
X-166.279 Y-299.687
Y-370.65
G3 X-165.96 Y-370.969 I0.319 J0
G1 X-93.575
X-93.538 Y-370.962
X-93.507 Y-370.941
X-93.486 Y-370.91
X-93.479 Y-370.872
X-93.487 Y-370.835
X-93.508 Y-370.804
X-93.539 Y-370.784
G2 X-152.45 Y-324.175 I49.334 J122.888
X-152.486 Y-322.677 I1.101 J0.776
G3 X-152.508 Y-321.18 I-1.153 J0.732
G2 X-167.746 Y-290.762 I108.302 J73.285
G1 X-167.766 Y-290.729
X-167.797 Y-290.706
X-167.834 Y-290.698
X-167.872 Y-290.704
X-167.904 Y-290.725
X-167.926 Y-290.756
X-167.934 Y-290.794
Y-372.304
G3 X-167.614 Y-372.624 I0.319 J0
G1 X-84.105
X-84.068 Y-372.616
X-84.036 Y-372.594
X-84.015 Y-372.561
X-84.009 Y-372.523
X-84.019 Y-372.485
X-84.042 Y-372.455
X-84.076 Y-372.436
G2 X-152.508 Y-321.18 I39.871 J124.54
X-152.515 Y-319.723 I1.085 J0.734
G3 X-152.509 Y-318.266 I-1.108 J0.733
G2 X-169.353 Y-279.827 I108.303 J70.371
G1 X-169.368 Y-279.795
X-169.393 Y-279.771
X-169.424 Y-279.757
X-169.459 Y-279.755
X-169.492 Y-279.765
X-169.519 Y-279.787
X-169.537 Y-279.816
X-169.543 Y-279.851
Y-373.914
G3 X-169.224 Y-374.233 I0.319 J0
G1 X-71.948
X-71.913 Y-374.227
X-71.884 Y-374.209
X-71.862 Y-374.181
X-71.852 Y-374.147
X-71.855 Y-374.112
X-71.87 Y-374.081
X-71.895 Y-374.056
X-71.927 Y-374.043
G2 X-152.509 Y-318.266 I27.722 J126.147
G1 X-152.544 Y-318.221 Z-5.989
X-152.588 Y-318.184 Z-5.977
X-152.63 Y-318.159 Z-5.945
X-152.675 Y-318.142 Z-5.912
X-152.739 Y-318.13 Z-5.815
X-152.762 Y-318.129 Z-5.7
G0 Z5
X145.895 Y-355.088
G1 Z0.075 F333.3
Z-1.2 F1000
X145.906 Y-355.051 Z-1.347 F333.3
X145.933 Y-354.949 Z-1.456
X145.957 Y-354.805 Z-1.5
G3 X143.125 Y-354.481 Z-1.656 I-1.416 J0.162
X145.957 Y-354.805 Z-1.813 I1.416 J-0.162
X143.125 Y-354.481 Z-1.969 I-1.416 J0.162
X145.957 Y-354.805 Z-2.125 I1.416 J-0.162
X143.125 Y-354.481 Z-2.282 I-1.416 J0.162
X145.957 Y-354.805 Z-2.438 I1.416 J-0.162
X143.125 Y-354.481 Z-2.594 I-1.416 J0.162
X145.957 Y-354.805 Z-2.751 I1.416 J-0.162
X143.125 Y-354.481 Z-2.907 I-1.416 J0.162
X145.957 Y-354.805 Z-3.063 I1.416 J-0.162
X143.125 Y-354.481 Z-3.22 I-1.416 J0.162
X145.957 Y-354.805 Z-3.376 I1.416 J-0.162
X143.125 Y-354.481 Z-3.532 I-1.416 J0.162
X145.957 Y-354.805 Z-3.689 I1.416 J-0.162
X143.125 Y-354.481 Z-3.845 I-1.416 J0.162
X145.957 Y-354.805 Z-4.001 I1.416 J-0.162
X143.125 Y-354.481 Z-4.158 I-1.416 J0.162
X145.957 Y-354.805 Z-4.314 I1.416 J-0.162
X143.125 Y-354.481 Z-4.47 I-1.416 J0.162
X145.957 Y-354.805 Z-4.627 I1.416 J-0.162
X143.125 Y-354.481 Z-4.783 I-1.416 J0.162
X145.957 Y-354.805 Z-4.939 I1.416 J-0.162
X143.125 Y-354.481 Z-5.096 I-1.416 J0.162
X145.957 Y-354.805 Z-5.252 I1.416 J-0.162
X143.125 Y-354.481 Z-5.408 I-1.416 J0.162
X145.957 Y-354.805 Z-5.565 I1.416 J-0.162
X143.125 Y-354.481 Z-5.721 I-1.416 J0.162
X145.957 Y-354.805 Z-5.877 I1.416 J-0.162
X143.538 Y-353.631 Z-6 I-1.416 J0.162
G2 X142.819 Y-354.338 I-104.739 J105.735 F1000
G1 X142.793 Y-354.374
X142.781 Y-354.416
X142.783 Y-354.459
X142.8 Y-354.5
X142.829 Y-354.533
X142.867 Y-354.554
X142.91 Y-354.561
X144.146
G3 X144.465 Y-354.242 I0 J0.319
G1 Y-353.02
X144.458 Y-352.977
X144.437 Y-352.938
X144.404 Y-352.909
X144.364 Y-352.893
X144.32 Y-352.89
X144.278 Y-352.903
X144.243 Y-352.928
G2 X143.538 Y-353.631 I-105.444 J105.033
X142.549 Y-353.822 I-0.638 J0.644
G3 X141.559 Y-354.009 I-0.354 J-0.843
G2 X140.048 Y-355.451 I-102.76 J106.113
G1 X140.021 Y-355.487
X140.008 Y-355.529
X140.01 Y-355.573
X140.026 Y-355.614
X140.055 Y-355.647
X140.094 Y-355.669
X140.137 Y-355.676
X145.261
G3 X145.58 Y-355.357 I0 J0.319
G1 Y-350.285
X145.573 Y-350.242
X145.551 Y-350.203
X145.518 Y-350.174
X145.478 Y-350.158
X145.434 Y-350.156
X145.392 Y-350.169
X145.356 Y-350.195
G2 X141.559 Y-354.009 I-106.557 J102.3
X140.045 Y-354.284 I-0.962 J0.994
G3 X138.529 Y-354.545 I-0.559 J-1.285
G2 X135.67 Y-357.149 I-99.73 J106.65
G1 X135.642 Y-357.184
X135.628 Y-357.226
X135.629 Y-357.271
X135.644 Y-357.312
X135.673 Y-357.346
X135.712 Y-357.369
X135.756 Y-357.376
X146.961
G3 X147.28 Y-357.057 I0 J0.319
G1 Y-345.969
X147.273 Y-345.925
X147.251 Y-345.886
X147.217 Y-345.857
X147.175 Y-345.841
X147.131 Y-345.84
X147.089 Y-345.854
X147.054 Y-345.881
G2 X138.529 Y-354.545 I-108.254 J97.986
X137.011 Y-354.794 I-0.945 J1.01
G3 X135.49 Y-355.029 I-0.581 J-1.276
G2 X131.085 Y-358.846 I-96.691 J107.133
G1 X131.056 Y-358.881
X131.04 Y-358.923
Y-358.968
X131.055 Y-359.011
X131.084 Y-359.046
X131.123 Y-359.068
X131.168 Y-359.076
X148.661
G3 X148.98 Y-358.757 I0 J0.319
G1 Y-341.453
X148.972 Y-341.409
X148.95 Y-341.37
X148.915 Y-341.341
X148.873 Y-341.325
X148.828
X148.786 Y-341.34
X148.751 Y-341.369
G2 X135.49 Y-355.029 I-109.952 J93.474
X133.967 Y-355.25 I-0.927 J1.027
G3 X132.443 Y-355.458 I-0.604 J-1.265
G2 X126.26 Y-360.543 I-93.644 J107.563
G1 X126.232 Y-360.573
X126.215 Y-360.609
X126.209 Y-360.649
X126.216 Y-360.688
X126.235 Y-360.724
X126.264 Y-360.752
X126.3 Y-360.77
X126.34 Y-360.776
X150.361
G3 X150.68 Y-360.457 I0 J0.319
G1 Y-336.709
X150.674 Y-336.669
X150.656 Y-336.633
X150.628 Y-336.605
X150.593 Y-336.586
X150.554 Y-336.578
X150.514 Y-336.584
X150.478 Y-336.6
X150.448 Y-336.628
G2 X132.443 Y-355.458 I-111.649 J88.732
X130.916 Y-355.652 I-0.908 J1.043
G3 X129.388 Y-355.833 I-0.627 J-1.255
G2 X121.153 Y-362.24 I-90.589 J107.938
G1 X121.124 Y-362.269
X121.105 Y-362.305
X121.099 Y-362.346
X121.105 Y-362.386
X121.123 Y-362.422
X121.152 Y-362.451
X121.188 Y-362.47
X121.229 Y-362.476
X152.061
G3 X152.38 Y-362.157 I0 J0.319
G1 Y-331.696
X152.374 Y-331.656
X152.356 Y-331.619
X152.327 Y-331.591
X152.291 Y-331.572
X152.251 Y-331.566
X152.211 Y-331.572
X152.174 Y-331.59
X152.145 Y-331.618
G2 X129.388 Y-355.833 I-113.346 J83.723
X127.858 Y-356 I-0.889 J1.06
G3 X126.327 Y-356.152 I-0.649 J-1.243
G2 X115.707 Y-363.938 I-87.528 J108.257
G1 X115.677 Y-363.966
X115.657 Y-364.002
X115.649 Y-364.043
X115.655 Y-364.084
X115.673 Y-364.121
X115.702 Y-364.151
X115.738 Y-364.17
X115.779 Y-364.176
X153.761
G3 X154.08 Y-363.857 I0 J0.319
G1 Y-326.363
X154.074 Y-326.323
X154.055 Y-326.286
X154.025 Y-326.257
X153.988 Y-326.239
X153.948 Y-326.233
X153.907 Y-326.24
X153.871 Y-326.26
X153.842 Y-326.29
G2 X126.327 Y-356.152 I-115.043 J78.395
X124.795 Y-356.291 I-0.87 J1.076
G3 X123.261 Y-356.415 I-0.672 J-1.231
G2 X109.846 Y-365.635 I-84.461 J108.52
G3 X109.914 Y-365.876 I0.067 J-0.111
G1 X155.461
G3 X155.78 Y-365.557 I0 J0.319
G1 Y-320.641
G3 X155.54 Y-320.572 I-0.13 J0
G2 X123.261 Y-356.415 I-116.74 J72.677
X121.726 Y-356.525 I-0.85 J1.092
G3 X120.19 Y-356.621 I-0.695 J-1.219
G2 X103.339 Y-367.395 I-81.39 J108.725
G1 X103.311 Y-367.418
X103.293 Y-367.45
X103.289 Y-367.485
X103.298 Y-367.521
X103.319 Y-367.55
X103.349 Y-367.569
X103.385 Y-367.576
X157.161
G3 X157.48 Y-367.257 I0 J0.319
G1 Y-314.299
X157.473 Y-314.264
X157.454 Y-314.233
X157.425 Y-314.212
X157.39 Y-314.203
X157.355 Y-314.207
X157.323 Y-314.224
X157.3 Y-314.252
G2 X120.19 Y-356.621 I-118.501 J66.357
X118.653 Y-356.702 I-0.829 J1.108
G3 X117.115 Y-356.768 I-0.718 J-1.206
G2 X96.226 Y-369.093 I-78.316 J108.873
G1 X96.197 Y-369.115
X96.177 Y-369.146
X96.171 Y-369.183
X96.179 Y-369.219
X96.2 Y-369.249
X96.231 Y-369.269
X96.268 Y-369.276
X158.861
G3 X159.18 Y-368.957 I0 J0.319
G1 Y-307.428
X159.173 Y-307.392
X159.153 Y-307.361
X159.123 Y-307.34
X159.088 Y-307.332
X159.051 Y-307.338
X159.02 Y-307.356
X158.997 Y-307.386
G2 X117.115 Y-356.768 I-120.198 J59.49
X115.583 Y-356.82 I-0.805 J1.119
G3 X114.05 Y-356.857 I-0.738 J-1.187
G2 X88.133 Y-370.784 I-75.251 J108.962
G1 X88.102 Y-370.804
X88.081 Y-370.835
X88.073 Y-370.872
X88.08 Y-370.91
X88.101 Y-370.941
X88.132 Y-370.962
X88.169 Y-370.969
X160.554
G3 X160.873 Y-370.65 I0 J0.319
G1 Y-299.687
X160.866 Y-299.65
X160.845 Y-299.619
X160.814 Y-299.598
X160.778 Y-299.59
X160.741 Y-299.597
X160.709 Y-299.618
X160.688 Y-299.649
G2 X114.05 Y-356.857 I-121.889 J51.754
X112.553 Y-356.879 I-0.765 J1.108
G3 X111.055 Y-356.886 I-0.743 J-1.146
G2 X78.67 Y-372.436 I-72.256 J108.991
G1 X78.636 Y-372.455
X78.613 Y-372.485
X78.603 Y-372.523
X78.609 Y-372.561
X78.63 Y-372.594
X78.662 Y-372.616
X78.699 Y-372.624
X162.208
G3 X162.528 Y-372.304 I0 J0.319
G1 Y-290.794
X162.52 Y-290.756
X162.498 Y-290.725
X162.466 Y-290.704
X162.428 Y-290.698
X162.391 Y-290.706
X162.36 Y-290.729
X162.34 Y-290.762
G2 X111.055 Y-356.886 I-123.541 J42.867
X109.598 Y-356.88 I-0.724 J1.092
G3 X108.141 Y-356.86 I-0.744 J-1.101
G2 X66.521 Y-374.043 I-69.342 J108.965
G1 X66.489 Y-374.056
X66.464 Y-374.081
X66.449 Y-374.112
X66.446 Y-374.147
X66.456 Y-374.181
X66.478 Y-374.209
X66.507 Y-374.227
X66.542 Y-374.233
X163.818
G3 X164.137 Y-373.914 I0 J0.319
G1 Y-279.851
X164.131 Y-279.816
X164.113 Y-279.787
X164.086 Y-279.765
X164.053 Y-279.755
X164.018 Y-279.757
X163.987 Y-279.771
X163.962 Y-279.795
X163.947 Y-279.827
G2 X108.141 Y-356.86 I-125.148 J31.931
X106.753 Y-356.828 I-0.671 J1.054
G3 X105.364 Y-356.784 I-0.728 J-1.036
G2 X38.8 Y-375.543 I-66.614 J108.895
G1 X-44.206
G2 X-170.908 Y-263.032 I0 J127.598
G1 X-170.919 Y-262.998
X-170.942 Y-262.971
X-170.973 Y-262.954
X-171.008 Y-262.949
X-171.042 Y-262.958
X-171.071 Y-262.979
X-171.09 Y-263.009
X-171.097 Y-263.043
Y-375.474
G3 X-170.784 Y-375.787 I0.313 J0
G1 X165.378
G3 X165.691 Y-375.474 I0 J0.313
G1 Y-263.043
X165.684 Y-263.009
X165.665 Y-262.979
X165.636 Y-262.958
X165.602 Y-262.949
X165.567 Y-262.954
X165.536 Y-262.971
X165.513 Y-262.998
X165.502 Y-263.032
G2 X105.364 Y-356.784 I-126.753 J15.143
X104.03 Y-356.73 I-0.626 J1.024
G3 X102.696 Y-356.663 I-0.718 J-0.983
G2 X38.8 Y-374.043 I-63.896 J108.768
G1 X-44.206
G2 X-170.353 Y-247.895 I0 J126.148
G1 Y253.11
G2 X-44.205 Y379.257 I126.147 J0
G1 X38.8
G2 X164.947 Y253.11 I0 J-126.147
G1 Y-247.895
G2 X102.696 Y-356.663 I-126.148 J0
X101.159 Y-356.573 I-0.701 J1.193
G3 X99.623 Y-356.467 I-0.849 J-1.12
G2 X38.8 Y-372.343 I-60.824 J108.571
G1 X-44.206
G2 X-168.653 Y-247.895 I0 J124.447
G1 Y253.11
G2 X-44.205 Y377.557 I124.447 J0
G1 X38.8
G2 X163.247 Y253.11 I0 J-124.447
G1 Y-247.895
G2 X99.623 Y-356.467 I-124.448 J0
X98.088 Y-356.345 I-0.676 J1.207
G3 X96.555 Y-356.207 I-0.872 J-1.102
G2 X38.8 Y-370.643 I-57.755 J108.311
G1 X-44.206
G2 X-166.953 Y-247.895 I0 J122.748
G1 Y253.11
G2 X-44.205 Y375.857 I122.747 J0
G1 X38.8
G2 X161.547 Y253.11 I0 J-122.747
G1 Y-247.895
G2 X96.555 Y-356.207 I-122.748 J0
X94.977 Y-356.048 I-0.67 J1.257
G3 X93.402 Y-355.872 I-0.922 J-1.117
G2 X38.8 Y-368.893 I-54.602 J107.977
G1 X-44.206
G2 X-165.203 Y-247.895 I0 J120.998
G1 Y253.11
G2 X-44.205 Y374.107 I120.997 J0
G1 X38.799
G2 X159.797 Y253.11 I0 J-120.997
G1 Y-247.895
G2 X93.402 Y-355.872 I-120.998 J0
G1 X93.353 Y-355.903 Z-5.989
X93.311 Y-355.942 Z-5.977
X93.282 Y-355.981 Z-5.945
X93.26 Y-356.024 Z-5.912
X93.242 Y-356.087 Z-5.815
X93.239 Y-356.109 Z-5.7
G0 Z5
X143.921 Y377.971
G1 Z0.075 F333.3
Z-1 F1000
Z-5.7 F333.3
G19 G3 Y378.271 Z-6 J0.3 K0
G17 G2 X143.99 Y378.647 I1.058 J0 F1000
G1 X144.91 Y381.069
G3 X143.921 Y382.502 I-0.989 J0.376
G1 X-172.279
G3 X-172.598 Y382.183 I0 J-0.319
G1 Y-376.969
G3 X-172.279 Y-377.288 I0.319 J0
G1 X143.922
X166.873
G3 X167.192 Y-376.969 I0 J0.319
G1 Y382.183
