(CamperSchbladenverriegelungDeckblatt)
(T4 D=5 CR=0 - ZMIN=-5 - flat end mill)
G90 G94
G17
G21
(-Attention- Property Safe Retracts is set to Clearance Height.)
(Ensure the clearance height will clear the part and or fixtures.)
(Raise the Z-axis to a safe height before starting the program.)

(2D Contour3)
T4
S5000 M3
G17 G90 G94
G54
M8
G0 X10.5 Y356
Z15
G0 Z5
G1 Z3 F333.3
Z-2
G3 X7.5 Y356 I-1.5 J0 F1000
G1 Y341
G3 X10.5 Y341 I1.5 J0
G1 Y356
Z-4 F333.3
G3 X7.5 Y356 I-1.5 J0 F1000
G1 Y341
G3 X10.5 Y341 I1.5 J0
G1 Y356
Z-5 F333.3
G3 X7.5 Y356 I-1.5 J0 F1000
G1 Y341
G3 X10.5 Y341 I1.5 J0
G1 Y356
G0 Z5
Y143.5
G1 Z3 F333.3
Z-2
Y158.5 F1000
G3 X7.5 Y158.5 I-1.5 J0
G1 Y143.5
G3 X10.5 Y143.5 I1.5 J0
G1 Z-4 F333.3
Y158.5 F1000
G3 X7.5 Y158.5 I-1.5 J0
G1 Y143.5
G3 X10.5 Y143.5 I1.5 J0
G1 Z-5 F333.3
Y158.5 F1000
G3 X7.5 Y158.5 I-1.5 J0
G1 Y143.5
G3 X10.5 Y143.5 I1.5 J0
G0 Z5
Y19.75
G1 Z3 F333.3
Z-2
Y34.75 F1000
G3 X7.5 Y34.75 I-1.5 J0
G1 Y19.75
G3 X10.5 Y19.75 I1.5 J0
G1 Z-4 F333.3
Y34.75 F1000
G3 X7.5 Y34.75 I-1.5 J0
G1 Y19.75
G3 X10.5 Y19.75 I1.5 J0
G1 Z-5 F333.3
Y34.75 F1000
G3 X7.5 Y34.75 I-1.5 J0
G1 Y19.75
G3 X10.5 Y19.75 I1.5 J0
G0 Z5
Y573.5
G1 Z3 F333.3
Z-2
Y588.5 F1000
G3 X7.5 Y588.5 I-1.5 J0
G1 Y573.5
G3 X10.5 Y573.5 I1.5 J0
G1 Z-4 F333.3
Y588.5 F1000
G3 X7.5 Y588.5 I-1.5 J0
G1 Y573.5
G3 X10.5 Y573.5 I1.5 J0
G1 Z-5 F333.3
Y588.5 F1000
G3 X7.5 Y588.5 I-1.5 J0
G1 Y573.5
G3 X10.5 Y573.5 I1.5 J0
G0 Z5
Y748.5
G1 Z3 F333.3
Z-2
Y763.5 F1000
G3 X7.5 Y763.5 I-1.5 J0
G1 Y748.5
G3 X10.5 Y748.5 I1.5 J0
G1 Z-4 F333.3
Y763.5 F1000
G3 X7.5 Y763.5 I-1.5 J0
G1 Y748.5
G3 X10.5 Y748.5 I1.5 J0
G1 Z-5 F333.3
Y763.5 F1000
G3 X7.5 Y763.5 I-1.5 J0
G1 Y748.5
G3 X10.5 Y748.5 I1.5 J0
G0 Z15

(2D Contour4)
G0 X23.5 Y811
Z15
Z5
G1 Z3 F333.3
Z-2
Y33.5 F1000
X46
G2 X48.5 Y31 I0 J-2.5
G1 Y1
G2 X46 Y-1.5 I-2.5 J0
G1 X1
G2 X-1.5 Y1 I0 J2.5
G1 Y66
G2 X1 Y68.5 I2.5 J0
G1 X8.5
Y76
X1
G2 X-1.5 Y78.5 I0 J2.5
G1 Y236
G2 X1 Y238.5 I2.5 J0
G1 X8.5
Y246
X1
G2 X-1.5 Y248.5 I0 J2.5
G1 Y461
G2 X1 Y463.5 I2.5 J0
G1 X8.5
Y471
X1
G2 X-1.5 Y473.5 I0 J2.5
G1 Y701
G2 X1 Y703.5 I2.5 J0
G1 X8.5
Y711
X1
G2 X-1.5 Y713.5 I0 J2.5
G1 Y811
G2 X1 Y813.5 I2.5 J0
G1 X21
G2 X23.5 Y811 I0 J-2.5
G1 Z-4 F333.3
Y33.5 F1000
X46
G2 X48.5 Y31 I0 J-2.5
G1 Y1
G2 X46 Y-1.5 I-2.5 J0
G1 X1
G2 X-1.5 Y1 I0 J2.5
G1 Y66
G2 X1 Y68.5 I2.5 J0
G1 X8.5
Y76
X1
G2 X-1.5 Y78.5 I0 J2.5
G1 Y236
G2 X1 Y238.5 I2.5 J0
G1 X8.5
Y246
X1
G2 X-1.5 Y248.5 I0 J2.5
G1 Y461
G2 X1 Y463.5 I2.5 J0
G1 X8.5
Y471
X1
G2 X-1.5 Y473.5 I0 J2.5
G1 Y701
G2 X1 Y703.5 I2.5 J0
G1 X8.5
Y711
X1
G2 X-1.5 Y713.5 I0 J2.5
G1 Y811
G2 X1 Y813.5 I2.5 J0
G1 X21
G2 X23.5 Y811 I0 J-2.5
G1 Z-5 F333.3
Y33.5 F1000
X46
G2 X48.5 Y31 I0 J-2.5
G1 Y1
G2 X46 Y-1.5 I-2.5 J0
G1 X1
G2 X-1.5 Y1 I0 J2.5
G1 Y66
G2 X1 Y68.5 I2.5 J0
G1 X8.5
Y76
X1
G2 X-1.5 Y78.5 I0 J2.5
G1 Y236
G2 X1 Y238.5 I2.5 J0
G1 X8.5
Y246
X1
G2 X-1.5 Y248.5 I0 J2.5
G1 Y461
G2 X1 Y463.5 I2.5 J0
G1 X8.5
Y471
X1
G2 X-1.5 Y473.5 I0 J2.5
G1 Y701
G2 X1 Y703.5 I2.5 J0
G1 X8.5
Y711
X1
G2 X-1.5 Y713.5 I0 J2.5
G1 Y811
G2 X1 Y813.5 I2.5 J0
G1 X21
G2 X23.5 Y811 I0 J-2.5
G0 Z15
M9
M5
M30
