(CamperGaskastenMuelleimerDeckel)
(T4  D=5 CR=0 - ZMIN=-9 - flat end mill)
G90 G94
G17
G21

(2D Pocket7)
T4
S5000 M3
G54
M8
G0 X262.371 Y407.438
Z15
Z5
G1 Z2.97 F333.3
X262.392 Y407.427 Z2.819
X262.452 Y407.396 Z2.683
X262.547 Y407.352 Z2.573
X262.671 Y407.303 Z2.5
G3 X264.005 Y411.075 Z0.213 I0.667 J1.886
X263.338 Y411.189 Z-0.034 I-0.667 J-1.886
X261.738 Y407.989 Z-1.646 I0 J-2
X264.938 Y410.389 Z-3.933 I1.6 J1.2
X263.338 Y411.189 Z-4.608 I-1.6 J-1.2
G1 X261.338 F1000
Y13.407
X265.338
Y411.189
X263.338
X263.274 Y411.185 Z-4.595
X263.212 Y411.173 Z-4.583
X263.151 Y411.153 Z-4.57
X263.079 Y411.117 Z-4.516
X263.013 Y411.069 Z-4.462
X262.974 Y411.032 Z-4.381
X262.939 Y410.99 Z-4.299
X262.917 Y410.959 Z-4.108
G0 Z15
X26.599 Y13.561
Z5
G1 Z-4.05 F333.3
X26.606 Y13.56 Z-4.128 F1000
X26.626 Y13.557 Z-4.204
X26.658 Y13.552 Z-4.275
X26.703 Y13.544 Z-4.339
X26.758 Y13.536 Z-4.395
X26.821 Y13.526 Z-4.44
X26.891 Y13.515 Z-4.473
X26.966 Y13.503 Z-4.493
X27.043 Y13.491 Z-4.5
X27.529 Y13.414
X27.608 Y13.407
X261.233
X261.312 Y13.414
X261.736 Y13.481
X261.822 Y13.494 Z-4.492
X261.905 Y13.508 Z-4.47
X261.983 Y13.52 Z-4.433
X262.053 Y13.531 Z-4.383
X262.114 Y13.541 Z-4.321
X262.164 Y13.549 Z-4.25
X262.2 Y13.554 Z-4.171
X262.222 Y13.558 Z-4.087
X262.23 Y13.559 Z-4
G0 Z5
X262.231 Y17.255
G1 Z-4.05 F333.3
X262.225 Y17.256 Z-4.128 F1000
X262.205 Y17.259 Z-4.204
X262.172 Y17.265 Z-4.275
X262.127 Y17.272 Z-4.339
X262.073 Y17.28 Z-4.395
X262.009 Y17.29 Z-4.44
X261.939 Y17.301 Z-4.473
X261.864 Y17.313 Z-4.493
X261.787 Y17.325 Z-4.5
X261.309 Y17.401
X261.23 Y17.407
X27.605
X27.526 Y17.401
X27.102 Y17.334
X27.016 Y17.32 Z-4.492
X26.933 Y17.307 Z-4.47
X26.855 Y17.295 Z-4.433
X26.785 Y17.284 Z-4.383
X26.724 Y17.274 Z-4.321
X26.674 Y17.266 Z-4.25
X26.638 Y17.261 Z-4.171
X26.616 Y17.257 Z-4.087
X26.608 Y17.256 Z-4
G0 Z15
X24.533 Y407.438
Z5
G1 Z2.97 F333.3
X24.554 Y407.427 Z2.819
X24.614 Y407.396 Z2.683
X24.709 Y407.352 Z2.573
X24.833 Y407.303 Z2.5
G3 X27.1 Y407.989 Z1.578 I0.667 J1.886
X23.9 Y410.389 Z-0.709 I-1.6 J1.2
X23.9 Y407.989 Z-1.646 I1.6 J-1.2
X27.1 Y407.989 Z-2.996 I1.6 J1.2
X25.5 Y411.189 Z-4.608 I-1.6 J1.2
G1 X23.5 F1000
Y13.407
X27.5
Y411.189
X25.5
X25.436 Y411.185 Z-4.595
X25.374 Y411.173 Z-4.583
X25.313 Y411.153 Z-4.57
X25.241 Y411.117 Z-4.516
X25.175 Y411.069 Z-4.462
X25.136 Y411.032 Z-4.381
X25.101 Y410.99 Z-4.299
X25.079 Y410.959 Z-4.108
G0 Z15

(2D Contour8)
X-4 Y-0.5
Z15
Z5
G1 Z-4.5 F333.3
G18 G2 X-3.5 Z-5 I0.5 K0 F1000
G1 X-3
G17 G3 X-2.5 Y0 I0 J0.5
G1 Y471.027
G2 X-0.003 Y473.527 I2.5 J0
G1 X1.814 Y473.529
X3.611 Y473.535
X5.393 Y473.545
X7.158 Y473.558
X8.906 Y473.576
X10.639 Y473.597
X12.355 Y473.622
X14.054 Y473.651
X15.738 Y473.683
X17.406 Y473.719
X19.057 Y473.76
X20.694 Y473.804
X22.314 Y473.851
X23.918 Y473.903
X25.508 Y473.956
X27.081 Y474.015
X28.64 Y474.077
X30.183 Y474.142
X31.711 Y474.21
X33.226 Y474.282
X34.724 Y474.357
X36.208 Y474.435
X37.678 Y474.517
X39.134 Y474.602
X40.576 Y474.689
X42.004 Y474.78
X43.418 Y474.873
X44.819 Y474.97
X46.207 Y475.069
X47.58 Y475.171
X48.941 Y475.276
X50.29 Y475.384
X51.626 Y475.493
X52.949 Y475.606
X54.26 Y475.72
X55.558 Y475.838
X56.845 Y475.957
X58.121 Y476.078
X59.383 Y476.202
X60.635 Y476.328
X61.877 Y476.456
X63.107 Y476.585
X64.326 Y476.716
X65.535 Y476.85
X66.733 Y476.984
X67.92 Y477.12
X69.098 Y477.259
X70.265 Y477.398
X72.573 Y477.681
X74.843 Y477.968
X77.077 Y478.259
X79.276 Y478.553
X81.441 Y478.851
X83.576 Y479.151
X85.681 Y479.452
X87.755 Y479.754
X89.802 Y480.056
X91.823 Y480.357
X93.817 Y480.657
X95.788 Y480.956
X97.735 Y481.252
X99.661 Y481.544
X101.562 Y481.833
X101.565
X103.447 Y482.117
X103.451 Y482.118
X105.312 Y482.396
X105.314
X107.156 Y482.669
X107.163 Y482.67
X108.986 Y482.935
X108.991 Y482.936
X110.797 Y483.195
X110.804 Y483.196
X112.592 Y483.447
X112.602 Y483.448
X114.375 Y483.69
X114.384 Y483.691
X116.141 Y483.924
X116.152 Y483.926
X117.893 Y484.149
X117.905 Y484.15
X119.633 Y484.363
X119.646 Y484.365
X121.36 Y484.567
X121.374 Y484.568
X123.074 Y484.759
X123.088 Y484.761
X124.776 Y484.941
X124.793 Y484.943
X126.468 Y485.11
X126.486 Y485.111
X128.15 Y485.265
X128.169 Y485.267
X129.821 Y485.407
X129.837 Y485.408
X131.477 Y485.536
X131.499 Y485.538
X133.129 Y485.651
X133.149 Y485.652
X134.768 Y485.751
X134.791 Y485.753
X136.399 Y485.837
X136.421 Y485.838
X138.019 Y485.907
X138.042 Y485.908
X139.63 Y485.962
X139.653
X141.231 Y486.001
X141.255 Y486.002
X142.823 Y486.026
X142.85
X144.408 Y486.033
X144.43
X145.988 Y486.026
X146.015
X147.583 Y486.002
X147.607 Y486.001
X149.185 Y485.962
X149.208
X150.795 Y485.908
X150.818 Y485.907
X152.417 Y485.838
X152.439 Y485.837
X154.047 Y485.753
X154.07 Y485.751
X155.689 Y485.652
X155.709 Y485.651
X157.339 Y485.538
X157.361 Y485.536
X159.001 Y485.408
X159.017 Y485.407
X160.669 Y485.267
X160.689 Y485.265
X162.352 Y485.111
X162.369 Y485.11
X164.045 Y484.943
X164.062 Y484.941
X165.75 Y484.761
X165.764 Y484.759
X167.464 Y484.568
X167.478 Y484.567
X169.192 Y484.365
X169.205 Y484.363
X170.932 Y484.15
X170.943 Y484.149
X172.685 Y483.926
X172.697 Y483.924
X174.454 Y483.691
X174.463 Y483.69
X176.235 Y483.448
X176.244 Y483.447
X178.033 Y483.196
X178.041 Y483.195
X179.847 Y482.936
X179.852 Y482.935
X181.675 Y482.67
X181.682 Y482.669
X183.524 Y482.396
X183.526
X185.387 Y482.118
X185.391 Y482.117
X187.273 Y481.833
X187.276
X189.177 Y481.544
X191.102 Y481.252
X193.05 Y480.956
X195.02 Y480.657
X197.015 Y480.357
X199.036 Y480.056
X201.082 Y479.754
X203.157 Y479.452
X205.262 Y479.151
X207.396 Y478.851
X209.562 Y478.553
X211.761 Y478.259
X213.995 Y477.968
X216.265 Y477.681
X218.573 Y477.398
X219.74 Y477.259
X220.917 Y477.12
X222.105 Y476.984
X223.303 Y476.85
X224.512 Y476.716
X225.731 Y476.585
X226.96 Y476.456
X228.202 Y476.328
X229.454 Y476.202
X230.717 Y476.078
X231.993 Y475.957
X233.28 Y475.838
X234.578 Y475.72
X235.889 Y475.606
X237.212 Y475.493
X238.547 Y475.384
X239.897 Y475.276
X241.258 Y475.171
X242.632 Y475.069
X244.019 Y474.97
X245.419 Y474.873
X246.834 Y474.78
X248.261 Y474.689
X249.703 Y474.602
X251.159 Y474.517
X252.629 Y474.435
X254.113 Y474.357
X255.612 Y474.282
X257.126 Y474.21
X258.655 Y474.142
X260.198 Y474.077
X261.757 Y474.015
X263.33 Y473.956
X264.92 Y473.903
X266.524 Y473.851
X268.144 Y473.804
X269.78 Y473.76
X271.432 Y473.719
X273.099 Y473.683
X274.784 Y473.651
X276.483 Y473.622
X278.199 Y473.597
X279.932 Y473.576
X281.68 Y473.558
X283.444 Y473.545
X285.226 Y473.535
X287.024 Y473.529
X288.841 Y473.527
G2 X291.338 Y471.027 I-0.003 J-2.5
G1 Y0
G2 X288.838 Y-2.5 I-2.5 J0
G1 X0
G2 X-2.5 Y0 I0 J2.5
G3 X-3 Y0.5 I-0.5 J0
G1 X-3.5
G18 G3 X-4 Z-4.5 I0 K0.5
G0 Z5
Y-0.5
G1 Z0 F333.3
Z-8.5
G2 X-3.5 Z-9 I0.5 K0 F1000
G1 X-3
G17 G3 X-2.5 Y0 I0 J0.5
G1 Y471.027
G2 X-0.003 Y473.527 I2.5 J0
G1 X1.814 Y473.529
X3.611 Y473.535
X5.393 Y473.545
X7.158 Y473.558
X8.906 Y473.576
X10.639 Y473.597
X12.355 Y473.622
X14.054 Y473.651
X15.738 Y473.683
X17.406 Y473.719
X19.057 Y473.76
X20.694 Y473.804
X22.314 Y473.851
X23.918 Y473.903
X25.508 Y473.956
X27.081 Y474.015
X28.64 Y474.077
X30.183 Y474.142
X31.711 Y474.21
X33.226 Y474.282
X34.724 Y474.357
X36.208 Y474.435
X37.678 Y474.517
X39.134 Y474.602
X40.576 Y474.689
X42.004 Y474.78
X43.418 Y474.873
X44.819 Y474.97
X46.207 Y475.069
X47.58 Y475.171
X48.941 Y475.276
X50.29 Y475.384
X51.626 Y475.493
X52.949 Y475.606
X54.26 Y475.72
X55.558 Y475.838
X56.845 Y475.957
X58.121 Y476.078
X59.383 Y476.202
X60.635 Y476.328
X61.877 Y476.456
X63.107 Y476.585
X64.326 Y476.716
X65.535 Y476.85
X66.733 Y476.984
X67.92 Y477.12
X69.098 Y477.259
X70.265 Y477.398
X72.573 Y477.681
X74.843 Y477.968
X77.077 Y478.259
X79.276 Y478.553
X81.441 Y478.851
X83.576 Y479.151
X85.681 Y479.452
X87.755 Y479.754
X89.802 Y480.056
X91.823 Y480.357
X93.817 Y480.657
X95.788 Y480.956
X97.735 Y481.252
X99.661 Y481.544
X101.562 Y481.833
X101.565
X103.447 Y482.117
X103.451 Y482.118
X105.312 Y482.396
X105.314
X107.156 Y482.669
X107.163 Y482.67
X108.986 Y482.935
X108.991 Y482.936
X110.797 Y483.195
X110.804 Y483.196
X112.592 Y483.447
X112.602 Y483.448
X114.375 Y483.69
X114.384 Y483.691
X116.141 Y483.924
X116.152 Y483.926
X117.893 Y484.149
X117.905 Y484.15
X119.633 Y484.363
X119.646 Y484.365
X121.36 Y484.567
X121.374 Y484.568
X123.074 Y484.759
X123.088 Y484.761
X124.776 Y484.941
X124.793 Y484.943
X126.468 Y485.11
X126.486 Y485.111
X128.15 Y485.265
X128.169 Y485.267
X129.821 Y485.407
X129.837 Y485.408
X131.477 Y485.536
X131.499 Y485.538
X133.129 Y485.651
X133.149 Y485.652
X134.768 Y485.751
X134.791 Y485.753
X136.399 Y485.837
X136.421 Y485.838
X138.019 Y485.907
X138.042 Y485.908
X139.63 Y485.962
X139.653
X141.231 Y486.001
X141.255 Y486.002
X142.823 Y486.026
X142.85
X144.408 Y486.033
X144.43
X145.988 Y486.026
X146.015
X147.583 Y486.002
X147.607 Y486.001
X149.185 Y485.962
X149.208
X150.795 Y485.908
X150.818 Y485.907
X152.417 Y485.838
X152.439 Y485.837
X154.047 Y485.753
X154.07 Y485.751
X155.689 Y485.652
X155.709 Y485.651
X157.339 Y485.538
X157.361 Y485.536
X159.001 Y485.408
X159.017 Y485.407
X160.669 Y485.267
X160.689 Y485.265
X162.352 Y485.111
X162.369 Y485.11
X164.045 Y484.943
X164.062 Y484.941
X165.75 Y484.761
X165.764 Y484.759
X167.464 Y484.568
X167.478 Y484.567
X169.192 Y484.365
X169.205 Y484.363
X170.932 Y484.15
X170.943 Y484.149
X172.685 Y483.926
X172.697 Y483.924
X174.454 Y483.691
X174.463 Y483.69
X176.235 Y483.448
X176.244 Y483.447
X178.033 Y483.196
X178.041 Y483.195
X179.847 Y482.936
X179.852 Y482.935
X181.675 Y482.67
X181.682 Y482.669
X183.524 Y482.396
X183.526
X185.387 Y482.118
X185.391 Y482.117
X187.273 Y481.833
X187.276
X189.177 Y481.544
X191.102 Y481.252
X193.05 Y480.956
X195.02 Y480.657
X197.015 Y480.357
X199.036 Y480.056
X201.082 Y479.754
X203.157 Y479.452
X205.262 Y479.151
X207.396 Y478.851
X209.562 Y478.553
X211.761 Y478.259
X213.995 Y477.968
X216.265 Y477.681
X218.573 Y477.398
X219.74 Y477.259
X220.917 Y477.12
X222.105 Y476.984
X223.303 Y476.85
X224.512 Y476.716
X225.731 Y476.585
X226.96 Y476.456
X228.202 Y476.328
X229.454 Y476.202
X230.717 Y476.078
X231.993 Y475.957
X233.28 Y475.838
X234.578 Y475.72
X235.889 Y475.606
X237.212 Y475.493
X238.547 Y475.384
X239.897 Y475.276
X241.258 Y475.171
X242.632 Y475.069
X244.019 Y474.97
X245.419 Y474.873
X246.834 Y474.78
X248.261 Y474.689
X249.703 Y474.602
X251.159 Y474.517
X252.629 Y474.435
X254.113 Y474.357
X255.612 Y474.282
X257.126 Y474.21
X258.655 Y474.142
X260.198 Y474.077
X261.757 Y474.015
X263.33 Y473.956
X264.92 Y473.903
X266.524 Y473.851
X268.144 Y473.804
X269.78 Y473.76
X271.432 Y473.719
X273.099 Y473.683
X274.784 Y473.651
X276.483 Y473.622
X278.199 Y473.597
X279.932 Y473.576
X281.68 Y473.558
X283.444 Y473.545
X285.226 Y473.535
X287.024 Y473.529
X288.841 Y473.527
G2 X291.338 Y471.027 I-0.003 J-2.5
G1 Y0
G2 X288.838 Y-2.5 I-2.5 J0
G1 X0
G2 X-2.5 Y0 I0 J2.5
G3 X-3 Y0.5 I-0.5 J0
G1 X-3.5
G18 G3 X-4 Z-8.5 I0 K0.5
G0 Z15
G17
M9
M5
M30
