(CamperSpuȈlenausschnitt.nc)
(T3  D=3 CR=0 - ZMIN=-20 - flat end mill)
G90 G94
G17
G21

(Pocket1)
T3
S5000 M3
G54
M8
G0 X200.458 Y206.991
Z15
Z4
G1 Z3.45 F333.3
X200.463 Y207.004 Z3.359
X200.476 Y207.043 Z3.277
X200.494 Y207.104 Z3.211
X200.514 Y207.182 Z3.167
X200.53 Y207.271 Z3.15
G3 X197.712 Y207.698 Z2.994 I-1.409 J0.214
X200.53 Y207.271 Z2.837 I1.409 J-0.214
X197.712 Y207.698 Z2.681 I-1.409 J0.214
X200.53 Y207.271 Z2.525 I1.409 J-0.214
X197.712 Y207.698 Z2.368 I-1.409 J0.214
X200.53 Y207.271 Z2.212 I1.409 J-0.214
X197.712 Y207.698 Z2.056 I-1.409 J0.214
X200.53 Y207.271 Z1.899 I1.409 J-0.214
X197.712 Y207.698 Z1.743 I-1.409 J0.214
X200.53 Y207.271 Z1.587 I1.409 J-0.214
X197.712 Y207.698 Z1.43 I-1.409 J0.214
X200.53 Y207.271 Z1.274 I1.409 J-0.214
X197.712 Y207.698 Z1.118 I-1.409 J0.214
X200.53 Y207.271 Z0.961 I1.409 J-0.214
X197.712 Y207.698 Z0.805 I-1.409 J0.214
X200.53 Y207.271 Z0.649 I1.409 J-0.214
X197.712 Y207.698 Z0.492 I-1.409 J0.214
X200.53 Y207.271 Z0.336 I1.409 J-0.214
X197.712 Y207.698 Z0.18 I-1.409 J0.214
X200.53 Y207.271 Z0.023 I1.409 J-0.214
X197.712 Y207.698 Z-0.133 I-1.409 J0.214
X200.53 Y207.271 Z-0.289 I1.409 J-0.214
X197.712 Y207.698 Z-0.446 I-1.409 J0.214
X200.53 Y207.271 Z-0.602 I1.409 J-0.214
X197.712 Y207.698 Z-0.758 I-1.409 J0.214
X200.53 Y207.271 Z-0.915 I1.409 J-0.214
X197.712 Y207.698 Z-1.071 I-1.409 J0.214
X200.53 Y207.271 Z-1.227 I1.409 J-0.214
X197.712 Y207.698 Z-1.384 I-1.409 J0.214
X200.53 Y207.271 Z-1.54 I1.409 J-0.214
X197.712 Y207.698 Z-1.696 I-1.409 J0.214
X200.53 Y207.271 Z-1.853 I1.409 J-0.214
X197.712 Y207.698 Z-2.009 I-1.409 J0.214
X200.53 Y207.271 Z-2.165 I1.409 J-0.214
X197.712 Y207.698 Z-2.322 I-1.409 J0.214
X200.53 Y207.271 Z-2.478 I1.409 J-0.214
X197.712 Y207.698 Z-2.634 I-1.409 J0.214
X200.53 Y207.271 Z-2.791 I1.409 J-0.214
X197.712 Y207.698 Z-2.947 I-1.409 J0.214
X198.253 Y206.355 Z-3 I1.409 J-0.214
G1 X199.397 Y205.475 F1000
X200.732 Y204.415
X201.798 Y203.542
G2 X204.248 Y201.479 I-77.476 J-94.509
G1 X204.351 Y201.39
G2 X206.921 Y199.104 I-79.444 J-91.889
G1 X208.455 Y197.685
X210.141 Y196.082
G3 X211.135 Y195.678 I1.001 J1.035
G1 X245.768 Y195.515
X245.827 Y195.517
X245.837 Y195.518
X245.876 Y195.519
X245.915 Y195.514
X245.921 Y195.513
X245.934 Y195.51
X245.941 Y195.509
X245.978
X246.012 Y195.524
X246.038 Y195.551
X246.052 Y195.585
Y195.623
G3 X245.531 Y196.048 I-0.523 J-0.11
G1 X219.222 Y196.162
X211.375 Y196.19
G2 X210.411 Y196.573 I0.009 J1.43
G1 X208.161 Y198.671
X207.206 Y199.534
G3 X201.966 Y203.984 I-75.146 J-83.182
G1 X200.231 Y205.349
X199.727 Y205.738
X199.568 Y205.857
X199.037 Y206.243
G3 X198.063 Y206.748 I-2.166 J-2.982
G1 X197.985 Y206.771
X197.976 Y206.772
G3 X197.779 Y206.381 I-0.049 J-0.221
G1 X197.791 Y206.369
X197.819 Y206.342
X197.842 Y206.311
X197.895 Y206.227
G3 X198.115 Y205.97 I1.032 J0.659
G1 X198.46 Y205.664
X198.582 Y205.561
X200.359 Y204.11
X200.514 Y203.982
X201.702 Y202.969
G2 X203.829 Y201.103 I-76.647 J-89.513
X207.632 Y197.444 I-51.969 J-57.822
G1 X209.272 Y195.762
X209.352 Y195.676
X209.429 Y195.587
G3 X209.794 Y195.299 I0.887 J0.747
G1 X209.891 Y195.25
G3 X210.426 Y195.071 I0.88 J1.747
G1 X210.472 Y195.064
X210.483 Y195.063
X210.621 Y195.052
X210.643
X210.682 Y195.051
X245.731 Y194.72
X245.848 Y194.721
X245.965 Y194.727
X245.983 Y194.729
X246.008 Y194.731
G2 X246.318 Y194.712 I0.095 J-1.003
G1 X246.343 Y194.707
X246.395 Y194.696
X246.428 Y194.69
G3 X246.873 Y195.144 I0.07 J0.377
G1 X246.855 Y195.254
X246.845 Y195.365
X246.842 Y195.445
X246.841 Y195.533
X246.846 Y195.62
X246.851 Y195.696
X246.852 Y195.722
Y195.84
Y195.862
G3 X245.862 Y196.862 I-1.024 J-0.024
G1 X245.815 Y196.863
X245.746 Y196.865
X220.418 Y197.095
X216.195 Y197.086
G2 X215.811 Y197.09 I0.021 J20.097
G1 X212.148 Y197.118
G2 X210.477 Y197.804 I0.051 J2.5
G1 X208.801 Y199.376
X208.039 Y200.065
G3 X202.428 Y204.732 I-58.889 J-65.093
G1 X200.744 Y205.999
X200.305 Y206.323
G3 X199.98 Y206.55 I-4.584 J-6.213
G1 X199.461 Y206.893
G3 X198.078 Y207.44 I-1.989 J-3.008
G1 X198.026 Y207.449
G2 X197.685 Y207.536 I0.37 J2.167
G1 X197.568 Y207.572
X197.448 Y207.602
X197.423 Y207.608
G3 X197.046 Y207.663 I-0.571 J-2.592
G1 X196.972 Y207.668
X196.804 Y207.684
X196.745 Y207.691
G3 X196.366 Y207.255 I-0.041 J-0.347
G1 X196.382 Y207.195
X196.403 Y207.13
X196.432 Y207.068
X196.603 Y206.751
G3 X196.916 Y206.36 I1.23 J0.663
G1 X196.997 Y206.283
X197.068 Y206.211
G2 X197.268 Y205.89 I-0.629 J-0.614
G3 X197.543 Y205.435 I1.233 J0.436
G1 X197.842 Y205.113
G3 X198.19 Y204.782 I2.911 J2.708
G1 X199.72 Y203.457
X199.806 Y203.384
X199.927 Y203.28
X201.475 Y201.878
G2 X203.162 Y200.306 I-75.146 J-82.359
G1 X203.373 Y200.105
G2 X206.475 Y196.8 I-28.111 J-29.486
G1 X207.578 Y195.506
G3 X210.921 Y193.962 I3.382 J2.933
G1 X245.69 Y193.66
G3 X246.15 Y193.674 I0.05 J5.728
G1 X246.186 Y193.677
X246.236 Y193.681
G2 X246.856 Y193.642 I0.186 J-2.01
G1 X246.907 Y193.631
X247.011 Y193.61
X247.104 Y193.592
G3 X247.427 Y193.549 I0.588 J3.155
G1 X247.558 Y193.538
G3 X248.035 Y194.028 I0.037 J0.441
G1 X248.01 Y194.253
G3 X247.971 Y194.504 I-2.812 J-0.313
G2 X247.917 Y194.945 I2.769 J0.563
G1 X247.91 Y195.106
G2 X247.919 Y195.459 I2.534 J0.109
G1 X247.929 Y195.611
X247.931 Y195.661
G3 X247.92 Y196.143 I-4.151 J0.149
G1 X247.893 Y196.391
X247.886 Y196.439
G2 X247.893 Y197.651 I4.142 J0.584
G1 X247.896 Y197.687
G3 X247.654 Y197.897 I-0.212 J0
G2 X246.451 Y197.905 I-0.573 J4.076
G1 X246.408 Y197.912
G3 X245.888 Y197.961 I-0.675 J-4.356
G1 X245.856 Y197.962
X245.706 Y197.965
X222.362 Y198.17
G3 X219.541 Y198.151 I-0.751 J-98.803
G1 X216.22 Y198.119
G2 X215.785 Y198.122 I-0.108 J18.107
G1 X212.943 Y198.138
G2 X210.641 Y199.05 I0.011 J3.388
G1 X210.09 Y199.566
G3 X208.868 Y200.682 I-52.693 J-56.461
G1 X208.835 Y200.711
G3 X202.93 Y205.466 I-49.079 J-54.902
G1 X201.26 Y206.656
X200.887 Y206.917
G3 X200.392 Y207.239 I-5.102 J-7.306
G1 X200.305 Y207.291
G3 X197.962 Y208.163 I-3.476 J-5.755
G1 X197.874 Y208.178
G2 X197.308 Y208.322 I0.619 J3.619
G3 X196.911 Y208.433 I-1.187 J-3.479
G1 X196.871 Y208.442
G3 X196.242 Y208.534 I-0.95 J-4.315
G1 X196.118 Y208.543
G2 X195.839 Y208.57 I0.446 J6.129
G1 X195.567 Y208.602
G3 X195.066 Y208.023 I-0.055 J-0.459
G1 X195.138 Y207.753
X195.174 Y207.645
X195.222 Y207.542
X195.506 Y207.014
G3 X196.028 Y206.363 I2.049 J1.106
G1 X196.032 Y206.359
X196.163 Y206.236
X196.281 Y206.116
G2 X196.614 Y205.581 I-1.046 J-1.023
G3 X197.04 Y204.822 I2.396 J0.848
G1 X197.242 Y204.575
G3 X197.793 Y204 I3.916 J3.196
G1 X199.158 Y202.745
X199.245 Y202.668
X199.351 Y202.573
X201.181 Y200.811
X201.318 Y200.685
X201.41 Y200.603
X201.498 Y200.517
X202.493 Y199.515
G2 X205.702 Y195.733 I-22.488 J-22.332
G1 X205.937 Y195.407
G3 X206.322 Y194.889 I19.352 J13.97
G1 X206.63 Y194.485
X206.725 Y194.355
X206.754 Y194.313
G3 X208.946 Y193.046 I2.429 J1.672
G1 X209.378 Y193.011
G2 X209.745 Y192.963 I-0.306 J-3.789
G1 X209.929 Y192.935
X209.973 Y192.929
G3 X210.525 Y192.885 I0.717 J5.529
G1 X210.579 Y192.883
X210.747 Y192.88
X245.649 Y192.599
G3 X246.335 Y192.621 I0.07 J8.631
G1 X246.389 Y192.624
X246.463 Y192.63
G2 X247.394 Y192.572 I0.278 J-3.016
G1 X247.47 Y192.555
X247.626 Y192.523
X247.766 Y192.497
G3 X248.251 Y192.432 I0.884 J4.736
G1 X248.504 Y192.411
X248.593 Y192.398
G3 X249.189 Y192.946 I0.102 J0.487
G1 X249.126 Y193.488
G3 X249.067 Y193.864 I-4.219 J-0.469
G2 X248.986 Y194.527 I4.154 J0.844
G1 X248.976 Y194.769
G2 X248.99 Y195.298 I3.802 J0.163
G1 X249.005 Y195.527
X249.008 Y195.601
G3 X248.992 Y196.324 I-6.23 J0.225
X248.951 Y196.696 I-6.25 J-0.501
G1 X248.941 Y196.768
G2 X248.951 Y198.589 I6.22 J0.875
G1 X248.952 Y198.595
G3 X248.594 Y198.957 I-0.314 J0.048
G2 X246.788 Y198.97 I-0.859 J6.118
G1 X246.723 Y198.98
G3 X245.942 Y199.055 I-1.014 J-6.54
G1 X245.896 Y199.056
X245.665 Y199.061
X222.37 Y199.251
G3 X219.539 Y199.211 I-0.445 J-68.831
G1 X217.434 Y199.166
X216.243 Y199.151
G2 X215.761 Y199.151 I-0.228 J17.701
G1 X213.666 Y199.16
G2 X210.81 Y200.287 I0.008 J4.201
G1 X210.788 Y200.308
G3 X209.534 Y201.445 I-43.57 J-46.774
G1 X209.337 Y201.62
G3 X206.81 Y203.744 I-44.737 J-50.652
X206.007 Y204.369 I-24.142 J-30.185
G1 X205.958 Y204.406
G3 X204.231 Y205.649 I-26.13 J-34.496
G1 X202.607 Y206.763
X201.145 Y207.732
X200.417 Y208.196
G3 X198.495 Y208.806 I-2.106 J-3.304
G2 X198.014 Y208.858 I0.186 J3.95
G1 X197.723 Y208.908
G2 X196.931 Y209.109 I0.867 J5.07
G3 X196.375 Y209.264 I-1.66 J-4.874
G1 X196.318 Y209.276
G3 X195.439 Y209.404 I-1.326 J-6.035
G1 X195.266 Y209.417
G2 X194.876 Y209.454 I0.621 J8.571
G1 X194.077 Y209.549
G3 X193.685 Y209.096 I-0.043 J-0.359
G1 X193.896 Y208.311
G3 X194.013 Y208.016 I1.318 J0.353
G1 X194.412 Y207.277
G3 X195.142 Y206.366 I2.866 J1.549
G1 X195.148 Y206.361
G2 X195.331 Y206.189 I-2.031 J-2.339
G1 X195.495 Y206.021
G2 X195.961 Y205.273 I-1.462 J-1.431
G3 X197.163 Y203.428 I4.427 J1.569
G1 X198.121 Y202.507
X198.599 Y202.033
X198.683 Y201.955
X198.779 Y201.866
X200.561 Y200.045
X200.694 Y199.917
X200.776 Y199.841
X200.854 Y199.761
X201.823 Y198.727
G2 X204.802 Y194.835 I-17.951 J-16.824
G1 X205.038 Y194.453
G3 X205.414 Y193.87 I16.018 J9.898
G1 X205.682 Y193.469
X205.773 Y193.324
G3 X207.942 Y192.043 I2.236 J1.31
G1 X208.068 Y192.04
X208.235 Y192.031
X208.9 Y191.977
G2 X209.405 Y191.912 I-0.418 J-5.212
G3 X209.658 Y191.873 I0.924 J5.149
G1 X209.719 Y191.865
G3 X210.477 Y191.805 I0.985 J7.614
G1 X210.547 Y191.803
X210.78 Y191.798
X245.608 Y191.537
G3 X246.52 Y191.567 I0.086 J11.534
G1 X246.592 Y191.572
X246.691 Y191.58
G2 X247.932 Y191.502 I0.371 J-4.021
G1 X248.033 Y191.48
X248.242 Y191.437
X248.428 Y191.403
G3 X249.075 Y191.316 I1.178 J6.314
G1 X249.411 Y191.288
X249.53 Y191.27
X249.774 Y191.219
G3 X250.355 Y191.754 I0.1 J0.475
G1 X250.241 Y192.723
G3 X250.163 Y193.226 I-5.626 J-0.626
G2 X250.054 Y194.11 I5.539 J1.126
G1 X250.041 Y194.432
G2 X250.059 Y195.137 I5.069 J0.218
G3 X250.08 Y195.442 I-5.057 J0.488
G1 X250.083 Y195.541
G3 X250.062 Y196.505 I-8.305 J0.299
X250.007 Y197.002 I-8.332 J-0.669
G1 X249.994 Y197.097
G2 X250.007 Y199.524 I8.29 J1.167
G1 X250.008 Y199.532
G3 X249.53 Y200.015 I-0.419 J0.064
G2 X247.123 Y200.032 I-1.146 J8.156
G1 X247.037 Y200.046
G3 X245.996 Y200.144 I-1.351 J-8.717
G1 X245.936 Y200.146
G3 X245.625 Y200.153 I-0.396 J-11.256
G1 X222.215 Y200.33
G3 X219.625 Y200.273 I-0.254 J-47
G2 X218.866 Y200.242 I-1.973 J39.673
G1 X217.248 Y200.2
G2 X215.215 Y200.181 I-1.933 J98.026
G1 X213.757 Y200.191
G2 X211.335 Y201.188 I0.113 J3.715
G3 X210.354 Y202.073 I-27.757 J-29.764
G1 X210.072 Y202.32
G3 X207.449 Y204.486 I-40.27 J-46.095
X206.629 Y205.104 I-19.002 J-24.359
G1 X206.545 Y205.165
G3 X204.845 Y206.331 I-21.85 J-30.016
G1 X203.145 Y207.436
X201.645 Y208.378
X200.962 Y208.79
G3 X199.063 Y209.458 I-2.56 J-4.244
G1 X199.004 Y209.466
G3 X198.564 Y209.506 I-0.68 J-5.047
G2 X197.946 Y209.573 I0.239 J5.084
G1 X197.571 Y209.637
G2 X196.553 Y209.895 I1.113 J6.519
G3 X195.839 Y210.095 I-2.133 J-6.267
G1 X195.766 Y210.111
G3 X194.636 Y210.274 I-1.701 J-7.754
G1 X194.414 Y210.29
G2 X193.912 Y210.338 I0.793 J11.008
G1 X192.894 Y210.458
X192.835 Y210.468
G3 X192.36 Y209.968 I-0.085 J-0.395
G1 X192.68 Y208.773
X192.711 Y208.67
X192.748 Y208.569
X192.84 Y208.337
G3 X194.202 Y206.418 I4.62 J1.835
G1 X194.265 Y206.363
G2 X194.5 Y206.142 I-2.609 J-3.005
G1 X194.711 Y205.925
G2 X195.31 Y204.966 I-1.877 J-1.838
G3 X196.804 Y202.6 I5.981 J2.122
G1 X198.042 Y201.322
X198.121 Y201.245
X198.209 Y201.16
X199.165 Y200.134
X199.943 Y199.278
X200.005 Y199.214
X200.069 Y199.152
X200.143 Y199.081
X200.213 Y199.006
X201.155 Y197.941
G2 X203.914 Y193.938 I-15.185 J-13.421
G1 X204.146 Y193.497
G3 X204.502 Y192.855 I14.201 J7.454
G1 X204.734 Y192.457
X204.824 Y192.291
X204.906 Y192.125
G3 X207.032 Y190.97 I1.882 J0.932
G2 X207.911 Y190.986 I0.521 J-4.472
G1 X208.423 Y190.945
G2 X209.066 Y190.862 I-0.53 J-6.633
G3 X209.388 Y190.813 I1.173 J6.553
G1 X209.465 Y190.803
G3 X210.429 Y190.727 I1.25 J9.696
G1 X210.515 Y190.724
G3 X210.813 Y190.719 I0.391 J13.35
G1 X245.567 Y190.476
G3 X246.705 Y190.513 I0.101 J14.437
G1 X246.795 Y190.519
X246.918 Y190.529
G2 X248.47 Y190.432 I0.465 J-5.025
G1 X248.596 Y190.405
G3 X248.857 Y190.352 I1.739 J7.882
G1 X249.09 Y190.308
G3 X249.898 Y190.2 I1.47 J7.889
G1 X250.319 Y190.165
X250.393 Y190.156
X250.467 Y190.143
X251.089 Y190.013
G3 X251.538 Y190.426 I0.077 J0.367
G1 X251.355 Y191.96
G3 X251.257 Y192.588 I-7.033 J-0.784
G2 X251.121 Y193.693 I6.924 J1.41
G1 X251.104 Y194.095
G2 X251.127 Y194.976 I6.334 J0.274
G3 X251.152 Y195.357 I-6.319 J0.608
G1 X251.157 Y195.481
G3 X251.13 Y196.686 I-10.377 J0.372
X251.061 Y197.306 I-10.41 J-0.839
G1 X251.044 Y197.425
G2 X251.061 Y200.457 I10.353 J1.46
G1 X251.08 Y200.586
G3 X250.585 Y201.087 I-0.434 J0.066
G1 X250.465 Y201.07
G2 X247.457 Y201.091 I-1.434 J10.191
G1 X247.349 Y201.107
G3 X246.049 Y201.23 I-1.685 J-10.888
G1 X245.975 Y201.233
G3 X245.586 Y201.241 I-0.49 J-14.018
G1 X222.214 Y201.407
G3 X219.626 Y201.33 I-0.168 J-38.096
G2 X218.865 Y201.291 I-2.046 J32.137
G1 X218.046 Y201.258
G2 X217.518 Y201.242 I-1.07 J26.807
G1 X217.236 Y201.235
G2 X215.106 Y201.207 I-2.121 J80.135
G1 X214.135 Y201.208
G2 X211.799 Y202.147 I0.047 J3.495
G1 X211.771 Y202.172
G3 X211.291 Y202.603 I-11.62 J-12.462
G1 X210.789 Y203.037
G3 X208.088 Y205.228 I-36.565 J-42.322
X207.251 Y205.839 I-15.76 J-20.715
G1 X207.141 Y205.915
G3 X205.451 Y207.022 I-18.774 J-26.83
G1 X203.683 Y208.109
X201.893 Y209.168
G3 X198.261 Y210.224 I-4.011 J-7.025
G2 X196.591 Y210.54 I0.285 J6.065
G1 X196.413 Y210.601
G3 X193.673 Y211.156 I-3.524 J-10.361
G1 X193.562 Y211.163
G2 X192.949 Y211.222 I0.964 J13.442
G1 X191.706 Y211.368
X191.633 Y211.38
G3 X191.054 Y210.769 I-0.103 J-0.483
G1 X191.446 Y209.309
G3 X191.529 Y209.06 I2.189 J0.589
G1 X191.637 Y208.789
G3 X193.317 Y206.422 I5.702 J2.267
G1 X193.468 Y206.291
X193.598 Y206.182
G2 X194.644 Y204.705 I-2.097 J-2.593
G1 X194.66 Y204.659
G3 X196.419 Y201.784 I7.7 J2.735
G1 X197.487 Y200.611
X197.561 Y200.536
X197.64 Y200.455
X198.569 Y199.399
X199.328 Y198.512
X199.385 Y198.449
X199.445 Y198.389
X199.512 Y198.322
X199.574 Y198.251
X200.829 Y196.743
G2 X202.975 Y193.189 I-10.746 J-8.914
G3 X203.114 Y192.864 I15.204 J6.321
G1 X203.269 Y192.514
G3 X203.575 Y191.868 I12.198 J5.381
G1 X203.787 Y191.449
X203.833 Y191.353
X203.875 Y191.255
G3 X206.111 Y189.928 I1.988 J0.8
G1 X206.184 Y189.936
G2 X207.399 Y189.958 I0.722 J-6.179
G1 X207.947 Y189.915
G2 X208.727 Y189.814 I-0.64 J-8.052
G3 X209.118 Y189.754 I1.421 J7.956
G1 X209.212 Y189.742
G3 X210.382 Y189.65 I1.514 J11.776
G1 X210.484 Y189.647
G3 X210.846 Y189.641 I0.468 J16.113
G1 X245.527 Y189.414
G3 X246.89 Y189.459 I0.113 J17.341
G1 X246.998 Y189.467
X247.146 Y189.479
G2 X249.008 Y189.363 I0.559 J-6.029
G1 X249.159 Y189.33
G3 X249.472 Y189.266 I2.084 J9.455
G1 X249.751 Y189.214
G3 X250.721 Y189.084 I1.76 J9.461
G1 X251.226 Y189.043
X251.315 Y189.032
X251.404 Y189.017
X252.278 Y188.834
G3 X252.703 Y189.282 I0.074 J0.355
G1 X252.688 Y189.36
X252.468 Y191.197
G3 X252.35 Y191.951 I-8.439 J-0.943
G2 X252.187 Y193.276 I8.309 J1.693
G1 X252.166 Y193.759
G2 X252.193 Y194.816 I7.598 J0.33
G3 X252.223 Y195.273 I-7.58 J0.728
G1 X252.229 Y195.421
G3 X252.196 Y196.867 I-12.446 J0.442
X252.114 Y197.61 I-12.484 J-1.009
G1 X252.093 Y197.753
G2 X252.112 Y201.388 I12.409 J1.754
G1 X252.138 Y201.556
G3 X251.555 Y202.145 I-0.507 J0.081
G1 X251.397 Y202.123
G2 X247.79 Y202.147 I-1.722 J12.224
G1 X247.661 Y202.167
G3 X246.103 Y202.314 I-2.017 J-13.055
G1 X246.015 Y202.317
G3 X245.546 Y202.326 I-0.582 J-16.775
G1 X222.215 Y202.482
G3 X219.626 Y202.386 I-0.111 J-32.057
G2 X218.864 Y202.338 I-2.095 J27.029
G1 X218.046 Y202.297
G2 X217.517 Y202.278 I-1.109 J22.541
G1 X217.116 Y202.265
G2 X215.12 Y202.231 I-2.077 J62.643
G1 X214.772 Y202.23
G2 X212.17 Y203.188 I-0.005 J3.997
G1 X211.755 Y203.543
G3 X205.052 Y208.299 I-29.76 J-34.839
G1 X203.329 Y209.287
X202.499 Y209.749
G3 X198.263 Y210.927 I-4.699 J-8.696
G2 X196.289 Y211.301 I0.336 J7.172
G1 X196.079 Y211.372
G3 X192.841 Y212.027 I-4.159 J-12.238
G1 X192.711 Y212.036
G2 X191.987 Y212.105 I1.134 J15.872
G1 X190.516 Y212.277
X190.435 Y212.291
X190.417 Y212.295
G3 X189.853 Y211.622 I-0.104 J-0.486
G1 X189.939 Y211.41
X189.977 Y211.3
X190.003 Y211.186
X190.121 Y210.486
G3 X192.369 Y206.483 I6.699 J1.129
G1 X192.603 Y206.279
X192.756 Y206.151
G2 X193.992 Y204.407 I-2.476 J-3.063
G1 X194.055 Y204.228
G3 X195.917 Y201.083 I8.973 J3.189
G1 X196.932 Y199.901
X197 Y199.829
X197.073 Y199.751
X197.782 Y198.9
G2 X198 Y198.633 I-14.446 J-12.042
G1 X198.713 Y197.745
X198.765 Y197.685
X198.82 Y197.627
X198.881 Y197.564
X198.937 Y197.497
X200.114 Y195.994
G2 X202.131 Y192.254 I-10.012 J-7.814
G3 X202.251 Y191.914 I14.352 J4.86
G1 X202.325 Y191.71
G3 X202.726 Y190.708 I16.818 J6.145
G1 X202.842 Y190.441
X202.94 Y190.229
X203.349 Y189.396
X203.376 Y189.33
X203.394 Y189.262
X203.402 Y189.191
G3 X203.844 Y188.796 I0.418 J0.022
G1 X204.934 Y188.859
X205.046 Y188.869
X205.249 Y188.892
G2 X206.976 Y188.925 I1.029 J-8.786
G1 X207.472 Y188.885
G2 X208.389 Y188.768 I-0.75 J-9.47
G3 X208.849 Y188.697 I1.668 J9.357
G1 X208.959 Y188.683
G3 X210.334 Y188.575 I1.777 J13.853
G1 X210.452 Y188.572
G3 X210.879 Y188.564 I0.543 J18.871
G1 X245.486 Y188.352
G3 X247.075 Y188.405 I0.124 J20.244
G1 X247.201 Y188.414
X247.373 Y188.428
G2 X249.546 Y188.293 I0.654 J-7.033
G1 X249.722 Y188.255
G3 X250.087 Y188.181 I2.428 J11.027
G1 X250.413 Y188.12
G3 X251.544 Y187.969 I2.05 J11.032
G1 X252.132 Y187.921
X252.237 Y187.909
X252.34 Y187.891
X253.415 Y187.666
G3 X253.869 Y188.146 I0.079 J0.38
G1 X253.855 Y188.201
X253.837 Y188.291
X253.58 Y190.435
G3 X253.442 Y191.314 I-9.846 J-1.102
G2 X253.251 Y192.86 I9.694 J1.978
G1 X253.227 Y193.423
G2 X253.259 Y194.655 I8.861 J0.387
G3 X253.294 Y195.189 I-8.84 J0.846
G1 X253.3 Y195.361
G3 X253.261 Y197.047 I-14.512 J0.512
X253.165 Y197.914 I-14.556 J-1.181
G1 X253.141 Y198.081
G2 X253.162 Y202.318 I14.461 J2.048
G1 X253.191 Y202.513
G3 X252.512 Y203.2 I-0.591 J0.094
G1 X252.328 Y203.174
G2 X248.123 Y203.201 I-2.012 J14.254
G1 X247.973 Y203.224
G3 X246.156 Y203.395 I-2.347 J-15.217
G1 X246.055 Y203.398
G3 X245.506 Y203.409 I-0.673 J-19.526
G1 X222.216 Y203.555
G3 X219.626 Y203.441 I-0.072 J-27.695
G2 X218.863 Y203.384 I-2.131 J23.34
G1 X218.463 Y203.36
G2 X217.421 Y203.309 I-3.274 J56.018
G1 X216.319 Y203.265
G2 X211.827 Y204.808 I-0.261 J6.55
G1 X210.93 Y205.566
G3 X209.909 Y206.331 I-7.004 J-8.287
G2 X209.53 Y206.593 I5.988 J9.061
G1 X209.367 Y206.711
G3 X208.495 Y207.308 I-11.911 J-16.461
G1 X208.349 Y207.403
G3 X206.647 Y208.417 I-14.656 J-22.649
G1 X203.847 Y209.945
X203.239 Y210.268
G3 X198.264 Y211.631 I-5.525 J-10.404
G2 X195.987 Y212.062 I0.387 J8.278
G1 X195.745 Y212.144
G3 X192.01 Y212.898 I-4.794 J-14.114
G1 X191.86 Y212.909
G2 X191.025 Y212.987 I1.303 J18.3
G1 X189.329 Y213.186
X189.236 Y213.202
X188.923 Y213.268
G3 X188.453 Y212.708 I-0.086 J-0.405
G1 X188.664 Y212.185
G2 X188.738 Y211.926 I-1.146 J-0.465
G1 X188.874 Y211.119
G3 X191.469 Y206.502 I7.729 J1.306
G1 X191.739 Y206.268
X191.916 Y206.12
G2 X193.341 Y204.108 I-2.855 J-3.533
G1 X193.363 Y204.047
G3 X195.503 Y200.276 I11.761 J4.183
G1 X196.378 Y199.192
X196.44 Y199.122
X196.506 Y199.048
X197.195 Y198.172
G2 X197.406 Y197.898 I-13.863 J-10.898
G1 X198.099 Y196.979
X198.146 Y196.921
X198.196 Y196.867
X198.251 Y196.807
X198.301 Y196.744
X199.392 Y195.262
G2 X201.289 Y191.316 I-9.606 J-7.046
G3 X201.387 Y190.969 I13.933 J3.755
G1 X201.457 Y190.731
G3 X201.794 Y189.72 I15.52 J4.601
G1 X201.898 Y189.438
G3 X201.996 Y189.194 I4.638 J1.714
G1 X202.362 Y188.345
X202.387 Y188.274
X202.402 Y188.2
X202.406 Y188.126
G3 X202.854 Y187.711 I0.411 J-0.005
G1 X204.117 Y187.827
X204.17 Y187.832
X204.496 Y187.871
G2 X207.759 Y187.774 I1.304 J-11.109
G3 X210.876 Y187.49 I3.222 J18.106
G1 X245.445 Y187.29
G3 X247.26 Y187.351 I0.133 J23.148
G1 X247.404 Y187.361
X247.601 Y187.378
G2 X250.084 Y187.224 I0.75 J-8.036
G1 X250.285 Y187.18
G3 X250.702 Y187.096 I2.771 J12.599
G1 X250.792 Y187.079
G3 X252.652 Y186.831 I3.366 J18.139
G1 X253.081 Y186.796
X253.236 Y186.781
X254.684 Y186.631
X254.735 Y186.622
X254.784 Y186.606
X254.831 Y186.583
G3 X255.096 Y186.784 I0.091 J0.155
G1 X255.004 Y187.127
X254.986 Y187.217
X254.728 Y189.352
G3 X254.468 Y190.995 I-18.418 J-2.067
G1 X254.446 Y191.102
G2 X254.286 Y194.11 I9.985 J2.04
G1 X254.3 Y194.253
G3 X254.208 Y198.263 I-16.952 J1.618
G1 X254.188 Y198.409
G2 X254.21 Y203.247 I16.508 J2.342
G1 X254.244 Y203.469
G3 X253.468 Y204.253 I-0.675 J0.108
G1 X253.257 Y204.223
G2 X248.454 Y204.253 I-2.301 J16.282
G1 X248.283 Y204.279
G3 X246.209 Y204.474 I-2.675 J-17.376
G1 X246.094 Y204.478
G3 X245.467 Y204.49 I-0.761 J-22.274
G1 X222.217 Y204.628
G3 X219.626 Y204.494 I-0.042 J-24.398
G2 X218.862 Y204.428 I-2.158 J20.552
G1 X218.463 Y204.401
G2 X217.419 Y204.342 I-3.335 J49.309
G1 X216.897 Y204.318
G2 X212.075 Y205.926 I-0.327 J7.05
G1 X211.595 Y206.323
G3 X210.56 Y207.076 I-6.696 J-8.108
G2 X210.158 Y207.346 I5.667 J8.871
G1 X210.007 Y207.453
G3 X209.117 Y208.043 I-10.68 J-15.136
G1 X208.958 Y208.142
G3 X207.241 Y209.119 I-13.212 J-21.225
G1 X204.365 Y210.603
X203.805 Y210.884
G3 X198.266 Y212.334 I-6.181 J-12.302
G2 X195.684 Y212.823 I0.438 J9.384
G1 X195.411 Y212.915
G3 X191.179 Y213.769 I-5.427 J-15.989
G1 X191.02 Y213.78
G2 X190.053 Y213.872 I1.46 J20.578
G1 X187.458 Y214.17
G3 X187.072 Y213.629 I-0.039 J-0.38
G1 X187.374 Y212.978
G2 X187.478 Y212.644 I-1.189 J-0.552
G1 X187.647 Y211.646
G3 X190.489 Y206.591 I8.465 J1.433
G1 X190.876 Y206.256
G3 X191.076 Y206.089 I4.921 J5.678
G2 X192.691 Y203.811 I-3.233 J-4.003
G1 X192.715 Y203.741
G3 X195.016 Y199.547 I14.157 J5.038
G1 X195.825 Y198.483
X195.881 Y198.417
X195.941 Y198.345
X196.608 Y197.445
G2 X196.813 Y197.163 I-13.63 J-10.098
G1 X197.486 Y196.213
X197.528 Y196.159
X197.573 Y196.108
X197.622 Y196.051
X197.666 Y195.992
X198.667 Y194.544
G2 X200.447 Y190.376 I-9.425 J-6.488
G3 X200.523 Y190.028 I13.813 J2.86
G1 X200.588 Y189.752
G3 X200.864 Y188.732 I14.666 J3.425
G1 X200.955 Y188.437
G3 X201.051 Y188.158 I4.65 J1.436
G1 X201.376 Y187.294
X201.399 Y187.218
X201.41 Y187.14
Y187.061
G3 X201.866 Y186.627 I0.408 J-0.028
G1 X203.696 Y186.844
G2 X207.384 Y186.736 I1.477 J-12.555
G3 X210.906 Y186.415 I3.635 J20.459
G1 X245.405 Y186.228
G3 X247.445 Y186.297 I0.142 J26.052
G1 X247.607 Y186.309
X247.829 Y186.327
G2 X250.622 Y186.155 I0.846 J-9.039
G1 X250.848 Y186.106
G3 X251.317 Y186.011 I3.113 J14.169
G1 X251.418 Y185.992
G3 X253.51 Y185.713 I3.78 J20.397
G1 X253.992 Y185.674
X254.167 Y185.658
X255.795 Y185.489
X255.853 Y185.479
X255.908 Y185.461
X255.96 Y185.435
G3 X256.258 Y185.662 I0.102 J0.174
G1 X256.155 Y186.047
X256.135 Y186.148
X255.843 Y188.55
G3 X255.551 Y190.398 I-20.72 J-2.33
G1 X255.526 Y190.519
G2 X255.345 Y193.902 I11.23 J2.297
G1 X255.361 Y194.063
G3 X255.256 Y198.572 I-19.061 J1.815
G1 X255.233 Y198.737
G2 X255.257 Y204.174 I18.552 J2.636
G1 X255.295 Y204.424
G3 X254.422 Y205.305 I-0.759 J0.121
G1 X254.186 Y205.271
G2 X248.785 Y205.303 I-2.592 J18.308
G1 X248.594 Y205.333
G3 X246.262 Y205.551 I-3.002 J-19.532
G1 X246.133 Y205.555
G3 X245.428 Y205.569 I-0.849 J-25.018
G1 X222.218 Y205.699
G3 X219.626 Y205.547 I-0.02 J-21.821
G2 X218.861 Y205.473 I-2.181 J18.371
G1 X218.463 Y205.442
G2 X217.417 Y205.374 I-3.383 J44.064
G1 X217.202 Y205.363
G2 X212.591 Y206.827 I-0.363 J6.85
G1 X212.202 Y207.134
G3 X211.278 Y207.781 I-6.116 J-7.755
G1 X211.224 Y207.813
G2 X210.772 Y208.108 I5.773 J9.342
G1 X210.647 Y208.194
G3 X209.738 Y208.778 I-9.716 J-14.121
G1 X209.568 Y208.88
G3 X207.833 Y209.822 I-12.029 J-20.087
G1 X204.882 Y211.261
X204.337 Y211.52
G3 X198.267 Y213.038 I-6.807 J-14.324
G2 X195.382 Y213.583 I0.488 J10.489
G1 X194.961 Y213.726
G3 X192.856 Y214.311 I-6.255 J-18.44
G1 X192.385 Y214.413
G3 X191.262 Y214.596 I-2.247 J-10.298
G1 X190.702 Y214.656
G2 X188.937 Y215.102 I0.693 J6.461
G1 X188.632 Y215.226
G3 X187.518 Y215.509 I-1.569 J-3.838
G1 X186.881 Y215.58
G3 X185.462 Y214.197 I-0.141 J-1.274
G1 X185.48 Y213.988
G3 X185.716 Y213.216 I1.909 J0.162
G1 X185.948 Y212.8
G2 X186.371 Y211.7 I-3.632 J-2.028
G1 X186.437 Y211.412
G3 X187.021 Y209.856 I6.071 J1.389
G1 X187.159 Y209.598
G3 X187.774 Y208.62 I7.434 J3.989
G1 X187.885 Y208.467
G3 X189.598 Y206.603 I9.021 J6.573
G1 X190.012 Y206.244
G3 X190.235 Y206.057 I5.498 J6.345
G2 X192.04 Y203.513 I-3.612 J-4.473
G1 X192.067 Y203.436
G3 X194.485 Y198.872 I16.833 J5.994
G1 X195.272 Y197.774
X195.322 Y197.711
X195.375 Y197.643
X196.021 Y196.718
G2 X196.22 Y196.426 I-13.715 J-9.569
G1 X196.873 Y195.447
X196.909 Y195.396
X196.949 Y195.348
X196.992 Y195.295
X197.032 Y195.239
X197.941 Y193.837
G2 X199.604 Y189.433 I-9.409 J-6.069
G3 X199.66 Y189.089 I13.917 J2.094
G1 X199.715 Y188.773
G3 X199.936 Y187.744 I14.115 J2.482
G1 X200.013 Y187.436
G3 X200.104 Y187.122 I4.718 J1.192
G1 X200.391 Y186.242
X200.41 Y186.162
X200.418 Y186.079
X200.415 Y185.997
G3 X200.88 Y185.543 I0.408 J-0.048
G1 X202.424 Y185.761
X202.476 Y185.768
X202.895 Y185.817
G2 X207.008 Y185.697 I1.65 J-14.002
G3 X210.936 Y185.341 I4.047 J22.814
G1 X245.364 Y185.165
G3 X247.63 Y185.242 I0.148 J28.958
G1 X247.811 Y185.255
X248.056 Y185.276
G2 X251.161 Y185.085 I0.942 J-10.042
G1 X251.411 Y185.03
G3 X251.932 Y184.925 I3.454 J15.739
G1 X252.045 Y184.904
G3 X254.369 Y184.595 I4.194 J22.656
G1 X254.904 Y184.552
X255.098 Y184.534
X256.907 Y184.347
X256.97 Y184.336
X257.032 Y184.315
X257.09 Y184.287
G3 X257.42 Y184.539 I0.113 J0.194
G1 X257.305 Y184.967
X257.283 Y185.08
X256.959 Y187.749
G3 X256.634 Y189.802 I-23.024 J-2.594
G1 X256.606 Y189.936
G2 X256.404 Y193.694 I12.474 J2.554
G1 X256.421 Y193.873
G3 X256.304 Y198.881 I-21.169 J2.01
G1 X256.278 Y199.064
G2 X256.304 Y205.101 I20.593 J2.932
G1 X256.346 Y205.377
G3 X255.376 Y206.356 I-0.843 J0.134
G1 X255.113 Y206.319
G2 X249.116 Y206.353 I-2.883 J20.334
G1 X248.904 Y206.386
G3 X246.315 Y206.627 I-3.328 J-21.686
G1 X246.173 Y206.632
G3 X245.388 Y206.647 I-0.936 J-27.761
G1 X222.22 Y206.77
G3 X219.626 Y206.599 I-0.002 J-19.751
G2 X218.861 Y206.516 I-2.2 J16.621
G1 X218.463 Y206.482
G2 X217.395 Y206.404 I-3.42 J39.812
G1 X217.273 Y206.397
G2 X213.243 Y207.614 I-0.359 J6.095
G1 X212.816 Y207.935
G3 X211.988 Y208.492 I-5.654 J-7.512
G1 X211.89 Y208.55
G2 X211.385 Y208.871 I5.922 J9.903
G1 X211.288 Y208.936
G3 X210.36 Y209.514 I-8.942 J-13.331
G1 X210.18 Y209.617
G3 X208.424 Y210.527 I-11.043 J-19.166
G1 X205.4 Y211.919
X204.829 Y212.176
G3 X198.269 Y213.742 I-7.396 J-16.465
G2 X195.08 Y214.344 I0.538 J11.594
G1 X194.11 Y214.672
G3 X192.822 Y215.085 I-12.833 J-37.85
G1 X192.071 Y215.312
G3 X190.88 Y215.626 I-5.076 J-16.824
G1 X190.543 Y215.702
G2 X189.061 Y216.139 I2.684 J11.838
G1 X188.505 Y216.342
G3 X187.666 Y216.571 I-1.766 J-4.834
G1 X187.118 Y216.671
G3 X185.664 Y216.565 I-0.523 J-2.854
G1 X184.611 Y216.208
G3 X184.025 Y215.291 I0.279 J-0.823
G1 X184.032 Y215.231
G3 X184.346 Y213.779 I7.059 J0.768
G1 X184.391 Y213.643
G3 X184.866 Y212.58 I5.415 J1.782
G2 X185.488 Y210.979 I-4.919 J-2.833
G1 X185.496 Y210.943
G3 X187.101 Y208.064 I5.63 J1.251
G1 X187.441 Y207.733
G3 X187.825 Y207.38 I6.202 J6.364
G1 X189.149 Y206.233
G3 X189.396 Y206.026 I6.074 J7.012
G2 X191.39 Y203.215 I-3.99 J-4.943
G1 X191.42 Y203.13
G3 X193.9 Y198.277 I19.795 J7.053
G1 X194.719 Y197.065
X194.763 Y197.006
X194.811 Y196.942
X195.434 Y195.992
G2 X195.629 Y195.689 I-14.158 J-9.293
G1 X196.26 Y194.681
X196.326 Y194.59
X196.364 Y194.54
X196.398 Y194.488
X197.215 Y193.141
G2 X198.761 Y188.489 I-9.523 J-5.747
G3 X198.798 Y188.154 I14.202 J1.404
G1 X198.842 Y187.795
G3 X199.009 Y186.757 I13.784 J1.692
G1 X199.074 Y186.435
G3 X199.157 Y186.085 I4.829 J0.968
G1 X199.406 Y185.19
G2 X199.421 Y184.935 I-0.576 J-0.16
G3 X199.896 Y184.459 I0.41 J-0.066
G1 X201.556 Y184.725
X201.654 Y184.739
X202.164 Y184.799
G2 X206.565 Y184.672 I1.769 J-14.985
G1 X206.633 Y184.66
G3 X210.967 Y184.268 I4.458 J25.166
G1 X245.323 Y184.102
G3 X247.815 Y184.187 I0.154 J31.864
G1 X248.014 Y184.202
G3 X248.284 Y184.225 I-0.979 J13.313
G2 X251.699 Y184.016 I1.039 J-11.045
G1 X251.973 Y183.956
G3 X252.547 Y183.84 I3.795 J17.309
G1 X252.671 Y183.817
G3 X255.227 Y183.478 I4.606 J24.912
G1 X255.815 Y183.43
X256.029 Y183.41
X258.017 Y183.205
X258.088 Y183.193
X258.155 Y183.171
X258.219 Y183.139
G3 X258.582 Y183.416 I0.125 J0.213
G1 X258.456 Y183.888
X258.441 Y183.95
X258.431 Y184.012
X258.074 Y186.948
G3 X257.716 Y189.206 I-25.327 J-2.86
G1 X257.685 Y189.354
G2 X257.462 Y193.487 I13.718 J2.812
G1 X257.481 Y193.683
G3 X257.351 Y199.189 I-23.276 J2.205
G1 X257.322 Y199.391
G2 X257.349 Y206.027 I22.631 J3.227
G1 X257.395 Y206.33
G3 X256.328 Y207.406 I-0.927 J0.147
G1 X256.04 Y207.365
G2 X249.446 Y207.401 I-3.174 J22.358
G1 X249.213 Y207.437
G3 X246.368 Y207.701 I-3.652 J-23.838
G1 X246.212 Y207.707
G3 X245.349 Y207.723 I-1.021 J-30.501
G1 X222.221 Y207.84
G3 X219.624 Y207.651 I0.012 J-18.051
G2 X218.86 Y207.559 I-2.213 J15.153
G1 X218.12 Y207.488
G2 X217.42 Y207.437 I-1.541 J16.224
X213.741 Y208.512 I-0.3 J5.805
G1 X213.434 Y208.731
G3 X212.692 Y209.21 I-5.391 J-7.549
G1 X212.564 Y209.284
G2 X211.991 Y209.637 I6.215 J10.73
G1 X211.929 Y209.677
G3 X210.981 Y210.249 I-8.291 J-12.677
G1 X210.793 Y210.353
G3 X209.015 Y211.232 I-10.2 J-18.401
G1 X205.918 Y212.578
X205.273 Y212.852
G3 X198.271 Y214.445 I-7.942 J-18.715
G2 X194.471 Y215.24 I0.563 J12.171
G1 X193.392 Y215.654
G2 X192.958 Y215.827 I6.101 J15.908
G1 X192.722 Y215.925
G3 X190.165 Y216.715 I-5.475 J-13.183
G2 X189.415 Y216.893 I2.926 J14.011
G1 X188.417 Y217.158
G3 X187.769 Y217.312 I-3.118 J-11.734
G1 X187.328 Y217.403
G3 X183.593 Y217.212 I-1.503 J-7.233
G1 X183.395 Y217.15
G3 X182.639 Y215.929 I0.333 J-1.05
X183.62 Y213.32 I6.791 J1.065
G1 X183.805 Y213.027
G2 X184.109 Y212.503 I-6.411 J-4.054
G1 X184.205 Y212.319
G2 X184.804 Y210.602 I-5.436 J-2.858
G1 X184.806 Y210.591
G3 X186.333 Y207.68 I5.535 J1.047
X187.155 Y206.987 I4.178 J4.127
G1 X188.094 Y206.334
G2 X190.774 Y202.825 I-4.135 J-5.938
G1 X190.788 Y202.788
G3 X191.429 Y201.165 I24.442 J8.713
X193.244 Y197.803 I20.536 J8.918
G1 X194.166 Y196.357
X194.205 Y196.302
X194.247 Y196.241
X194.846 Y195.27
G2 X195.04 Y194.948 I-15.123 J-9.329
G1 X195.647 Y193.916
X195.703 Y193.832
X195.766 Y193.737
X196.484 Y192.47
G2 X197.917 Y187.553 I-9.694 J-5.492
G1 X197.918 Y187.543
G3 X197.938 Y187.221 I14.641 J0.757
G1 X197.968 Y186.817
G3 X198.085 Y185.771 I13.619 J1.005
G1 X198.136 Y185.437
G3 X198.211 Y185.049 I4.976 J0.756
G1 X198.423 Y184.138
G2 X198.427 Y183.874 I-0.609 J-0.142
G3 X198.915 Y183.376 I0.414 J-0.082
G1 X200.689 Y183.69
X200.83 Y183.711
X201.514 Y183.791
G2 X206.043 Y183.662 I1.824 J-15.421
G1 X206.258 Y183.624
G3 X210.997 Y183.197 I4.867 J27.515
G1 X245.283 Y183.039
G3 X248 Y183.133 I0.159 J34.769
G1 X248.217 Y183.149
G3 X248.512 Y183.174 I-1.071 J14.521
G2 X252.237 Y182.947 I1.135 J-12.047
G1 X252.536 Y182.881
G3 X253.162 Y182.755 I4.136 J18.877
G1 X253.963 Y182.607
G3 X255.408 Y182.404 I3.073 J16.637
G1 X255.829 Y182.364
G2 X257.679 Y182.033 I-1.122 J-11.609
G1 X258.442 Y181.832
X258.551 Y181.807
X258.662 Y181.792
G3 X259.841 Y182.918 I0.11 J1.065
G1 X259.819 Y183.293
G3 X259.746 Y183.714 I-1.876 J-0.108
G1 X259.513 Y184.512
G2 X259.204 Y186.037 I8.805 J2.579
G1 X259.131 Y186.666
G3 X258.902 Y188.099 I-16.535 J-1.912
G1 X258.763 Y188.772
G2 X258.52 Y193.279 I14.962 J3.069
G1 X258.54 Y193.494
G3 X258.397 Y199.497 I-25.38 J2.399
G1 X258.366 Y199.718
G2 X258.393 Y206.951 I24.666 J3.522
G1 X258.443 Y207.282
G3 X257.28 Y208.455 I-1.011 J0.16
G1 X256.965 Y208.41
G2 X249.775 Y208.448 I-3.465 J24.381
G1 X249.523 Y208.487
G3 X246.421 Y208.775 I-3.976 J-25.987
G1 X246.251 Y208.78
G3 X245.31 Y208.798 I-1.106 J-33.239
G1 X222.23 Y208.91
G3 X219.609 Y208.705 I0.02 J-17.131
G2 X218.863 Y208.608 I-2.228 J14.273
G1 X217.923 Y208.511
G2 X217.634 Y208.488 I-0.662 J6.415
G1 X217.601 Y208.486
G2 X214.297 Y209.377 I-0.313 J5.414
G1 X213.953 Y209.604
G3 X213.512 Y209.873 I-3.861 J-5.838
G1 X213.264 Y210.011
G2 X212.579 Y210.42 I7.18 J12.821
G3 X211.598 Y210.99 I-7.863 J-12.41
G1 X211.401 Y211.095
G3 X209.612 Y211.935 I-9.596 J-18.097
G1 X206.436 Y213.236
X205.461 Y213.625
G3 X198.245 Y215.15 I-8.302 J-21.438
G1 X198.125 Y215.156
G2 X193.739 Y216.309 I0.514 J10.87
G3 X190.179 Y217.454 I-5.422 J-10.753
G1 X188.623 Y217.71
G2 X187.57 Y217.902 I5.928 J35.506
G1 X186.859 Y218.042
G3 X185.891 Y218.2 I-2.816 J-14.244
G1 X185.26 Y218.281
G3 X184.056 Y218.332 I-0.899 J-7.003
G1 X183.334 Y218.3
G3 X182.575 Y218.146 I0.107 J-2.466
G1 X181.922 Y217.901
G3 X181.25 Y216.709 I0.372 J-0.995
X182.342 Y214.096 I6.712 J1.27
G1 X182.522 Y213.836
G3 X182.764 Y213.499 I9.623 J6.649
G1 X183.127 Y213.011
G2 X184.326 Y210.239 I-5.273 J-3.927
G1 X184.332 Y210.204
G3 X186.92 Y206.44 I5.446 J0.972
G1 X187.138 Y206.308
G2 X190.047 Y202.749 I-3.534 J-5.857
G1 X190.129 Y202.521
G3 X192.659 Y197.241 I26.482 J9.444
G1 X193.614 Y195.65
X193.647 Y195.599
X193.684 Y195.541
X194.255 Y194.556
G2 X194.457 Y194.199 I-17.155 J-9.933
G1 X194.863 Y193.462
G2 X195.817 Y191.695 I-95.929 J-52.924
X197.073 Y186.717 I-9.6 J-5.069
G1 X197.074 Y186.596
G3 X197.079 Y186.291 I15.217 J0.128
G1 X197.089 Y185.953
G3 X197.175 Y184.673 I16.518 J0.47
G1 X197.207 Y184.379
G3 X197.248 Y184.072 I5.665 J0.604
G1 X197.377 Y183.272
G2 X197.373 Y182.914 I-1.021 J-0.165
G1 X197.368 Y182.888
G3 X198.228 Y182.129 I0.655 J-0.124
G1 X199.444 Y182.52
G2 X200.406 Y182.73 I1.561 J-4.846
G1 X201.361 Y182.843
G2 X205.328 Y182.69 I1.497 J-12.637
G1 X205.365 Y182.682
G3 X205.636 Y182.632 I2.622 J13.251
G1 X205.883 Y182.588
G3 X211.028 Y182.126 I5.276 J29.864
G1 X245.242 Y181.977
G3 X248.185 Y182.079 I0.164 J37.674
G1 X248.42 Y182.096
G3 X248.739 Y182.123 I-1.164 J15.73
G1 X248.762 Y182.125
G2 X252.753 Y181.883 I1.219 J-12.906
X254.104 Y181.525 I-3.44 J-15.714
G1 X254.125 Y181.518
G3 X255.87 Y181.076 I4.942 J15.838
G1 X256.411 Y180.97
G2 X257.12 Y180.804 I-1.93 J-9.825
G1 X258.149 Y180.523
G3 X258.969 Y180.425 I0.737 J2.698
G1 X259.035 Y180.427
G3 X261.162 Y182.54 I-0.065 J2.193
G1 X261.177 Y182.958
G3 X261.035 Y184.033 I-3.252 J0.118
G1 X260.742 Y184.987
G2 X260.59 Y185.539 I8.84 J2.72
G1 X260.342 Y186.568
G3 X260.109 Y187.456 I-21.68 J-5.227
G1 X260.086 Y187.536
G2 X259.577 Y193.071 I14.463 J4.123
G1 X259.598 Y193.304
G3 X259.443 Y199.805 I-27.484 J2.593
G1 X259.4 Y200.103
G3 X259.253 Y200.972 I-17.407 J-2.489
G1 X259.188 Y201.308
G2 X259.031 Y204.856 I11.828 J2.302
G1 X259.056 Y205.096
G2 X259.354 Y206.665 I9.447 J-0.982
G1 X259.588 Y207.505
G3 X259.664 Y207.995 I-2.034 J0.567
G1 X259.666 Y208.059
G3 X258 Y209.681 I-1.622 J0
X257.5 Y209.607 I0.057 J-2.104
G1 X256.682 Y209.382
G2 X255.133 Y209.099 I-2.42 J8.833
G1 X254.878 Y209.074
G2 X251.356 Y209.262 I-1.133 J11.856
G1 X251.003 Y209.334
G3 X250.132 Y209.49 I-3.53 J-17.246
G1 X249.832 Y209.536
G3 X246.474 Y209.847 I-4.299 J-28.134
G1 X246.29 Y209.853
G3 X245.271 Y209.872 I-1.191 J-35.976
G1 X222.238 Y209.979
G3 X219.594 Y209.767 I0.025 J-16.933
G2 X214.078 Y210.696 I-1.38 J8.645
G1 X213.91 Y210.787
G2 X213.236 Y211.17 I7.049 J13.149
G3 X212.219 Y211.733 I-7.72 J-12.761
G1 X212.014 Y211.836
G3 X210.205 Y212.64 I-9.341 J-18.57
G1 X206.954 Y213.895
X205.773 Y214.337
G3 X198.246 Y215.854 I-8.724 J-23.85
G1 X197.984 Y215.866
G2 X194 Y216.938 I0.454 J9.635
G3 X190.303 Y218.036 I-4.715 J-9.097
G1 X190.116 Y218.055
G2 X189.462 Y218.138 I1.262 J12.63
G1 X188.707 Y218.253
G2 X187.486 Y218.46 I5.765 J37.75
G3 X185.259 Y218.806 I-6.985 J-37.536
G1 X183.566 Y219.023
G3 X182.314 Y219.066 I-0.854 J-6.602
G1 X181.541 Y219.02
G3 X180.93 Y218.881 I0.115 J-1.921
X179.953 Y217.058 I0.612 J-1.502
G1 X179.982 Y216.911
G3 X180.185 Y216.341 I2.101 J0.425
G1 X180.444 Y215.847
G3 X181.004 Y214.969 I5.392 J2.825
G1 X182.641 Y212.781
G2 X183.852 Y210.001 I-5.529 J-4.063
G3 X184.136 Y208.95 I7.114 J1.355
G1 X184.141 Y208.934
G3 X186.337 Y206.125 I5.27 J1.856
G1 X187.01 Y205.678
G2 X189.352 Y202.592 I-3.394 J-5.007
G1 X189.409 Y202.427
X189.486 Y202.212
G3 X190.744 Y199.195 I29.406 J10.491
X191.73 Y197.301 I29.433 J14.125
G1 X193.063 Y194.942
X193.089 Y194.898
X193.123 Y194.84
X193.648 Y193.873
G2 X193.89 Y193.417 I-22.8 J-12.375
G1 X194.009 Y193.187
G2 X195.147 Y190.928 I-106.943 J-55.32
G1 X195.417 Y190.376
G2 X196.169 Y186.294 I-6.949 J-3.391
G1 X196.15 Y186.079
G2 X196.05 Y185.423 I-5.355 J0.48
G3 X195.966 Y183.735 I5.084 J-1.1
G1 X196.031 Y183.165
X196.043 Y183.028
X196.104 Y182.171
G3 X197.157 Y180.821 I1.53 J0.108
X198.39 Y180.903 I0.515 J1.575
G1 X199.195 Y181.29
G2 X199.984 Y181.574 I1.762 J-3.661
G1 X200.453 Y181.69
G2 X202.304 Y181.94 I2.084 J-8.456
G1 X202.348 Y181.941
G2 X204.359 Y181.772 I0.245 J-9.109
G1 X204.949 Y181.655
G3 X205.243 Y181.6 I2.825 J14.295
G1 X205.509 Y181.553
G3 X211.058 Y181.056 I5.684 J32.211
G1 X245.202 Y180.915
G3 X248.37 Y181.026 I0.167 J40.578
G1 X248.641 Y181.046
G3 X248.949 Y181.072 I-1.125 J15.172
G1 X248.984 Y181.075
G2 X253.415 Y180.548 I0.996 J-10.525
G1 X253.758 Y180.433
G3 X256.257 Y179.761 I6.645 J19.746
G1 X256.496 Y179.713
G2 X257.04 Y179.588 I-2.211 J-10.889
G1 X257.987 Y179.346
G3 X259.137 Y179.219 I1.024 J4.001
G1 X260.55 Y179.262
G3 X262.324 Y181.027 I-0.056 J1.83
G1 X262.387 Y182.774
G3 X262.209 Y184.212 I-4.561 J0.164
G1 X261.958 Y185.075
G2 X261.857 Y185.449 I9.831 J2.857
G1 X261.656 Y186.252
G3 X261.2 Y187.754 I-15.262 J-3.815
G2 X260.6 Y192.513 I10.375 J3.726
G1 X260.656 Y193.114
G3 X260.487 Y200.113 I-29.589 J2.786
G1 X260.435 Y200.479
G3 X260.292 Y201.324 I-16.913 J-2.422
G1 X260.182 Y201.887
G2 X260.227 Y205.469 I8.639 J1.683
G1 X260.259 Y205.61
G2 X260.5 Y206.447 I6.702 J-1.481
G1 X260.742 Y207.122
G3 X260.928 Y208.407 I-3.064 J1.099
X258.408 Y210.949 I-2.697 J-0.154
G1 X258.191 Y210.956
G3 X257.122 Y210.776 I0 J-3.26
G1 X256.449 Y210.542
G2 X255.609 Y210.309 I-2.249 J6.476
G1 X255.465 Y210.279
G2 X251.892 Y210.268 I-1.814 J8.637
G1 X251.325 Y210.383
G3 X250.488 Y210.532 I-3.419 J-16.8
G1 X250.13 Y210.586
G3 X246.533 Y210.918 I-4.603 J-30.213
G1 X246.329 Y210.925
G3 X245.232 Y210.946 I-1.274 J-38.712
G1 X222.245 Y211.047
G3 X219.579 Y210.838 I0.026 J-17.404
G2 X218.867 Y210.745 I-2.245 J14.345
G1 X218.476 Y210.703
G2 X215.023 Y211.339 I-0.653 J6.149
G1 X214.563 Y211.573
G2 X213.902 Y211.928 I7.202 J14.182
G3 X212.84 Y212.48 I-7.861 J-13.823
G1 X212.633 Y212.578
G3 X210.794 Y213.348 I-9.398 J-19.87
G1 X206.653 Y214.845
X206.147 Y215.02
G3 X198.221 Y216.559 I-9.396 J-27.214
G1 X198.027 Y216.569
G2 X194.24 Y217.538 I0.504 J9.86
G3 X190.448 Y218.591 I-4.813 J-9.972
G1 X190.183 Y218.616
G2 X189.395 Y218.709 I1.47 J15.852
G1 X188.707 Y218.807
G2 X187.486 Y219.001 I5.747 J40.129
G3 X185.26 Y219.327 I-6.968 J-39.928
G1 X181.933 Y219.746
G3 X180.513 Y219.773 I-0.828 J-6.337
G1 X179.761 Y219.702
G3 X179.273 Y219.578 I0.149 J-1.598
G1 X179.26 Y219.572
G3 X178.494 Y218.044 I0.527 J-1.22
G1 X178.578 Y217.692
G3 X178.835 Y217.072 I2.041 J0.486
G1 X179.182 Y216.513
G3 X179.614 Y215.901 I5.278 J3.27
G1 X180.123 Y215.266
G2 X180.352 Y214.974 I-15.389 J-12.326
G1 X180.576 Y214.684
G2 X181.394 Y213.596 I-46.539 J-35.863
G1 X182.164 Y212.539
G2 X183.376 Y209.778 I-5.76 J-4.175
G3 X183.655 Y208.77 I7.379 J1.497
G1 X183.669 Y208.73
G3 X185.725 Y205.898 I5.796 J2.045
G1 X185.896 Y205.767
G3 X186.334 Y205.454 I4.577 J5.967
G2 X188.658 Y202.434 I-3.213 J-4.876
G1 X188.699 Y202.311
X188.757 Y202.142
X188.839 Y201.912
G3 X190.194 Y198.664 I31.66 J11.3
G1 X190.231 Y198.587
G3 X191.195 Y196.709 I35.975 J17.27
G1 X192.547 Y194.169
X192.943 Y193.39
G2 X193.419 Y192.432 I-50.675 J-25.742
G1 X193.676 Y191.9
G2 X194.036 Y191.135 I-31.61 J-15.316
G1 X194.902 Y189.226
G2 X195.046 Y186.159 I-3.791 J-1.715
G3 X194.845 Y185.325 I4.296 J-1.477
G1 X194.805 Y185.047
G3 X194.766 Y183.248 I7.417 J-1.061
G1 X194.922 Y181.823
G3 X196.808 Y179.635 I2.538 J0.281
X198.712 Y179.809 I0.714 J2.701
G1 X199.23 Y180.052
G2 X199.944 Y180.318 I1.935 J-4.11
G1 X200.449 Y180.459
G2 X204.49 Y180.634 I2.396 J-8.591
G1 X205.32 Y180.485
G3 X211.103 Y179.986 I5.922 J34.879
G1 X245.124 Y179.852
G3 X248.516 Y179.966 I0.178 J45.427
G2 X253.651 Y179.321 I0.941 J-13.272
G1 X253.694 Y179.307
G3 X256.328 Y178.625 I6.361 J19.149
G1 X256.6 Y178.574
G2 X256.94 Y178.506 I-3.022 J-16.081
G1 X258.011 Y178.281
G3 X259.108 Y178.165 I1.127 J5.369
G1 X262.076 Y178.148
G3 X263.442 Y179.502 I0.007 J1.359
G1 X263.454 Y182.791
G3 X263.287 Y184.204 I-5.885 J0.021
G1 X262.83 Y186.11
G3 X262.302 Y187.887 I-15.515 J-3.646
G2 X261.688 Y192.616 I10.354 J3.747
G1 X261.73 Y193.078
G3 X261.574 Y200.137 I-31.674 J2.834
G1 X261.52 Y200.538
G3 X261.404 Y201.277 I-16.225 J-2.175
G1 X261.32 Y201.742
G2 X261.438 Y205.538 I8.957 J1.62
G1 X261.475 Y205.688
G2 X261.683 Y206.374 I6.677 J-1.644
G1 X261.853 Y206.848
G3 X262.103 Y208.697 I-4.175 J1.504
X258.699 Y212.129 I-3.725 J-0.29
G1 X258.694
G3 X256.847 Y211.897 I-0.382 J-4.429
G1 X256.373 Y211.732
G2 X255.689 Y211.532 I-2.27 J6.503
G1 X255.54 Y211.497
G2 X251.742 Y211.412 I-2.1 J8.875
G1 X251.276 Y211.5
G3 X250.538 Y211.622 I-3.055 J-16.118
G1 X250.135 Y211.68
G3 X246.549 Y211.991 I-4.614 J-32.348
G1 X246.344 Y211.998
G3 X245.217 Y212.018 I-1.311 J-41.666
G1 X222.249 Y212.116
G3 X219.568 Y211.918 I0.023 J-18.568
G2 X218.869 Y211.831 I-2.251 J15.29
G1 X218.48 Y211.792
G2 X215.224 Y212.346 I-0.623 J6.18
G1 X215 Y212.451
G2 X214.297 Y212.795 I9.464 J20.226
G3 X213.063 Y213.379 I-10.165 J-19.878
G1 X212.93 Y213.437
G3 X210.882 Y214.234 I-10.818 J-24.784
G1 X206.801 Y215.614
X205.785 Y215.942
G3 X198.502 Y217.251 I-8.466 J-26.196
G1 X198.337 Y217.258
G2 X194.38 Y218.153 I0.488 J11.353
G3 X190.277 Y219.175 I-5.264 J-12.381
G1 X190.192 Y219.183
G2 X189.386 Y219.271 I1.502 J17.346
G1 X188.708 Y219.362
G2 X187.485 Y219.544 I5.739 J42.916
G3 X185.262 Y219.847 I-6.961 J-42.728
G1 X182.942 Y220.116
X180.132 Y220.463
G3 X178.882 Y220.461 I-0.616 J-5.26
G1 X178.073 Y220.363
G3 X177.05 Y218.797 I0.146 J-1.213
G1 X177.146 Y218.477
G3 X177.404 Y217.94 I1.862 J0.563
G1 X177.849 Y217.29
G3 X178.326 Y216.671 I5.841 J4.002
G1 X178.712 Y216.223
G2 X179.201 Y215.63 I-13.476 J-11.61
G1 X179.543 Y215.196
G2 X180.058 Y214.529 I-34.025 J-26.841
G1 X180.142 Y214.418
G2 X180.934 Y213.349 I-45.946 J-34.817
G1 X181.686 Y212.301
G2 X182.901 Y209.554 I-6.033 J-4.311
G1 X182.908 Y209.518
G3 X185.793 Y205.191 I6.935 J1.496
G2 X187.953 Y202.308 I-3.269 J-4.701
G1 X188.118 Y201.825
G3 X189.45 Y198.534 I34.405 J12.009
G1 X189.475 Y198.48
G3 X190.396 Y196.606 I39.774 J18.4
G1 X190.704 Y196.014
G2 X191.173 Y195.08 I-40.844 J-21.072
G1 X191.636 Y194.148
X191.653 Y194.115
X191.681 Y194.06
X192.096 Y193.201
G2 X193.232 Y190.698 I-52.195 J-25.209
G1 X193.844 Y189.251
G2 X193.918 Y186.212 I-3.834 J-1.614
G3 X193.685 Y185.273 I4.282 J-1.562
G1 X193.647 Y184.993
G3 X193.613 Y183.31 I7.133 J-0.983
G1 X193.788 Y181.599
G3 X196.592 Y178.512 I3.498 J0.36
X198.92 Y178.749 I0.781 J3.878
G1 X199.272 Y178.899
G2 X199.896 Y179.119 I2.091 J-4.922
G1 X200.356 Y179.251
G2 X204.69 Y179.485 I2.681 J-9.393
G1 X205.265 Y179.391
G3 X211.155 Y178.917 I6.035 J38.136
G1 X245.063 Y178.79
G3 X248.58 Y178.899 I0.189 J50.578
G1 X249.073 Y178.934
G2 X253.182 Y178.387 I0.763 J-9.976
G3 X253.735 Y178.205 I4.246 J11.961
G1 X253.833 Y178.175
G3 X256.182 Y177.637 I4.994 J16.419
G1 X256.497 Y177.588
G2 X257.045 Y177.495 I-3.348 J-21.464
G1 X258.09 Y177.305
G3 X259.026 Y177.2 I1.218 J6.683
G1 X263.531 Y177.013
G3 X264.578 Y178.048 I0.042 J1.005
G1 X264.43 Y182.87
G3 X264.279 Y184.131 I-7.166 J-0.22
G1 X263.903 Y185.952
G3 X263.341 Y188.04 I-16.232 J-3.245
G2 X262.772 Y192.666 I10.806 J3.678
G1 X262.807 Y193.085
G3 X262.663 Y200.132 I-33.986 J2.833
G1 X262.609 Y200.569
G3 X262.51 Y201.247 I-16.184 J-2.015
G1 X262.453 Y201.588
G2 X262.616 Y205.629 I9.74 J1.631
G1 X262.647 Y205.754
G2 X262.811 Y206.312 I7.445 J-1.874
G1 X262.933 Y206.679
G3 X263.209 Y208.868 I-5.354 J1.788
G1 Y208.876
G3 X258.878 Y213.239 I-4.702 J-0.335
G1 X258.861 Y213.241
G3 X256.68 Y212.985 I-0.445 J-5.64
G1 X256.311 Y212.866
G2 X255.756 Y212.71 I-2.366 J7.341
G1 X255.631 Y212.68
G2 X251.589 Y212.552 I-2.327 J9.634
G1 X251.247 Y212.612
G3 X250.568 Y212.717 I-2.834 J-16.131
G1 X250.14 Y212.774
G3 X246.546 Y213.064 I-4.628 J-34.878
G1 X246.344 Y213.07
G3 X245.217 Y213.089 I-1.318 J-44.831
G1 X222.247 Y213.184
G3 X219.568 Y213.001 I0.02 J-19.946
G2 X218.869 Y212.92 I-2.243 J16.427
G1 X218.479 Y212.884
G2 X215.197 Y213.409 I-0.621 J6.641
G1 X214.999 Y213.495
G2 X214.297 Y213.814 I9.194 J21.128
G3 X213.065 Y214.357 I-9.894 J-20.804
G1 X212.927 Y214.413
G3 X210.889 Y215.15 I-10.57 J-26.049
G1 X206.801 Y216.434
X205.719 Y216.759
G3 X198.594 Y217.952 I-8.277 J-27.561
G1 X198.452 Y217.958
G2 X194.446 Y218.783 I0.504 J12.592
G1 X194.432 Y218.788
G3 X190.191 Y219.75 I-5.466 J-14.258
G2 X189.387 Y219.833 I1.499 J18.621
G1 X188.707 Y219.917
G2 X187.486 Y220.086 I5.717 J46.006
G3 X185.262 Y220.367 I-6.937 J-45.832
G1 X182.942 Y220.617
X178.602 Y221.115
G3 X176.982 Y221.072 I-0.653 J-5.976
G1 X176.309 Y220.963
G3 X175.541 Y219.703 I0.156 J-0.959
G1 X175.689 Y219.246
G3 X176.009 Y218.653 I1.781 J0.579
G1 X176.589 Y217.93
G3 X176.819 Y217.657 I5.475 J4.39
G1 X177.37 Y217.038
G2 X177.965 Y216.353 I-29.626 J-26.336
G1 X177.969 Y216.348
G2 X179.091 Y214.965 I-30.675 J-26.038
G1 X179.121 Y214.927
G2 X179.608 Y214.286 I-33.535 J-26.003
G1 X179.697 Y214.167
G2 X180.483 Y213.087 I-46.592 J-34.731
G1 X181.206 Y212.065
G2 X182.426 Y209.328 I-6.35 J-4.473
G1 X182.432 Y209.305
G3 X185.191 Y205.012 I7.334 J1.682
G2 X187.283 Y202.081 I-3.732 J-4.874
G1 X187.392 Y201.756
G3 X188.692 Y198.432 I37.848 J12.893
G1 X188.702 Y198.409
G3 X189.598 Y196.502 I45.072 J19.999
G1 X189.892 Y195.909
G2 X190.287 Y195.073 I-24.21 J-11.975
G1 X190.329 Y194.982
G3 X190.466 Y194.683 I15.176 J6.794
G1 X190.745 Y194.092
X190.763 Y194.056
X190.785 Y194.01
X191.108 Y193.304
G2 X192.37 Y190.348 I-56.316 J-25.774
G1 X192.738 Y189.407
G2 X192.788 Y186.125 I-4.381 J-1.708
G3 X192.488 Y184.512 I4.927 J-1.75
G1 Y184.504
G3 X192.514 Y183.811 I5.469 J-0.144
G1 X192.577 Y183.188
X192.591 Y183.026
X192.713 Y181.484
G3 X196.484 Y177.444 I4.425 J0.351
X199.034 Y177.711 I0.758 J5.087
G1 X199.298 Y177.809
G2 X199.867 Y177.99 I2.219 J-5.969
G1 X200.304 Y178.108
G2 X204.851 Y178.35 I2.843 J-10.593
G1 X205.223 Y178.294
G3 X211.194 Y177.848 I6.121 J41.725
G1 X245.019 Y177.727
G3 X248.626 Y177.831 I0.2 J56.009
G1 X249.083 Y177.86
G2 X253.119 Y177.356 I0.728 J-10.578
G3 X253.801 Y177.152 I4.216 J12.836
G1 X253.92 Y177.119
G3 X256.087 Y176.672 I4.749 J17.524
G1 X256.473 Y176.616
G2 X257.071 Y176.523 I-3.493 J-24.321
G1 X258.153 Y176.34
G3 X258.963 Y176.245 I1.345 J7.964
G1 X264.911 Y175.851
G3 X265.736 Y176.666 I0.051 J0.773
G1 X265.397 Y182.924
G3 X265.253 Y184.082 I-8.42 J-0.457
G1 X264.907 Y185.899
G3 X264.372 Y188.099 I-19.305 J-3.527
G2 X263.859 Y192.767 I12.104 J3.693
G1 X263.886 Y193.127
G3 X263.756 Y200.092 I-36.311 J2.806
G1 X263.7 Y200.584
G3 X263.613 Y201.231 I-16.8 J-1.931
G1 X263.575 Y201.476
G2 X263.742 Y205.685 I10.868 J1.677
G1 X263.767 Y205.791
G2 X263.897 Y206.278 I8.625 J-2.041
G1 X263.991 Y206.594
G3 X264.266 Y208.945 I-6.6 J1.964
G1 X264.205 Y210.032
G3 X260.034 Y214.235 I-4.455 J-0.25
G1 X258.939 Y214.304
G3 X256.596 Y214.05 I-0.438 J-6.884
G1 X256.282 Y213.96
G2 X255.787 Y213.833 I-2.449 J8.522
G1 X255.679 Y213.808
G2 X251.486 Y213.68 I-2.429 J10.753
G1 X251.233 Y213.721
G3 X250.582 Y213.813 I-2.725 J-16.81
G1 X250.143 Y213.867
G3 X246.545 Y214.137 I-4.638 J-37.78
G1 X246.344 Y214.142
G3 X245.217 Y214.16 I-1.326 J-48.516
G1 X222.245 Y214.252
G3 X219.569 Y214.083 I0.016 J-21.555
G2 X218.869 Y214.009 I-2.235 J17.754
G1 X218.47 Y213.974
G2 X215.187 Y214.464 I-0.614 J7.131
G1 X214.999 Y214.54
G2 X214.297 Y214.835 I8.957 J22.286
G3 X213.067 Y215.335 I-9.658 J-21.986
G1 X212.924 Y215.389
G3 X210.896 Y216.066 I-10.363 J-27.649
G1 X206.801 Y217.255
X205.804 Y217.531
G3 X204.371 Y217.897 I-9.496 J-34.236
X198.726 Y218.652 I-6.747 J-28.953
G1 X198.453 Y218.662
G2 X194.428 Y219.431 I0.503 J13.565
G3 X190.215 Y220.316 I-5.418 J-15.31
G1 X190.191 Y220.318
G2 X189.387 Y220.394 I1.497 J20.115
G1 X188.706 Y220.472
G2 X187.486 Y220.628 I5.704 J49.693
G3 X185.263 Y220.888 I-6.924 J-49.532
G1 X182.942 Y221.119
X177.789 Y221.669
X176.914 Y221.748
G3 X175.242 Y221.661 I-0.532 J-5.914
G1 X174.689 Y221.553
G3 X174.074 Y220.424 I0.16 J-0.819
G1 X174.312 Y219.831
G3 X174.678 Y219.244 I1.825 J0.731
G1 X175.226 Y218.638
G3 X175.426 Y218.427 I4.895 J4.426
G1 X175.745 Y218.103
G2 X176.875 Y216.888 I-19.375 J-19.134
G1 X177.023 Y216.718
G2 X177.517 Y216.139 I-26.066 J-22.778
G1 X177.553 Y216.097
G2 X178.674 Y214.692 I-30.424 J-25.428
G1 X178.7 Y214.657
G2 X179.159 Y214.044 I-33.091 J-25.201
G1 X179.252 Y213.917
G2 X180.034 Y212.824 I-47.368 J-34.715
G1 X180.723 Y211.833
G2 X181.953 Y209.1 I-6.734 J-4.673
G1 X181.962 Y209.064
G3 X184.59 Y204.846 I7.711 J1.878
G2 X186.598 Y201.897 I-4.161 J-4.99
G1 X186.668 Y201.686
G3 X187.924 Y198.357 I41.983 J13.939
X188.807 Y196.38 I52.697 J22.344
G1 X189.061 Y195.84
G2 X189.42 Y195.032 I-17.943 J-8.47
G1 X189.47 Y194.913
G3 X189.593 Y194.625 I10.325 J4.231
G1 X189.854 Y194.034
X189.872 Y193.998
X189.891 Y193.957
X190.186 Y193.274
G2 X191.415 Y190.192 I-54.302 J-23.437
G1 X191.684 Y189.444
G2 X191.738 Y186.144 I-4.822 J-1.73
G3 X191.464 Y184.527 I5.456 J-1.757
G1 Y184.515
G3 X191.488 Y183.806 I6.075 J-0.149
G1 X191.54 Y183.246
G2 X191.561 Y182.974 I-8.678 J-0.803
G1 X191.68 Y181.016
G3 X196.022 Y176.434 I4.904 J0.3
G1 X196.378 Y176.393
G3 X199.143 Y176.691 I0.723 J6.27
G1 X199.275 Y176.737
G2 X199.892 Y176.916 I2.278 J-6.661
G1 X200.353 Y177.028
G2 X204.849 Y177.243 I2.804 J-11.542
G1 X205.204 Y177.194
G3 X211.211 Y176.78 I6.164 J45.595
G1 X245.004 Y176.664
G3 X248.644 Y176.76 I0.209 J61.42
G1 X249.08 Y176.786
G2 X253.123 Y176.32 I0.721 J-11.524
G3 X253.798 Y176.135 I4.24 J14.115
G1 X253.912 Y176.106
G3 X256.093 Y175.692 I4.76 J19.088
G1 X256.475 Y175.641
G2 X257.071 Y175.555 I-3.475 J-26.283
G1 X258.055 Y175.403
G3 X259.06 Y175.26 I5.626 J36.193
G1 X265.754 Y174.409
G3 X266.866 Y175.458 I0.125 J0.982
G1 X266.364 Y182.852
G3 X266.203 Y184.154 I-11.979 J-0.814
G1 X265.896 Y185.909
G3 X265.409 Y188.093 I-20.654 J-3.464
G2 X264.936 Y192.759 I13.188 J3.693
G1 X264.963 Y193.137
G3 X264.845 Y200.085 I-39.418 J2.806
G1 X264.792 Y200.587
G3 X264.713 Y201.229 I-18.15 J-1.913
G1 X264.678 Y201.477
G2 X264.83 Y205.673 I11.823 J1.672
G1 X264.853 Y205.781
G2 X264.978 Y206.289 I9.456 J-2.045
G1 X265.039 Y206.513
G3 X265.318 Y209.022 I-7.832 J2.142
G1 X265.222 Y211.158
G3 X261.159 Y215.25 I-4.288 J-0.194
G1 X259.015 Y215.363
G3 X256.516 Y215.106 I-0.427 J-8.122
G1 X256.291 Y215.046
G2 X255.778 Y214.926 I-2.47 J9.376
G1 X255.669 Y214.904
G2 X251.488 Y214.788 I-2.417 J11.73
G1 X251.231 Y214.826
G3 X250.584 Y214.911 I-2.713 J-18.218
G1 X250.143 Y214.96
G3 X246.547 Y215.208 I-4.643 J-41.142
G1 X246.344 Y215.213
G3 X245.217 Y215.23 I-1.337 J-52.863
G1 X222.243 Y215.319
G3 X219.569 Y215.165 I0.011 J-23.458
G2 X218.869 Y215.097 I-2.227 J19.323
G1 X218.453 Y215.064
G2 X215.187 Y215.516 I-0.604 J7.67
G1 X214.999 Y215.585
G2 X214.297 Y215.856 I8.74 J23.704
G3 X213.069 Y216.314 I-9.441 J-23.43
G1 X212.921 Y216.365
G3 X210.903 Y216.983 I-10.172 J-29.586
G1 X206.801 Y218.076
X205.717 Y218.351
G3 X198.639 Y219.361 I-8.215 J-32.285
G1 X198.437 Y219.368
G2 X194.425 Y220.073 I0.499 J14.607
G3 X190.236 Y220.883 I-5.377 J-16.57
G1 X190.19 Y220.886
G2 X189.387 Y220.956 I1.495 J21.885
G1 X188.706 Y221.027
G2 X187.486 Y221.17 I5.693 J54.06
G3 X185.264 Y221.408 I-6.913 J-53.912
G1 X181.225 Y221.793
X177.789 Y222.125
X175.238 Y222.341
G3 X173.489 Y222.218 I-0.47 J-5.81
G1 X173.145 Y222.141
G3 X172.608 Y220.875 I0.186 J-0.826
G1 X172.795 Y220.568
G3 X173.547 Y219.639 I3.847 J2.345
G1 X173.965 Y219.244
X174.137 Y219.077
X174.668 Y218.548
G2 X178.717 Y213.792 I-27.23 J-27.288
G1 X178.805 Y213.669
G2 X179.586 Y212.559 I-48.324 J-34.81
G1 X180.238 Y211.607
G2 X181.481 Y208.869 I-7.2 J-4.92
G3 X181.726 Y208.067 I9.151 J2.364
G1 X181.747 Y208.01
G3 X183.51 Y205.151 I7.556 J2.686
G1 X183.523 Y205.136
G3 X183.998 Y204.677 I6.388 J6.116
G2 X185.9 Y201.756 I-4.515 J-5.02
G1 X185.993 Y201.471
G3 X187.084 Y198.464 I42.933 J13.874
G1 X187.134 Y198.339
G3 X188.028 Y196.224 I64.54 J26.037
G1 X188.225 Y195.782
G2 X188.558 Y194.98 I-14.777 J-6.624
G1 X188.611 Y194.843
G3 X188.719 Y194.567 I7.991 J2.986
G1 X188.964 Y193.975
X188.98 Y193.941
X188.997 Y193.905
X189.306 Y193.142
G2 X190.4 Y190.187 I-48.724 J-19.721
G1 X190.641 Y189.453
G2 X190.692 Y186.148 I-5.287 J-1.733
G3 X190.44 Y184.533 I5.966 J-1.757
G1 Y184.517
G3 X190.461 Y183.809 I6.633 J-0.152
G1 X190.505 Y183.29
G2 X190.528 Y182.936 I-9.883 J-0.832
G1 X190.68 Y179.798
G3 X194.809 Y175.486 I4.546 J0.22
G1 X196.299 Y175.349
G3 X199.23 Y175.659 I0.688 J7.488
G1 X199.265 Y175.671
G2 X199.902 Y175.84 I2.327 J-7.449
G1 X200.357 Y175.941
G2 X204.84 Y176.137 I2.796 J-12.605
G1 X205.205 Y176.091
G3 X211.207 Y175.712 I6.166 J49.858
G1 X245.005 Y175.602
G3 X248.645 Y175.688 I0.219 J67.249
G1 X249.096 Y175.713
G2 X253.123 Y175.287 I0.713 J-12.506
G3 X253.799 Y175.117 I4.207 J15.333
G1 X253.915 Y175.091
G3 X256.088 Y174.713 I4.727 J20.75
G1 X256.476 Y174.666
G2 X257.072 Y174.588 I-3.46 J-28.633
G1 X258.035 Y174.451
G2 X259.078 Y174.292 I-7.471 J-52.607
G1 X265.75 Y173.209
G3 X266.337 Y173.193 I0.355 J2.189
G1 X266.88 Y173.25
G3 X267.958 Y174.543 I-0.126 J1.201
G1 X267.313 Y182.977
G3 X267.187 Y184.033 I-12.446 J-0.952
G1 X266.887 Y185.914
G3 X266.444 Y188.093 I-22.37 J-3.415
G2 X266.013 Y192.746 I14.443 J3.685
G1 X266.038 Y193.137
G3 X265.932 Y200.086 I-43.243 J2.816
G1 X265.885 Y200.586
G3 X265.812 Y201.23 I-19.873 J-1.904
G1 X265.78 Y201.483
G2 X265.92 Y205.671 I12.933 J1.664
G1 X265.941 Y205.777
G2 X266.056 Y206.293 I10.434 J-2.059
G1 X266.096 Y206.455
G3 X266.369 Y209.075 I-9.108 J2.272
G1 X266.248 Y212.331
G3 X262.332 Y216.275 I-4.098 J-0.152
G1 X259.067 Y216.42
G3 X256.46 Y216.17 I-0.416 J-9.393
G1 X256.296 Y216.131
G2 X255.774 Y216.02 I-2.486 J10.376
G1 X255.667 Y216
G2 X251.494 Y215.895 I-2.412 J12.871
G1 X251.232 Y215.93
G3 X250.584 Y216.008 I-2.713 J-19.986
G1 X250.143 Y216.053
G3 X246.55 Y216.279 I-4.648 J-45.148
G1 X246.343 Y216.284
G3 X245.218 Y216.3 I-1.35 J-58.068
G1 X222.242 Y216.386
G3 X219.569 Y216.247 I0.005 J-25.744
G2 X218.87 Y216.185 I-2.218 J21.208
G1 X218.437 Y216.154
G2 X215.187 Y216.567 I-0.595 J8.325
G1 X214.998 Y216.63
G2 X214.297 Y216.876 I8.544 J25.462
G3 X213.071 Y217.292 I-9.244 J-25.213
G1 X212.918 Y217.34
G3 X210.909 Y217.901 I-9.999 J-31.959
G1 X206.801 Y218.896
X205.735 Y219.143
G3 X198.639 Y220.066 I-8.236 J-35.569
G1 X198.422 Y220.073
G2 X194.424 Y220.714 I0.495 J15.866
G3 X190.254 Y221.45 I-5.343 J-18.105
G1 X190.189 Y221.454
G2 X189.388 Y221.517 I1.494 J24.015
G1 X188.705 Y221.582
G2 X187.486 Y221.712 I5.685 J59.311
G3 X185.265 Y221.929 I-6.904 J-59.176
G1 X179.507 Y222.429
X176.072 Y222.716
X172.983 Y222.957
G3 X172.302 Y222.889 I-0.152 J-1.93
G1 X171.588 Y222.686
G3 X171.05 Y221.645 I0.219 J-0.773
X171.238 Y221.32 I0.977 J0.346
G1 X171.691 Y220.788
G3 X172.12 Y220.344 I3.71 J3.159
G1 X173.004 Y219.535
G2 X178.358 Y213.424 I-26.749 J-28.834
X179.14 Y212.292 I-49.487 J-35.028
G1 X179.748 Y211.388
G2 X181.011 Y208.633 I-7.78 J-5.232
G3 X181.242 Y207.9 I9.914 J2.716
G1 X181.258 Y207.854
G3 X183.402 Y204.511 I8.27 J2.946
G2 X185.203 Y201.611 I-4.938 J-5.075
G1 X185.33 Y201.214
G3 X186.106 Y198.96 I41.651 J13.079
G1 X186.385 Y198.225
G3 X187.205 Y196.163 I73.482 J28.065
G1 X187.387 Y195.729
G2 X187.699 Y194.924 I-12.999 J-5.498
G1 X187.751 Y194.773
G3 X187.846 Y194.51 I6.65 J2.256
G1 X188.075 Y193.915
X188.089 Y193.884
X188.103 Y193.851
X188.406 Y193.048
G2 X189.385 Y190.182 I-44.674 J-16.845
G1 X189.6 Y189.458
G2 X189.645 Y186.152 I-5.835 J-1.732
G3 X189.416 Y184.541 I6.564 J-1.756
G1 X189.415 Y184.52
G3 X189.435 Y183.812 I7.307 J-0.156
G1 X189.472 Y183.322
G2 X189.495 Y182.911 I-11.119 J-0.843
G1 X189.685 Y178.022
G3 X193.036 Y174.548 I3.621 J0.14
G1 X196.282 Y174.306
G3 X199.258 Y174.606 I0.639 J8.561
G2 X199.911 Y174.764 I2.36 J-8.342
G1 X200.362 Y174.854
G2 X204.831 Y175.032 I2.789 J-13.891
G1 X205.206 Y174.989
G3 X211.204 Y174.644 I6.17 J55
G1 X245.006 Y174.539
G3 X248.646 Y174.617 I0.231 J74.31
G1 X249.111 Y174.639
G2 X253.123 Y174.253 I0.704 J-13.706
G3 X253.801 Y174.099 I4.178 J16.821
G1 X253.917 Y174.075
G3 X256.084 Y173.734 I4.697 J22.778
G1 X256.478 Y173.69
G2 X257.072 Y173.62 I-3.447 J-31.496
G1 X257.551 Y173.558
G2 X259.562 Y173.274 I-10.566 J-82.166
G1 X265.83 Y172.312
G3 X266.187 Y172.276 I0.528 J3.437
G1 X268.265 Y172.174
G3 X269.072 Y173.006 I0.038 J0.771
G1 X268.26 Y183.085
G3 X268.164 Y183.927 I-12.882 J-1.038
G1 X267.878 Y185.919
G3 X267.479 Y188.092 I-24.483 J-3.37
G2 X267.09 Y192.734 I15.969 J3.675
G1 X267.114 Y193.137
G3 X267.02 Y200.088 I-47.889 J2.829
G1 X266.977 Y200.586
G3 X266.912 Y201.23 I-21.972 J-1.895
G1 X266.882 Y201.488
G2 X267.01 Y205.669 I14.285 J1.655
G1 X267.028 Y205.775
G2 X267.134 Y206.296 I11.585 J-2.066
G1 X267.162 Y206.422
G3 X267.419 Y209.102 I-10.428 J2.351
G1 X267.266 Y214.05
G3 X264.051 Y217.288 I-3.342 J-0.103
G1 X259.092 Y217.476
G3 X256.429 Y217.243 I-0.405 J-10.699
G1 X256.299 Y217.214
G2 X255.771 Y217.113 I-2.493 J11.557
G1 X255.665 Y217.095
G2 X251.499 Y217.001 I-2.405 J14.263
G1 X251.232 Y217.034
G3 X250.584 Y217.104 I-2.716 J-22.143
G1 X250.142 Y217.145
G3 X246.552 Y217.35 I-4.657 J-50.032
G1 X246.343 Y217.355
G3 X245.218 Y217.369 I-1.367 J-64.41
G1 X222.24 Y217.453
G3 X219.569 Y217.328 I-0.003 J-28.539
G2 X218.87 Y217.273 I-2.208 J23.511
G1 X218.422 Y217.244
G2 X215.187 Y217.617 I-0.585 J9.137
G1 X214.997 Y217.675
G2 X214.296 Y217.896 I8.368 J27.671
G3 X213.073 Y218.271 I-9.068 J-27.447
G1 X212.916 Y218.315
G3 X210.915 Y218.818 I-9.843 J-34.912
G1 X206.801 Y219.717
X205.753 Y219.935
G3 X198.638 Y220.771 I-8.257 J-39.576
G1 X198.408 Y220.778
G2 X194.424 Y221.356 I0.493 J17.426
G3 X190.27 Y222.017 I-5.313 J-19.994
G1 X190.189 Y222.022
G2 X189.388 Y222.079 I1.495 J26.625
G1 X188.705 Y222.138
G2 X187.486 Y222.254 I5.686 J65.815
G3 X185.266 Y222.45 I-6.905 J-65.694
G1 X177.789 Y223.038
X172.636 Y223.405
X171.223 Y223.518
G3 X170.626 Y223.456 I-0.132 J-1.646
G1 X170.227 Y223.339
G3 X169.68 Y222.124 I0.248 J-0.842
X169.938 Y221.765 I1.067 J0.496
G1 X170.613 Y221.126
X170.771 Y220.982
X171.226 Y220.58
G2 X171.94 Y219.935 I-27.196 J-30.804
G1 X172.241 Y219.656
G2 X178.574 Y212.206 I-27.828 J-30.071
G1 X179.254 Y211.179
G2 X180.544 Y208.391 I-8.52 J-5.636
G3 X180.755 Y207.739 I10.926 J3.172
G1 X180.787 Y207.649
G3 X182.814 Y204.34 I8.9 J3.177
G2 X184.508 Y201.464 I-5.463 J-5.154
G1 X184.665 Y200.959
G3 X185.346 Y198.912 I40.344 J12.29
G1 X185.659 Y198.043
G3 X186.358 Y196.17 I79.871 J28.71
G1 X186.549 Y195.679
G2 X186.84 Y194.865 I-12 J-4.753
G1 X186.891 Y194.703
G3 X186.973 Y194.453 I5.814 J1.781
G1 X187.185 Y193.856
X187.197 Y193.828
X187.21 Y193.798
X187.513 Y192.93
G2 X188.277 Y190.5 I-39.441 J-13.747
G1 X188.559 Y189.463
G2 X188.598 Y186.157 I-6.509 J-1.731
G3 X188.391 Y184.548 I7.3 J-1.757
G1 Y184.523
G3 X188.408 Y183.815 I8.136 J-0.16
G1 X188.44 Y183.342
G2 X188.462 Y182.897 I-12.38 J-0.835
G1 X188.666 Y176.387
G3 X191.402 Y173.568 I2.914 J0.092
G1 X196.3 Y173.267
G3 X199.252 Y173.543 I0.59 J9.602
G2 X199.918 Y173.687 I2.38 J-9.397
G1 X200.366 Y173.768
G2 X204.823 Y173.926 I2.781 J-15.476
G1 X205.208 Y173.887
G3 X211.2 Y173.577 I6.176 J61.335
G1 X245.008 Y173.476
G3 X248.647 Y173.545 I0.247 J83.04
G1 X249.124 Y173.566
G2 X253.123 Y173.219 I0.696 J-15.202
G3 X253.802 Y173.081 I4.152 J18.674
G1 X253.92 Y173.059
G3 X256.08 Y172.754 I4.671 J25.299
G1 X257.54 Y172.598
G2 X259.575 Y172.34 I-10.397 J-90.273
G1 X265.243 Y171.557
G2 X266.693 Y171.286 I-2.129 J-15.415
G1 X268.613 Y170.833
G3 X269.144 Y170.786 I0.427 J1.809
G1 X269.291 Y170.794
G3 X270.284 Y171.95 I-0.059 J1.056
G1 X269.257 Y182.693
G3 X269.073 Y184.319 I-46.682 J-4.465
G1 X268.868 Y185.923
G3 X268.513 Y188.091 I-27.136 J-3.328
G2 X268.167 Y192.723 I17.864 J3.666
G1 X268.189 Y193.137
G3 X268.107 Y200.088 I-53.653 J2.845
G1 X268.069 Y200.586
G3 X268.011 Y201.23 I-24.581 J-1.884
G1 X267.984 Y201.493
G2 X268.099 Y205.668 I15.969 J1.646
G1 X268.116 Y205.773
G2 X268.211 Y206.298 I12.983 J-2.07
G1 X268.234 Y206.416
G3 X268.467 Y209.102 I-11.791 J2.375
G1 X268.298 Y215.646
G3 X265.646 Y218.316 I-2.741 J-0.071
G1 X259.089 Y218.53
G3 X256.425 Y218.321 I-0.393 J-12.041
G1 X256.302 Y218.297
G2 X255.769 Y218.206 I-2.493 J12.993
G1 X255.664 Y218.19
G2 X251.504 Y218.108 I-2.398 J15.997
G1 X251.233 Y218.138
G3 X250.583 Y218.2 I-2.72 J-24.831
G1 X250.141 Y218.237
G3 X246.554 Y218.421 I-4.669 J-56.117
G1 X244.224 Y218.441
X222.239 Y218.52
G3 X219.569 Y218.409 I-0.013 J-32.033
G2 X218.87 Y218.36 I-2.196 J26.39
G1 X218.409 Y218.334
G2 X215.186 Y218.668 I-0.576 J10.163
G1 X214.997 Y218.719
G2 X214.297 Y218.916 I8.212 J30.499
G3 X213.074 Y219.249 I-8.912 J-30.3
G1 X212.913 Y219.29
G3 X210.92 Y219.736 I-9.705 J-38.661
G1 X205.769 Y220.729
G3 X198.638 Y221.477 I-8.28 J-44.574
G1 X198.395 Y221.483
G2 X194.423 Y221.997 I0.492 J19.401
G3 X190.285 Y222.585 I-5.287 J-22.37
G1 X190.188 Y222.589
G2 X189.388 Y222.64 I1.496 J29.897
G1 X187.486 Y222.797
G3 X185.266 Y222.971 I-6.901 J-73.768
G1 X177.789 Y223.494
X172.636 Y223.82
X169.452 Y224.048
G3 X168.96 Y223.995 I-0.099 J-1.396
G1 X168.483 Y223.856
G3 X168.13 Y222.95 I0.172 J-0.589
G1 X168.36 Y222.567
G3 X168.674 Y222.21 I1.152 J0.695
G1 X169.347 Y221.673
G2 X169.559 Y221.496 I-3.875 J-4.858
G1 X170.726 Y220.469
G2 X171.826 Y219.458 I-42.932 J-47.828
G1 X172.291 Y219.019
G2 X173.791 Y217.52 I-30.853 J-32.367
G1 X174.057 Y217.239
G2 X175.885 Y215.105 I-22.972 J-21.529
X177.011 Y213.589 I-29.825 J-23.325
G1 X177.458 Y212.942
G2 X178.253 Y211.75 I-52.573 J-35.893
G1 X178.751 Y210.983
G2 X180.081 Y208.14 I-9.49 J-6.172
G3 X180.264 Y207.588 I12.313 J3.787
G1 X180.326 Y207.416
G3 X181.841 Y204.642 I9.549 J3.416
G1 X181.868 Y204.608
G3 X182.222 Y204.173 I8.029 J6.186
G2 X183.813 Y201.315 I-6.116 J-5.276
G1 X183.998 Y200.706
G3 X184.589 Y198.863 I39.21 J11.565
G1 X184.926 Y197.876
G3 X185.52 Y196.163 I90.004 J30.235
G1 X185.711 Y195.632
G2 X185.982 Y194.803 I-11.534 J-4.238
G3 X186.211 Y194.057 I23.36 J6.746
G1 X186.548 Y193.015
G2 X187.27 Y190.5 I-36.872 J-11.94
G1 X187.518 Y189.468
G2 X187.552 Y186.161 I-7.355 J-1.728
G3 X187.367 Y184.555 I8.227 J-1.759
G1 Y184.526
G3 X187.381 Y183.818 I9.18 J-0.166
G1 X187.409 Y183.351
G2 X187.428 Y182.894 I-13.66 J-0.807
G1 X187.634 Y174.864
G3 X189.879 Y172.561 I2.366 J0.061
G1 X196.315 Y172.233
G3 X199.248 Y172.481 I0.555 J10.875
G2 X199.923 Y172.61 I2.391 J-10.688
G1 X200.369 Y172.681
G2 X204.816 Y172.82 I2.773 J-17.479
G1 X205.209 Y172.785
G3 X211.197 Y172.51 I6.186 J69.334
G1 X245.009 Y172.413
G3 X248.648 Y172.473 I0.268 J94.106
G1 X249.136 Y172.492
G2 X253.123 Y172.185 I0.687 J-17.112
G3 X253.804 Y172.063 I4.131 J21.037
G1 X253.922 Y172.043
G3 X256.076 Y171.775 I4.649 J28.512
G1 X257.539 Y171.636
G2 X259.578 Y171.408 I-10.143 J-99.667
G1 X263.612 Y170.913
G2 X268.216 Y170.048 I-4.454 J-36.358
G1 X268.614 Y169.946
G2 X268.858 Y169.88 I-2.135 J-8.367
G1 X269.948 Y169.568
G3 X271.385 Y170.454 I0.315 J1.098
G1 X271.474 Y170.925
G3 X271.497 Y171.548 I-2.052 J0.387
G1 X269.858 Y185.927
G3 X269.547 Y188.09 I-30.55 J-3.287
G2 X269.243 Y192.713 I20.279 J3.655
G1 X269.263 Y193.136
G3 X269.194 Y200.089 I-60.996 J2.866
G1 X269.16 Y200.586
G3 X269.11 Y201.23 I-27.913 J-1.872
G1 X269.086 Y201.498
G2 X269.189 Y205.666 I18.121 J1.636
G1 X269.204 Y205.771
G2 X269.288 Y206.3 I14.736 J-2.071
G1 X269.312 Y206.439
G3 X269.515 Y209.072 I-13.197 J2.341
G1 X269.34 Y217.147
G3 X267.147 Y219.354 I-2.257 J-0.049
G1 X259.058 Y219.584
G3 X256.451 Y219.404 I-0.382 J-13.42
G1 X256.303 Y219.379
G2 X255.768 Y219.299 I-2.487 J14.797
G1 X255.662 Y219.285
G2 X251.509 Y219.214 I-2.389 J18.215
G1 X251.233 Y219.241
G3 X250.583 Y219.296 I-2.728 J-28.274
G1 X250.141 Y219.328
G3 X246.556 Y219.49 I-4.687 J-63.906
G1 X242.438 Y219.516
X222.238 Y219.586
G3 X219.569 Y219.49 I-0.026 J-36.521
G2 X218.87 Y219.448 I-2.183 J30.087
G1 X218.397 Y219.424
G2 X215.186 Y219.719 I-0.566 J11.496
G1 X214.996 Y219.763
G2 X214.297 Y219.936 I8.078 J34.21
G3 X213.076 Y220.228 I-8.777 J-34.035
G1 X212.911 Y220.264
G3 X210.925 Y220.654 I-9.585 J-43.543
G1 X205.784 Y221.523
G3 X198.638 Y222.182 I-8.304 J-50.986
G1 X198.384 Y222.188
G2 X194.422 Y222.638 I0.493 J21.968
G3 X190.298 Y223.152 I-5.266 J-25.441
G1 X190.188 Y223.157
G2 X189.389 Y223.202 I1.5 J34.112
G1 X187.488 Y223.339
G3 X185.265 Y223.492 I-6.893 J-84.06
G1 X176.072 Y224.045
X170.919 Y224.344
X167.737 Y224.545
G3 X167.241 Y224.484 I-0.086 J-1.353
G1 X166.805 Y224.346
G3 X166.592 Y223.493 I0.156 J-0.492
G1 X166.997 Y223.081
G3 X167.466 Y222.662 I3.444 J3.386
G1 X168.458 Y221.88
G2 X169.869 Y220.684 I-24.276 J-30.058
G1 X170.409 Y220.196
G2 X171.532 Y219.148 I-44.887 J-49.182
G1 X171.95 Y218.746
G2 X173.466 Y217.208 I-30.656 J-31.718
G1 X173.686 Y216.972
G2 X175.466 Y214.861 I-22.346 J-20.649
X176.597 Y213.309 I-29.798 J-22.897
G1 X177.005 Y212.706
G2 X177.812 Y211.473 I-54.633 J-36.624
G1 X178.236 Y210.809
G2 X179.625 Y207.872 I-10.818 J-6.914
G3 X179.768 Y207.454 I14.321 J4.665
G1 X179.849 Y207.23
G3 X181.284 Y204.475 I10.769 J3.86
G1 X181.316 Y204.43
G3 X181.631 Y204.007 I8.933 J6.331
G2 X183.12 Y201.164 I-6.958 J-5.454
G1 X183.166 Y201.014
G2 X183.248 Y200.739 I-12.352 J-3.818
G1 X183.329 Y200.453
G3 X183.835 Y198.815 I38.247 J10.9
G1 X183.873 Y198.7
G2 X184.136 Y197.881 I-43.059 J-14.305
G1 X184.838 Y195.692
X184.873 Y195.587
G2 X185.125 Y194.741 I-11.51 J-3.878
G3 X185.329 Y194.006 I18.697 J4.82
G1 X185.623 Y193.011
G2 X186.309 Y190.292 I-36.387 J-10.631
G1 X186.478 Y189.473
G2 X186.505 Y186.165 I-8.451 J-1.723
G3 X186.343 Y184.561 I9.431 J-1.763
G1 X186.342 Y184.529
G3 X186.354 Y183.822 I10.535 J-0.174
G1 X186.378 Y183.349
G2 X186.394 Y182.903 I-14.959 J-0.758
G1 X186.592 Y173.429
G3 X188.442 Y171.538 I1.933 J0.04
G1 X196.328 Y171.202
G3 X199.245 Y171.42 I0.532 J12.497
G2 X199.927 Y171.533 I2.395 J-12.333
G1 X200.373 Y171.595
G2 X204.81 Y171.715 I2.764 J-20.09
G1 X205.211 Y171.683
G3 X211.194 Y171.443 I6.201 J79.749
G1 X245.01 Y171.35
G3 X248.649 Y171.402 I0.296 J108.592
G1 X249.146 Y171.418
G2 X253.123 Y171.151 I0.678 J-19.627
G3 X253.805 Y171.044 I4.114 J24.147
G1 X253.925 Y171.027
G3 X256.073 Y170.795 I4.632 J32.736
G1 X257.634 Y170.666
G2 X259.486 Y170.485 I-8.993 J-101.775
G1 X262.957 Y170.115
G2 X270.177 Y168.583 I-3.818 J-35.762
G1 X271.022 Y168.31
G3 X272.394 Y169.07 I0.33 J1.023
G1 X272.428 Y169.207
G3 X272.466 Y169.762 I-1.509 J0.381
G1 X272.3 Y171.235
X270.849 Y185.931
G3 X270.581 Y188.09 I-35.085 J-3.247
G2 X270.32 Y192.704 I23.46 J3.643
G1 X270.338 Y193.136
G3 X270.281 Y200.089 I-70.664 J2.895
G1 X270.252 Y200.586
G3 X270.209 Y201.23 I-32.31 J-1.857
G1 X270.188 Y201.501
G2 X270.279 Y205.665 I20.964 J1.625
G1 X270.291 Y205.771
G2 X270.364 Y206.301 I17.012 J-2.069
G1 X270.394 Y206.493
G3 X270.563 Y209.013 I-14.645 J2.247
G1 X270.387 Y218.571
G3 X268.571 Y220.399 I-1.862 J-0.034
G1 X258.996 Y220.637
G3 X256.508 Y220.49 I-0.37 J-14.837
G1 X256.304 Y220.461
G2 X255.767 Y220.392 I-2.472 J17.146
G1 X255.66 Y220.38
G2 X251.513 Y220.32 I-2.378 J21.155
G1 X251.234 Y220.343
G3 X250.583 Y220.391 I-2.739 J-32.839
G1 X250.14 Y220.419
G3 X246.558 Y220.56 I-4.712 J-74.226
G1 X222.237 Y220.652
G3 X219.569 Y220.571 I-0.043 J-42.495
G2 X218.87 Y220.535 I-2.166 J35.007
G1 X218.387 Y220.515
G2 X215.185 Y220.769 I-0.556 J13.287
G1 X214.995 Y220.807
G2 X214.297 Y220.956 I7.967 J39.24
G3 X213.077 Y221.206 I-8.665 J-39.089
G1 X212.909 Y221.238
G3 X210.929 Y221.573 I-9.484 J-50.116
G1 X207.352 Y222.098
G3 X198.122 Y222.899 I-11.64 J-80.628
G1 X198.116
G2 X194.422 Y223.279 I0.752 J25.412
G3 X190.309 Y223.721 I-5.25 J-29.556
G1 X190.187 Y223.725
G2 X189.389 Y223.763 I1.506 J39.746
G1 X187.489 Y223.881
G3 X185.264 Y224.013 I-6.897 J-97.903
G1 X176.072 Y224.488
X170.919 Y224.745
X167.484 Y224.931
X165.959 Y224.99
G3 X165.581 Y224.94 I-0.044 J-1.121
G1 X165.251 Y224.837
G3 X165.094 Y223.917 I0.156 J-0.5
G1 X165.872 Y223.337
X166.029 Y223.225
X166.299 Y223.038
G2 X167.628 Y222.05 I-13.721 J-19.848
G1 X168.167 Y221.615
G2 X169.605 Y220.373 I-24.299 J-29.595
G1 X170.09 Y219.928
G2 X171.242 Y218.834 I-47.173 J-50.824
G1 X171.612 Y218.473
G2 X173.14 Y216.897 I-30.407 J-31.015
G1 X173.317 Y216.704
G2 X175.046 Y214.619 I-21.724 J-19.779
X176.183 Y213.027 I-29.825 J-22.502
G1 X176.55 Y212.475
G2 X177.374 Y211.192 I-57.111 J-37.573
G1 X177.699 Y210.673
G2 X179.182 Y207.574 I-12.769 J-8.015
G1 X179.368 Y207.052
G3 X180.726 Y204.31 I12.57 J4.516
G1 X180.764 Y204.252
G3 X181.04 Y203.843 I10.157 J6.576
G2 X182.427 Y201.011 I-8.079 J-5.711
G1 X182.463 Y200.893
G2 X182.57 Y200.524 I-13.498 J-4.107
G1 X182.659 Y200.199
G3 X183.082 Y198.767 I37.459 J10.291
G1 X183.094 Y198.73
G2 X183.43 Y197.613 I-38.992 J-12.342
G1 X184.037 Y195.543
G2 X184.267 Y194.676 I-11.944 J-3.635
G3 X184.446 Y193.953 I18.609 J4.23
G1 X184.578 Y193.464
G2 X185.29 Y190.319 I-36.553 J-9.924
G1 X185.437 Y189.478
G2 X185.458 Y186.169 I-9.928 J-1.716
G3 X185.318 Y184.567 I11.056 J-1.769
G1 Y184.532
G3 X185.327 Y183.825 I12.363 J-0.184
G1 X185.348 Y183.335
G2 X185.36 Y182.922 I-16.274 J-0.689
G1 X185.544 Y172.058
G3 X187.069 Y170.504 I1.581 J0.027
G1 X196.385 Y170.173
G3 X199.198 Y170.352 I0.505 J14.199
G1 X199.243 Y170.36
G2 X199.93 Y170.456 I2.39 J-14.519
G1 X200.376 Y170.508
G2 X204.805 Y170.609 I2.754 J-23.631
G1 X205.213 Y170.581
G3 X211.191 Y170.376 I6.223 J93.868
G1 X245.01 Y170.288
G3 X248.651 Y170.33 I0.334 J128.369
G1 X249.156 Y170.344
G2 X253.123 Y170.116 I0.667 J-23.081
G3 X253.807 Y170.026 I4.102 J28.414
G1 X253.927 Y170.012
G3 X256.071 Y169.815 I4.62 J38.523
G1 X258.562 Y169.636
X264.422 Y169.103
G2 X270.674 Y167.575 I-1.961 J-21.581
G1 X271.028 Y167.43
X271.177 Y167.367
X271.992 Y167.012
G3 X273.352 Y167.972 I0.389 J0.892
G1 X273.259 Y169.312
G3 X273.229 Y169.65 I-8.66 J-0.602
G1 X273.132 Y170.541
G2 X272.998 Y171.93 I54.296 J5.911
G1 X271.839 Y185.934
G3 X271.615 Y188.089 I-41.371 J-3.207
G2 X271.397 Y192.696 I27.838 J3.627
G1 X271.412 Y193.136
G3 X271.367 Y200.088 I-83.974 J2.934
G1 X271.289 Y201.504
G2 X271.368 Y205.664 I24.891 J1.611
G1 X271.379 Y205.772
G2 X271.44 Y206.3 I20.098 J-2.065
G1 X271.477 Y206.58
G3 X271.609 Y208.921 I-16.135 J2.089
G1 X271.438 Y219.927
G3 X269.927 Y221.448 I-1.545 J-0.024
G1 X258.902 Y221.689
G3 X256.597 Y221.577 I-0.357 J-16.294
G1 X256.304 Y221.541
G2 X255.768 Y221.484 I-2.448 J20.344
G1 X255.659 Y221.474
G2 X251.517 Y221.426 I-2.364 J25.235
G1 X250.14 Y221.51
G3 X246.56 Y221.629 I-4.75 J-88.548
G1 X222.265 Y221.718
G3 X219.553 Y221.651 I-0.07 J-51.96
G1 X218.476 Y221.608
G2 X216.469 Y221.667 I-0.542 J15.743
G1 X216.336 Y221.679
G2 X214.876 Y221.871 I1.821 J19.5
G1 X214.298 Y221.975
G3 X213.077 Y222.185 I-8.577 J-46.246
G1 X212.907 Y222.212
G3 X210.933 Y222.491 I-9.404 J-59.377
G1 X207.368 Y222.93
G3 X198.122 Y223.602 I-11.679 J-96.678
G1 X198.108
G2 X194.422 Y223.921 I0.757 J30.285
G3 X190.318 Y224.289 I-5.24 J-35.343
G1 X187.491 Y224.424
G3 X185.263 Y224.534 I-6.908 J-117.28
G1 X176.072 Y224.93
X169.201 Y225.222
X167.484 Y225.3
X164.193 Y225.398
G3 X163.91 Y225.361 I-0.024 J-0.903
G1 X163.738 Y225.31
G3 X163.513 Y224.55 I0.136 J-0.454
G1 X163.636 Y224.404
G3 X163.85 Y224.22 I0.698 J0.592
G1 X164.617 Y223.742
G2 X164.867 Y223.578 I-3.573 J-5.733
G1 X165.612 Y223.066
G2 X167.875 Y221.351 I-17.073 J-24.875
X169.342 Y220.061 I-24.361 J-29.179
G1 X169.766 Y219.664
G2 X170.955 Y218.515 I-49.886 J-52.845
G1 X171.275 Y218.199
G2 X172.812 Y216.588 I-30.102 J-30.259
G1 X172.95 Y216.435
G2 X174.626 Y214.38 I-21.101 J-18.919
X175.771 Y212.743 I-29.915 J-22.149
G1 X176.092 Y212.249
G2 X176.939 Y210.906 I-60.134 J-38.813
G1 X177.158 Y210.549
G2 X178.769 Y207.204 I-15.34 J-9.449
G1 X178.882 Y206.89
G3 X180.165 Y204.151 I15.435 J5.558
G1 X180.211 Y204.072
G3 X180.45 Y203.68 I11.884 J6.967
G2 X181.735 Y200.856 I-9.64 J-6.093
G1 X181.756 Y200.785
G2 X181.894 Y200.297 I-14.958 J-4.476
G1 X181.992 Y199.924
G3 X182.326 Y198.742 I35.712 J9.433
G2 X182.711 Y197.363 I-35.377 J-10.616
G1 X183.201 Y195.502
G2 X183.41 Y194.61 I-12.976 J-3.496
G3 X183.562 Y193.907 I18.942 J3.74
G1 X183.662 Y193.484
G2 X184.278 Y190.312 I-36.867 J-8.797
G1 X184.397 Y189.482
G2 X184.411 Y186.173 I-12.025 J-1.705
G3 X184.294 Y184.572 I13.369 J-1.781
G1 X184.293 Y184.535
G3 X184.301 Y183.828 I14.963 J-0.199
G1 X184.318 Y183.311
G2 X184.327 Y182.953 I-17.606 J-0.597
G1 X184.493 Y170.743
G3 X185.752 Y169.463 I1.298 J0.018
G1 X196.513 Y169.144
G3 X199.078 Y169.278 I0.465 J15.681
G1 X199.243 Y169.3
G2 X199.931 Y169.379 I2.375 J-17.588
G1 X200.379 Y169.422
G2 X204.8 Y169.504 I2.74 J-28.705
G1 X205.215 Y169.48
G3 X211.187 Y169.309 I6.257 J114.084
G1 X245.011 Y169.225
G3 X248.652 Y169.258 I0.391 J156.976
G1 X249.164 Y169.269
G2 X253.123 Y169.082 I0.654 J-28.098
G3 X253.808 Y169.008 I4.098 J34.609
G1 X253.93 Y168.996
G3 X256.068 Y168.834 I4.615 J46.913
G1 X258.563 Y168.687
X264.67 Y168.23
G2 X272.003 Y166.152 I-1.42 J-18.983
G1 X272.975 Y165.643
G3 X274.163 Y166.397 I0.377 J0.719
G1 X274.112 Y167.587
G3 X274.095 Y167.869 I-7.685 J-0.329
G1 X273.922 Y169.984
G2 X273.728 Y172.487 I119.16 J10.51
G1 X272.829 Y185.937
G3 X272.648 Y188.088 I-50.62 J-3.163
G2 X272.473 Y192.69 I34.242 J3.607
G1 X272.486 Y193.136
G3 X272.454 Y200.087 I-103.461 J2.993
G1 X272.391 Y201.506
G2 X272.458 Y205.664 I30.662 J1.592
G1 X272.467 Y205.774
G2 X272.516 Y206.298 I24.534 J-2.058
G1 X272.559 Y206.7
G3 X272.655 Y208.797 I-17.667 J1.863
G1 X272.492 Y221.233
G3 X271.233 Y222.5 I-1.283 J-0.017
G1 X258.775 Y222.741
G3 X256.721 Y222.662 I-0.344 J-17.793
G1 X256.303 Y222.622
G2 X255.769 Y222.576 I-2.409 J24.967
G1 X255.658 Y222.568
G2 X251.52 Y222.531 I-2.344 J31.273
G1 X250.139 Y222.6
G3 X246.562 Y222.698 I-4.808 J-109.751
G1 X222.265 Y222.784
G3 X219.553 Y222.731 I-0.107 J-64.737
G1 X218.476 Y222.698
G2 X216.469 Y222.746 I-0.531 J19.615
G1 X216.338 Y222.756
G2 X214.871 Y222.912 I1.831 J24.25
G1 X214.298 Y222.994
G3 X213.077 Y223.163 I-8.518 J-57.058
G1 X212.905 Y223.185
G3 X210.936 Y223.41 I-9.346 J-73.299
G1 X207.383 Y223.762
G3 X198.122 Y224.306 I-11.732 J-120.649
G1 X198.102
G2 X194.423 Y224.562 I0.768 J37.653
G3 X190.326 Y224.857 I-5.239 J-44.057
G1 X188.095 Y224.937
X186.377 Y225.019
X174.354 Y225.426
X167.484 Y225.669
X162.457 Y225.786
G3 X162.209 Y225.755 I-0.019 J-0.856
G1 X162.042 Y225.708
G3 X161.927 Y225.057 I0.098 J-0.353
G1 X162.442 Y224.69
G3 X162.668 Y224.538 I2.456 J3.437
G1 X163.647 Y223.929
G2 X169.437 Y219.405 I-19.24 J-30.591
X170.674 Y218.191 I-53.155 J-55.358
G1 X170.94 Y217.923
G2 X172.482 Y216.28 I-29.737 J-29.451
G1 X172.583 Y216.166
G2 X174.204 Y214.143 I-20.473 J-18.067
X175.36 Y212.456 I-30.079 J-21.843
G1 X175.63 Y212.032
G2 X176.508 Y210.611 I-63.871 J-40.435
G1 X176.713 Y210.271
G2 X178.378 Y206.778 I-16.838 J-10.173
G1 X178.387 Y206.753
G3 X179.599 Y204.004 I20.578 J7.428
G1 X179.659 Y203.89
G3 X179.86 Y203.519 I14.454 J7.595
G2 X181.044 Y200.702 I-11.953 J-6.68
G1 X181.046 Y200.695
G2 X181.222 Y200.051 I-16.875 J-4.962
G1 X181.329 Y199.627
G3 X181.567 Y198.738 I32.398 J8.205
G2 X181.98 Y197.128 I-32.155 J-9.093
G1 X182.359 Y195.501
G2 X182.552 Y194.54 I-14.962 J-3.508
G3 X182.676 Y193.873 I19.689 J3.308
G1 X182.748 Y193.517
G2 X183.265 Y190.302 I-38.072 J-7.766
G1 X183.356 Y189.487
G2 X183.364 Y186.177 I-15.238 J-1.688
G3 X183.269 Y184.577 I16.92 J-1.8
G1 Y184.538
G3 X183.274 Y183.831 I18.954 J-0.223
G1 X183.292 Y183.135
X183.439 Y169.477
G3 X184.484 Y168.417 I1.071 J0.012
G1 X196.684 Y168.116
G3 X198.914 Y168.206 I0.424 J17.214
G1 X199.244 Y168.241
G2 X199.931 Y168.302 I2.345 J-22.234
G1 X200.382 Y168.336
G2 X204.796 Y168.398 I2.721 J-36.578
G1 X205.217 Y168.379
G3 X211.183 Y168.243 I6.313 J145.432
G1 X245.011 Y168.162
G3 X248.654 Y168.186 I0.481 J202.019
G1 X249.171 Y168.195
G2 X253.122 Y168.048 I0.635 J-36.025
G1 X253.932 Y167.98
G3 X256.066 Y167.854 I4.619 J60.137
G1 X258.563 Y167.739
X264.711 Y167.378
G2 X266.895 Y167.125 I-1.133 J-19.326
G1 X267.037 Y167.101
G2 X272.036 Y165.37 I-2.825 J-16.243
G1 X272.588 Y165.072
G2 X273.164 Y164.72 I-2.996 J-5.557
G1 X273.876 Y164.232
G3 X274.896 Y164.759 I0.369 J0.537
G1 X274.911 Y165.677
G3 X274.895 Y166.272 I-7.005 J0.112
G1 X274.568 Y171.235
X273.819 Y185.94
G3 X273.682 Y188.086 I-65.501 J-3.107
G2 X273.55 Y192.684 I44.498 J3.576
G1 X273.56 Y193.135
G3 X273.54 Y200.084 I-134.722 J3.087
G1 X273.493 Y201.507
G2 X273.547 Y205.664 I39.967 J1.563
G1 X273.638 Y206.856
G3 X273.701 Y208.638 I-19.239 J1.568
G1 X273.547 Y222.503
G3 X272.503 Y223.554 I-1.063 J-0.012
G1 X258.613 Y223.792
G3 X256.881 Y223.744 I-0.331 J-19.335
G1 X255.656 Y223.661
G2 X251.524 Y223.636 I-2.312 J41.125
G1 X250.138 Y223.69
G3 X246.565 Y223.767 I-4.905 J-144.35
G1 X222.266 Y223.849
G3 X219.552 Y223.812 I-0.171 J-85.902
G1 X218.372 Y223.785
G2 X215.18 Y223.919 I-0.51 J25.973
G1 X212.904 Y224.159
G3 X210.939 Y224.328 I-9.319 J-96.408
G1 X207.4 Y224.594
G3 X198.122 Y225.009 I-11.815 J-160.341
G1 X198.097
G2 X194.424 Y225.203 I0.79 J50.023
G3 X190.331 Y225.426 I-5.251 J-58.633
G1 X184.66 Y225.59
X167.484 Y226.039
X160.697 Y226.162
X160.614 Y226.158
X160.532 Y226.143
X160.479 Y226.13
G3 X160.322 Y225.557 I0.085 J-0.331
G1 X160.376 Y225.51
X160.435 Y225.47
X161.629 Y224.762
G2 X163.096 Y223.86 I-42.658 J-71.03
G1 X163.416 Y223.658
G2 X169.093 Y219.164 I-18.681 J-29.429
G1 X169.103 Y219.154
G2 X170.399 Y217.86 I-57.119 J-58.471
G1 X170.608 Y217.645
G2 X172.151 Y215.974 I-29.312 J-28.591
G1 X172.219 Y215.895
G2 X173.781 Y213.91 I-19.834 J-17.214
X174.95 Y212.166 I-30.322 J-21.582
G1 X175.163 Y211.824
G2 X176.082 Y210.307 I-68.524 J-42.53
G1 X176.283 Y209.967
G2 X177.986 Y206.358 I-18.356 J-10.868
G3 X178.479 Y205.098 I24.428 J8.839
G1 X178.49 Y205.073
G3 X178.883 Y204.187 I24.881 J10.499
G1 X179.107 Y203.704
G3 X179.269 Y203.363 I18.61 J8.652
G2 X180.543 Y199.824 I-15.672 J-7.64
G1 X180.659 Y199.344
G3 X180.817 Y198.721 I29.442 J7.125
G2 X181.238 Y196.906 I-29.276 J-7.746
G1 X181.344 Y196.38
G2 X181.735 Y194.178 I-47.135 J-9.517
G1 X181.841 Y193.55
G2 X182.245 Y190.369 I-38.42 J-6.498
G1 X182.316 Y189.491
G2 X182.316 Y186.181 I-20.784 J-1.656
G3 X182.245 Y184.582 I23.059 J-1.834
G1 X182.244 Y184.541
G3 X182.247 Y183.834 I25.859 J-0.263
G1 X182.383 Y168.249
G3 X183.255 Y167.367 I0.89 J0.007
G1 X196.899 Y167.09
G3 X198.704 Y167.141 I0.382 J18.802
G1 X199.249 Y167.182
G2 X199.928 Y167.226 I2.286 J-30.114
G1 X200.385 Y167.25
G2 X204.791 Y167.293 I2.689 J-50.437
G1 X205.221 Y167.278
G3 X211.177 Y167.176 I6.413 J200.58
G1 X247.339 Y167.101
X249.177 Y167.12
G2 X253.121 Y167.013 I0.604 J-50.376
G1 X253.935 Y166.964
G3 X256.064 Y166.874 I4.642 J83.992
G1 X258.564 Y166.79
X264.784 Y166.527
G2 X266.761 Y166.338 I-0.79 J-18.683
G1 X266.832 Y166.327
G2 X273.745 Y163.556 I-2.39 J-15.969
G1 X274.492 Y163.029
X274.588 Y162.969
X274.858 Y162.82
G3 X275.55 Y163.193 I0.226 J0.409
G1 X275.622 Y164.128
X275.627 Y164.222
X275.626 Y164.315
X275.566 Y165.975
X275.323 Y171.235
X274.809 Y185.944
G3 X274.715 Y188.083 I-93.251 J-3.02
G2 X274.627 Y192.679 I63.561 J3.52
G1 X274.634 Y193.135
G3 X274.627 Y200.077 I-193.048 J3.264
G1 X274.595 Y201.505
G2 X274.637 Y205.665 I57.456 J1.51
G1 X274.712 Y207.05
G3 X274.746 Y208.443 I-20.851 J1.2
G1 X274.604 Y223.729
G3 X273.729 Y224.61 I-0.889 J-0.008
G1 X258.414 Y224.842
G3 X257.078 Y224.819 I-0.317 J-20.922
G1 X255.654 Y224.754
G2 X251.529 Y224.741 I-2.251 J60.059
G1 X249.199 Y224.802
X245.781 Y224.841
X222.268 Y224.915
G3 X219.552 Y224.892 I-0.296 J-127.715
G1 X218.376 Y224.875
G2 X215.174 Y224.969 I-0.472 J38.656
G1 X211.922 Y225.196
X207.422 Y225.428
G3 X198.123 Y225.713 I-11.974 J-238.812
G1 X198.094
G2 X194.428 Y225.844 I0.838 J74.945
G3 X190.334 Y225.995 I-5.292 J-87.89
G1 X177.789 Y226.231
X165.766 Y226.431
X160.613 Y226.493
X158.952 Y226.494
X158.896 Y226.49
X158.84 Y226.48
X158.793 Y226.469
G3 X158.723 Y226.073 I0.052 J-0.214
G1 X159.052 Y225.853
X159.111 Y225.817
X159.845 Y225.418
G2 X160.558 Y225.009 I-9.221 J-16.934
G1 X161.377 Y224.516
G2 X170.194 Y217.455 I-22.744 J-37.432
G1 X170.279 Y217.366
G2 X171.817 Y215.67 I-28.826 J-27.681
G1 X171.857 Y215.623
G2 X173.357 Y213.68 I-19.175 J-16.357
X174.541 Y211.872 I-30.659 J-21.375
G1 X174.69 Y211.629
G2 X175.662 Y209.99 I-74.446 J-45.281
G1 X175.872 Y209.627
G2 X177.591 Y205.945 I-19.844 J-11.505
G3 X177.895 Y205.151 I23.531 J8.537
G1 X178.362 Y203.991
G2 X180.075 Y198.693 I-35.913 J-14.534
X180.487 Y196.696 I-26.701 J-6.554
G1 X180.524 Y196.476
G2 X180.868 Y194.117 I-53.381 J-8.997
G1 X180.931 Y193.645
G2 X181.228 Y190.46 I-39.254 J-5.267
G1 X181.276 Y189.496
G2 X181.269 Y186.185 I-32.664 J-1.588
G3 X181.22 Y184.586 I36.227 J-1.911
G1 X181.327 Y167.054
G3 X182.058 Y166.316 I0.743 J0.005
G1 X197.162 Y166.066
G3 X198.446 Y166.086 I0.337 J20.446
G1 X200.389 Y166.164
G2 X204.785 Y166.187 I2.62 J-81.265
G1 X209.248 Y166.118
X247.34 Y166.036
X249.181 Y166.046
G2 X253.118 Y165.979 I0.534 J-84.116
G1 X255 Y165.913
X258.565 Y165.842
X264.885 Y165.679
G2 X275.043 Y161.769 I-0.419 J-16.239
G1 X275.622 Y161.271
G3 X276.198 Y161.509 I0.228 J0.265
G1 X276.269 Y162.397
X276.274 Y162.54
X276.217 Y165.975
X276.079 Y171.235
X275.78 Y187.014
X275.748 Y188.076
G2 X275.703 Y192.673 I111.273 J3.383
G1 X275.729 Y197.49
X275.697 Y201.499
G2 X275.726 Y205.669 I102.339 J1.379
G1 X275.778 Y207.282
G3 X275.79 Y208.21 I-22.501 J0.756
G1 X275.662 Y224.924
G3 X274.924 Y225.666 I-0.748 J-0.006
G1 X258.178 Y225.891
G3 X257.313 Y225.886 I-0.303 J-22.554
G1 X255.649 Y225.847
G2 X251.539 Y225.846 I-2.087 J111.349
G1 X247.49 Y225.899
X220.412 Y225.979
X218.395 Y225.966
G2 X215.158 Y226.019 I-0.366 J76.16
G1 X211.922 Y226.139
X203.382 Y226.36
X199.962 Y226.407
X198.094 Y226.416
G2 X194.439 Y226.485 I0.993 J150.597
G3 X190.33 Y226.564 I-5.439 J-176.164
G1 X165.766 Y226.79
X159.124 Y226.823
G3 X158.667 Y226.816 I-0.011 J-15.852
G1 X157.213 Y226.775
X157.144 Y226.767
X157.023 Y226.74
X156.984 Y226.724
X156.953 Y226.696
X156.933 Y226.659
X156.927 Y226.618
X156.936 Y226.577
X156.958 Y226.541
X156.991 Y226.515
X157.769 Y226.09
X157.823 Y226.063
X158.355 Y225.813
G2 X159.496 Y225.234 I-8.655 J-18.447
G1 X159.564 Y225.196
G2 X160.501 Y224.653 I-10.986 J-20.038
G1 X161.113 Y224.279
G2 X169.894 Y217.146 I-22.681 J-36.894
G1 X169.952 Y217.085
G2 X171.48 Y215.369 I-28.279 J-26.725
G1 X171.497 Y215.348
G2 X172.931 Y213.454 I-18.487 J-15.488
X174.176 Y211.504 I-31.101 J-21.224
G1 X174.206 Y211.453
G2 X175.252 Y209.654 I-82.169 J-48.96
G1 X175.424 Y209.352
G2 X176.268 Y207.738 I-23.45 J-13.303
G1 X176.27 Y207.734
G2 X177.194 Y205.542 I-21.529 J-10.359
G1 X177.389 Y205.022
G2 X177.923 Y203.55 I-45.487 J-17.337
G1 X178.154 Y202.884
G2 X179.295 Y198.853 I-32.593 J-11.401
G1 X179.339 Y198.654
G2 X179.726 Y196.497 I-24.397 J-5.495
G1 X179.769 Y196.178
G2 X179.987 Y194.216 I-42.534 J-5.715
G1 X180.005 Y194.012
G2 X180.227 Y189.999 I-52.997 J-4.946
G1 X180.236 Y189.503
G2 X180.222 Y186.191 I-76.205 J-1.335
G3 X180.196 Y184.591 I84.581 J-2.195
G1 X180.27 Y165.758
G3 X180.759 Y165.264 I0.496 J0.002
G1 X197.473 Y165.044
G3 X198.136 Y165.045 I0.292 J22.148
G1 X200.398 Y165.079
G2 X204.762 Y165.082 I2.336 J-209.279
G1 X212.098 Y165.042
X251.937 Y164.961
X256.784 Y164.907
X264.95 Y164.834
G2 X266.471 Y164.755 I-0.164 J-17.789
G1 X266.596 Y164.743
G2 X274.664 Y161.301 I-1.368 J-14.384
G1 X275.091 Y160.933
G2 X275.809 Y160.239 I-5.699 J-6.608
G1 X276.179 Y159.838
X276.236 Y159.783
X276.525 Y159.544
G3 X276.759 Y159.64 I0.091 J0.11
G1 X276.865 Y160.656
X276.871 Y160.774
X276.876 Y164.221
X276.834 Y171.235
X276.771 Y190.521
X276.799 Y200.909
X276.818 Y206.036
X276.835 Y207.746
X276.815 Y226.128
G3 X276.13 Y226.817 I-0.689 J-0.001
G1 X257.746 Y226.942
X250.908 Y226.954
X213.689 Y227.074
X203.382 Y227.108
X196.56 Y227.123
X155.46
G3 X155.381 Y226.732 I0 J-0.203
X157.673 Y225.789 I56.058 J132.968
G2 X159.891 Y224.683 I-5.715 J-14.233
X163.75 Y222.232 I-53.161 J-87.971
X167.283 Y219.333 I-12.809 J-19.211
X170.463 Y216.004 I-74.536 J-74.398
X173.218 Y212.316 I-17.144 J-15.678
X175.487 Y208.359 I-90.438 J-54.493
X177.265 Y204.157 I-20.324 J-11.079
X178.532 Y199.742 I-98.622 J-30.686
X179.257 Y195.207 I-22.551 J-5.931
G3 X179.385 Y193.333 I111.219 J6.669
G2 X179.457 Y191.456 I-24.414 J-1.877
G1 X179.377 Y164.952
G3 X179.952 Y164.377 I0.575 J0
G1 X265.697 Y164.457
G2 X271.864 Y162.943 I0 J-13.316
X276.692 Y158.819 I-6.578 J-12.59
G3 X277.123 Y158.962 I0.192 J0.142
G1 Y226.548
G3 X276.548 Y227.123 I-0.575 J0
G1 X196.56
X196.514 Y227.119 Z-2.993
X196.469 Y227.108 Z-2.985
X196.43 Y227.093 Z-2.964
X196.393 Y227.072 Z-2.943
X196.343 Y227.03 Z-2.876
X196.316 Y226.997 Z-2.793
X196.307 Y226.985 Z-2.7
G0 Z5
X198.149 Y-204.136
Z3.45
G1 X198.138 Y-204.128 Z3.359 F333.3
X198.104 Y-204.105 Z3.277
X198.05 Y-204.072 Z3.211
X197.979 Y-204.033 Z3.167
X197.897 Y-203.994 Z3.15
G3 X196.759 Y-206.607 Z2.994 I-0.569 J-1.306
X197.897 Y-203.994 Z2.837 I0.569 J1.306
X196.759 Y-206.607 Z2.681 I-0.569 J-1.306
X197.897 Y-203.994 Z2.525 I0.569 J1.306
X196.759 Y-206.607 Z2.368 I-0.569 J-1.306
X197.897 Y-203.994 Z2.212 I0.569 J1.306
X196.759 Y-206.607 Z2.056 I-0.569 J-1.306
X197.897 Y-203.994 Z1.899 I0.569 J1.306
X196.759 Y-206.607 Z1.743 I-0.569 J-1.306
X197.897 Y-203.994 Z1.587 I0.569 J1.306
X196.759 Y-206.607 Z1.43 I-0.569 J-1.306
X197.897 Y-203.994 Z1.274 I0.569 J1.306
X196.759 Y-206.607 Z1.118 I-0.569 J-1.306
X197.897 Y-203.994 Z0.961 I0.569 J1.306
X196.759 Y-206.607 Z0.805 I-0.569 J-1.306
X197.897 Y-203.994 Z0.649 I0.569 J1.306
X196.759 Y-206.607 Z0.492 I-0.569 J-1.306
X197.897 Y-203.994 Z0.336 I0.569 J1.306
X196.759 Y-206.607 Z0.18 I-0.569 J-1.306
X197.897 Y-203.994 Z0.023 I0.569 J1.306
X196.759 Y-206.607 Z-0.133 I-0.569 J-1.306
X197.897 Y-203.994 Z-0.289 I0.569 J1.306
X196.759 Y-206.607 Z-0.446 I-0.569 J-1.306
X197.897 Y-203.994 Z-0.602 I0.569 J1.306
X196.759 Y-206.607 Z-0.758 I-0.569 J-1.306
X197.897 Y-203.994 Z-0.915 I0.569 J1.306
X196.759 Y-206.607 Z-1.071 I-0.569 J-1.306
X197.897 Y-203.994 Z-1.227 I0.569 J1.306
X196.759 Y-206.607 Z-1.384 I-0.569 J-1.306
X197.897 Y-203.994 Z-1.54 I0.569 J1.306
X196.759 Y-206.607 Z-1.696 I-0.569 J-1.306
X197.897 Y-203.994 Z-1.853 I0.569 J1.306
X196.759 Y-206.607 Z-2.009 I-0.569 J-1.306
X197.897 Y-203.994 Z-2.165 I0.569 J1.306
X196.759 Y-206.607 Z-2.322 I-0.569 J-1.306
X197.897 Y-203.994 Z-2.478 I0.569 J1.306
X196.759 Y-206.607 Z-2.634 I-0.569 J-1.306
X197.897 Y-203.994 Z-2.791 I0.569 J1.306
X196.759 Y-206.607 Z-2.947 I-0.569 J-1.306
X198.197 Y-206.431 Z-3 I0.569 J1.306
G1 X199.203 Y-205.658 F1000
G3 X201.514 Y-203.837 I-73.293 J95.393
G1 X201.592 Y-203.774
G3 X203.779 Y-201.963 I-74.645 J92.386
G1 X203.828 Y-201.922
G3 X207.972 Y-198.283 I-105.109 J123.903
G1 X210.519 Y-195.969
G2 X210.854 Y-195.839 I0.335 J-0.366
G1 X245.772 Y-196.047
X245.792 Y-196.046
X245.849 Y-196.042
G3 X246.042 Y-195.852 I-0.029 J0.222
X245.753 Y-195.515 I-0.291 J0.043
G1 X211.838 Y-195.325
G3 X209.006 Y-196.446 I-0.023 J-4.078
G1 X207.756 Y-197.642
G2 X198.945 Y-205.326 I-85.246 J88.86
G1 X198.186 Y-205.927
G3 X198.005 Y-206.107 I0.704 J-0.89
G1 X197.917 Y-206.216
X197.889 Y-206.259
X197.868 Y-206.305
X197.851 Y-206.342
X197.826 Y-206.375
X197.816 Y-206.387
X197.78 Y-206.42
G3 X197.995 Y-206.829 I0.142 J-0.187
G1 X198.006 Y-206.825
G3 X198.991 Y-206.323 I-1.17 J3.514
G1 X199.414 Y-206.021
X199.505 Y-205.955
X200.102 Y-205.511
G3 X201.305 Y-204.595 I-39.818 J53.569
G1 X201.866 Y-204.158
G3 X208.47 Y-198.6 I-72.253 J92.558
G1 X210.383 Y-196.881
G2 X211.551 Y-196.43 I1.168 J-1.289
G1 X212.041 Y-196.431
X212.114 Y-196.432
X212.281 Y-196.436
G3 X212.603 Y-196.441 I0.447 J17.547
G1 X213.685 Y-196.449
G2 X214.042 Y-196.455 I-0.137 J-19.214
G3 X214.404 Y-196.461 I0.494 J19.208
G1 X215.375 Y-196.468
G2 X215.925 Y-196.477 I-0.2 J-28.826
G1 X222.795 Y-196.591
X245.743 Y-196.829
X245.82 Y-196.828
X245.832
X245.94 Y-196.823
X246.048 Y-196.812
X246.068 Y-196.81
X246.135 Y-196.799
X246.21 Y-196.788
X246.285 Y-196.781
X246.336 Y-196.778
X246.443 Y-196.776
X246.55 Y-196.782
X246.598 Y-196.786
X246.617 Y-196.789
X246.711 Y-196.807
X246.744
X246.773 Y-196.794
X246.797 Y-196.772
X246.81 Y-196.743
X246.811 Y-196.71
G2 X246.795 Y-196.37 I1.673 J0.251
G1 X246.803 Y-196.217
X246.818 Y-196.065
X246.83 Y-195.973
X246.831 Y-195.959
X246.839 Y-195.841
Y-195.722
X246.838 Y-195.694
X246.835 Y-195.626
X246.831 Y-195.536
X246.834 Y-195.445
X246.843 Y-195.32
G3 X246.26 Y-194.716 I-0.562 J0.042
G1 X246.099 Y-194.722
X246.016 Y-194.723
X245.934 Y-194.718
X245.862 Y-194.713
X245.816 Y-194.712
X245.75 Y-194.71
X210.711 Y-194.347
X210.614
X210.569
G3 X210.288 Y-194.365 I0.031 J-2.68
G1 X210.25 Y-194.37
X210.19 Y-194.378
G3 X208.18 Y-195.435 I0.601 J-3.583
G1 X207.888 Y-195.737
G3 X207.434 Y-196.221 I24.217 J-23.167
G1 X206.829 Y-196.88
G2 X202.949 Y-200.747 I-46.323 J42.59
X198.894 Y-204.289 I-81.369 J89.065
G1 X198.533 Y-204.59
X198.346 Y-204.753
X197.659 Y-205.372
G3 X197.23 Y-206.012 I1.05 J-1.166
G2 X197.059 Y-206.296 I-0.784 J0.279
G1 X197.007 Y-206.349
X196.95 Y-206.397
G3 X196.721 Y-206.654 I0.534 J-0.703
G1 X196.406 Y-207.193
G3 X196.78 Y-207.753 I0.323 J-0.189
G1 X196.84 Y-207.745
X196.881 Y-207.741
X197.007 Y-207.732
G3 X197.39 Y-207.676 I-0.193 J2.655
G1 X197.421 Y-207.669
X197.525 Y-207.643
X197.627 Y-207.612
G2 X197.985 Y-207.527 I0.651 J-1.954
G1 X198.049 Y-207.518
G3 X199.348 Y-207.036 I-0.467 J3.247
G1 X199.822 Y-206.732
G3 X200.103 Y-206.543 I-3.816 J5.975
G1 X200.624 Y-206.175
G3 X209.534 Y-199.018 I-54.671 J77.194
G1 X210.382 Y-198.255
G2 X212.494 Y-197.458 I2.091 J-2.345
G1 X215.052 Y-197.48
G2 X216.336 Y-197.5 I-0.434 J-69.072
G1 X219.872 Y-197.586
G3 X222.229 Y-197.638 I3.734 J116.574
G1 X245.71 Y-197.865
X245.854
X245.882 Y-197.864
G3 X246.312 Y-197.833 I-0.074 J4.065
G1 X246.351 Y-197.828
X246.485 Y-197.808
G2 X246.783 Y-197.772 I0.457 J-2.558
G1 X246.884 Y-197.766
G2 X247.312 Y-197.774 I0.163 J-2.654
G1 X247.407 Y-197.784
X247.446 Y-197.789
X247.635 Y-197.825
G3 X247.834 Y-197.634 I0.031 J0.166
G2 X247.802 Y-196.956 I3.325 J0.493
G1 X247.819 Y-196.652
G2 X247.851 Y-196.348 I3.076 J-0.169
G1 X247.874 Y-196.165
X247.876 Y-196.135
G3 X247.893 Y-195.664 I-4.045 J0.382
G1 X247.892 Y-195.608
X247.885 Y-195.472
G2 X247.884 Y-195.11 I2.284 J0.186
G1 X247.898 Y-194.932
G2 X247.955 Y-194.531 I3.113 J-0.238
G3 X248.002 Y-194.241 I-3.057 J0.641
G1 X248.02 Y-194.077
G3 X247.473 Y-193.536 I-0.487 J0.055
G1 X247.21 Y-193.566
X247.093 Y-193.581
X246.976 Y-193.603
G2 X246.569 Y-193.653 I-0.499 J2.388
G1 X246.417 Y-193.658
G2 X246.087 Y-193.649 I-0.096 J2.554
G1 X245.942 Y-193.64
X245.855 Y-193.637
X245.712 Y-193.634
X210.742 Y-193.295
X210.584
X210.524 Y-193.296
G3 X210.04 Y-193.327 I0.059 J-4.741
G1 X209.975 Y-193.335
X209.869 Y-193.349
G2 X209.495 Y-193.378 I-0.353 J2.133
G1 X209.072 Y-193.374
G3 X207.366 Y-194.235 I-0.021 J-2.081
G1 X207.303 Y-194.317
X207.236 Y-194.397
X206.958 Y-194.718
G3 X206.531 Y-195.238 I14.301 J-12.189
G1 X205.992 Y-195.919
G2 X202.349 Y-199.945 I-32.577 J25.812
G1 X201.654 Y-200.618
G2 X200.68 Y-201.534 I-33.263 J34.389
G1 X199.219 Y-202.878
G2 X198.796 Y-203.25 I-9.892 J10.807
G3 X198.54 Y-203.472 I9.471 J-11.179
G1 X198.083 Y-203.878
G3 X197.784 Y-204.158 I4.922 J-5.56
G1 X197.273 Y-204.663
G3 X196.591 Y-205.735 I2.01 J-2.033
G2 X196.305 Y-206.207 I-1.303 J0.465
G1 X196.218 Y-206.295
X196.123 Y-206.374
X196.088 Y-206.4
G3 X195.734 Y-206.755 I1.148 J-1.501
G1 X195.588 Y-206.947
G3 X195.132 Y-207.823 I2.279 J-1.74
G1 X195.125 Y-207.845
X195.119 Y-207.867
X195.115 Y-207.879
G3 X195.774 Y-208.643 I0.578 J-0.167
G1 X195.937 Y-208.62
X196.005 Y-208.613
X196.215 Y-208.598
G3 X196.854 Y-208.504 I-0.323 J4.427
G1 X196.904 Y-208.493
G3 X197.247 Y-208.398 I-0.746 J3.358
G2 X197.844 Y-208.257 I1.087 J-3.257
G1 X197.951 Y-208.241
G3 X200.15 Y-207.477 I-0.876 J6.074
G1 X200.227 Y-207.433
G3 X200.702 Y-207.136 I-4.119 J7.111
G1 X201.425 Y-206.652
G3 X201.992 Y-206.269 I-11.68 J17.911
G1 X202.743 Y-205.744
G3 X210.254 Y-199.746 I-43.052 J61.617
G1 X210.674 Y-199.364
G2 X212.99 Y-198.477 I2.294 J-2.523
G1 X214.943 Y-198.494
G2 X216.649 Y-198.524 I-0.416 J-72.062
G1 X219.864 Y-198.625
G3 X222.232 Y-198.693 I3.291 J74.302
G1 X245.676 Y-198.905
X245.888 Y-198.904
X245.932 Y-198.903
G3 X246.577 Y-198.857 I-0.11 J6.093
G1 X246.635 Y-198.85
X246.837 Y-198.819
G2 X247.282 Y-198.766 I0.684 J-3.835
G1 X247.434 Y-198.757
G2 X248.076 Y-198.769 I0.244 J-3.98
G1 X248.219 Y-198.784
X248.277 Y-198.792
X248.56 Y-198.845
G3 X248.858 Y-198.559 I0.047 J0.249
G2 X248.811 Y-197.543 I4.983 J0.738
G1 X248.837 Y-197.086
G2 X248.884 Y-196.631 I4.612 J-0.254
G3 X248.919 Y-196.357 I-4.567 J0.709
G1 X248.923 Y-196.313
G3 X248.948 Y-195.605 I-6.066 J0.574
G1 X248.947 Y-195.521
X248.936 Y-195.317
G2 X248.935 Y-194.775 I3.425 J0.279
G1 X248.955 Y-194.508
G2 X249.041 Y-193.906 I4.67 J-0.359
G3 X249.111 Y-193.471 I-4.587 J0.962
G1 X249.162 Y-193.04
G3 X248.513 Y-192.389 I-0.577 J0.073
G1 X247.925 Y-192.458
G3 X247.573 Y-192.513 I0.397 J-3.643
G2 X246.962 Y-192.588 I-0.747 J3.582
G1 X246.735 Y-192.596
G2 X246.24 Y-192.583 I-0.142 J3.831
G1 X246.023 Y-192.569
X245.895 Y-192.564
X245.675 Y-192.559
X210.773 Y-192.243
X210.554
X210.479 Y-192.244
G3 X209.793 Y-192.288 I0.089 J-6.802
G1 X209.733 Y-192.295
X209.515 Y-192.325
G2 X209.05 Y-192.377 I-0.73 J4.428
G1 X208.032 Y-192.432
G3 X206.328 Y-193.311 I0.1 J-2.286
G1 X206.025 Y-193.703
G3 X205.631 Y-194.25 I10.685 J-8.096
G1 X205.112 Y-195.012
G2 X201.731 Y-199.155 I-25.618 J17.456
G1 X201.001 Y-199.904
G2 X200.112 Y-200.789 I-30.747 J29.982
G1 X198.654 Y-202.208
G2 X198.277 Y-202.558 I-8.39 J8.678
G3 X198.007 Y-202.805 I8.013 J-9.028
G1 X197.617 Y-203.173
G3 X197.227 Y-203.565 I5.87 J-6.223
G1 X196.865 Y-203.954
G3 X195.95 Y-205.457 I3.189 J-2.97
G2 X195.551 Y-206.117 I-1.823 J0.652
G1 X195.546 Y-206.122
G2 X195.295 Y-206.352 I-1.441 J1.328
G1 X195.247 Y-206.388
G3 X194.751 Y-206.884 I1.607 J-2.102
G1 X194.545 Y-207.153
G3 X193.907 Y-208.379 I3.188 J-2.437
G1 X193.897 Y-208.412
X193.888 Y-208.44
X193.716 Y-209.034
G3 X194.185 Y-209.489 I0.355 J-0.103
G1 X194.258 Y-209.47
X194.333 Y-209.46
X194.409 Y-209.459
X194.886 Y-209.48
G3 X195.277 Y-209.475 I0.148 J3.31
G1 X195.437 Y-209.463
G3 X196.304 Y-209.335 I-0.441 J6.009
G1 X196.389 Y-209.316
G3 X196.868 Y-209.183 I-1.046 J4.7
G2 X197.703 Y-208.985 I1.523 J-4.559
G1 X198.096 Y-208.928
G3 X201.3 Y-207.733 I-1.156 J7.991
G1 X201.645 Y-207.512
G2 X201.965 Y-207.311 I10.699 J-16.679
G3 X202.522 Y-206.956 I-10.378 J16.879
G1 X203.271 Y-206.46
G3 X211.039 Y-200.414 I-35.409 J53.512
G1 X211.101 Y-200.359
G2 X213.362 Y-199.491 I2.242 J-2.465
G1 X214.948 Y-199.506
G2 X216.705 Y-199.543 I-0.379 J-60.95
G1 X218.748 Y-199.613
G2 X219.86 Y-199.665 I-2.15 J-57.674
G3 X222.234 Y-199.748 I3.088 J54.531
G1 X245.642 Y-199.947
G3 X245.921 Y-199.946 I0.088 J10.508
G1 X245.982 Y-199.945
G3 X246.842 Y-199.884 I-0.148 J8.125
G1 X246.92 Y-199.874
G3 X247.189 Y-199.833 I-0.644 J5.159
G2 X247.783 Y-199.762 I0.913 J-5.113
G1 X247.985 Y-199.75
G2 X248.841 Y-199.766 I0.326 J-5.307
G1 X249.031 Y-199.785
X249.109 Y-199.796
X249.478 Y-199.866
G3 X249.883 Y-199.476 I0.064 J0.339
G2 X249.891 Y-197.094 I7.853 J1.164
G1 X249.909 Y-196.976
G3 X250.004 Y-195.543 I-8.069 J1.252
G1 X250.001 Y-195.434
G3 X249.987 Y-195.162 I-4.589 J-0.101
G2 X249.986 Y-194.44 I4.567 J0.372
G1 X250.013 Y-194.084
G2 X250.128 Y-193.281 I6.225 J-0.478
G3 X250.221 Y-192.702 I-6.115 J1.282
G1 X250.322 Y-191.862
G3 X249.726 Y-191.379 I-0.448 J0.057
G2 X249.464 Y-191.418 I-0.234 J0.672
G1 X248.787 Y-191.391
G3 X248.026 Y-191.455 I-0.123 J-3.12
G2 X247.503 Y-191.519 I-0.64 J3.065
G1 X247.053 Y-191.536
G2 X246.393 Y-191.517 I-0.19 J5.107
G3 X246.103 Y-191.499 I-0.47 J-5.095
G1 X245.934 Y-191.493
G3 X245.637 Y-191.486 I-0.391 J-11.077
G1 X210.803 Y-191.189
G3 X210.524 Y-191.19 I-0.107 J-12.56
G1 X210.434 Y-191.191
G3 X209.545 Y-191.248 I0.122 J-8.865
G1 X209.468 Y-191.257
G3 X209.184 Y-191.297 I0.665 J-5.795
G2 X208.58 Y-191.364 I-0.948 J5.752
G1 X208.069 Y-191.394
G2 X207.344 Y-191.371 I-0.235 J3.983
G1 X207.153 Y-191.347
G3 X206.81 Y-191.336 I-0.232 J-1.874
G1 X206.65 Y-191.346
G3 X205.444 Y-192.146 I0.085 J-1.436
G1 X205.387 Y-192.25
X205.323 Y-192.351
X205.09 Y-192.688
G3 X204.732 Y-193.259 I8.895 J-5.973
G1 X204.304 Y-193.992
G2 X200.948 Y-198.538 I-22.75 J13.28
G1 X200.359 Y-199.18
G2 X199.532 Y-200.052 I-29.329 J26.959
G1 X198.095 Y-201.532
G2 X197.75 Y-201.869 I-7.465 J7.307
G3 X197.478 Y-202.132 I7.12 J-7.644
G1 X196.834 Y-202.775
G3 X195.308 Y-205.179 I4.558 J-4.579
G2 X194.795 Y-206.028 I-2.343 J0.838
G1 X194.789 Y-206.034
G2 X194.466 Y-206.329 I-1.853 J1.707
G1 X194.404 Y-206.376
G3 X193.767 Y-207.013 I2.065 J-2.703
G1 X193.368 Y-207.535
G3 X192.616 Y-209.321 I3.062 J-2.341
G1 X192.511 Y-210.039
X192.499 Y-210.093
X192.481 Y-210.146
X192.455 Y-210.196
G3 X192.678 Y-210.479 I0.164 J-0.1
G1 X193.053 Y-210.358
G2 X193.314 Y-210.323 I0.228 J-0.706
G1 X193.941 Y-210.35
G3 X194.444 Y-210.343 I0.189 J4.259
G1 X194.649 Y-210.328
G3 X195.764 Y-210.163 I-0.571 J7.729
G1 X195.873 Y-210.139
G3 X196.49 Y-209.968 I-1.346 J6.042
G2 X197.563 Y-209.713 I1.96 J-5.861
G1 X197.907 Y-209.663
G2 X198.489 Y-209.61 I0.786 J-5.419
G3 X200.955 Y-208.895 I-0.196 J5.29
G1 X201.388 Y-208.643
X201.563 Y-208.539
X202.144 Y-208.185
G2 X202.5 Y-207.973 I9.983 J-16.372
G3 X203.056 Y-207.638 I-9.625 J16.583
G1 X204.558 Y-206.694
G3 X207.335 Y-204.8 I-21.601 J34.665
G1 X208.164 Y-204.188
G3 X210.438 Y-202.344 I-15.157 J21.016
G1 X210.652 Y-202.149
G2 X214.916 Y-200.517 I4.221 J-4.642
G1 X214.951 Y-200.518
G2 X216.729 Y-200.56 I-0.361 J-52.237
G1 X218.748 Y-200.642
G2 X219.858 Y-200.705 I-2.033 J-45.576
G3 X222.235 Y-200.804 I2.974 J43.075
G1 X245.608 Y-200.992
G3 X245.955 Y-200.99 I0.104 J13.186
G1 X246.032 Y-200.989
G3 X247.107 Y-200.912 I-0.187 J10.162
G1 X247.205 Y-200.9
G3 X247.541 Y-200.849 I-0.807 J6.451
G2 X248.284 Y-200.76 I1.143 J-6.394
G1 X248.538 Y-200.744
G2 X249.608 Y-200.764 I0.409 J-6.634
G1 X249.846 Y-200.788
X249.942 Y-200.802
X250.442 Y-200.896
G3 X250.915 Y-200.438 I0.075 J0.396
G1 X250.91 Y-200.401
G2 X250.919 Y-197.422 I9.823 J1.458
G1 X250.942 Y-197.275
G3 X251.06 Y-195.484 I-10.088 J1.563
G1 X251.057 Y-195.347
G3 X251.039 Y-195.008 I-5.736 J-0.128
G2 X251.037 Y-194.104 I5.708 J0.467
G1 X251.071 Y-193.66
G2 X251.214 Y-192.656 I7.778 J-0.595
G3 X251.33 Y-191.932 I-7.641 J1.6
G1 X251.487 Y-190.639
G3 X250.944 Y-190.199 I-0.408 J0.052
G1 X250.71 Y-190.28
G2 X250.383 Y-190.329 I-0.293 J0.84
G1 X249.537 Y-190.295
G3 X248.586 Y-190.375 I-0.153 J-3.901
G2 X247.933 Y-190.455 I-0.8 J3.831
G1 X247.37 Y-190.476
G2 X246.545 Y-190.454 I-0.24 J6.382
G3 X246.183 Y-190.431 I-0.586 J-6.367
G1 X245.973 Y-190.423
G3 X245.6 Y-190.415 I-0.484 J-13.801
G1 X210.835 Y-190.135
G3 X210.494 Y-190.136 I-0.123 J-15.271
G1 X210.389 Y-190.137
G3 X209.297 Y-190.208 I0.155 J-10.929
G1 X209.202 Y-190.219
G3 X208.853 Y-190.267 I0.819 J-7.13
G2 X208.11 Y-190.35 I-1.167 J7.076
G1 X207.566 Y-190.383
G2 X206.504 Y-190.349 I-0.345 J5.832
G1 X206.275 Y-190.32
G3 X206.014 Y-190.304 I-0.262 J-2.116
X204.29 Y-191.405 I0 J-1.9
G1 X204.252 Y-191.487
X204.2 Y-191.591
X204.144 Y-191.691
X204.076 Y-191.807
G3 X203.901 Y-192.128 I4.272 J-2.531
G1 X203.447 Y-193.041
G2 X200.255 Y-197.834 I-20.491 J10.185
G1 X199.724 Y-198.448
G2 X198.944 Y-199.322 I-28.742 J24.887
G1 X197.539 Y-200.854
G2 X197.22 Y-201.181 I-6.888 J6.378
G3 X196.952 Y-201.455 I6.57 J-6.706
G1 X196.421 Y-202.019
G3 X194.688 Y-204.839 I5.832 J-5.524
G1 X194.666 Y-204.901
G2 X194.039 Y-205.938 I-2.864 J1.024
G1 X194.032 Y-205.946
G2 X193.637 Y-206.306 I-2.265 J2.087
G1 X193.449 Y-206.449
G3 X191.576 Y-209.116 I3.286 J-4.301
G1 X191.554 Y-209.183
G3 X191.375 Y-209.963 I4.708 J-1.491
G1 X191.248 Y-210.841
X191.233 Y-210.907
X191.21 Y-210.972
X191.179 Y-211.032
G3 X191.452 Y-211.378 I0.201 J-0.122
G1 X191.911 Y-211.23
G2 X192.23 Y-211.187 I0.279 J-0.863
G1 X192.996 Y-211.22
G3 X193.611 Y-211.211 I0.229 J5.209
G1 X193.862 Y-211.192
G3 X195.225 Y-210.991 I-0.701 J9.45
G1 X195.246 Y-210.986
G3 X196.22 Y-210.715 I-2.13 J9.546
G1 X196.329 Y-210.679
G2 X198.275 Y-210.324 I2.206 J-6.591
G3 X201.762 Y-209.359 I-0.293 J7.844
G1 X201.87 Y-209.3
X202.086 Y-209.179
X202.645 Y-208.855
G2 X203.031 Y-208.637 I9.617 J-16.61
G3 X203.593 Y-208.317 I-9.23 J16.827
G1 X205.132 Y-207.4
G3 X208.043 Y-205.494 I-18.822 J31.914
G1 X208.406 Y-205.231
G2 X208.843 Y-204.921 I15.179 J-20.958
G1 X209.011 Y-204.804
G3 X210.03 Y-204.048 I-11.14 J16.072
G1 X210.247 Y-203.876
G3 X210.628 Y-203.557 I-5.758 J7.252
