(CamperSchubladeDosenhalter_schmal)
(T4 D=5 CR=0 - ZMIN=-13 - flat end mill)
G90 G94
G17
G21
(-Attention- Property Safe Retracts is set to Clearance Height.)
(Ensure the clearance height will clear the part and or fixtures.)
(Raise the Z-axis to a safe height before starting the program.)

(2D Contour4)
T4
S5000 M3
G17 G90 G94
G54
M8
G0 X405.833 Y57.85
Z15
G0 Z5
G1 Z-4 F333.3
Y129.8 F1000
G3 X397.333 Y138.3 I-8.5 J0
G1 X333.633
G3 X325.133 Y129.8 I0 J-8.5
G1 Y26
G3 X333.633 Y17.5 I8.5 J0
G1 X397.333
G3 X405.833 Y26 I0 J8.5
G1 Y57.85
Z-8 F333.3
Y129.8 F1000
G3 X397.333 Y138.3 I-8.5 J0
G1 X333.633
G3 X325.133 Y129.8 I0 J-8.5
G1 Y26
G3 X333.633 Y17.5 I8.5 J0
G1 X397.333
G3 X405.833 Y26 I0 J8.5
G1 Y57.85
Z-12 F333.3
Y129.8 F1000
G3 X397.333 Y138.3 I-8.5 J0
G1 X333.633
G3 X325.133 Y129.8 I0 J-8.5
G1 Y26
G3 X333.633 Y17.5 I8.5 J0
G1 X397.333
G3 X405.833 Y26 I0 J8.5
G1 Y57.85
Z-13 F333.3
Y129.8 F1000
G3 X397.333 Y138.3 I-8.5 J0
G1 X333.633
G3 X325.133 Y129.8 I0 J-8.5
G1 Y26
G3 X333.633 Y17.5 I8.5 J0
G1 X397.333
G3 X405.833 Y26 I0 J8.5
G1 Y57.85
G0 Z5
X506.5 Y97.95
G1 Z-4 F333.3
Y129.8 F1000
G3 X498 Y138.3 I-8.5 J0
G1 X434.3
G3 X425.8 Y129.8 I0 J-8.5
G1 Y26
G3 X434.3 Y17.5 I8.5 J0
G1 X498
G3 X506.5 Y26 I0 J8.5
G1 Y97.95
Z-8 F333.3
Y129.8 F1000
G3 X498 Y138.3 I-8.5 J0
G1 X434.3
G3 X425.8 Y129.8 I0 J-8.5
G1 Y26
G3 X434.3 Y17.5 I8.5 J0
G1 X498
G3 X506.5 Y26 I0 J8.5
G1 Y97.95
Z-12 F333.3
Y129.8 F1000
G3 X498 Y138.3 I-8.5 J0
G1 X434.3
G3 X425.8 Y129.8 I0 J-8.5
G1 Y26
G3 X434.3 Y17.5 I8.5 J0
G1 X498
G3 X506.5 Y26 I0 J8.5
G1 Y97.95
Z-13 F333.3
Y129.8 F1000
G3 X498 Y138.3 I-8.5 J0
G1 X434.3
G3 X425.8 Y129.8 I0 J-8.5
G1 Y26
G3 X434.3 Y17.5 I8.5 J0
G1 X498
G3 X506.5 Y26 I0 J8.5
G1 Y97.95
G0 Z5
X305.167
G1 Z-4 F333.3
Y129.8 F1000
G3 X296.667 Y138.3 I-8.5 J0
G1 X232.967
G3 X224.467 Y129.8 I0 J-8.5
G1 Y26
G3 X232.967 Y17.5 I8.5 J0
G1 X296.667
G3 X305.167 Y26 I0 J8.5
G1 Y97.95
Z-8 F333.3
Y129.8 F1000
G3 X296.667 Y138.3 I-8.5 J0
G1 X232.967
G3 X224.467 Y129.8 I0 J-8.5
G1 Y26
G3 X232.967 Y17.5 I8.5 J0
G1 X296.667
G3 X305.167 Y26 I0 J8.5
G1 Y97.95
Z-12 F333.3
Y129.8 F1000
G3 X296.667 Y138.3 I-8.5 J0
G1 X232.967
G3 X224.467 Y129.8 I0 J-8.5
G1 Y26
G3 X232.967 Y17.5 I8.5 J0
G1 X296.667
G3 X305.167 Y26 I0 J8.5
G1 Y97.95
Z-13 F333.3
Y129.8 F1000
G3 X296.667 Y138.3 I-8.5 J0
G1 X232.967
G3 X224.467 Y129.8 I0 J-8.5
G1 Y26
G3 X232.967 Y17.5 I8.5 J0
G1 X296.667
G3 X305.167 Y26 I0 J8.5
G1 Y97.95
G0 Z5
X204.5 Y57.85
G1 Z-4 F333.3
Y129.8 F1000
G3 X196 Y138.3 I-8.5 J0
G1 X132.3
G3 X123.8 Y129.8 I0 J-8.5
G1 Y26
G3 X132.3 Y17.5 I8.5 J0
G1 X196
G3 X204.5 Y26 I0 J8.5
G1 Y57.85
Z-8 F333.3
Y129.8 F1000
G3 X196 Y138.3 I-8.5 J0
G1 X132.3
G3 X123.8 Y129.8 I0 J-8.5
G1 Y26
G3 X132.3 Y17.5 I8.5 J0
G1 X196
G3 X204.5 Y26 I0 J8.5
G1 Y57.85
Z-12 F333.3
Y129.8 F1000
G3 X196 Y138.3 I-8.5 J0
G1 X132.3
G3 X123.8 Y129.8 I0 J-8.5
G1 Y26
G3 X132.3 Y17.5 I8.5 J0
G1 X196
G3 X204.5 Y26 I0 J8.5
G1 Y57.85
Z-13 F333.3
Y129.8 F1000
G3 X196 Y138.3 I-8.5 J0
G1 X132.3
G3 X123.8 Y129.8 I0 J-8.5
G1 Y26
G3 X132.3 Y17.5 I8.5 J0
G1 X196
G3 X204.5 Y26 I0 J8.5
G1 Y57.85
G0 Z15

(2D Contour3)
G0 X7 Y157.3
Z15
Z5
G1 Z-4 F333.3
X520 F1000
G2 X528.5 Y148.8 I0 J-8.5
G1 Y7
G2 X520 Y-1.5 I-8.5 J0
G1 X7
G2 X-1.5 Y7 I0 J8.5
G1 Y148.8
G2 X7 Y157.3 I8.5 J0
G1 Z-8 F333.3
X520 F1000
G2 X528.5 Y148.8 I0 J-8.5
G1 Y7
G2 X520 Y-1.5 I-8.5 J0
G1 X7
G2 X-1.5 Y7 I0 J8.5
G1 Y148.8
G2 X7 Y157.3 I8.5 J0
G1 Z-12 F333.3
X520 F1000
G2 X528.5 Y148.8 I0 J-8.5
G1 Y7
G2 X520 Y-1.5 I-8.5 J0
G1 X7
G2 X-1.5 Y7 I0 J8.5
G1 Y148.8
G2 X7 Y157.3 I8.5 J0
G1 Z-13 F333.3
X520 F1000
G2 X528.5 Y148.8 I0 J-8.5
G1 Y7
G2 X520 Y-1.5 I-8.5 J0
G1 X7
G2 X-1.5 Y7 I0 J8.5
G1 Y148.8
G2 X7 Y157.3 I8.5 J0
G0 Z15
M9
M5
M30
