(CamperGaskastenAbdeckung)
(T3  D=3 CR=0 - ZMIN=-10 - flat end mill)
G90 G94
G17
G21

(2D Contour1)
T3
S5000 M3
G54
M8
G0 X377.041 Y425.259
Z15
Z5
G1 Z-1.7 F333.3
G18 G2 X377.341 Z-2 I0.3 K0 F1000
G1 X377.641
G17 G3 X377.941 Y425.559 I0 J0.3
G1 Y545
G3 X329.441 Y593.5 I-48.5 J0
G1 X90.559
G3 X42.059 Y545 I0 J-48.5
G1 Y51.5
X377.941
Y425.559
G3 X377.641 Y425.859 I-0.3 J0
G1 X377.341
G18 G3 X377.041 Z-1.7 I0 K0.3
G0 Z5
Y425.259
G1 Z3 F333.3
Z-3.7
G2 X377.341 Z-4 I0.3 K0 F1000
G1 X377.641
G17 G3 X377.941 Y425.559 I0 J0.3
G1 Y545
G3 X329.441 Y593.5 I-48.5 J0
G1 X90.559
G3 X42.059 Y545 I0 J-48.5
G1 Y51.5
X377.941
Y425.559
G3 X377.641 Y425.859 I-0.3 J0
G1 X377.341
G18 G3 X377.041 Z-3.7 I0 K0.3
G0 Z5
Y425.259
G1 Z1 F333.3
Z-5.7
G2 X377.341 Z-6 I0.3 K0 F1000
G1 X377.641
G17 G3 X377.941 Y425.559 I0 J0.3
G1 Y545
G3 X329.441 Y593.5 I-48.5 J0
G1 X90.559
G3 X42.059 Y545 I0 J-48.5
G1 Y51.5
X377.941
Y425.559
G3 X377.641 Y425.859 I-0.3 J0
G1 X377.341
G18 G3 X377.041 Z-5.7 I0 K0.3
G0 Z5
Y425.259
G1 Z-1 F333.3
Z-7.7
G2 X377.341 Z-8 I0.3 K0 F1000
G1 X377.641
G17 G3 X377.941 Y425.559 I0 J0.3
G1 Y545
G3 X329.441 Y593.5 I-48.5 J0
G1 X90.559
G3 X42.059 Y545 I0 J-48.5
G1 Y51.5
X377.941
Y425.559
G3 X377.641 Y425.859 I-0.3 J0
G1 X377.341
G18 G3 X377.041 Z-7.7 I0 K0.3
G0 Z5
Y425.259
G1 Z-3 F333.3
Z-9.7
G2 X377.341 Z-10 I0.3 K0 F1000
G1 X377.641
G17 G3 X377.941 Y425.559 I0 J0.3
G1 Y545
G3 X329.441 Y593.5 I-48.5 J0
G1 X90.559
G3 X42.059 Y545 I0 J-48.5
G1 Y51.5
X377.941
Y425.559
G3 X377.641 Y425.859 I-0.3 J0
G1 X377.341
G18 G3 X377.041 Z-9.7 I0 K0.3
G0 Z5
X405.258 Y715.77
G1 Z-1.7 F333.3
X405.265 Z-1.767 F1000
X405.287 Z-1.83
X405.323 Z-1.887
X405.371 Z-1.935
X405.428 Z-1.97
X405.491 Z-1.992
X405.558 Z-2
X405.858 Y715.771
G17 G3 X406.157 Y716.071 I0 J0.3
G1 X406.094 Y770.008
G3 X399.594 Y776.5 I-6.5 J-0.008
G1 X29.406
G3 X22.906 Y770.008 I0 J-6.5
G1 X22.779 Y662.008
G3 X29.279 Y655.5 I6.5 J-0.008
G1 X399.721
G3 X406.221 Y662.008 I0 J6.5
G1 X406.157 Y716.071
G3 X405.857 Y716.371 I-0.3 J0
G1 X405.557 Y716.37
X405.49 Z-1.992
X405.427 Z-1.97
X405.37 Z-1.935
X405.323 Z-1.887
X405.287 Z-1.83
X405.265 Z-1.767
X405.257 Z-1.7
G0 Z5
X405.258 Y715.77
G1 Z3 F333.3
Z-3.7
X405.265 Z-3.767 F1000
X405.287 Z-3.83
X405.323 Z-3.887
X405.371 Z-3.935
X405.428 Z-3.97
X405.491 Z-3.992
X405.558 Z-4
X405.858 Y715.771
G3 X406.157 Y716.071 I0 J0.3
G1 X406.094 Y770.008
G3 X399.594 Y776.5 I-6.5 J-0.008
G1 X29.406
G3 X22.906 Y770.008 I0 J-6.5
G1 X22.779 Y662.008
G3 X29.279 Y655.5 I6.5 J-0.008
G1 X399.721
G3 X406.221 Y662.008 I0 J6.5
G1 X406.157 Y716.071
G3 X405.857 Y716.371 I-0.3 J0
G1 X405.557 Y716.37
X405.49 Z-3.992
X405.427 Z-3.97
X405.37 Z-3.935
X405.323 Z-3.887
X405.287 Z-3.83
X405.265 Z-3.767
X405.257 Z-3.7
G0 Z5
X405.258 Y715.77
G1 Z1 F333.3
Z-5.7
X405.265 Z-5.767 F1000
X405.287 Z-5.83
X405.323 Z-5.887
X405.371 Z-5.935
X405.428 Z-5.97
X405.491 Z-5.992
X405.558 Z-6
X405.858 Y715.771
G3 X406.157 Y716.071 I0 J0.3
G1 X406.094 Y770.008
G3 X399.594 Y776.5 I-6.5 J-0.008
G1 X29.406
G3 X22.906 Y770.008 I0 J-6.5
G1 X22.779 Y662.008
G3 X29.279 Y655.5 I6.5 J-0.008
G1 X399.721
G3 X406.221 Y662.008 I0 J6.5
G1 X406.157 Y716.071
G3 X405.857 Y716.371 I-0.3 J0
G1 X405.557 Y716.37
X405.49 Z-5.992
X405.427 Z-5.97
X405.37 Z-5.935
X405.323 Z-5.887
X405.287 Z-5.83
X405.265 Z-5.767
X405.257 Z-5.7
G0 Z5
X405.258 Y715.77
G1 Z-1 F333.3
Z-7.7
X405.265 Z-7.767 F1000
X405.287 Z-7.83
X405.323 Z-7.887
X405.371 Z-7.935
X405.428 Z-7.97
X405.491 Z-7.992
X405.558 Z-8
X405.858 Y715.771
G3 X406.157 Y716.071 I0 J0.3
G1 X406.094 Y770.008
G3 X399.594 Y776.5 I-6.5 J-0.008
G1 X29.406
G3 X22.906 Y770.008 I0 J-6.5
G1 X22.779 Y662.008
G3 X29.279 Y655.5 I6.5 J-0.008
G1 X399.721
G3 X406.221 Y662.008 I0 J6.5
G1 X406.157 Y716.071
G3 X405.857 Y716.371 I-0.3 J0
G1 X405.557 Y716.37
X405.49 Z-7.992
X405.427 Z-7.97
X405.37 Z-7.935
X405.323 Z-7.887
X405.287 Z-7.83
X405.265 Z-7.767
X405.257 Z-7.7
G0 Z5
X405.258 Y715.77
G1 Z-3 F333.3
Z-9.7
X405.265 Z-9.767 F1000
X405.287 Z-9.83
X405.323 Z-9.887
X405.371 Z-9.935
X405.428 Z-9.97
X405.491 Z-9.992
X405.558 Z-10
X405.858 Y715.771
G3 X406.157 Y716.071 I0 J0.3
G1 X406.094 Y770.008
G3 X399.594 Y776.5 I-6.5 J-0.008
G1 X29.406
G3 X22.906 Y770.008 I0 J-6.5
G1 X22.779 Y662.008
G3 X29.279 Y655.5 I6.5 J-0.008
G1 X399.721
G3 X406.221 Y662.008 I0 J6.5
G1 X406.157 Y716.071
G3 X405.857 Y716.371 I-0.3 J0
G1 X405.557 Y716.37
X405.49 Z-9.992
X405.427 Z-9.97
X405.37 Z-9.935
X405.323 Z-9.887
X405.287 Z-9.83
X405.265 Z-9.767
X405.257 Z-9.7
G0 Z15

(2D Contour2)
X418.911 Y840.391
Z15
Z5
G1 Z-1.7 F333.3
X418.904 Z-1.767 F1000
X418.882 Z-1.83
X418.846 Z-1.887
X418.798 Z-1.935
X418.741 Z-1.97
X418.678 Z-1.992
X418.611 Z-2
X418.311 Y840.39
G3 X418.012 Y840.09 I0 J-0.3
G1 X419 Y0.002
G2 X417.5 Y-1.5 I-1.5 J-0.002
G1 X2.5
G2 X1 Y0.002 I0 J1.5
G1 X2 Y850.002
G2 X3.5 Y851.5 I1.5 J-0.002
G1 X416.5
G2 X418 Y850.002 I0 J-1.5
G1 X418.012 Y840.09
G3 X418.312 Y839.79 I0.3 J0
G1 X418.612 Y839.791
X418.679 Z-1.992
X418.742 Z-1.97
X418.799 Z-1.935
X418.847 Z-1.887
X418.882 Z-1.83
X418.904 Z-1.767
X418.912 Z-1.7
G0 Z5
X418.911 Y840.391
G1 Z3 F333.3
Z-3.7
X418.904 Z-3.767 F1000
X418.882 Z-3.83
X418.846 Z-3.887
X418.798 Z-3.935
X418.741 Z-3.97
X418.678 Z-3.992
X418.611 Z-4
X418.311 Y840.39
G3 X418.012 Y840.09 I0 J-0.3
G1 X419 Y0.002
G2 X417.5 Y-1.5 I-1.5 J-0.002
G1 X2.5
G2 X1 Y0.002 I0 J1.5
G1 X2 Y850.002
G2 X3.5 Y851.5 I1.5 J-0.002
G1 X416.5
G2 X418 Y850.002 I0 J-1.5
G1 X418.012 Y840.09
G3 X418.312 Y839.79 I0.3 J0
G1 X418.612 Y839.791
X418.679 Z-3.992
X418.742 Z-3.97
X418.799 Z-3.935
X418.847 Z-3.887
X418.882 Z-3.83
X418.904 Z-3.767
X418.912 Z-3.7
G0 Z5
X418.911 Y840.391
G1 Z1 F333.3
Z-5.7
X418.904 Z-5.767 F1000
X418.882 Z-5.83
X418.846 Z-5.887
X418.798 Z-5.935
X418.741 Z-5.97
X418.678 Z-5.992
X418.611 Z-6
X418.311 Y840.39
G3 X418.012 Y840.09 I0 J-0.3
G1 X419 Y0.002
G2 X417.5 Y-1.5 I-1.5 J-0.002
G1 X2.5
G2 X1 Y0.002 I0 J1.5
G1 X2 Y850.002
G2 X3.5 Y851.5 I1.5 J-0.002
G1 X416.5
G2 X418 Y850.002 I0 J-1.5
G1 X418.012 Y840.09
G3 X418.312 Y839.79 I0.3 J0
G1 X418.612 Y839.791
X418.679 Z-5.992
X418.742 Z-5.97
X418.799 Z-5.935
X418.847 Z-5.887
X418.882 Z-5.83
X418.904 Z-5.767
X418.912 Z-5.7
G0 Z5
X418.911 Y840.391
G1 Z-1 F333.3
Z-7.7
X418.904 Z-7.767 F1000
X418.882 Z-7.83
X418.846 Z-7.887
X418.798 Z-7.935
X418.741 Z-7.97
X418.678 Z-7.992
X418.611 Z-8
X418.311 Y840.39
G3 X418.012 Y840.09 I0 J-0.3
G1 X419 Y0.002
G2 X417.5 Y-1.5 I-1.5 J-0.002
G1 X2.5
G2 X1 Y0.002 I0 J1.5
G1 X2 Y850.002
G2 X3.5 Y851.5 I1.5 J-0.002
G1 X416.5
G2 X418 Y850.002 I0 J-1.5
G1 X418.012 Y840.09
G3 X418.312 Y839.79 I0.3 J0
G1 X418.612 Y839.791
X418.679 Z-7.992
X418.742 Z-7.97
X418.799 Z-7.935
X418.847 Z-7.887
X418.882 Z-7.83
X418.904 Z-7.767
X418.912 Z-7.7
G0 Z5
X418.911 Y840.391
G1 Z-3 F333.3
Z-9.7
X418.904 Z-9.767 F1000
X418.882 Z-9.83
X418.846 Z-9.887
X418.798 Z-9.935
X418.741 Z-9.97
X418.678 Z-9.992
X418.611 Z-10
X418.311 Y840.39
G3 X418.012 Y840.09 I0 J-0.3
G1 X419 Y0.002
G2 X417.5 Y-1.5 I-1.5 J-0.002
G1 X2.5
G2 X1 Y0.002 I0 J1.5
G1 X2 Y850.002
G2 X3.5 Y851.5 I1.5 J-0.002
G1 X416.5
G2 X418 Y850.002 I0 J-1.5
G1 X418.012 Y840.09
G3 X418.312 Y839.79 I0.3 J0
G1 X418.612 Y839.791
X418.679 Z-9.992
X418.742 Z-9.97
X418.799 Z-9.935
X418.847 Z-9.887
X418.882 Z-9.83
X418.904 Z-9.767
X418.912 Z-9.7
G0 Z15
M9
M5
M30
