(CamperGaskastenSeitenwandLang)
(T4  D=5 CR=0 - ZMIN=-9 - flat end mill)
G90 G94
G17
G21

(2D Pocket5)
T4
S5000 M3
G54
M8
G0 X152.175 Y3.581
Z15
Z5
G1 Z1 F333.3
Z-4.5 F1000
X152.156
X-2.15
X-2.17
G0 Z5
X152.433 Y6.485
G1 Z1 F333.3
Z-4.5 F1000
X152.394 Y6.486
X-2.395
G0 Z15
X-2.175 Y476.419
Z5
G1 Z1 F333.3
Z-4.5 F1000
X-2.156
X152.15
X152.17
G0 Z5
X-2.433 Y473.516
G1 Z1 F333.3
Z-4.5 F1000
X-2.394 Y473.514
X152.395
G0 Z15

(2D Contour6)
X-2.5 Y4.486
Z15
Z5
G1 Z-5 F333.3
Y475.514 F1000
G2 X0 Y478.014 I2.5 J0
G1 X150
G2 X152.5 Y475.514 I0 J-2.5
G1 Y4.486
G2 X150 Y1.986 I-2.5 J0
G1 X0
G2 X-2.5 Y4.486 I0 J2.5
G1 Z-9 F333.3
Y475.514 F1000
G2 X0 Y478.014 I2.5 J0
G1 X150
G2 X152.5 Y475.514 I0 J-2.5
G1 Y4.486
G2 X150 Y1.986 I-2.5 J0
G1 X0
G2 X-2.5 Y4.486 I0 J2.5
G0 Z15
M9
M5
M30
