(Camper_Tuerverkleidung)
(T4 D=5 CR=0 - ZMIN=-5 - flat end mill)
G90 G94
G17
G21
(-Attention- Property Safe Retracts is set to Clearance Height.)
(Ensure the clearance height will clear the part and or fixtures.)
(Raise the Z-axis to a safe height before starting the program.)

(2D Contour1)
T4
S5000 M3
G17 G90 G94
G54
M8
G0 X-355.823 Y43.516
Z15
G0 Z5
G1 Z1 F333.3
Z-4.5
X-355.816 Y43.517 Z-4.587 F1000
X-355.793 Y43.519 Z-4.671
X-355.757 Y43.522 Z-4.75
X-355.707 Y43.526 Z-4.821
X-355.645 Y43.532 Z-4.883
X-355.574 Y43.538 Z-4.933
X-355.496 Y43.544 Z-4.97
X-355.412 Y43.552 Z-4.992
X-355.325 Y43.559 Z-5
X-354.827 Y43.602
G3 X-354.372 Y44.143 I-0.043 J0.498
G1 X-354.374 Y44.175
X-354.432 Y44.966
X-354.436 Y45.025
X-354.475 Y45.81
X-354.477 Y45.869
X-354.497 Y46.649
X-354.498 Y46.71
X-354.499 Y47.483
X-354.498 Y47.548
X-354.479 Y48.315
X-354.477 Y48.385
X-354.437 Y49.146
X-354.432 Y49.21
X-354.373 Y49.966
X-354.367 Y50.036
X-354.287 Y50.786
X-354.278 Y50.861
X-354.176 Y51.605
X-354.166 Y51.673
X-354.044 Y52.412
X-354.031 Y52.483
X-353.888 Y53.217
X-353.871 Y53.294
X-353.705 Y54.022
X-353.688 Y54.092
X-353.501 Y54.815
X-353.481 Y54.888
X-353.272 Y55.605
X-353.25 Y55.677
X-353.019 Y56.389
X-352.993 Y56.463
X-352.739 Y57.169
X-352.713 Y57.239
X-352.437 Y57.94
X-352.407 Y58.014
X-352.107 Y58.71
X-352.077 Y58.776
X-351.755 Y59.467
X-351.722 Y59.534
X-351.377 Y60.22
X-351.343 Y60.285
X-350.975 Y60.965
X-350.94 Y61.029
X-350.549 Y61.704
X-350.51 Y61.767
X-350.095 Y62.438
X-350.058 Y62.496
X-349.62 Y63.161
X-349.581 Y63.22
X-349.119 Y63.88
X-349.078 Y63.936
X-348.592 Y64.592
X-348.553 Y64.643
X-348.044 Y65.294
X-348.005 Y65.343
X-347.473 Y65.989
X-347.431 Y66.039
X-346.874 Y66.681
X-346.835 Y66.725
X-346.255 Y67.362
X-346.215 Y67.404
X-345.612 Y68.036
X-345.571 Y68.079
X-344.943 Y68.707
X-344.904 Y68.744
X-344.253 Y69.368
X-344.214 Y69.405
X-343.539 Y70.024
X-343.501 Y70.057
X-342.803 Y70.672
X-342.765 Y70.705
X-342.043 Y71.316
X-342.007 Y71.346
X-341.262 Y71.952
X-341.226 Y71.98
X-340.458 Y72.582
X-340.422 Y72.61
X-339.63 Y73.208
X-339.597 Y73.232
X-338.783 Y73.826
X-338.749 Y73.851
X-337.911 Y74.44
X-337.879 Y74.462
X-337.019 Y75.048
X-336.987 Y75.069
X-336.104 Y75.651
X-336.074 Y75.67
X-335.169 Y76.248
X-335.139 Y76.267
X-334.211 Y76.841
X-334.182 Y76.859
X-333.232 Y77.429
X-333.206 Y77.444
X-332.235 Y78.011
X-332.207 Y78.027
X-331.214 Y78.589
X-331.189 Y78.603
X-330.175 Y79.162
X-330.15 Y79.176
X-329.115 Y79.731
X-329.09 Y79.744
X-328.034 Y80.296
X-328.012 Y80.307
X-326.936 Y80.855
X-326.912 Y80.867
X-325.815 Y81.411
X-325.794 Y81.422
X-324.677 Y81.963
X-324.656 Y81.973
X-323.52 Y82.51
X-323.5 Y82.52
X-322.345 Y83.054
X-322.325 Y83.063
X-321.151 Y83.593
X-321.132 Y83.602
X-319.939 Y84.129
X-319.922 Y84.136
X-318.712 Y84.66
X-318.694 Y84.668
X-317.465 Y85.188
X-317.448 Y85.195
X-316.202 Y85.712
X-316.186 Y85.719
X-314.923 Y86.233
X-314.907 Y86.239
X-313.627 Y86.75
X-313.612 Y86.756
X-312.316 Y87.263
X-312.302 Y87.268
X-310.99 Y87.773
X-310.976 Y87.778
X-309.649 Y88.279
X-309.635 Y88.284
X-308.292 Y88.782
X-308.279 Y88.786
X-306.922 Y89.281
X-306.91 Y89.285
X-305.539 Y89.777
X-305.526 Y89.781
X-304.141 Y90.27
X-304.13 Y90.274
X-302.732 Y90.759
X-302.72 Y90.763
X-301.309 Y91.245
X-301.298 Y91.249
X-299.874 Y91.728
X-299.864 Y91.731
X-298.429 Y92.208
X-298.419 Y92.211
X-296.972 Y92.684
X-296.962 Y92.687
X-295.503 Y93.157
X-295.494 Y93.16
X-294.026 Y93.627
X-294.017 Y93.63
X-292.538 Y94.094
X-292.525 Y94.099
X-289.538 Y95.018
X-289.521 Y95.023
X-286.5 Y95.931
X-286.485 Y95.935
X-283.432 Y96.831
X-283.418 Y96.835
X-280.338 Y97.72
X-280.325 Y97.724
X-277.221 Y98.597
X-277.209 Y98.6
X-274.085 Y99.462
X-274.073 Y99.465
X-270.932 Y100.315
X-270.922 Y100.318
X-267.77 Y101.157
X-267.76 Y101.159
X-264.598 Y101.987
X-264.589 Y101.989
X-261.423 Y102.805
X-261.415 Y102.807
X-258.247 Y103.612
X-258.239 Y103.614
X-255.073 Y104.408
X-255.066 Y104.41
X-251.907 Y105.192
X-251.901 Y105.193
X-248.752 Y105.964
X-248.745 Y105.966
X-245.609 Y106.725
X-245.604 Y106.726
X-242.485 Y107.474
X-242.48 Y107.475
X-239.381 Y108.211
X-239.376 Y108.212
X-236.302 Y108.936
X-236.299 Y108.937
X-233.252 Y109.65
X-233.248 Y109.651
X-230.232 Y110.352
X-230.229 Y110.353
X-227.247 Y111.042
X-227.243 Y111.043
X-225.765 Y111.382
X-224.299 Y111.719
X-224.297
X-222.839 Y112.053
X-222.837
X-221.39 Y112.383
X-219.955 Y112.711
X-219.952 Y112.712
X-218.527 Y113.036
X-217.114 Y113.357
X-215.711 Y113.675
X-215.709
X-214.32 Y113.989
X-212.944 Y114.3
X-211.58 Y114.609
X-210.229 Y114.914
X-210.227
X-208.89 Y115.215
X-207.567 Y115.513
X-206.259 Y115.808
X-206.255 Y115.809
X-204.962 Y116.098
X-203.683 Y116.386
X-203.682
X-202.417 Y116.67
X-202.415 Y116.671
X-201.165 Y116.951
X-201.164
X-199.93 Y117.227
X-198.711 Y117.5
X-198.71
X-197.506 Y117.769
X-196.319 Y118.034
X-195.147 Y118.296
X-195.145
X-193.991 Y118.553
X-192.852 Y118.807
X-192.85 Y118.808
X-191.728 Y119.056
X-190.623 Y119.302
X-190.621 Y119.303
X-189.533 Y119.544
X-189.532
X-188.46 Y119.781
X-187.404 Y120.014
X-187.401 Y120.015
X-186.363 Y120.243
X-185.342 Y120.467
X-184.337 Y120.687
X-184.335 Y120.688
X-183.349 Y120.903
X-183.345
X-182.375 Y121.113
X-181.423 Y121.319
X-181.419 Y121.32
X-180.483 Y121.521
X-180.48 Y121.522
X-179.562 Y121.718
X-179.558 Y121.719
X-178.657 Y121.91
X-178.656
X-177.771 Y122.097
X-177.764 Y122.098
X-176.896 Y122.279
X-176.892 Y122.28
X-176.041 Y122.456
X-176.034 Y122.458
X-175.2 Y122.628
X-175.198
X-174.38 Y122.794
X-174.372 Y122.796
X-173.57 Y122.956
X-173.562 Y122.957
X-172.776 Y123.111
X-172.77 Y123.112
X-172 Y123.261
X-171.994 Y123.263
X-171.24 Y123.407
X-171.227 Y123.409
X-170.489 Y123.546
X-170.482 Y123.547
X-169.759 Y123.679
X-169.747 Y123.681
X-169.038 Y123.807
X-169.028 Y123.809
X-168.335 Y123.929
X-168.322 Y123.931
X-167.643 Y124.045
X-167.626 Y124.048
X-166.961 Y124.155
X-166.951 Y124.157
X-166.3 Y124.259
X-166.282 Y124.262
X-165.645 Y124.357
X-165.625 Y124.36
X-165.001 Y124.448
X-164.984 Y124.45
X-164.372 Y124.532
X-164.355 Y124.534
X-163.756 Y124.61
X-163.729 Y124.613
X-163.142 Y124.681
X-163.122 Y124.684
X-162.546 Y124.746
X-162.521 Y124.748
X-161.957 Y124.803
X-161.93 Y124.806
X-161.377 Y124.854
X-161.349 Y124.856
X-160.805 Y124.897
X-160.776 Y124.899
X-160.243 Y124.933
X-160.213 Y124.935
X-159.689 Y124.962
X-159.652 Y124.963
X-159.136 Y124.982
X-159.103 Y124.983
X-158.596 Y124.995
X-158.557 Y124.996
X-158.058 Y125
X-158.023
X-157.531 Y124.997
X-157.489 Y124.996
X-157.004 Y124.985
X-156.943 Y124.983
X-155.99 Y124.938
X-155.905 Y124.933
X-154.973 Y124.857
X-154.883 Y124.848
X-153.968 Y124.74
X-153.878 Y124.728
X-152.974 Y124.588
X-152.883 Y124.572
X-151.988 Y124.399
X-151.902 Y124.38
X-151.01 Y124.175
X-150.926 Y124.154
X-150.034 Y123.916
X-149.954 Y123.894
X-149.059 Y123.623
X-148.988 Y123.6
X-148.085 Y123.297
X-148.017 Y123.274
X-147.102 Y122.938
X-147.041 Y122.914
X-146.112 Y122.545
X-146.063 Y122.525
X-145.118 Y122.126
X-145.071 Y122.106
X-144.105 Y121.675
X-144.066 Y121.657
X-143.079 Y121.196
X-143.047 Y121.181
X-142.036 Y120.691
X-142.009 Y120.677
X-140.972 Y120.16
X-140.947 Y120.147
X-139.884 Y119.601
X-139.867 Y119.592
X-138.776 Y119.021
X-138.762 Y119.014
X-137.642 Y118.419
X-137.629 Y118.412
X-136.48 Y117.793
X-136.473 Y117.789
X-135.294 Y117.149
X-135.291 Y117.147
X-134.081 Y116.489
X-134.078 Y116.487
X-132.838 Y115.809
X-131.569 Y115.116
X-130.272 Y114.41
X-128.947 Y113.692
X-127.593 Y112.964
X-126.211 Y112.228
X-124.803 Y111.486
X-123.368 Y110.739
X-121.906 Y109.99
X-120.419 Y109.241
X-118.907 Y108.492
X-117.369 Y107.747
X-115.808 Y107.007
X-114.224 Y106.274
X-112.618 Y105.549
X-110.991 Y104.836
X-109.343 Y104.135
X-107.676 Y103.447
X-105.989 Y102.777
X-104.285 Y102.123
X-102.565 Y101.489
X-100.828 Y100.876
X-99.077 Y100.285
X-97.312 Y99.72
X-95.535 Y99.179
X-93.746 Y98.666
X-91.947 Y98.182
X-90.138 Y97.728
X-88.321 Y97.305
X-86.497 Y96.915
X-84.666 Y96.559
X-82.829 Y96.237
X-80.988 Y95.95
X-79.142 Y95.701
X-77.292 Y95.488
X-75.439 Y95.313
X-73.576 Y95.176
X-72.654 Y95.122
X-71.724 Y95.078
X-70.794 Y95.044
X-69.863 Y95.02
X-68.931 Y95.005
X-67.992 Y95
X347.001
G2 X354.501 Y87.5 I0 J-7.5
G1 Y-85.5
G2 X315.001 Y-125 I-39.5 J0
G1 X52.001
X51.958
X-178.027 Y-121
X-179.655 Y-120.992
X-179.678
X-181.312 Y-120.969
X-181.337 Y-120.968
X-182.96 Y-120.929
X-182.984
X-184.597 Y-120.875
X-184.621 Y-120.874
X-186.224 Y-120.805
X-186.249 Y-120.803
X-187.841 Y-120.718
X-187.867 Y-120.717
X-189.449 Y-120.616
X-189.474 Y-120.614
X-191.045 Y-120.498
X-191.07 Y-120.496
X-192.631 Y-120.365
X-192.656 Y-120.363
X-194.206 Y-120.217
X-194.233 Y-120.214
X-195.774 Y-120.052
X-195.8 Y-120.049
X-197.33 Y-119.872
X-197.358 Y-119.869
X-198.877 Y-119.676
X-198.902 Y-119.673
X-200.412 Y-119.466
X-200.44 Y-119.462
X-201.939 Y-119.239
X-201.964 Y-119.235
X-203.453 Y-118.998
X-203.482 Y-118.993
X-204.961 Y-118.74
X-204.986 Y-118.736
X-206.455 Y-118.469
X-206.484 Y-118.463
X-207.942 Y-118.18
X-207.968 Y-118.175
X-209.417 Y-117.878
X-209.445 Y-117.872
X-210.884 Y-117.56
X-210.912 Y-117.554
X-212.341 Y-117.227
X-212.369 Y-117.22
X-213.788 Y-116.878
X-213.814 Y-116.872
X-215.223 Y-116.516
X-215.25 Y-116.509
X-216.649 Y-116.139
X-216.677 Y-116.131
X-218.067 Y-115.746
X-218.095 Y-115.738
X-219.474 Y-115.339
X-219.5 Y-115.332
X-220.871 Y-114.919
X-220.9 Y-114.91
X-222.261 Y-114.482
X-222.287 Y-114.474
X-223.638 Y-114.033
X-223.666 Y-114.023
X-225.008 Y-113.567
X-225.034 Y-113.558
X-226.366 Y-113.089
X-226.393 Y-113.079
X-227.716 Y-112.596
X-227.743 Y-112.586
X-229.057 Y-112.089
X-229.084 Y-112.079
X-230.388 Y-111.569
X-230.414 Y-111.559
X-231.71 Y-111.035
X-231.736 Y-111.024
X-233.022 Y-110.487
X-233.047 Y-110.476
X-234.325 Y-109.926
X-234.352 Y-109.915
X-235.62 Y-109.352
X-235.646 Y-109.34
X-236.906 Y-108.763
X-236.93 Y-108.752
X-238.181 Y-108.163
X-238.206 Y-108.151
X-239.448 Y-107.549
X-239.472 Y-107.537
X-240.705 Y-106.923
X-240.73 Y-106.91
X-241.955 Y-106.283
X-241.98 Y-106.27
X-243.196 Y-105.63
X-243.219 Y-105.618
X-244.427 Y-104.966
X-244.45 Y-104.954
X-245.649 Y-104.291
X-245.673 Y-104.277
X-246.864 Y-103.601
X-246.887 Y-103.588
X-248.07 Y-102.9
X-248.092 Y-102.887
X-249.266 Y-102.188
X-249.288 Y-102.175
X-250.455 Y-101.464
X-250.477 Y-101.45
X-251.635 Y-100.728
X-251.656 Y-100.715
X-252.807 Y-99.981
X-252.829 Y-99.967
X-253.971 Y-99.222
X-253.991 Y-99.209
X-255.126 Y-98.453
X-255.146 Y-98.439
X-256.273 Y-97.673
X-256.293 Y-97.659
X-257.413 Y-96.882
X-257.433 Y-96.867
X-258.544 Y-96.079
X-258.562 Y-96.067
X-259.667 Y-95.268
X-259.686 Y-95.254
X-260.783 Y-94.445
X-260.802 Y-94.431
X-261.891 Y-93.612
X-261.909 Y-93.599
X-262.991 Y-92.77
X-263.009 Y-92.757
X-264.084 Y-91.918
X-264.101 Y-91.904
X-265.169 Y-91.056
X-265.186 Y-91.043
X-266.247 Y-90.185
X-266.263 Y-90.171
X-267.317 Y-89.304
X-267.334 Y-89.291
X-268.381 Y-88.415
X-268.397 Y-88.401
X-269.436 Y-87.516
X-269.452 Y-87.502
X-270.485 Y-86.608
X-270.5 Y-86.596
X-271.527 Y-85.693
X-271.542 Y-85.679
X-272.562 Y-84.768
X-272.576 Y-84.755
X-273.589 Y-83.835
X-273.603 Y-83.823
X-274.61 Y-82.895
X-274.623 Y-82.882
X-275.624 Y-81.946
X-275.645 Y-81.927
X-277.627 Y-80.032
X-277.652 Y-80.007
X-279.61 Y-78.082
X-279.634 Y-78.058
X-281.567 Y-76.103
X-281.59 Y-76.08
X-283.5 Y-74.099
X-283.521 Y-74.077
X-285.409 Y-72.069
X-285.43 Y-72.046
X-287.294 Y-70.014
X-287.313 Y-69.993
X-289.156 Y-67.938
X-289.175 Y-67.917
X-290.996 Y-65.84
X-291.013 Y-65.82
X-292.813 Y-63.723
X-292.83 Y-63.704
X-294.609 Y-61.587
X-294.624 Y-61.569
X-296.383 Y-59.435
X-296.398 Y-59.417
X-298.137 Y-57.267
X-298.151 Y-57.249
X-299.87 Y-55.084
X-299.883 Y-55.068
X-301.583 Y-52.889
X-301.595 Y-52.873
X-303.276 Y-50.683
X-303.289 Y-50.667
X-304.95 Y-48.466
X-304.96 Y-48.451
X-306.603 Y-46.241
X-306.614 Y-46.226
X-308.238 Y-44.008
X-308.249 Y-43.994
X-309.854 Y-41.769
X-309.863 Y-41.755
X-311.449 Y-39.525
X-311.459 Y-39.512
X-313.026 Y-37.278
X-313.035 Y-37.265
X-314.583 Y-35.028
X-314.591 Y-35.016
X-316.12 Y-32.777
X-316.129 Y-32.765
X-317.638 Y-30.527
X-317.646 Y-30.515
X-319.136 Y-28.278
X-319.144 Y-28.266
X-320.614 Y-26.031
X-320.621 Y-26.019
X-322.071 Y-23.788
X-322.079 Y-23.776
X-323.508 Y-21.55
X-323.515 Y-21.539
X-324.924 Y-19.319
X-324.931 Y-19.308
X-326.319 Y-17.095
X-326.326 Y-17.083
X-327.692 Y-14.878
X-327.699 Y-14.867
X-329.043 Y-12.672
X-329.05 Y-12.66
X-330.371 Y-10.475
X-330.378 Y-10.464
X-331.677 Y-8.291
X-331.684 Y-8.279
X-332.959 Y-6.119
X-332.966 Y-6.107
X-334.217 Y-3.96
X-334.224 Y-3.948
X-335.45 Y-1.816
X-335.457 Y-1.804
X-336.658 Y0.312
X-336.666 Y0.325
X-337.841 Y2.425
X-337.849 Y2.439
X-338.996 Y4.521
X-339.003 Y4.535
X-340.123 Y6.599
X-340.132 Y6.615
X-341.222 Y8.659
X-341.23 Y8.675
X-342.291 Y10.699
X-342.301 Y10.719
X-343.329 Y12.722
X-343.336 Y12.735
X-343.839 Y13.729
X-343.845 Y13.742
X-344.338 Y14.73
X-344.343 Y14.74
X-344.828 Y15.723
X-344.833 Y15.733
X-345.31 Y16.71
X-345.316 Y16.724
X-345.783 Y17.695
X-345.789 Y17.707
X-346.247 Y18.674
X-346.254 Y18.688
X-346.702 Y19.648
X-346.707 Y19.66
X-347.146 Y20.615
X-347.153 Y20.63
X-347.582 Y21.578
X-347.589 Y21.593
X-348.008 Y22.536
X-348.015 Y22.553
X-348.423 Y23.49
X-348.431 Y23.508
X-348.828 Y24.439
X-348.835 Y24.457
X-349.221 Y25.382
X-349.229 Y25.4
X-349.604 Y26.319
X-349.612 Y26.34
X-349.975 Y27.253
X-349.983 Y27.274
X-350.334 Y28.181
X-350.343 Y28.202
X-350.682 Y29.103
X-350.691 Y29.128
X-351.017 Y30.022
X-351.026 Y30.048
X-351.339 Y30.936
X-351.349 Y30.964
X-351.648 Y31.847
X-351.657 Y31.873
X-351.943 Y32.749
X-351.952 Y32.779
X-352.224 Y33.649
X-352.233 Y33.68
X-352.491 Y34.544
X-352.501 Y34.578
X-352.744 Y35.435
X-352.754 Y35.47
X-352.982 Y36.322
X-352.992 Y36.36
X-353.204 Y37.206
X-353.213 Y37.242
X-353.41 Y38.082
X-353.42 Y38.125
X-353.6 Y38.958
X-353.608 Y39
X-353.772 Y39.827
X-353.78 Y39.87
X-353.928 Y40.691
X-353.937 Y40.74
X-354.067 Y41.555
X-354.074 Y41.606
X-354.186 Y42.415
X-354.193 Y42.464
X-354.288 Y43.267
X-354.294 Y43.323
X-354.37 Y44.12
X-354.372 Y44.143
G3 X-354.913 Y44.598 I-0.498 J-0.043
G1 X-355.411 Y44.555
X-355.498 Y44.548 Z-4.992
X-355.581 Y44.541 Z-4.97
X-355.66 Y44.534 Z-4.933
X-355.731 Y44.528 Z-4.883
X-355.793 Y44.523 Z-4.821
X-355.842 Y44.518 Z-4.75
X-355.879 Y44.515 Z-4.671
X-355.902 Y44.513 Z-4.587
X-355.909 Z-4.5
G0 Z15
M9
M5
M30
