(CamperFlaschenhalterRucksitz)
(T4 D=5 CR=0 - ZMIN=-19 - flat end mill)
G90 G94
G17
G21
(-Attention- Property Safe Retracts is set to Clearance Height.)
(Ensure the clearance height will clear the part and or fixtures.)
(Raise the Z-axis to a safe height before starting the program.)

(2D Contour1)
T4
S5000 M3
G17 G90 G94
G54
M8
G0 X69.25 Y240.283
Z15
G0 Z5
G1 Z2.5 F333.3
X55.5 Z2.296
Y145.283 Z0.889
X95.5 Z0.296
Y240.283 Z-1.111
X55.5 Z-1.704
Y145.283 Z-3.111
X95.5 Z-3.704
Y165.283 Z-4
Y240.283 F1000
X55.5
Y145.283
X95.5
Y165.283
Y240.283 Z-5.111 F333.3
X55.5 Z-5.704
Y145.283 Z-7.111
X95.5 Z-7.704
Y165.283 Z-8
Y240.283 F1000
X55.5
Y145.283
X95.5
Y165.283
Y240.283 Z-9.111 F333.3
X55.5 Z-9.704
Y145.283 Z-11.111
X95.5 Z-11.704
Y165.283 Z-12
Y240.283 F1000
X55.5
Y145.283
X95.5
Y165.283
Y240.283 Z-13.111 F333.3
X55.5 Z-13.704
Y145.283 Z-15.111
X95.5 Z-15.704
Y165.283 Z-16
Y240.283 F1000
X55.5
Y145.283
X95.5
Y165.283
Y240.283 Z-17.111 F333.3
X55.5 Z-17.704
Y152.783 Z-19
Y145.283 F1000
X95.5
Y240.283
X55.5
Y152.783
G0 Z5
X31.216 Y31.216
G1 Z2.5 F333.3
G3 X87.784 Y87.784 Z0.5 I28.284 J28.284
X31.216 Y31.216 Z-1.5 I-28.284 J-28.284
X87.784 Y87.784 Z-3.5 I28.284 J28.284
X59.5 Y99.5 Z-4 I-28.284 J-28.284
X59.5 Y19.5 I0 J-40 F1000
X59.5 Y99.5 I0 J40
X59.5 Y19.5 Z-6 I0 J-40 F333.3
X59.5 Y99.5 Z-8 I0 J40
X59.5 Y19.5 I0 J-40 F1000
X59.5 Y99.5 I0 J40
X59.5 Y19.5 Z-10 I0 J-40 F333.3
X59.5 Y99.5 Z-12 I0 J40
X59.5 Y19.5 I0 J-40 F1000
X59.5 Y99.5 I0 J40
X59.5 Y19.5 Z-14 I0 J-40 F333.3
X59.5 Y99.5 Z-16 I0 J40
X59.5 Y19.5 I0 J-40 F1000
X59.5 Y99.5 I0 J40
X59.5 Y19.5 Z-18 I0 J-40 F333.3
X99.5 Y59.5 Z-19 I0 J40
X19.5 Y59.5 I-40 J0 F1000
X99.5 Y59.5 I40 J0
G0 Z5
X70.5 Y301.392
G1 Z2.5 F333.3
Y281.392 Z2.192
X95.5 Z1.808
Y386.392 Z0.192
X70.5 Z-0.192
Y281.392 Z-1.808
X95.5 Z-2.192
Y386.392 Z-3.808
X83 Z-4
X70.5 F1000
Y281.392
X95.5
Y386.392
X83
X70.5 Z-4.192 F333.3
Y281.392 Z-5.808
X95.5 Z-6.192
Y386.392 Z-7.808
X83 Z-8
X70.5 F1000
Y281.392
X95.5
Y386.392
X83
X70.5 Z-8.192 F333.3
Y281.392 Z-9.808
X95.5 Z-10.192
Y386.392 Z-11.808
X83 Z-12
X70.5 F1000
Y281.392
X95.5
Y386.392
X83
X70.5 Z-12.192 F333.3
Y281.392 Z-13.808
X95.5 Z-14.192
Y386.392 Z-15.808
X83 Z-16
X70.5 F1000
Y281.392
X95.5
Y386.392
X83
X70.5 Z-16.192 F333.3
Y281.392 Z-17.808
X95.5 Z-18.192
Y333.892 Z-19
Y386.392 F1000
X70.5
Y281.392
X95.5
Y333.892
G0 Z15

(2D Contour2)
G0 X-2.879 Y70.365
Z15
Z5
G1 Z3 F333.3
X-2.872 Z2.913 F1000
X-2.849 Z2.829
X-2.812 Y70.364 Z2.75
X-2.762 Y70.363 Z2.679
X-2.701 Y70.361 Z2.617
X-2.629 Y70.36 Z2.567
X-2.55 Y70.358 Z2.53
X-2.466 Y70.356 Z2.508
X-2.379 Y70.354 Z2.5
X-1.88 Y70.344
G3 X-1.369 Y70.832 I0.011 J0.5
G1 X-1.361 Y71.192 Z2.499 F333.3
X-1.36 Y71.205
X-1.3 Y73.454 Z2.49
X-1.299 Y73.467
X-1.228 Y75.691 Z2.481
X-1.227 Y75.704
X-1.144 Y77.901 Z2.473
Y77.915 Z2.472
X-1.05 Y80.086 Z2.464
Y80.1
X-0.946 Y82.246 Z2.456
X-0.945 Y82.26
X-0.83 Y84.381 Z2.447
X-0.829 Y84.395
X-0.704 Y86.491 Z2.439
X-0.703 Y86.505
X-0.567 Y88.576 Z2.431
X-0.566 Y88.59
X-0.42 Y90.636 Z2.423
X-0.419 Y90.65
X-0.262 Y92.671 Z2.415
X-0.261 Y92.686
X-0.094 Y94.683 Z2.407
X-0.093 Y94.698
X0.083 Y96.671 Z2.399
X0.085 Y96.686
X0.271 Y98.635 Z2.392
X0.273 Y98.65
X0.469 Y100.575 Z2.384
X0.471 Y100.591
X0.676 Y102.493 Z2.377
X0.678 Y102.508
X0.893 Y104.387 Z2.369
X0.895 Y104.403
X1.12 Y106.259 Z2.362
X1.122 Y106.275
X1.355 Y108.109 Z2.355
X1.357 Y108.125
X1.6 Y109.937 Z2.348
X1.602 Y109.952
X1.853 Y111.742 Z2.341
X1.855 Y111.758 Z2.34
X2.115 Y113.527 Z2.334
X2.117 Y113.543 Z2.333
X2.386 Y115.291 Z2.327
X2.388 Y115.307
X2.664 Y117.034 Z2.32
X2.667 Y117.05
X2.951 Y118.757 Z2.313
X2.954 Y118.773
X3.246 Y120.46 Z2.306
X3.249 Y120.475
X3.549 Y122.143 Z2.3
X3.552 Y122.159
X3.859 Y123.808 Z2.293
X3.862 Y123.823
X4.176 Y125.453 Z2.286
X4.179 Y125.468
X4.5 Y127.081 Z2.28
X4.503 Y127.097
X4.831 Y128.691 Z2.274
X4.834 Y128.706
X5.169 Y130.283 Z2.267
X5.172 Y130.297
X5.512 Y131.858 Z2.261
X5.516 Y131.873
X5.863 Y133.416 Z2.255
X5.866 Y133.43
X6.218 Y134.958 Z2.249
X6.222 Y134.972
X6.58 Y136.485 Z2.243
X6.583 Y136.499
X6.946 Y137.997 Z2.237
X6.95 Y138.01
X7.318 Y139.493 Z2.231
X7.322 Y139.506
X7.695 Y140.975 Z2.225
X7.698 Y140.988
X8.076 Y142.443 Z2.219
X8.079 Y142.454
X8.462 Y143.897 Z2.213
X8.465 Y143.909
X8.851 Y145.339 Z2.207
X8.855 Y145.351
X9.245 Y146.768 Z2.201
X9.248 Y146.778
X9.642 Y148.185 Z2.196
X9.645 Y148.196
X10.042 Y149.591 Z2.19
X10.045 Y149.601
X10.445 Y150.985 Z2.184
X10.449 Y150.998
X11.258 Y153.738 Z2.173
X11.263 Y153.754
X12.081 Y156.457 Z2.162
X12.085 Y156.471
X12.911 Y159.142 Z2.151
X12.914 Y159.153
X13.745 Y161.796 Z2.14
X13.748 Y161.805
X14.581 Y164.424 Z2.13
X14.583 Y164.43
X15.417 Y167.029 Z2.119
X15.419 Y167.033
X16.252 Y169.615 Z2.109
X17.906 Y174.745 Z2.088
X19.529 Y179.852 Z2.067
X20.323 Y182.402 Z2.056
X21.104 Y184.958 Z2.046
X21.87 Y187.523 Z2.036
X22.619 Y190.101 Z2.025
X23.35 Y192.694 Z2.015
X24.06 Y195.308 Z2.004
X24.749 Y197.943 Z1.994
X25.416 Y200.61 Z1.983
X25.739 Y201.949 Z1.978
X26.057 Y203.299 Z1.972
X26.368 Y204.657 Z1.967
X26.673 Y206.023 Z1.961
X26.971 Y207.398 Z1.956
X27.263 Y208.783 Z1.95
X27.547 Y210.178 Z1.945
X27.825 Y211.581 Z1.939
X28.096 Y212.996 Z1.934
X28.359 Y214.42 Z1.928
X28.615 Y215.855 Z1.922
X28.863 Y217.301 Z1.917
X29.104 Y218.758 Z1.911
X29.337 Y220.227 Z1.905
X29.563 Y221.706 Z1.899
X29.781 Y223.198 Z1.894
X29.991 Y224.702 Z1.888
X30.193 Y226.218 Z1.882
X30.387 Y227.746 Z1.876
X30.574 Y229.286 Z1.87
X30.752 Y230.838 Z1.864
X30.923 Y232.403 Z1.858
X31.085 Y233.981 Z1.851
X31.24 Y235.571 Z1.845
X31.386 Y237.174 Z1.839
X31.525 Y238.789 Z1.833
X31.655 Y240.417 Z1.826
X31.778 Y242.058 Z1.82
X31.893 Y243.711 Z1.813
X32 Y245.376 Z1.807
X32.099 Y247.054 Z1.8
X32.191 Y248.744 Z1.794
X32.275 Y250.446 Z1.787
X32.352 Y252.159 Z1.781
X32.422 Y253.885 Z1.774
X32.484 Y255.622 Z1.767
X32.539 Y257.371 Z1.76
X32.588 Y259.131 Z1.753
X32.63 Y260.902 Z1.747
X32.665 Y262.684 Z1.74
X32.694 Y264.475 Z1.733
X32.716 Y266.277 Z1.726
X32.733 Y268.088 Z1.719
X32.744 Y269.907 Z1.712
X32.75 Y273.578 Z1.697
X32.735 Y277.28 Z1.683
X32.703 Y281.013 Z1.668
X32.656 Y284.77 Z1.654
X32.596 Y288.551 Z1.639
X32.525 Y292.351 Z1.624
X32.447 Y296.166 Z1.61
X32.364 Y299.994 Z1.595
X32.197 Y307.665 Z1.565
Y307.671
X32.048 Y315.334 Z1.535
Y315.344
X31.989 Y319.164 Z1.52
X31.988 Y319.174
X31.944 Y322.981 Z1.505
X31.943 Y322.992
X31.916 Y326.782 Z1.491
Y326.796
X31.911 Y330.567 Z1.476
Y330.584
X31.93 Y334.331 Z1.461
Y334.345
X31.949 Y336.209 Z1.454
X31.95 Y336.219
X31.977 Y338.077 Z1.447
Y338.088
X32.012 Y339.938 Z1.44
X32.013 Y339.949
X32.056 Y341.791 Z1.432
X32.057 Y341.804
X32.109 Y343.638 Z1.425
X32.11 Y343.651
X32.172 Y345.476 Z1.418
Y345.489
X32.244 Y347.306 Z1.411
Y347.321
X32.326 Y349.128 Z1.404
X32.327 Y349.144
X32.42 Y350.942 Z1.397
Y350.958
X32.524 Y352.745 Z1.39
X32.525 Y352.762
X32.64 Y354.539 Z1.383
X32.641 Y354.557
X32.769 Y356.324 Z1.376
X32.77 Y356.343
X32.91 Y358.098 Z1.369
X32.912 Y358.117
X33.064 Y359.861 Z1.362
X33.066 Y359.882
X33.233 Y361.613 Z1.355
X33.235 Y361.634
X33.415 Y363.354 Z1.348
X33.417 Y363.377
X33.612 Y365.084 Z1.342
X33.615 Y365.108
X33.824 Y366.802 Z1.335
X33.827 Y366.826
X34.052 Y368.506 Z1.328
X34.055 Y368.532
X34.296 Y370.199 Z1.322
X34.3 Y370.226
X34.557 Y371.878 Z1.315
X34.561 Y371.906
X34.834 Y373.544 Z1.308
X34.839 Y373.572
X35.13 Y375.196 Z1.302
X35.136 Y375.227
X35.444 Y376.835 Z1.295
X35.45 Y376.866
X35.776 Y378.458 Z1.289
X35.783 Y378.49
X36.128 Y380.067 Z1.283
X36.136 Y380.101
X36.5 Y381.661 Z1.276
X36.508 Y381.696
X36.892 Y383.24 Z1.27
X36.901 Y383.276
X37.304 Y384.803 Z1.264
X37.314 Y384.84
X37.738 Y386.349 Z1.257
X37.749 Y386.387
X38.194 Y387.879 Z1.251
X38.206 Y387.919
X38.672 Y389.393 Z1.245
X38.686 Y389.433
X39.174 Y390.889 Z1.239
X39.188 Y390.931
X39.698 Y392.368 Z1.233
X39.714 Y392.411
X40.247 Y393.829 Z1.227
X40.264 Y393.873
X40.82 Y395.272 Z1.221
X40.838 Y395.318
X41.418 Y396.697 Z1.215
X41.438 Y396.743
X42.041 Y398.102 Z1.209
X42.063 Y398.149
X42.691 Y399.488 Z1.203
X42.714 Y399.536
X43.367 Y400.854 Z1.197
X43.391 Y400.902
X44.07 Y402.2 Z1.191
X44.096 Y402.25
X44.8 Y403.526 Z1.185
X44.828 Y403.575
X45.559 Y404.83 Z1.179
X45.588 Y404.88
X46.345 Y406.114 Z1.173
X46.378 Y406.165
X47.161 Y407.376 Z1.168
X47.195 Y407.427 Z1.167
X48.006 Y408.616 Z1.162
X48.041 Y408.666
X48.88 Y409.833 Z1.156
X48.918 Y409.884
X49.785 Y411.028 Z1.15
X49.825 Y411.08
X50.721 Y412.2 Z1.144
X50.761 Y412.249
X51.686 Y413.346 Z1.138
X51.729 Y413.396
X52.683 Y414.47 Z1.133
X52.728 Y414.519 Z1.132
X53.712 Y415.569 Z1.127
X53.758 Y415.617
X54.772 Y416.643 Z1.121
X54.821 Y416.691
X55.865 Y417.692 Z1.115
X55.914 Y417.737
X56.989 Y418.714 Z1.109
X57.026 Y418.747
X57.575 Y419.227 Z1.106
X57.602 Y419.25
X58.159 Y419.723 Z1.103
X58.185 Y419.744
X58.75 Y420.211 Z1.1
X58.777 Y420.234
X59.35 Y420.694 Z1.097
X59.376 Y420.714
X59.957 Y421.168 Z1.094
X59.983 Y421.188
X60.572 Y421.636 Z1.091
X60.598 Y421.655
X61.195 Y422.098 Z1.088
X61.223 Y422.118
X61.829 Y422.553 Z1.085
X61.855 Y422.572
X62.468 Y423.001 Z1.082
X62.497 Y423.02
X63.118 Y423.442 Z1.079
X63.145 Y423.46
X63.775 Y423.876 Z1.076
X63.801 Y423.893
X64.439 Y424.303 Z1.073
X64.468 Y424.321
X65.114 Y424.724 Z1.07
X65.143 Y424.742
X65.798 Y425.138 Z1.067
X65.824 Y425.154
X66.487 Y425.544 Z1.064
X66.516 Y425.561
X67.187 Y425.944 Z1.061
X67.214 Y425.958 Z1.06
X67.894 Y426.335 Z1.057
X67.923 Y426.351
X68.611 Y426.721 Z1.054
X68.637 Y426.735
X69.334 Y427.099 Z1.051
X69.365 Y427.115
X70.071 Y427.471 Z1.048
X70.094 Y427.483
X70.808 Y427.834 Z1.045
X70.839 Y427.849
X71.562 Y428.192 Z1.041
X71.588 Y428.204
X72.319 Y428.541 Z1.038
X72.347 Y428.553
X73.087 Y428.883 Z1.035
X73.115 Y428.896
X73.864 Y429.219 Z1.032
X73.891 Y429.23 Z1.031
X74.649 Y429.546 Z1.028
X74.674 Y429.557
X75.44 Y429.867 Z1.025
X75.47 Y429.878
X76.246 Y430.18 Z1.022
X76.27 Y430.19
X77.054 Y430.486 Z1.018
X77.081 Y430.496
X77.874 Y430.785 Z1.015
X77.901 Y430.794
X78.702 Y431.076 Z1.011
X78.729 Y431.086
X79.54 Y431.361 Z1.008
X79.563 Y431.368
X80.383 Y431.637 Z1.005
X80.411 Y431.647 Z1.004
X81.24 Y431.908 Z1.001
X81.266 Y431.915
X82.104 Y432.169 Z0.998
X82.126 Y432.176
X82.973 Y432.424 Z0.994
X83.001 Y432.432
X83.857 Y432.672 Z0.991
X83.879 Y432.678 Z0.99
X84.744 Y432.912 Z0.987
X84.771 Y432.919
X85.645 Y433.145 Z0.983
X85.669 Y433.152
X86.552 Y433.371 Z0.98
X86.574 Y433.376
X87.466 Y433.589 Z0.976
X87.492 Y433.595
X88.394 Y433.8 Z0.972
X88.417 Y433.805
X89.328 Y434.003 Z0.969
X89.351 Y434.008
X90.271 Y434.199 Z0.965
X90.294 Y434.203
X91.223 Y434.387 Z0.961
X91.245 Y434.392
X92.184 Y434.569 Z0.957
X92.206 Y434.573
X93.154 Y434.743 Z0.953
X93.176 Y434.747
X94.133 Y434.91 Z0.95
X94.157 Y434.913
X95.123 Y435.068 Z0.946
X95.144 Y435.072
X96.12 Y435.22 Z0.942
X96.141 Y435.223
X97.127 Y435.364 Z0.938
X97.147 Y435.367
X98.142 Y435.501 Z0.934
X98.162 Y435.503
X99.166 Y435.63 Z0.93
X99.186 Y435.633
X100.199 Y435.753 Z0.926
X100.221 Y435.755
X101.244 Y435.867 Z0.922
X101.263 Y435.869
X102.296 Y435.974 Z0.918
X102.315 Y435.976
X103.357 Y436.074 Z0.914
X103.375 Y436.076 Z0.913
X104.426 Y436.167 Z0.909
X104.447 Y436.168
X105.508 Y436.251 Z0.905
X105.524 Y436.253
X106.594 Y436.33 Z0.901
X106.614 Y436.331
X107.694 Y436.4 Z0.897
X107.713 Y436.401
X108.802 Y436.462 Z0.892
X108.817 Y436.463
X109.916 Y436.518 Z0.888
X109.935 Y436.519
X111.044 Y436.566 Z0.884
X111.061
X112.179 Y436.606 Z0.879
X112.195 Y436.607
X113.322 Y436.64 Z0.875
X113.34
X114.477 Y436.665 Z0.87
X114.493 Y436.666
X115.639 Y436.684 Z0.866
X115.654
X116.81 Y436.695 Z0.861
X116.825
X117.991 Y436.699 Z0.857
G2 X120.5 Y434.199 Z0.841 I0.009 J-2.5
G1 Y1 Z-0.841
G2 X118 Y-1.5 Z-0.857 I-2.5 J0
G1 X59.5 Z-1.084
G2 X-1.5 Y59.5 Z-1.456 I0 J61
G1 Y59.506
X-1.494 Y61.886 Z-1.465
Y61.898
X-1.478 Y64.251 Z-1.474
Y64.263
X-1.45 Y66.591 Z-1.484
Y66.603
X-1.411 Y68.905 Z-1.493
Y68.917
X-1.361 Y71.192 Z-1.501
X-1.36 Y71.205
X-1.3 Y73.454 Z-1.51
X-1.299 Y73.467
X-1.228 Y75.691 Z-1.519
X-1.227 Y75.704
X-1.144 Y77.901 Z-1.527
Y77.915 Z-1.528
X-1.05 Y80.086 Z-1.536
Y80.1
X-0.946 Y82.246 Z-1.544
X-0.945 Y82.26
X-0.83 Y84.381 Z-1.553
X-0.829 Y84.395
X-0.704 Y86.491 Z-1.561
X-0.703 Y86.505
X-0.567 Y88.576 Z-1.569
X-0.566 Y88.59
X-0.42 Y90.636 Z-1.577
X-0.419 Y90.65
X-0.262 Y92.671 Z-1.585
X-0.261 Y92.686
X-0.094 Y94.683 Z-1.593
X-0.093 Y94.698
X0.083 Y96.671 Z-1.601
X0.085 Y96.686
X0.271 Y98.635 Z-1.608
X0.273 Y98.65
X0.469 Y100.575 Z-1.616
X0.471 Y100.591
X0.676 Y102.493 Z-1.623
X0.678 Y102.508
X0.893 Y104.387 Z-1.631
X0.895 Y104.403
X1.12 Y106.259 Z-1.638
X1.122 Y106.275
X1.355 Y108.109 Z-1.645
X1.357 Y108.125
X1.6 Y109.937 Z-1.652
X1.602 Y109.952
X1.853 Y111.742 Z-1.659
X1.855 Y111.758 Z-1.66
X2.115 Y113.527 Z-1.666
X2.117 Y113.543 Z-1.667
X2.386 Y115.291 Z-1.673
X2.388 Y115.307
X2.664 Y117.034 Z-1.68
X2.667 Y117.05
X2.951 Y118.757 Z-1.687
X2.954 Y118.773
X3.246 Y120.46 Z-1.694
X3.249 Y120.475
X3.549 Y122.143 Z-1.7
X3.552 Y122.159
X3.859 Y123.808 Z-1.707
X3.862 Y123.823
X4.176 Y125.453 Z-1.714
X4.179 Y125.468
X4.5 Y127.081 Z-1.72
X4.503 Y127.097
X4.831 Y128.691 Z-1.726
X4.834 Y128.706
X5.169 Y130.283 Z-1.733
X5.172 Y130.297
X5.512 Y131.858 Z-1.739
X5.516 Y131.873
X5.863 Y133.416 Z-1.745
X5.866 Y133.43
X6.218 Y134.958 Z-1.751
X6.222 Y134.972
X6.58 Y136.485 Z-1.757
X6.583 Y136.499
X6.946 Y137.997 Z-1.763
X6.95 Y138.01
X7.318 Y139.493 Z-1.769
X7.322 Y139.506
X7.695 Y140.975 Z-1.775
X7.698 Y140.988
X8.076 Y142.443 Z-1.781
X8.079 Y142.454
X8.462 Y143.897 Z-1.787
X8.465 Y143.909
X8.851 Y145.339 Z-1.793
X8.855 Y145.351
X9.245 Y146.768 Z-1.799
X9.248 Y146.778
X9.642 Y148.185 Z-1.804
X9.645 Y148.196
X10.042 Y149.591 Z-1.81
X10.045 Y149.601
X10.445 Y150.985 Z-1.816
X10.449 Y150.998
X11.258 Y153.738 Z-1.827
X11.263 Y153.754
X12.081 Y156.457 Z-1.838
X12.085 Y156.471
X12.911 Y159.142 Z-1.849
X12.914 Y159.153
X13.745 Y161.796 Z-1.86
X13.748 Y161.805
X14.581 Y164.424 Z-1.87
X14.583 Y164.43
X15.417 Y167.029 Z-1.881
X15.419 Y167.033
X16.252 Y169.615 Z-1.891
X17.906 Y174.745 Z-1.912
X19.529 Y179.852 Z-1.933
X20.323 Y182.402 Z-1.944
X21.104 Y184.958 Z-1.954
X21.87 Y187.523 Z-1.964
X22.619 Y190.101 Z-1.975
X23.35 Y192.694 Z-1.985
X24.06 Y195.308 Z-1.996
X24.749 Y197.943 Z-2.006
X25.416 Y200.61 Z-2.017
X25.739 Y201.949 Z-2.022
X26.057 Y203.299 Z-2.028
X26.368 Y204.657 Z-2.033
X26.673 Y206.023 Z-2.039
X26.971 Y207.398 Z-2.044
X27.263 Y208.783 Z-2.05
X27.547 Y210.178 Z-2.055
X27.825 Y211.581 Z-2.061
X28.096 Y212.996 Z-2.066
X28.359 Y214.42 Z-2.072
X28.615 Y215.855 Z-2.078
X28.863 Y217.301 Z-2.083
X29.104 Y218.758 Z-2.089
X29.337 Y220.227 Z-2.095
X29.563 Y221.706 Z-2.101
X29.781 Y223.198 Z-2.106
X29.991 Y224.702 Z-2.112
X30.193 Y226.218 Z-2.118
X30.387 Y227.746 Z-2.124
X30.574 Y229.286 Z-2.13
X30.752 Y230.838 Z-2.136
X30.923 Y232.403 Z-2.142
X31.085 Y233.981 Z-2.149
X31.24 Y235.571 Z-2.155
X31.386 Y237.174 Z-2.161
X31.525 Y238.789 Z-2.167
X31.655 Y240.417 Z-2.174
X31.778 Y242.058 Z-2.18
X31.893 Y243.711 Z-2.187
X32 Y245.376 Z-2.193
X32.099 Y247.054 Z-2.2
X32.191 Y248.744 Z-2.206
X32.275 Y250.446 Z-2.213
X32.352 Y252.159 Z-2.219
X32.422 Y253.885 Z-2.226
X32.484 Y255.622 Z-2.233
X32.539 Y257.371 Z-2.24
X32.588 Y259.131 Z-2.247
X32.63 Y260.902 Z-2.253
X32.665 Y262.684 Z-2.26
X32.694 Y264.475 Z-2.267
X32.716 Y266.277 Z-2.274
X32.733 Y268.088 Z-2.281
X32.744 Y269.907 Z-2.288
X32.75 Y273.578 Z-2.303
X32.735 Y277.28 Z-2.317
X32.703 Y281.013 Z-2.332
X32.656 Y284.77 Z-2.346
X32.596 Y288.551 Z-2.361
X32.525 Y292.351 Z-2.376
X32.447 Y296.166 Z-2.39
X32.364 Y299.994 Z-2.405
X32.197 Y307.665 Z-2.435
Y307.671
X32.048 Y315.334 Z-2.465
Y315.344
X31.989 Y319.164 Z-2.48
X31.988 Y319.174
X31.944 Y322.981 Z-2.495
X31.943 Y322.992
X31.916 Y326.782 Z-2.509
Y326.796
X31.911 Y330.567 Z-2.524
Y330.584
X31.93 Y334.331 Z-2.539
Y334.345
X31.949 Y336.209 Z-2.546
X31.95 Y336.219
X31.977 Y338.077 Z-2.553
Y338.088
X32.012 Y339.938 Z-2.56
X32.013 Y339.949
X32.056 Y341.791 Z-2.568
X32.057 Y341.804
X32.109 Y343.638 Z-2.575
X32.11 Y343.651
X32.172 Y345.476 Z-2.582
Y345.489
X32.244 Y347.306 Z-2.589
Y347.321
X32.326 Y349.128 Z-2.596
X32.327 Y349.144
X32.42 Y350.942 Z-2.603
Y350.958
X32.524 Y352.745 Z-2.61
X32.525 Y352.762
X32.64 Y354.539 Z-2.617
X32.641 Y354.557
X32.769 Y356.324 Z-2.624
X32.77 Y356.343
X32.91 Y358.098 Z-2.631
X32.912 Y358.117
X33.064 Y359.861 Z-2.638
X33.066 Y359.882
X33.233 Y361.613 Z-2.645
X33.235 Y361.634
X33.415 Y363.354 Z-2.652
X33.417 Y363.377
X33.612 Y365.084 Z-2.658
X33.615 Y365.108
X33.824 Y366.802 Z-2.665
X33.827 Y366.826
X34.052 Y368.506 Z-2.672
X34.055 Y368.532
X34.296 Y370.199 Z-2.678
X34.3 Y370.226
X34.557 Y371.878 Z-2.685
X34.561 Y371.906
X34.834 Y373.544 Z-2.692
X34.839 Y373.572
X35.13 Y375.196 Z-2.698
X35.136 Y375.227
X35.444 Y376.835 Z-2.705
X35.45 Y376.866
X35.776 Y378.458 Z-2.711
X35.783 Y378.49
X36.128 Y380.067 Z-2.717
X36.136 Y380.101
X36.5 Y381.661 Z-2.724
X36.508 Y381.696
X36.892 Y383.24 Z-2.73
X36.901 Y383.276
X37.304 Y384.803 Z-2.736
X37.314 Y384.84
X37.738 Y386.349 Z-2.743
X37.749 Y386.387
X38.194 Y387.879 Z-2.749
X38.206 Y387.919
X38.672 Y389.393 Z-2.755
X38.686 Y389.433
X39.174 Y390.889 Z-2.761
X39.188 Y390.931
X39.698 Y392.368 Z-2.767
X39.714 Y392.411
X40.247 Y393.829 Z-2.773
X40.264 Y393.873
X40.82 Y395.272 Z-2.779
X40.838 Y395.318
X41.418 Y396.697 Z-2.785
X41.438 Y396.743
X42.041 Y398.102 Z-2.791
X42.063 Y398.149
X42.691 Y399.488 Z-2.797
X42.714 Y399.536
X43.367 Y400.854 Z-2.803
X43.391 Y400.902
X44.07 Y402.2 Z-2.809
X44.096 Y402.25
X44.8 Y403.526 Z-2.815
X44.828 Y403.575
X45.559 Y404.83 Z-2.821
X45.588 Y404.88
X46.345 Y406.114 Z-2.827
X46.378 Y406.165
X47.161 Y407.376 Z-2.832
X47.195 Y407.427 Z-2.833
X48.006 Y408.616 Z-2.838
X48.041 Y408.666
X48.88 Y409.833 Z-2.844
X48.918 Y409.884
X49.785 Y411.028 Z-2.85
X49.825 Y411.08
X50.721 Y412.2 Z-2.856
X50.761 Y412.249
X51.686 Y413.346 Z-2.862
X51.729 Y413.396
X52.683 Y414.47 Z-2.867
X52.728 Y414.519 Z-2.868
X53.712 Y415.569 Z-2.873
X53.758 Y415.617
X54.772 Y416.643 Z-2.879
X54.821 Y416.691
X55.865 Y417.692 Z-2.885
X55.914 Y417.737
X56.989 Y418.714 Z-2.891
X57.026 Y418.747
X57.575 Y419.227 Z-2.894
X57.602 Y419.25
X58.159 Y419.723 Z-2.897
X58.185 Y419.744
X58.75 Y420.211 Z-2.9
X58.777 Y420.234
X59.35 Y420.694 Z-2.903
X59.376 Y420.714
X59.957 Y421.168 Z-2.906
X59.983 Y421.188
X60.572 Y421.636 Z-2.909
X60.598 Y421.655
X61.195 Y422.098 Z-2.912
X61.223 Y422.118
X61.829 Y422.553 Z-2.915
X61.855 Y422.572
X62.468 Y423.001 Z-2.918
X62.497 Y423.02
X63.118 Y423.442 Z-2.921
X63.145 Y423.46
X63.775 Y423.876 Z-2.924
X63.801 Y423.893
X64.439 Y424.303 Z-2.927
X64.468 Y424.321
X65.114 Y424.724 Z-2.93
X65.143 Y424.742
X65.798 Y425.138 Z-2.933
X65.824 Y425.154
X66.487 Y425.544 Z-2.936
X66.516 Y425.561
X67.187 Y425.944 Z-2.939
X67.214 Y425.958 Z-2.94
X67.894 Y426.335 Z-2.943
X67.923 Y426.351
X68.611 Y426.721 Z-2.946
X68.637 Y426.735
X69.334 Y427.099 Z-2.949
X69.365 Y427.115
X70.071 Y427.471 Z-2.952
X70.094 Y427.483
X70.808 Y427.834 Z-2.955
X70.839 Y427.849
X71.562 Y428.192 Z-2.959
X71.588 Y428.204
X72.319 Y428.541 Z-2.962
X72.347 Y428.553
X73.087 Y428.883 Z-2.965
X73.115 Y428.896
X73.864 Y429.219 Z-2.968
X73.891 Y429.23 Z-2.969
X74.649 Y429.546 Z-2.972
X74.674 Y429.557
X75.44 Y429.867 Z-2.975
X75.47 Y429.878
X76.246 Y430.18 Z-2.978
X76.27 Y430.19
X77.054 Y430.486 Z-2.982
X77.081 Y430.496
X77.874 Y430.785 Z-2.985
X77.901 Y430.794
X78.702 Y431.076 Z-2.989
X78.729 Y431.086
X79.54 Y431.361 Z-2.992
X79.563 Y431.368
X80.383 Y431.637 Z-2.995
X80.411 Y431.647 Z-2.996
X81.24 Y431.908 Z-2.999
X81.266 Y431.915
X82.104 Y432.169 Z-3.002
X82.126 Y432.176
X82.973 Y432.424 Z-3.006
X83.001 Y432.432
X83.857 Y432.672 Z-3.009
X83.879 Y432.678 Z-3.01
X84.744 Y432.912 Z-3.013
X84.771 Y432.919
X85.645 Y433.145 Z-3.017
X85.669 Y433.152
X86.552 Y433.371 Z-3.02
X86.574 Y433.376
X87.466 Y433.589 Z-3.024
X87.492 Y433.595
X88.394 Y433.8 Z-3.028
X88.417 Y433.805
X89.328 Y434.003 Z-3.031
X89.351 Y434.008
X90.271 Y434.199 Z-3.035
X90.294 Y434.203
X91.223 Y434.387 Z-3.039
X91.245 Y434.392
X92.184 Y434.569 Z-3.043
X92.206 Y434.573
X93.154 Y434.743 Z-3.047
X93.176 Y434.747
X94.133 Y434.91 Z-3.05
X94.157 Y434.913
X95.123 Y435.068 Z-3.054
X95.144 Y435.072
X96.12 Y435.22 Z-3.058
X96.141 Y435.223
X97.127 Y435.364 Z-3.062
X97.147 Y435.367
X98.142 Y435.501 Z-3.066
X98.162 Y435.503
X99.166 Y435.63 Z-3.07
X99.186 Y435.633
X100.199 Y435.753 Z-3.074
X100.221 Y435.755
X101.244 Y435.867 Z-3.078
X101.263 Y435.869
X102.296 Y435.974 Z-3.082
X102.315 Y435.976
X103.357 Y436.074 Z-3.086
X103.375 Y436.076 Z-3.087
X104.426 Y436.167 Z-3.091
X104.447 Y436.168
X105.508 Y436.251 Z-3.095
X105.524 Y436.253
X106.594 Y436.33 Z-3.099
X106.614 Y436.331
X107.694 Y436.4 Z-3.103
X107.713 Y436.401
X108.802 Y436.462 Z-3.108
X108.817 Y436.463
X109.916 Y436.518 Z-3.112
X109.935 Y436.519
X111.044 Y436.566 Z-3.116
X111.061
X112.179 Y436.606 Z-3.121
X112.195 Y436.607
X113.322 Y436.64 Z-3.125
X113.34
X114.477 Y436.665 Z-3.13
X114.493 Y436.666
X115.639 Y436.684 Z-3.134
X115.654
X116.81 Y436.695 Z-3.139
X116.825
X117.991 Y436.699 Z-3.143
G2 X120.5 Y434.199 Z-3.159 I0.009 J-2.5
G1 Y217.6 Z-4
Y1 F1000
G2 X118 Y-1.5 I-2.5 J0
G1 X59.5
G2 X-1.5 Y59.5 I0 J61
G1 Y59.506
X-1.494 Y61.886
Y61.898
X-1.478 Y64.251
Y64.263
X-1.45 Y66.591
Y66.603
X-1.411 Y68.905
Y68.917
X-1.361 Y71.192
X-1.36 Y71.205
X-1.3 Y73.454
X-1.299 Y73.467
X-1.228 Y75.691
X-1.227 Y75.704
X-1.144 Y77.901
Y77.915
X-1.05 Y80.086
Y80.1
X-0.946 Y82.246
X-0.945 Y82.26
X-0.83 Y84.381
X-0.829 Y84.395
X-0.704 Y86.491
X-0.703 Y86.505
X-0.567 Y88.576
X-0.566 Y88.59
X-0.42 Y90.636
X-0.419 Y90.65
X-0.262 Y92.671
X-0.261 Y92.686
X-0.094 Y94.683
X-0.093 Y94.698
X0.083 Y96.671
X0.085 Y96.686
X0.271 Y98.635
X0.273 Y98.65
X0.469 Y100.575
X0.471 Y100.591
X0.676 Y102.493
X0.678 Y102.508
X0.893 Y104.387
X0.895 Y104.403
X1.12 Y106.259
X1.122 Y106.275
X1.355 Y108.109
X1.357 Y108.125
X1.6 Y109.937
X1.602 Y109.952
X1.853 Y111.742
X1.855 Y111.758
X2.115 Y113.527
X2.117 Y113.543
X2.386 Y115.291
X2.388 Y115.307
X2.664 Y117.034
X2.667 Y117.05
X2.951 Y118.757
X2.954 Y118.773
X3.246 Y120.46
X3.249 Y120.475
X3.549 Y122.143
X3.552 Y122.159
X3.859 Y123.808
X3.862 Y123.823
X4.176 Y125.453
X4.179 Y125.468
X4.5 Y127.081
X4.503 Y127.097
X4.831 Y128.691
X4.834 Y128.706
X5.169 Y130.283
X5.172 Y130.297
X5.512 Y131.858
X5.516 Y131.873
X5.863 Y133.416
X5.866 Y133.43
X6.218 Y134.958
X6.222 Y134.972
X6.58 Y136.485
X6.583 Y136.499
X6.946 Y137.997
X6.95 Y138.01
X7.318 Y139.493
X7.322 Y139.506
X7.695 Y140.975
X7.698 Y140.988
X8.076 Y142.443
X8.079 Y142.454
X8.462 Y143.897
X8.465 Y143.909
X8.851 Y145.339
X8.855 Y145.351
X9.245 Y146.768
X9.248 Y146.778
X9.642 Y148.185
X9.645 Y148.196
X10.042 Y149.591
X10.045 Y149.601
X10.445 Y150.985
X10.449 Y150.998
X11.258 Y153.738
X11.263 Y153.754
X12.081 Y156.457
X12.085 Y156.471
X12.911 Y159.142
X12.914 Y159.153
X13.745 Y161.796
X13.748 Y161.805
X14.581 Y164.424
X14.583 Y164.43
X15.417 Y167.029
X15.419 Y167.033
X16.252 Y169.615
X17.906 Y174.745
X19.529 Y179.852
X20.323 Y182.402
X21.104 Y184.958
X21.87 Y187.523
X22.619 Y190.101
X23.35 Y192.694
X24.06 Y195.308
X24.749 Y197.943
X25.416 Y200.61
X25.739 Y201.949
X26.057 Y203.299
X26.368 Y204.657
X26.673 Y206.023
X26.971 Y207.398
X27.263 Y208.783
X27.547 Y210.178
X27.825 Y211.581
X28.096 Y212.996
X28.359 Y214.42
X28.615 Y215.855
X28.863 Y217.301
X29.104 Y218.758
X29.337 Y220.227
X29.563 Y221.706
X29.781 Y223.198
X29.991 Y224.702
X30.193 Y226.218
X30.387 Y227.746
X30.574 Y229.286
X30.752 Y230.838
X30.923 Y232.403
X31.085 Y233.981
X31.24 Y235.571
X31.386 Y237.174
X31.525 Y238.789
X31.655 Y240.417
X31.778 Y242.058
X31.893 Y243.711
X32 Y245.376
X32.099 Y247.054
X32.191 Y248.744
X32.275 Y250.446
X32.352 Y252.159
X32.422 Y253.885
X32.484 Y255.622
X32.539 Y257.371
X32.588 Y259.131
X32.63 Y260.902
X32.665 Y262.684
X32.694 Y264.475
X32.716 Y266.277
X32.733 Y268.088
X32.744 Y269.907
X32.75 Y273.578
X32.735 Y277.28
X32.703 Y281.013
X32.656 Y284.77
X32.596 Y288.551
X32.525 Y292.351
X32.447 Y296.166
X32.364 Y299.994
X32.197 Y307.665
Y307.671
X32.048 Y315.334
Y315.344
X31.989 Y319.164
X31.988 Y319.174
X31.944 Y322.981
X31.943 Y322.992
X31.916 Y326.782
Y326.796
X31.911 Y330.567
Y330.584
X31.93 Y334.331
Y334.345
X31.949 Y336.209
X31.95 Y336.219
X31.977 Y338.077
Y338.088
X32.012 Y339.938
X32.013 Y339.949
X32.056 Y341.791
X32.057 Y341.804
X32.109 Y343.638
X32.11 Y343.651
X32.172 Y345.476
Y345.489
X32.244 Y347.306
Y347.321
X32.326 Y349.128
X32.327 Y349.144
X32.42 Y350.942
Y350.958
X32.524 Y352.745
X32.525 Y352.762
X32.64 Y354.539
X32.641 Y354.557
X32.769 Y356.324
X32.77 Y356.343
X32.91 Y358.098
X32.912 Y358.117
X33.064 Y359.861
X33.066 Y359.882
X33.233 Y361.613
X33.235 Y361.634
X33.415 Y363.354
X33.417 Y363.377
X33.612 Y365.084
X33.615 Y365.108
X33.824 Y366.802
X33.827 Y366.826
X34.052 Y368.506
X34.055 Y368.532
X34.296 Y370.199
X34.3 Y370.226
X34.557 Y371.878
X34.561 Y371.906
X34.834 Y373.544
X34.839 Y373.572
X35.13 Y375.196
X35.136 Y375.227
X35.444 Y376.835
X35.45 Y376.866
X35.776 Y378.458
X35.783 Y378.49
X36.128 Y380.067
X36.136 Y380.101
X36.5 Y381.661
X36.508 Y381.696
X36.892 Y383.24
X36.901 Y383.276
X37.304 Y384.803
X37.314 Y384.84
X37.738 Y386.349
X37.749 Y386.387
X38.194 Y387.879
X38.206 Y387.919
X38.672 Y389.393
X38.686 Y389.433
X39.174 Y390.889
X39.188 Y390.931
X39.698 Y392.368
X39.714 Y392.411
X40.247 Y393.829
X40.264 Y393.873
X40.82 Y395.272
X40.838 Y395.318
X41.418 Y396.697
X41.438 Y396.743
X42.041 Y398.102
X42.063 Y398.149
X42.691 Y399.488
X42.714 Y399.536
X43.367 Y400.854
X43.391 Y400.902
X44.07 Y402.2
X44.096 Y402.25
X44.8 Y403.526
X44.828 Y403.575
X45.559 Y404.83
X45.588 Y404.88
X46.345 Y406.114
X46.378 Y406.165
X47.161 Y407.376
X47.195 Y407.427
X48.006 Y408.616
X48.041 Y408.666
X48.88 Y409.833
X48.918 Y409.884
X49.785 Y411.028
X49.825 Y411.08
X50.721 Y412.2
X50.761 Y412.249
X51.686 Y413.346
X51.729 Y413.396
X52.683 Y414.47
X52.728 Y414.519
X53.712 Y415.569
X53.758 Y415.617
X54.772 Y416.643
X54.821 Y416.691
X55.865 Y417.692
X55.914 Y417.737
X56.989 Y418.714
X57.026 Y418.747
X57.575 Y419.227
X57.602 Y419.25
X58.159 Y419.723
X58.185 Y419.744
X58.75 Y420.211
X58.777 Y420.234
X59.35 Y420.694
X59.376 Y420.714
X59.957 Y421.168
X59.983 Y421.188
X60.572 Y421.636
X60.598 Y421.655
X61.195 Y422.098
X61.223 Y422.118
X61.829 Y422.553
X61.855 Y422.572
X62.468 Y423.001
X62.497 Y423.02
X63.118 Y423.442
X63.145 Y423.46
X63.775 Y423.876
X63.801 Y423.893
X64.439 Y424.303
X64.468 Y424.321
X65.114 Y424.724
X65.143 Y424.742
X65.798 Y425.138
X65.824 Y425.154
X66.487 Y425.544
X66.516 Y425.561
X67.187 Y425.944
X67.214 Y425.958
X67.894 Y426.335
X67.923 Y426.351
X68.611 Y426.721
X68.637 Y426.735
X69.334 Y427.099
X69.365 Y427.115
X70.071 Y427.471
X70.094 Y427.483
X70.808 Y427.834
X70.839 Y427.849
X71.562 Y428.192
X71.588 Y428.204
X72.319 Y428.541
X72.347 Y428.553
X73.087 Y428.883
X73.115 Y428.896
X73.864 Y429.219
X73.891 Y429.23
X74.649 Y429.546
X74.674 Y429.557
X75.44 Y429.867
X75.47 Y429.878
X76.246 Y430.18
X76.27 Y430.19
X77.054 Y430.486
X77.081 Y430.496
X77.874 Y430.785
X77.901 Y430.794
X78.702 Y431.076
X78.729 Y431.086
X79.54 Y431.361
X79.563 Y431.368
X80.383 Y431.637
X80.411 Y431.647
X81.24 Y431.908
X81.266 Y431.915
X82.104 Y432.169
X82.126 Y432.176
X82.973 Y432.424
X83.001 Y432.432
X83.857 Y432.672
X83.879 Y432.678
X84.744 Y432.912
X84.771 Y432.919
X85.645 Y433.145
X85.669 Y433.152
X86.552 Y433.371
X86.574 Y433.376
X87.466 Y433.589
X87.492 Y433.595
X88.394 Y433.8
X88.417 Y433.805
X89.328 Y434.003
X89.351 Y434.008
X90.271 Y434.199
X90.294 Y434.203
X91.223 Y434.387
X91.245 Y434.392
X92.184 Y434.569
X92.206 Y434.573
X93.154 Y434.743
X93.176 Y434.747
X94.133 Y434.91
X94.157 Y434.913
X95.123 Y435.068
X95.144 Y435.072
X96.12 Y435.22
X96.141 Y435.223
X97.127 Y435.364
X97.147 Y435.367
X98.142 Y435.501
X98.162 Y435.503
X99.166 Y435.63
X99.186 Y435.633
X100.199 Y435.753
X100.221 Y435.755
X101.244 Y435.867
X101.263 Y435.869
X102.296 Y435.974
X102.315 Y435.976
X103.357 Y436.074
X103.375 Y436.076
X104.426 Y436.167
X104.447 Y436.168
X105.508 Y436.251
X105.524 Y436.253
X106.594 Y436.33
X106.614 Y436.331
X107.694 Y436.4
X107.713 Y436.401
X108.802 Y436.462
X108.817 Y436.463
X109.916 Y436.518
X109.935 Y436.519
X111.044 Y436.566
X111.061
X112.179 Y436.606
X112.195 Y436.607
X113.322 Y436.64
X113.34
X114.477 Y436.665
X114.493 Y436.666
X115.639 Y436.684
X115.654
X116.81 Y436.695
X116.825
X117.991 Y436.699
G2 X120.5 Y434.199 I0.009 J-2.5
G1 Y217.6
Y1 Z-4.841 F333.3
G2 X118 Y-1.5 Z-4.857 I-2.5 J0
G1 X59.5 Z-5.084
G2 X-1.5 Y59.5 Z-5.456 I0 J61
G1 Y59.506
X-1.494 Y61.886 Z-5.465
Y61.898
X-1.478 Y64.251 Z-5.474
Y64.263
X-1.45 Y66.591 Z-5.484
Y66.603
X-1.411 Y68.905 Z-5.493
Y68.917
X-1.361 Y71.192 Z-5.501
X-1.36 Y71.205
X-1.3 Y73.454 Z-5.51
X-1.299 Y73.467
X-1.228 Y75.691 Z-5.519
X-1.227 Y75.704
X-1.144 Y77.901 Z-5.527
Y77.915 Z-5.528
X-1.05 Y80.086 Z-5.536
Y80.1
X-0.946 Y82.246 Z-5.544
X-0.945 Y82.26
X-0.83 Y84.381 Z-5.553
X-0.829 Y84.395
X-0.704 Y86.491 Z-5.561
X-0.703 Y86.505
X-0.567 Y88.576 Z-5.569
X-0.566 Y88.59
X-0.42 Y90.636 Z-5.577
X-0.419 Y90.65
X-0.262 Y92.671 Z-5.585
X-0.261 Y92.686
X-0.094 Y94.683 Z-5.593
X-0.093 Y94.698
X0.083 Y96.671 Z-5.601
X0.085 Y96.686
X0.271 Y98.635 Z-5.608
X0.273 Y98.65
X0.469 Y100.575 Z-5.616
X0.471 Y100.591
X0.676 Y102.493 Z-5.623
X0.678 Y102.508
X0.893 Y104.387 Z-5.631
X0.895 Y104.403
X1.12 Y106.259 Z-5.638
X1.122 Y106.275
X1.355 Y108.109 Z-5.645
X1.357 Y108.125
X1.6 Y109.937 Z-5.652
X1.602 Y109.952
X1.853 Y111.742 Z-5.659
X1.855 Y111.758 Z-5.66
X2.115 Y113.527 Z-5.666
X2.117 Y113.543 Z-5.667
X2.386 Y115.291 Z-5.673
X2.388 Y115.307
X2.664 Y117.034 Z-5.68
X2.667 Y117.05
X2.951 Y118.757 Z-5.687
X2.954 Y118.773
X3.246 Y120.46 Z-5.694
X3.249 Y120.475
X3.549 Y122.143 Z-5.7
X3.552 Y122.159
X3.859 Y123.808 Z-5.707
X3.862 Y123.823
X4.176 Y125.453 Z-5.714
X4.179 Y125.468
X4.5 Y127.081 Z-5.72
X4.503 Y127.097
X4.831 Y128.691 Z-5.726
X4.834 Y128.706
X5.169 Y130.283 Z-5.733
X5.172 Y130.297
X5.512 Y131.858 Z-5.739
X5.516 Y131.873
X5.863 Y133.416 Z-5.745
X5.866 Y133.43
X6.218 Y134.958 Z-5.751
X6.222 Y134.972
X6.58 Y136.485 Z-5.757
X6.583 Y136.499
X6.946 Y137.997 Z-5.763
X6.95 Y138.01
X7.318 Y139.493 Z-5.769
X7.322 Y139.506
X7.695 Y140.975 Z-5.775
X7.698 Y140.988
X8.076 Y142.443 Z-5.781
X8.079 Y142.454
X8.462 Y143.897 Z-5.787
X8.465 Y143.909
X8.851 Y145.339 Z-5.793
X8.855 Y145.351
X9.245 Y146.768 Z-5.799
X9.248 Y146.778
X9.642 Y148.185 Z-5.804
X9.645 Y148.196
X10.042 Y149.591 Z-5.81
X10.045 Y149.601
X10.445 Y150.985 Z-5.816
X10.449 Y150.998
X11.258 Y153.738 Z-5.827
X11.263 Y153.754
X12.081 Y156.457 Z-5.838
X12.085 Y156.471
X12.911 Y159.142 Z-5.849
X12.914 Y159.153
X13.745 Y161.796 Z-5.86
X13.748 Y161.805
X14.581 Y164.424 Z-5.87
X14.583 Y164.43
X15.417 Y167.029 Z-5.881
X15.419 Y167.033
X16.252 Y169.615 Z-5.891
X17.906 Y174.745 Z-5.912
X19.529 Y179.852 Z-5.933
X20.323 Y182.402 Z-5.944
X21.104 Y184.958 Z-5.954
X21.87 Y187.523 Z-5.964
X22.619 Y190.101 Z-5.975
X23.35 Y192.694 Z-5.985
X24.06 Y195.308 Z-5.996
X24.749 Y197.943 Z-6.006
X25.416 Y200.61 Z-6.017
X25.739 Y201.949 Z-6.022
X26.057 Y203.299 Z-6.028
X26.368 Y204.657 Z-6.033
X26.673 Y206.023 Z-6.039
X26.971 Y207.398 Z-6.044
X27.263 Y208.783 Z-6.05
X27.547 Y210.178 Z-6.055
X27.825 Y211.581 Z-6.061
X28.096 Y212.996 Z-6.066
X28.359 Y214.42 Z-6.072
X28.615 Y215.855 Z-6.078
X28.863 Y217.301 Z-6.083
X29.104 Y218.758 Z-6.089
X29.337 Y220.227 Z-6.095
X29.563 Y221.706 Z-6.101
X29.781 Y223.198 Z-6.106
X29.991 Y224.702 Z-6.112
X30.193 Y226.218 Z-6.118
X30.387 Y227.746 Z-6.124
X30.574 Y229.286 Z-6.13
X30.752 Y230.838 Z-6.136
X30.923 Y232.403 Z-6.142
X31.085 Y233.981 Z-6.149
X31.24 Y235.571 Z-6.155
X31.386 Y237.174 Z-6.161
X31.525 Y238.789 Z-6.167
X31.655 Y240.417 Z-6.174
X31.778 Y242.058 Z-6.18
X31.893 Y243.711 Z-6.187
X32 Y245.376 Z-6.193
X32.099 Y247.054 Z-6.2
X32.191 Y248.744 Z-6.206
X32.275 Y250.446 Z-6.213
X32.352 Y252.159 Z-6.219
X32.422 Y253.885 Z-6.226
X32.484 Y255.622 Z-6.233
X32.539 Y257.371 Z-6.24
X32.588 Y259.131 Z-6.247
X32.63 Y260.902 Z-6.253
X32.665 Y262.684 Z-6.26
X32.694 Y264.475 Z-6.267
X32.716 Y266.277 Z-6.274
X32.733 Y268.088 Z-6.281
X32.744 Y269.907 Z-6.288
X32.75 Y273.578 Z-6.303
X32.735 Y277.28 Z-6.317
X32.703 Y281.013 Z-6.332
X32.656 Y284.77 Z-6.346
X32.596 Y288.551 Z-6.361
X32.525 Y292.351 Z-6.376
X32.447 Y296.166 Z-6.39
X32.364 Y299.994 Z-6.405
X32.197 Y307.665 Z-6.435
Y307.671
X32.048 Y315.334 Z-6.465
Y315.344
X31.989 Y319.164 Z-6.48
X31.988 Y319.174
X31.944 Y322.981 Z-6.495
X31.943 Y322.992
X31.916 Y326.782 Z-6.509
Y326.796
X31.911 Y330.567 Z-6.524
Y330.584
X31.93 Y334.331 Z-6.539
Y334.345
X31.949 Y336.209 Z-6.546
X31.95 Y336.219
X31.977 Y338.077 Z-6.553
Y338.088
X32.012 Y339.938 Z-6.56
X32.013 Y339.949
X32.056 Y341.791 Z-6.568
X32.057 Y341.804
X32.109 Y343.638 Z-6.575
X32.11 Y343.651
X32.172 Y345.476 Z-6.582
Y345.489
X32.244 Y347.306 Z-6.589
Y347.321
X32.326 Y349.128 Z-6.596
X32.327 Y349.144
X32.42 Y350.942 Z-6.603
Y350.958
X32.524 Y352.745 Z-6.61
X32.525 Y352.762
X32.64 Y354.539 Z-6.617
X32.641 Y354.557
X32.769 Y356.324 Z-6.624
X32.77 Y356.343
X32.91 Y358.098 Z-6.631
X32.912 Y358.117
X33.064 Y359.861 Z-6.638
X33.066 Y359.882
X33.233 Y361.613 Z-6.645
X33.235 Y361.634
X33.415 Y363.354 Z-6.652
X33.417 Y363.377
X33.612 Y365.084 Z-6.658
X33.615 Y365.108
X33.824 Y366.802 Z-6.665
X33.827 Y366.826
X34.052 Y368.506 Z-6.672
X34.055 Y368.532
X34.296 Y370.199 Z-6.678
X34.3 Y370.226
X34.557 Y371.878 Z-6.685
X34.561 Y371.906
X34.834 Y373.544 Z-6.692
X34.839 Y373.572
X35.13 Y375.196 Z-6.698
X35.136 Y375.227
X35.444 Y376.835 Z-6.705
X35.45 Y376.866
X35.776 Y378.458 Z-6.711
X35.783 Y378.49
X36.128 Y380.067 Z-6.717
X36.136 Y380.101
X36.5 Y381.661 Z-6.724
X36.508 Y381.696
X36.892 Y383.24 Z-6.73
X36.901 Y383.276
X37.304 Y384.803 Z-6.736
X37.314 Y384.84
X37.738 Y386.349 Z-6.743
X37.749 Y386.387
X38.194 Y387.879 Z-6.749
X38.206 Y387.919
X38.672 Y389.393 Z-6.755
X38.686 Y389.433
X39.174 Y390.889 Z-6.761
X39.188 Y390.931
X39.698 Y392.368 Z-6.767
X39.714 Y392.411
X40.247 Y393.829 Z-6.773
X40.264 Y393.873
X40.82 Y395.272 Z-6.779
X40.838 Y395.318
X41.418 Y396.697 Z-6.785
X41.438 Y396.743
X42.041 Y398.102 Z-6.791
X42.063 Y398.149
X42.691 Y399.488 Z-6.797
X42.714 Y399.536
X43.367 Y400.854 Z-6.803
X43.391 Y400.902
X44.07 Y402.2 Z-6.809
X44.096 Y402.25
X44.8 Y403.526 Z-6.815
X44.828 Y403.575
X45.559 Y404.83 Z-6.821
X45.588 Y404.88
X46.345 Y406.114 Z-6.827
X46.378 Y406.165
X47.161 Y407.376 Z-6.832
X47.195 Y407.427 Z-6.833
X48.006 Y408.616 Z-6.838
X48.041 Y408.666
X48.88 Y409.833 Z-6.844
X48.918 Y409.884
X49.785 Y411.028 Z-6.85
X49.825 Y411.08
X50.721 Y412.2 Z-6.856
X50.761 Y412.249
X51.686 Y413.346 Z-6.862
X51.729 Y413.396
X52.683 Y414.47 Z-6.867
X52.728 Y414.519 Z-6.868
X53.712 Y415.569 Z-6.873
X53.758 Y415.617
X54.772 Y416.643 Z-6.879
X54.821 Y416.691
X55.865 Y417.692 Z-6.885
X55.914 Y417.737
X56.989 Y418.714 Z-6.891
X57.026 Y418.747
X57.575 Y419.227 Z-6.894
X57.602 Y419.25
X58.159 Y419.723 Z-6.897
X58.185 Y419.744
X58.75 Y420.211 Z-6.9
X58.777 Y420.234
X59.35 Y420.694 Z-6.903
X59.376 Y420.714
X59.957 Y421.168 Z-6.906
X59.983 Y421.188
X60.572 Y421.636 Z-6.909
X60.598 Y421.655
X61.195 Y422.098 Z-6.912
X61.223 Y422.118
X61.829 Y422.553 Z-6.915
X61.855 Y422.572
X62.468 Y423.001 Z-6.918
X62.497 Y423.02
X63.118 Y423.442 Z-6.921
X63.145 Y423.46
X63.775 Y423.876 Z-6.924
X63.801 Y423.893
X64.439 Y424.303 Z-6.927
X64.468 Y424.321
X65.114 Y424.724 Z-6.93
X65.143 Y424.742
X65.798 Y425.138 Z-6.933
X65.824 Y425.154
X66.487 Y425.544 Z-6.936
X66.516 Y425.561
X67.187 Y425.944 Z-6.939
X67.214 Y425.958 Z-6.94
X67.894 Y426.335 Z-6.943
X67.923 Y426.351
X68.611 Y426.721 Z-6.946
X68.637 Y426.735
X69.334 Y427.099 Z-6.949
X69.365 Y427.115
X70.071 Y427.471 Z-6.952
X70.094 Y427.483
X70.808 Y427.834 Z-6.955
X70.839 Y427.849
X71.562 Y428.192 Z-6.959
X71.588 Y428.204
X72.319 Y428.541 Z-6.962
X72.347 Y428.553
X73.087 Y428.883 Z-6.965
X73.115 Y428.896
X73.864 Y429.219 Z-6.968
X73.891 Y429.23 Z-6.969
X74.649 Y429.546 Z-6.972
X74.674 Y429.557
X75.44 Y429.867 Z-6.975
X75.47 Y429.878
X76.246 Y430.18 Z-6.978
X76.27 Y430.19
X77.054 Y430.486 Z-6.982
X77.081 Y430.496
X77.874 Y430.785 Z-6.985
X77.901 Y430.794
X78.702 Y431.076 Z-6.989
X78.729 Y431.086
X79.54 Y431.361 Z-6.992
X79.563 Y431.368
X80.383 Y431.637 Z-6.995
X80.411 Y431.647 Z-6.996
X81.24 Y431.908 Z-6.999
X81.266 Y431.915
X82.104 Y432.169 Z-7.002
X82.126 Y432.176
X82.973 Y432.424 Z-7.006
X83.001 Y432.432
X83.857 Y432.672 Z-7.009
X83.879 Y432.678 Z-7.01
X84.744 Y432.912 Z-7.013
X84.771 Y432.919
X85.645 Y433.145 Z-7.017
X85.669 Y433.152
X86.552 Y433.371 Z-7.02
X86.574 Y433.376
X87.466 Y433.589 Z-7.024
X87.492 Y433.595
X88.394 Y433.8 Z-7.028
X88.417 Y433.805
X89.328 Y434.003 Z-7.031
X89.351 Y434.008
X90.271 Y434.199 Z-7.035
X90.294 Y434.203
X91.223 Y434.387 Z-7.039
X91.245 Y434.392
X92.184 Y434.569 Z-7.043
X92.206 Y434.573
X93.154 Y434.743 Z-7.047
X93.176 Y434.747
X94.133 Y434.91 Z-7.05
X94.157 Y434.913
X95.123 Y435.068 Z-7.054
X95.144 Y435.072
X96.12 Y435.22 Z-7.058
X96.141 Y435.223
X97.127 Y435.364 Z-7.062
X97.147 Y435.367
X98.142 Y435.501 Z-7.066
X98.162 Y435.503
X99.166 Y435.63 Z-7.07
X99.186 Y435.633
X100.199 Y435.753 Z-7.074
X100.221 Y435.755
X101.244 Y435.867 Z-7.078
X101.263 Y435.869
X102.296 Y435.974 Z-7.082
X102.315 Y435.976
X103.357 Y436.074 Z-7.086
X103.375 Y436.076 Z-7.087
X104.426 Y436.167 Z-7.091
X104.447 Y436.168
X105.508 Y436.251 Z-7.095
X105.524 Y436.253
X106.594 Y436.33 Z-7.099
X106.614 Y436.331
X107.694 Y436.4 Z-7.103
X107.713 Y436.401
X108.802 Y436.462 Z-7.108
X108.817 Y436.463
X109.916 Y436.518 Z-7.112
X109.935 Y436.519
X111.044 Y436.566 Z-7.116
X111.061
X112.179 Y436.606 Z-7.121
X112.195 Y436.607
X113.322 Y436.64 Z-7.125
X113.34
X114.477 Y436.665 Z-7.13
X114.493 Y436.666
X115.639 Y436.684 Z-7.134
X115.654
X116.81 Y436.695 Z-7.139
X116.825
X117.991 Y436.699 Z-7.143
G2 X120.5 Y434.199 Z-7.159 I0.009 J-2.5
G1 Y217.6 Z-8
Y1 F1000
G2 X118 Y-1.5 I-2.5 J0
G1 X59.5
G2 X-1.5 Y59.5 I0 J61
G1 Y59.506
X-1.494 Y61.886
Y61.898
X-1.478 Y64.251
Y64.263
X-1.45 Y66.591
Y66.603
X-1.411 Y68.905
Y68.917
X-1.361 Y71.192
X-1.36 Y71.205
X-1.3 Y73.454
X-1.299 Y73.467
X-1.228 Y75.691
X-1.227 Y75.704
X-1.144 Y77.901
Y77.915
X-1.05 Y80.086
Y80.1
X-0.946 Y82.246
X-0.945 Y82.26
X-0.83 Y84.381
X-0.829 Y84.395
X-0.704 Y86.491
X-0.703 Y86.505
X-0.567 Y88.576
X-0.566 Y88.59
X-0.42 Y90.636
X-0.419 Y90.65
X-0.262 Y92.671
X-0.261 Y92.686
X-0.094 Y94.683
X-0.093 Y94.698
X0.083 Y96.671
X0.085 Y96.686
X0.271 Y98.635
X0.273 Y98.65
X0.469 Y100.575
X0.471 Y100.591
X0.676 Y102.493
X0.678 Y102.508
X0.893 Y104.387
X0.895 Y104.403
X1.12 Y106.259
X1.122 Y106.275
X1.355 Y108.109
X1.357 Y108.125
X1.6 Y109.937
X1.602 Y109.952
X1.853 Y111.742
X1.855 Y111.758
X2.115 Y113.527
X2.117 Y113.543
X2.386 Y115.291
X2.388 Y115.307
X2.664 Y117.034
X2.667 Y117.05
X2.951 Y118.757
X2.954 Y118.773
X3.246 Y120.46
X3.249 Y120.475
X3.549 Y122.143
X3.552 Y122.159
X3.859 Y123.808
X3.862 Y123.823
X4.176 Y125.453
X4.179 Y125.468
X4.5 Y127.081
X4.503 Y127.097
X4.831 Y128.691
X4.834 Y128.706
X5.169 Y130.283
X5.172 Y130.297
X5.512 Y131.858
X5.516 Y131.873
X5.863 Y133.416
X5.866 Y133.43
X6.218 Y134.958
X6.222 Y134.972
X6.58 Y136.485
X6.583 Y136.499
X6.946 Y137.997
X6.95 Y138.01
X7.318 Y139.493
X7.322 Y139.506
X7.695 Y140.975
X7.698 Y140.988
X8.076 Y142.443
X8.079 Y142.454
X8.462 Y143.897
X8.465 Y143.909
X8.851 Y145.339
X8.855 Y145.351
X9.245 Y146.768
X9.248 Y146.778
X9.642 Y148.185
X9.645 Y148.196
X10.042 Y149.591
X10.045 Y149.601
X10.445 Y150.985
X10.449 Y150.998
X11.258 Y153.738
X11.263 Y153.754
X12.081 Y156.457
X12.085 Y156.471
X12.911 Y159.142
X12.914 Y159.153
X13.745 Y161.796
X13.748 Y161.805
X14.581 Y164.424
X14.583 Y164.43
X15.417 Y167.029
X15.419 Y167.033
X16.252 Y169.615
X17.906 Y174.745
X19.529 Y179.852
X20.323 Y182.402
X21.104 Y184.958
X21.87 Y187.523
X22.619 Y190.101
X23.35 Y192.694
X24.06 Y195.308
X24.749 Y197.943
X25.416 Y200.61
X25.739 Y201.949
X26.057 Y203.299
X26.368 Y204.657
X26.673 Y206.023
X26.971 Y207.398
X27.263 Y208.783
X27.547 Y210.178
X27.825 Y211.581
X28.096 Y212.996
X28.359 Y214.42
X28.615 Y215.855
X28.863 Y217.301
X29.104 Y218.758
X29.337 Y220.227
X29.563 Y221.706
X29.781 Y223.198
X29.991 Y224.702
X30.193 Y226.218
X30.387 Y227.746
X30.574 Y229.286
X30.752 Y230.838
X30.923 Y232.403
X31.085 Y233.981
X31.24 Y235.571
X31.386 Y237.174
X31.525 Y238.789
X31.655 Y240.417
X31.778 Y242.058
X31.893 Y243.711
X32 Y245.376
X32.099 Y247.054
X32.191 Y248.744
X32.275 Y250.446
X32.352 Y252.159
X32.422 Y253.885
X32.484 Y255.622
X32.539 Y257.371
X32.588 Y259.131
X32.63 Y260.902
X32.665 Y262.684
X32.694 Y264.475
X32.716 Y266.277
X32.733 Y268.088
X32.744 Y269.907
X32.75 Y273.578
X32.735 Y277.28
X32.703 Y281.013
X32.656 Y284.77
X32.596 Y288.551
X32.525 Y292.351
X32.447 Y296.166
X32.364 Y299.994
X32.197 Y307.665
Y307.671
X32.048 Y315.334
Y315.344
X31.989 Y319.164
X31.988 Y319.174
X31.944 Y322.981
X31.943 Y322.992
X31.916 Y326.782
Y326.796
X31.911 Y330.567
Y330.584
X31.93 Y334.331
Y334.345
X31.949 Y336.209
X31.95 Y336.219
X31.977 Y338.077
Y338.088
X32.012 Y339.938
X32.013 Y339.949
X32.056 Y341.791
X32.057 Y341.804
X32.109 Y343.638
X32.11 Y343.651
X32.172 Y345.476
Y345.489
X32.244 Y347.306
Y347.321
X32.326 Y349.128
X32.327 Y349.144
X32.42 Y350.942
Y350.958
X32.524 Y352.745
X32.525 Y352.762
X32.64 Y354.539
X32.641 Y354.557
X32.769 Y356.324
X32.77 Y356.343
X32.91 Y358.098
X32.912 Y358.117
X33.064 Y359.861
X33.066 Y359.882
X33.233 Y361.613
X33.235 Y361.634
X33.415 Y363.354
X33.417 Y363.377
X33.612 Y365.084
X33.615 Y365.108
X33.824 Y366.802
X33.827 Y366.826
X34.052 Y368.506
X34.055 Y368.532
X34.296 Y370.199
X34.3 Y370.226
X34.557 Y371.878
X34.561 Y371.906
X34.834 Y373.544
X34.839 Y373.572
X35.13 Y375.196
X35.136 Y375.227
X35.444 Y376.835
X35.45 Y376.866
X35.776 Y378.458
X35.783 Y378.49
X36.128 Y380.067
X36.136 Y380.101
X36.5 Y381.661
X36.508 Y381.696
X36.892 Y383.24
X36.901 Y383.276
X37.304 Y384.803
X37.314 Y384.84
X37.738 Y386.349
X37.749 Y386.387
X38.194 Y387.879
X38.206 Y387.919
X38.672 Y389.393
X38.686 Y389.433
X39.174 Y390.889
X39.188 Y390.931
X39.698 Y392.368
X39.714 Y392.411
X40.247 Y393.829
X40.264 Y393.873
X40.82 Y395.272
X40.838 Y395.318
X41.418 Y396.697
X41.438 Y396.743
X42.041 Y398.102
X42.063 Y398.149
X42.691 Y399.488
X42.714 Y399.536
X43.367 Y400.854
X43.391 Y400.902
X44.07 Y402.2
X44.096 Y402.25
X44.8 Y403.526
X44.828 Y403.575
X45.559 Y404.83
X45.588 Y404.88
X46.345 Y406.114
X46.378 Y406.165
X47.161 Y407.376
X47.195 Y407.427
X48.006 Y408.616
X48.041 Y408.666
X48.88 Y409.833
X48.918 Y409.884
X49.785 Y411.028
X49.825 Y411.08
X50.721 Y412.2
X50.761 Y412.249
X51.686 Y413.346
X51.729 Y413.396
X52.683 Y414.47
X52.728 Y414.519
X53.712 Y415.569
X53.758 Y415.617
X54.772 Y416.643
X54.821 Y416.691
X55.865 Y417.692
X55.914 Y417.737
X56.989 Y418.714
X57.026 Y418.747
X57.575 Y419.227
X57.602 Y419.25
X58.159 Y419.723
X58.185 Y419.744
X58.75 Y420.211
X58.777 Y420.234
X59.35 Y420.694
X59.376 Y420.714
X59.957 Y421.168
X59.983 Y421.188
X60.572 Y421.636
X60.598 Y421.655
X61.195 Y422.098
X61.223 Y422.118
X61.829 Y422.553
X61.855 Y422.572
X62.468 Y423.001
X62.497 Y423.02
X63.118 Y423.442
X63.145 Y423.46
X63.775 Y423.876
X63.801 Y423.893
X64.439 Y424.303
X64.468 Y424.321
X65.114 Y424.724
X65.143 Y424.742
X65.798 Y425.138
X65.824 Y425.154
X66.487 Y425.544
X66.516 Y425.561
X67.187 Y425.944
X67.214 Y425.958
X67.894 Y426.335
X67.923 Y426.351
X68.611 Y426.721
X68.637 Y426.735
X69.334 Y427.099
X69.365 Y427.115
X70.071 Y427.471
X70.094 Y427.483
X70.808 Y427.834
X70.839 Y427.849
X71.562 Y428.192
X71.588 Y428.204
X72.319 Y428.541
X72.347 Y428.553
X73.087 Y428.883
X73.115 Y428.896
X73.864 Y429.219
X73.891 Y429.23
X74.649 Y429.546
X74.674 Y429.557
X75.44 Y429.867
X75.47 Y429.878
X76.246 Y430.18
X76.27 Y430.19
X77.054 Y430.486
X77.081 Y430.496
X77.874 Y430.785
X77.901 Y430.794
X78.702 Y431.076
X78.729 Y431.086
X79.54 Y431.361
X79.563 Y431.368
X80.383 Y431.637
X80.411 Y431.647
X81.24 Y431.908
X81.266 Y431.915
X82.104 Y432.169
X82.126 Y432.176
X82.973 Y432.424
X83.001 Y432.432
X83.857 Y432.672
X83.879 Y432.678
X84.744 Y432.912
X84.771 Y432.919
X85.645 Y433.145
X85.669 Y433.152
X86.552 Y433.371
X86.574 Y433.376
X87.466 Y433.589
X87.492 Y433.595
X88.394 Y433.8
X88.417 Y433.805
X89.328 Y434.003
X89.351 Y434.008
X90.271 Y434.199
X90.294 Y434.203
X91.223 Y434.387
X91.245 Y434.392
X92.184 Y434.569
X92.206 Y434.573
X93.154 Y434.743
X93.176 Y434.747
X94.133 Y434.91
X94.157 Y434.913
X95.123 Y435.068
X95.144 Y435.072
X96.12 Y435.22
X96.141 Y435.223
X97.127 Y435.364
X97.147 Y435.367
X98.142 Y435.501
X98.162 Y435.503
X99.166 Y435.63
X99.186 Y435.633
X100.199 Y435.753
X100.221 Y435.755
X101.244 Y435.867
X101.263 Y435.869
X102.296 Y435.974
X102.315 Y435.976
X103.357 Y436.074
X103.375 Y436.076
X104.426 Y436.167
X104.447 Y436.168
X105.508 Y436.251
X105.524 Y436.253
X106.594 Y436.33
X106.614 Y436.331
X107.694 Y436.4
X107.713 Y436.401
X108.802 Y436.462
X108.817 Y436.463
X109.916 Y436.518
X109.935 Y436.519
X111.044 Y436.566
X111.061
X112.179 Y436.606
X112.195 Y436.607
X113.322 Y436.64
X113.34
X114.477 Y436.665
X114.493 Y436.666
X115.639 Y436.684
X115.654
X116.81 Y436.695
X116.825
X117.991 Y436.699
G2 X120.5 Y434.199 I0.009 J-2.5
G1 Y217.6
Y1 Z-8.841 F333.3
G2 X118 Y-1.5 Z-8.857 I-2.5 J0
G1 X59.5 Z-9.084
G2 X-1.5 Y59.5 Z-9.456 I0 J61
G1 Y59.506
X-1.494 Y61.886 Z-9.465
Y61.898
X-1.478 Y64.251 Z-9.474
Y64.263
X-1.45 Y66.591 Z-9.484
Y66.603
X-1.411 Y68.905 Z-9.493
Y68.917
X-1.361 Y71.192 Z-9.501
X-1.36 Y71.205
X-1.3 Y73.454 Z-9.51
X-1.299 Y73.467
X-1.228 Y75.691 Z-9.519
X-1.227 Y75.704
X-1.144 Y77.901 Z-9.527
Y77.915 Z-9.528
X-1.05 Y80.086 Z-9.536
Y80.1
X-0.946 Y82.246 Z-9.544
X-0.945 Y82.26
X-0.83 Y84.381 Z-9.553
X-0.829 Y84.395
X-0.704 Y86.491 Z-9.561
X-0.703 Y86.505
X-0.567 Y88.576 Z-9.569
X-0.566 Y88.59
X-0.42 Y90.636 Z-9.577
X-0.419 Y90.65
X-0.262 Y92.671 Z-9.585
X-0.261 Y92.686
X-0.094 Y94.683 Z-9.593
X-0.093 Y94.698
X0.083 Y96.671 Z-9.601
X0.085 Y96.686
X0.271 Y98.635 Z-9.608
X0.273 Y98.65
X0.469 Y100.575 Z-9.616
X0.471 Y100.591
X0.676 Y102.493 Z-9.623
X0.678 Y102.508
X0.893 Y104.387 Z-9.631
X0.895 Y104.403
X1.12 Y106.259 Z-9.638
X1.122 Y106.275
X1.355 Y108.109 Z-9.645
X1.357 Y108.125
X1.6 Y109.937 Z-9.652
X1.602 Y109.952
X1.853 Y111.742 Z-9.659
X1.855 Y111.758 Z-9.66
X2.115 Y113.527 Z-9.666
X2.117 Y113.543 Z-9.667
X2.386 Y115.291 Z-9.673
X2.388 Y115.307
X2.664 Y117.034 Z-9.68
X2.667 Y117.05
X2.951 Y118.757 Z-9.687
X2.954 Y118.773
X3.246 Y120.46 Z-9.694
X3.249 Y120.475
X3.549 Y122.143 Z-9.7
X3.552 Y122.159
X3.859 Y123.808 Z-9.707
X3.862 Y123.823
X4.176 Y125.453 Z-9.714
X4.179 Y125.468
X4.5 Y127.081 Z-9.72
X4.503 Y127.097
X4.831 Y128.691 Z-9.726
X4.834 Y128.706
X5.169 Y130.283 Z-9.733
X5.172 Y130.297
X5.512 Y131.858 Z-9.739
X5.516 Y131.873
X5.863 Y133.416 Z-9.745
X5.866 Y133.43
X6.218 Y134.958 Z-9.751
X6.222 Y134.972
X6.58 Y136.485 Z-9.757
X6.583 Y136.499
X6.946 Y137.997 Z-9.763
X6.95 Y138.01
X7.318 Y139.493 Z-9.769
X7.322 Y139.506
X7.695 Y140.975 Z-9.775
X7.698 Y140.988
X8.076 Y142.443 Z-9.781
X8.079 Y142.454
X8.462 Y143.897 Z-9.787
X8.465 Y143.909
X8.851 Y145.339 Z-9.793
X8.855 Y145.351
X9.245 Y146.768 Z-9.799
X9.248 Y146.778
X9.642 Y148.185 Z-9.804
X9.645 Y148.196
X10.042 Y149.591 Z-9.81
X10.045 Y149.601
X10.445 Y150.985 Z-9.816
X10.449 Y150.998
X11.258 Y153.738 Z-9.827
X11.263 Y153.754
X12.081 Y156.457 Z-9.838
X12.085 Y156.471
X12.911 Y159.142 Z-9.849
X12.914 Y159.153
X13.745 Y161.796 Z-9.86
X13.748 Y161.805
X14.581 Y164.424 Z-9.87
X14.583 Y164.43
X15.417 Y167.029 Z-9.881
X15.419 Y167.033
X16.252 Y169.615 Z-9.891
X17.906 Y174.745 Z-9.912
X19.529 Y179.852 Z-9.933
X20.323 Y182.402 Z-9.944
X21.104 Y184.958 Z-9.954
X21.87 Y187.523 Z-9.964
X22.619 Y190.101 Z-9.975
X23.35 Y192.694 Z-9.985
X24.06 Y195.308 Z-9.996
X24.749 Y197.943 Z-10.006
X25.416 Y200.61 Z-10.017
X25.739 Y201.949 Z-10.022
X26.057 Y203.299 Z-10.028
X26.368 Y204.657 Z-10.033
X26.673 Y206.023 Z-10.039
X26.971 Y207.398 Z-10.044
X27.263 Y208.783 Z-10.05
X27.547 Y210.178 Z-10.055
X27.825 Y211.581 Z-10.061
X28.096 Y212.996 Z-10.066
X28.359 Y214.42 Z-10.072
X28.615 Y215.855 Z-10.078
X28.863 Y217.301 Z-10.083
X29.104 Y218.758 Z-10.089
X29.337 Y220.227 Z-10.095
X29.563 Y221.706 Z-10.101
X29.781 Y223.198 Z-10.106
X29.991 Y224.702 Z-10.112
X30.193 Y226.218 Z-10.118
X30.387 Y227.746 Z-10.124
X30.574 Y229.286 Z-10.13
X30.752 Y230.838 Z-10.136
X30.923 Y232.403 Z-10.142
X31.085 Y233.981 Z-10.149
X31.24 Y235.571 Z-10.155
X31.386 Y237.174 Z-10.161
X31.525 Y238.789 Z-10.167
X31.655 Y240.417 Z-10.174
X31.778 Y242.058 Z-10.18
X31.893 Y243.711 Z-10.187
X32 Y245.376 Z-10.193
X32.099 Y247.054 Z-10.2
X32.191 Y248.744 Z-10.206
X32.275 Y250.446 Z-10.213
X32.352 Y252.159 Z-10.219
X32.422 Y253.885 Z-10.226
X32.484 Y255.622 Z-10.233
X32.539 Y257.371 Z-10.24
X32.588 Y259.131 Z-10.247
X32.63 Y260.902 Z-10.253
X32.665 Y262.684 Z-10.26
X32.694 Y264.475 Z-10.267
X32.716 Y266.277 Z-10.274
X32.733 Y268.088 Z-10.281
X32.744 Y269.907 Z-10.288
X32.75 Y273.578 Z-10.303
X32.735 Y277.28 Z-10.317
X32.703 Y281.013 Z-10.332
X32.656 Y284.77 Z-10.346
X32.596 Y288.551 Z-10.361
X32.525 Y292.351 Z-10.376
X32.447 Y296.166 Z-10.39
X32.364 Y299.994 Z-10.405
X32.197 Y307.665 Z-10.435
Y307.671
X32.048 Y315.334 Z-10.465
Y315.344
X31.989 Y319.164 Z-10.48
X31.988 Y319.174
X31.944 Y322.981 Z-10.495
X31.943 Y322.992
X31.916 Y326.782 Z-10.509
Y326.796
X31.911 Y330.567 Z-10.524
Y330.584
X31.93 Y334.331 Z-10.539
Y334.345
X31.949 Y336.209 Z-10.546
X31.95 Y336.219
X31.977 Y338.077 Z-10.553
Y338.088
X32.012 Y339.938 Z-10.56
X32.013 Y339.949
X32.056 Y341.791 Z-10.568
X32.057 Y341.804
X32.109 Y343.638 Z-10.575
X32.11 Y343.651
X32.172 Y345.476 Z-10.582
Y345.489
X32.244 Y347.306 Z-10.589
Y347.321
X32.326 Y349.128 Z-10.596
X32.327 Y349.144
X32.42 Y350.942 Z-10.603
Y350.958
X32.524 Y352.745 Z-10.61
X32.525 Y352.762
X32.64 Y354.539 Z-10.617
X32.641 Y354.557
X32.769 Y356.324 Z-10.624
X32.77 Y356.343
X32.91 Y358.098 Z-10.631
X32.912 Y358.117
X33.064 Y359.861 Z-10.638
X33.066 Y359.882
X33.233 Y361.613 Z-10.645
X33.235 Y361.634
X33.415 Y363.354 Z-10.652
X33.417 Y363.377
X33.612 Y365.084 Z-10.658
X33.615 Y365.108
X33.824 Y366.802 Z-10.665
X33.827 Y366.826
X34.052 Y368.506 Z-10.672
X34.055 Y368.532
X34.296 Y370.199 Z-10.678
X34.3 Y370.226
X34.557 Y371.878 Z-10.685
X34.561 Y371.906
X34.834 Y373.544 Z-10.692
X34.839 Y373.572
X35.13 Y375.196 Z-10.698
X35.136 Y375.227
X35.444 Y376.835 Z-10.705
X35.45 Y376.866
X35.776 Y378.458 Z-10.711
X35.783 Y378.49
X36.128 Y380.067 Z-10.717
X36.136 Y380.101
X36.5 Y381.661 Z-10.724
X36.508 Y381.696
X36.892 Y383.24 Z-10.73
X36.901 Y383.276
X37.304 Y384.803 Z-10.736
X37.314 Y384.84
X37.738 Y386.349 Z-10.743
X37.749 Y386.387
X38.194 Y387.879 Z-10.749
X38.206 Y387.919
X38.672 Y389.393 Z-10.755
X38.686 Y389.433
X39.174 Y390.889 Z-10.761
X39.188 Y390.931
X39.698 Y392.368 Z-10.767
X39.714 Y392.411
X40.247 Y393.829 Z-10.773
X40.264 Y393.873
X40.82 Y395.272 Z-10.779
X40.838 Y395.318
X41.418 Y396.697 Z-10.785
X41.438 Y396.743
X42.041 Y398.102 Z-10.791
X42.063 Y398.149
X42.691 Y399.488 Z-10.797
X42.714 Y399.536
X43.367 Y400.854 Z-10.803
X43.391 Y400.902
X44.07 Y402.2 Z-10.809
X44.096 Y402.25
X44.8 Y403.526 Z-10.815
X44.828 Y403.575
X45.559 Y404.83 Z-10.821
X45.588 Y404.88
X46.345 Y406.114 Z-10.827
X46.378 Y406.165
X47.161 Y407.376 Z-10.832
X47.195 Y407.427 Z-10.833
X48.006 Y408.616 Z-10.838
X48.041 Y408.666
X48.88 Y409.833 Z-10.844
X48.918 Y409.884
X49.785 Y411.028 Z-10.85
X49.825 Y411.08
X50.721 Y412.2 Z-10.856
X50.761 Y412.249
X51.686 Y413.346 Z-10.862
X51.729 Y413.396
X52.683 Y414.47 Z-10.867
X52.728 Y414.519 Z-10.868
X53.712 Y415.569 Z-10.873
X53.758 Y415.617
X54.772 Y416.643 Z-10.879
X54.821 Y416.691
X55.865 Y417.692 Z-10.885
X55.914 Y417.737
X56.989 Y418.714 Z-10.891
X57.026 Y418.747
X57.575 Y419.227 Z-10.894
X57.602 Y419.25
X58.159 Y419.723 Z-10.897
X58.185 Y419.744
X58.75 Y420.211 Z-10.9
X58.777 Y420.234
X59.35 Y420.694 Z-10.903
X59.376 Y420.714
X59.957 Y421.168 Z-10.906
X59.983 Y421.188
X60.572 Y421.636 Z-10.909
X60.598 Y421.655
X61.195 Y422.098 Z-10.912
X61.223 Y422.118
X61.829 Y422.553 Z-10.915
X61.855 Y422.572
X62.468 Y423.001 Z-10.918
X62.497 Y423.02
X63.118 Y423.442 Z-10.921
X63.145 Y423.46
X63.775 Y423.876 Z-10.924
X63.801 Y423.893
X64.439 Y424.303 Z-10.927
X64.468 Y424.321
X65.114 Y424.724 Z-10.93
X65.143 Y424.742
X65.798 Y425.138 Z-10.933
X65.824 Y425.154
X66.487 Y425.544 Z-10.936
X66.516 Y425.561
X67.187 Y425.944 Z-10.939
X67.214 Y425.958 Z-10.94
X67.894 Y426.335 Z-10.943
X67.923 Y426.351
X68.611 Y426.721 Z-10.946
X68.637 Y426.735
X69.334 Y427.099 Z-10.949
X69.365 Y427.115
X70.071 Y427.471 Z-10.952
X70.094 Y427.483
X70.808 Y427.834 Z-10.955
X70.839 Y427.849
X71.562 Y428.192 Z-10.959
X71.588 Y428.204
X72.319 Y428.541 Z-10.962
X72.347 Y428.553
X73.087 Y428.883 Z-10.965
X73.115 Y428.896
X73.864 Y429.219 Z-10.968
X73.891 Y429.23 Z-10.969
X74.649 Y429.546 Z-10.972
X74.674 Y429.557
X75.44 Y429.867 Z-10.975
X75.47 Y429.878
X76.246 Y430.18 Z-10.978
X76.27 Y430.19
X77.054 Y430.486 Z-10.982
X77.081 Y430.496
X77.874 Y430.785 Z-10.985
X77.901 Y430.794
X78.702 Y431.076 Z-10.989
X78.729 Y431.086
X79.54 Y431.361 Z-10.992
X79.563 Y431.368
X80.383 Y431.637 Z-10.995
X80.411 Y431.647 Z-10.996
X81.24 Y431.908 Z-10.999
X81.266 Y431.915
X82.104 Y432.169 Z-11.002
X82.126 Y432.176
X82.973 Y432.424 Z-11.006
X83.001 Y432.432
X83.857 Y432.672 Z-11.009
X83.879 Y432.678 Z-11.01
X84.744 Y432.912 Z-11.013
X84.771 Y432.919
X85.645 Y433.145 Z-11.017
X85.669 Y433.152
X86.552 Y433.371 Z-11.02
X86.574 Y433.376
X87.466 Y433.589 Z-11.024
X87.492 Y433.595
X88.394 Y433.8 Z-11.028
X88.417 Y433.805
X89.328 Y434.003 Z-11.031
X89.351 Y434.008
X90.271 Y434.199 Z-11.035
X90.294 Y434.203
X91.223 Y434.387 Z-11.039
X91.245 Y434.392
X92.184 Y434.569 Z-11.043
X92.206 Y434.573
X93.154 Y434.743 Z-11.047
X93.176 Y434.747
X94.133 Y434.91 Z-11.05
X94.157 Y434.913
X95.123 Y435.068 Z-11.054
X95.144 Y435.072
X96.12 Y435.22 Z-11.058
X96.141 Y435.223
X97.127 Y435.364 Z-11.062
X97.147 Y435.367
X98.142 Y435.501 Z-11.066
X98.162 Y435.503
X99.166 Y435.63 Z-11.07
X99.186 Y435.633
X100.199 Y435.753 Z-11.074
X100.221 Y435.755
X101.244 Y435.867 Z-11.078
X101.263 Y435.869
X102.296 Y435.974 Z-11.082
X102.315 Y435.976
X103.357 Y436.074 Z-11.086
X103.375 Y436.076 Z-11.087
X104.426 Y436.167 Z-11.091
X104.447 Y436.168
X105.508 Y436.251 Z-11.095
X105.524 Y436.253
X106.594 Y436.33 Z-11.099
X106.614 Y436.331
X107.694 Y436.4 Z-11.103
X107.713 Y436.401
X108.802 Y436.462 Z-11.108
X108.817 Y436.463
X109.916 Y436.518 Z-11.112
X109.935 Y436.519
X111.044 Y436.566 Z-11.116
X111.061
X112.179 Y436.606 Z-11.121
X112.195 Y436.607
X113.322 Y436.64 Z-11.125
X113.34
X114.477 Y436.665 Z-11.13
X114.493 Y436.666
X115.639 Y436.684 Z-11.134
X115.654
X116.81 Y436.695 Z-11.139
X116.825
X117.991 Y436.699 Z-11.143
G2 X120.5 Y434.199 Z-11.159 I0.009 J-2.5
G1 Y217.6 Z-12
Y1 F1000
G2 X118 Y-1.5 I-2.5 J0
G1 X59.5
G2 X-1.5 Y59.5 I0 J61
G1 Y59.506
X-1.494 Y61.886
Y61.898
X-1.478 Y64.251
Y64.263
X-1.45 Y66.591
Y66.603
X-1.411 Y68.905
Y68.917
X-1.361 Y71.192
X-1.36 Y71.205
X-1.3 Y73.454
X-1.299 Y73.467
X-1.228 Y75.691
X-1.227 Y75.704
X-1.144 Y77.901
Y77.915
X-1.05 Y80.086
Y80.1
X-0.946 Y82.246
X-0.945 Y82.26
X-0.83 Y84.381
X-0.829 Y84.395
X-0.704 Y86.491
X-0.703 Y86.505
X-0.567 Y88.576
X-0.566 Y88.59
X-0.42 Y90.636
X-0.419 Y90.65
X-0.262 Y92.671
X-0.261 Y92.686
X-0.094 Y94.683
X-0.093 Y94.698
X0.083 Y96.671
X0.085 Y96.686
X0.271 Y98.635
X0.273 Y98.65
X0.469 Y100.575
X0.471 Y100.591
X0.676 Y102.493
X0.678 Y102.508
X0.893 Y104.387
X0.895 Y104.403
X1.12 Y106.259
X1.122 Y106.275
X1.355 Y108.109
X1.357 Y108.125
X1.6 Y109.937
X1.602 Y109.952
X1.853 Y111.742
X1.855 Y111.758
X2.115 Y113.527
X2.117 Y113.543
X2.386 Y115.291
X2.388 Y115.307
X2.664 Y117.034
X2.667 Y117.05
X2.951 Y118.757
X2.954 Y118.773
X3.246 Y120.46
X3.249 Y120.475
X3.549 Y122.143
X3.552 Y122.159
X3.859 Y123.808
X3.862 Y123.823
X4.176 Y125.453
X4.179 Y125.468
X4.5 Y127.081
X4.503 Y127.097
X4.831 Y128.691
X4.834 Y128.706
X5.169 Y130.283
X5.172 Y130.297
X5.512 Y131.858
X5.516 Y131.873
X5.863 Y133.416
X5.866 Y133.43
X6.218 Y134.958
X6.222 Y134.972
X6.58 Y136.485
X6.583 Y136.499
X6.946 Y137.997
X6.95 Y138.01
X7.318 Y139.493
X7.322 Y139.506
X7.695 Y140.975
X7.698 Y140.988
X8.076 Y142.443
X8.079 Y142.454
X8.462 Y143.897
X8.465 Y143.909
X8.851 Y145.339
X8.855 Y145.351
X9.245 Y146.768
X9.248 Y146.778
X9.642 Y148.185
X9.645 Y148.196
X10.042 Y149.591
X10.045 Y149.601
X10.445 Y150.985
X10.449 Y150.998
X11.258 Y153.738
X11.263 Y153.754
X12.081 Y156.457
X12.085 Y156.471
X12.911 Y159.142
X12.914 Y159.153
X13.745 Y161.796
X13.748 Y161.805
X14.581 Y164.424
X14.583 Y164.43
X15.417 Y167.029
X15.419 Y167.033
X16.252 Y169.615
X17.906 Y174.745
X19.529 Y179.852
X20.323 Y182.402
X21.104 Y184.958
X21.87 Y187.523
X22.619 Y190.101
X23.35 Y192.694
X24.06 Y195.308
X24.749 Y197.943
X25.416 Y200.61
X25.739 Y201.949
X26.057 Y203.299
X26.368 Y204.657
X26.673 Y206.023
X26.971 Y207.398
X27.263 Y208.783
X27.547 Y210.178
X27.825 Y211.581
X28.096 Y212.996
X28.359 Y214.42
X28.615 Y215.855
X28.863 Y217.301
X29.104 Y218.758
X29.337 Y220.227
X29.563 Y221.706
X29.781 Y223.198
X29.991 Y224.702
X30.193 Y226.218
X30.387 Y227.746
X30.574 Y229.286
X30.752 Y230.838
X30.923 Y232.403
X31.085 Y233.981
X31.24 Y235.571
X31.386 Y237.174
X31.525 Y238.789
X31.655 Y240.417
X31.778 Y242.058
X31.893 Y243.711
X32 Y245.376
X32.099 Y247.054
X32.191 Y248.744
X32.275 Y250.446
X32.352 Y252.159
X32.422 Y253.885
X32.484 Y255.622
X32.539 Y257.371
X32.588 Y259.131
X32.63 Y260.902
X32.665 Y262.684
X32.694 Y264.475
X32.716 Y266.277
X32.733 Y268.088
X32.744 Y269.907
X32.75 Y273.578
X32.735 Y277.28
X32.703 Y281.013
X32.656 Y284.77
X32.596 Y288.551
X32.525 Y292.351
X32.447 Y296.166
X32.364 Y299.994
X32.197 Y307.665
Y307.671
X32.048 Y315.334
Y315.344
X31.989 Y319.164
X31.988 Y319.174
X31.944 Y322.981
X31.943 Y322.992
X31.916 Y326.782
Y326.796
X31.911 Y330.567
Y330.584
X31.93 Y334.331
Y334.345
X31.949 Y336.209
X31.95 Y336.219
X31.977 Y338.077
Y338.088
X32.012 Y339.938
X32.013 Y339.949
X32.056 Y341.791
X32.057 Y341.804
X32.109 Y343.638
X32.11 Y343.651
X32.172 Y345.476
Y345.489
X32.244 Y347.306
Y347.321
X32.326 Y349.128
X32.327 Y349.144
X32.42 Y350.942
Y350.958
X32.524 Y352.745
X32.525 Y352.762
X32.64 Y354.539
X32.641 Y354.557
X32.769 Y356.324
X32.77 Y356.343
X32.91 Y358.098
X32.912 Y358.117
X33.064 Y359.861
X33.066 Y359.882
X33.233 Y361.613
X33.235 Y361.634
X33.415 Y363.354
X33.417 Y363.377
X33.612 Y365.084
X33.615 Y365.108
X33.824 Y366.802
X33.827 Y366.826
X34.052 Y368.506
X34.055 Y368.532
X34.296 Y370.199
X34.3 Y370.226
X34.557 Y371.878
X34.561 Y371.906
X34.834 Y373.544
X34.839 Y373.572
X35.13 Y375.196
X35.136 Y375.227
X35.444 Y376.835
X35.45 Y376.866
X35.776 Y378.458
X35.783 Y378.49
X36.128 Y380.067
X36.136 Y380.101
X36.5 Y381.661
X36.508 Y381.696
X36.892 Y383.24
X36.901 Y383.276
X37.304 Y384.803
X37.314 Y384.84
X37.738 Y386.349
X37.749 Y386.387
X38.194 Y387.879
X38.206 Y387.919
X38.672 Y389.393
X38.686 Y389.433
X39.174 Y390.889
X39.188 Y390.931
X39.698 Y392.368
X39.714 Y392.411
X40.247 Y393.829
X40.264 Y393.873
X40.82 Y395.272
X40.838 Y395.318
X41.418 Y396.697
X41.438 Y396.743
X42.041 Y398.102
X42.063 Y398.149
X42.691 Y399.488
X42.714 Y399.536
X43.367 Y400.854
X43.391 Y400.902
X44.07 Y402.2
X44.096 Y402.25
X44.8 Y403.526
X44.828 Y403.575
X45.559 Y404.83
X45.588 Y404.88
X46.345 Y406.114
X46.378 Y406.165
X47.161 Y407.376
X47.195 Y407.427
X48.006 Y408.616
X48.041 Y408.666
X48.88 Y409.833
X48.918 Y409.884
X49.785 Y411.028
X49.825 Y411.08
X50.721 Y412.2
X50.761 Y412.249
X51.686 Y413.346
X51.729 Y413.396
X52.683 Y414.47
X52.728 Y414.519
X53.712 Y415.569
X53.758 Y415.617
X54.772 Y416.643
X54.821 Y416.691
X55.865 Y417.692
X55.914 Y417.737
X56.989 Y418.714
X57.026 Y418.747
X57.575 Y419.227
X57.602 Y419.25
X58.159 Y419.723
X58.185 Y419.744
X58.75 Y420.211
X58.777 Y420.234
X59.35 Y420.694
X59.376 Y420.714
X59.957 Y421.168
X59.983 Y421.188
X60.572 Y421.636
X60.598 Y421.655
X61.195 Y422.098
X61.223 Y422.118
X61.829 Y422.553
X61.855 Y422.572
X62.468 Y423.001
X62.497 Y423.02
X63.118 Y423.442
X63.145 Y423.46
X63.775 Y423.876
X63.801 Y423.893
X64.439 Y424.303
X64.468 Y424.321
X65.114 Y424.724
X65.143 Y424.742
X65.798 Y425.138
X65.824 Y425.154
X66.487 Y425.544
X66.516 Y425.561
X67.187 Y425.944
X67.214 Y425.958
X67.894 Y426.335
X67.923 Y426.351
X68.611 Y426.721
X68.637 Y426.735
X69.334 Y427.099
X69.365 Y427.115
X70.071 Y427.471
X70.094 Y427.483
X70.808 Y427.834
X70.839 Y427.849
X71.562 Y428.192
X71.588 Y428.204
X72.319 Y428.541
X72.347 Y428.553
X73.087 Y428.883
X73.115 Y428.896
X73.864 Y429.219
X73.891 Y429.23
X74.649 Y429.546
X74.674 Y429.557
X75.44 Y429.867
X75.47 Y429.878
X76.246 Y430.18
X76.27 Y430.19
X77.054 Y430.486
X77.081 Y430.496
X77.874 Y430.785
X77.901 Y430.794
X78.702 Y431.076
X78.729 Y431.086
X79.54 Y431.361
X79.563 Y431.368
X80.383 Y431.637
X80.411 Y431.647
X81.24 Y431.908
X81.266 Y431.915
X82.104 Y432.169
X82.126 Y432.176
X82.973 Y432.424
X83.001 Y432.432
X83.857 Y432.672
X83.879 Y432.678
X84.744 Y432.912
X84.771 Y432.919
X85.645 Y433.145
X85.669 Y433.152
X86.552 Y433.371
X86.574 Y433.376
X87.466 Y433.589
X87.492 Y433.595
X88.394 Y433.8
X88.417 Y433.805
X89.328 Y434.003
X89.351 Y434.008
X90.271 Y434.199
X90.294 Y434.203
X91.223 Y434.387
X91.245 Y434.392
X92.184 Y434.569
X92.206 Y434.573
X93.154 Y434.743
X93.176 Y434.747
X94.133 Y434.91
X94.157 Y434.913
X95.123 Y435.068
X95.144 Y435.072
X96.12 Y435.22
X96.141 Y435.223
X97.127 Y435.364
X97.147 Y435.367
X98.142 Y435.501
X98.162 Y435.503
X99.166 Y435.63
X99.186 Y435.633
X100.199 Y435.753
X100.221 Y435.755
X101.244 Y435.867
X101.263 Y435.869
X102.296 Y435.974
X102.315 Y435.976
X103.357 Y436.074
X103.375 Y436.076
X104.426 Y436.167
X104.447 Y436.168
X105.508 Y436.251
X105.524 Y436.253
X106.594 Y436.33
X106.614 Y436.331
X107.694 Y436.4
X107.713 Y436.401
X108.802 Y436.462
X108.817 Y436.463
X109.916 Y436.518
X109.935 Y436.519
X111.044 Y436.566
X111.061
X112.179 Y436.606
X112.195 Y436.607
X113.322 Y436.64
X113.34
X114.477 Y436.665
X114.493 Y436.666
X115.639 Y436.684
X115.654
X116.81 Y436.695
X116.825
X117.991 Y436.699
G2 X120.5 Y434.199 I0.009 J-2.5
G1 Y217.6
Y1 Z-12.841 F333.3
G2 X118 Y-1.5 Z-12.857 I-2.5 J0
G1 X59.5 Z-13.084
G2 X-1.5 Y59.5 Z-13.456 I0 J61
G1 Y59.506
X-1.494 Y61.886 Z-13.465
Y61.898
X-1.478 Y64.251 Z-13.474
Y64.263
X-1.45 Y66.591 Z-13.484
Y66.603
X-1.411 Y68.905 Z-13.493
Y68.917
X-1.361 Y71.192 Z-13.501
X-1.36 Y71.205
X-1.3 Y73.454 Z-13.51
X-1.299 Y73.467
X-1.228 Y75.691 Z-13.519
X-1.227 Y75.704
X-1.144 Y77.901 Z-13.527
Y77.915 Z-13.528
X-1.05 Y80.086 Z-13.536
Y80.1
X-0.946 Y82.246 Z-13.544
X-0.945 Y82.26
X-0.83 Y84.381 Z-13.553
X-0.829 Y84.395
X-0.704 Y86.491 Z-13.561
X-0.703 Y86.505
X-0.567 Y88.576 Z-13.569
X-0.566 Y88.59
X-0.42 Y90.636 Z-13.577
X-0.419 Y90.65
X-0.262 Y92.671 Z-13.585
X-0.261 Y92.686
X-0.094 Y94.683 Z-13.593
X-0.093 Y94.698
X0.083 Y96.671 Z-13.601
X0.085 Y96.686
X0.271 Y98.635 Z-13.608
X0.273 Y98.65
X0.469 Y100.575 Z-13.616
X0.471 Y100.591
X0.676 Y102.493 Z-13.623
X0.678 Y102.508
X0.893 Y104.387 Z-13.631
X0.895 Y104.403
X1.12 Y106.259 Z-13.638
X1.122 Y106.275
X1.355 Y108.109 Z-13.645
X1.357 Y108.125
X1.6 Y109.937 Z-13.652
X1.602 Y109.952
X1.853 Y111.742 Z-13.659
X1.855 Y111.758 Z-13.66
X2.115 Y113.527 Z-13.666
X2.117 Y113.543 Z-13.667
X2.386 Y115.291 Z-13.673
X2.388 Y115.307
X2.664 Y117.034 Z-13.68
X2.667 Y117.05
X2.951 Y118.757 Z-13.687
X2.954 Y118.773
X3.246 Y120.46 Z-13.694
X3.249 Y120.475
X3.549 Y122.143 Z-13.7
X3.552 Y122.159
X3.859 Y123.808 Z-13.707
X3.862 Y123.823
X4.176 Y125.453 Z-13.714
X4.179 Y125.468
X4.5 Y127.081 Z-13.72
X4.503 Y127.097
X4.831 Y128.691 Z-13.726
X4.834 Y128.706
X5.169 Y130.283 Z-13.733
X5.172 Y130.297
X5.512 Y131.858 Z-13.739
X5.516 Y131.873
X5.863 Y133.416 Z-13.745
X5.866 Y133.43
X6.218 Y134.958 Z-13.751
X6.222 Y134.972
X6.58 Y136.485 Z-13.757
X6.583 Y136.499
X6.946 Y137.997 Z-13.763
X6.95 Y138.01
X7.318 Y139.493 Z-13.769
X7.322 Y139.506
X7.695 Y140.975 Z-13.775
X7.698 Y140.988
X8.076 Y142.443 Z-13.781
X8.079 Y142.454
X8.462 Y143.897 Z-13.787
X8.465 Y143.909
X8.851 Y145.339 Z-13.793
X8.855 Y145.351
X9.245 Y146.768 Z-13.799
X9.248 Y146.778
X9.642 Y148.185 Z-13.804
X9.645 Y148.196
X10.042 Y149.591 Z-13.81
X10.045 Y149.601
X10.445 Y150.985 Z-13.816
X10.449 Y150.998
X11.258 Y153.738 Z-13.827
X11.263 Y153.754
X12.081 Y156.457 Z-13.838
X12.085 Y156.471
X12.911 Y159.142 Z-13.849
X12.914 Y159.153
X13.745 Y161.796 Z-13.86
X13.748 Y161.805
X14.581 Y164.424 Z-13.87
X14.583 Y164.43
X15.417 Y167.029 Z-13.881
X15.419 Y167.033
X16.252 Y169.615 Z-13.891
X17.906 Y174.745 Z-13.912
X19.529 Y179.852 Z-13.933
X20.323 Y182.402 Z-13.944
X21.104 Y184.958 Z-13.954
X21.87 Y187.523 Z-13.964
X22.619 Y190.101 Z-13.975
X23.35 Y192.694 Z-13.985
X24.06 Y195.308 Z-13.996
X24.749 Y197.943 Z-14.006
X25.416 Y200.61 Z-14.017
X25.739 Y201.949 Z-14.022
X26.057 Y203.299 Z-14.028
X26.368 Y204.657 Z-14.033
X26.673 Y206.023 Z-14.039
X26.971 Y207.398 Z-14.044
X27.263 Y208.783 Z-14.05
X27.547 Y210.178 Z-14.055
X27.825 Y211.581 Z-14.061
X28.096 Y212.996 Z-14.066
X28.359 Y214.42 Z-14.072
X28.615 Y215.855 Z-14.078
X28.863 Y217.301 Z-14.083
X29.104 Y218.758 Z-14.089
X29.337 Y220.227 Z-14.095
X29.563 Y221.706 Z-14.101
X29.781 Y223.198 Z-14.106
X29.991 Y224.702 Z-14.112
X30.193 Y226.218 Z-14.118
X30.387 Y227.746 Z-14.124
X30.574 Y229.286 Z-14.13
X30.752 Y230.838 Z-14.136
X30.923 Y232.403 Z-14.142
X31.085 Y233.981 Z-14.149
X31.24 Y235.571 Z-14.155
X31.386 Y237.174 Z-14.161
X31.525 Y238.789 Z-14.167
X31.655 Y240.417 Z-14.174
X31.778 Y242.058 Z-14.18
X31.893 Y243.711 Z-14.187
X32 Y245.376 Z-14.193
X32.099 Y247.054 Z-14.2
X32.191 Y248.744 Z-14.206
X32.275 Y250.446 Z-14.213
X32.352 Y252.159 Z-14.219
X32.422 Y253.885 Z-14.226
X32.484 Y255.622 Z-14.233
X32.539 Y257.371 Z-14.24
X32.588 Y259.131 Z-14.247
X32.63 Y260.902 Z-14.253
X32.665 Y262.684 Z-14.26
X32.694 Y264.475 Z-14.267
X32.716 Y266.277 Z-14.274
X32.733 Y268.088 Z-14.281
X32.744 Y269.907 Z-14.288
X32.75 Y273.578 Z-14.303
X32.735 Y277.28 Z-14.317
X32.703 Y281.013 Z-14.332
X32.656 Y284.77 Z-14.346
X32.596 Y288.551 Z-14.361
X32.525 Y292.351 Z-14.376
X32.447 Y296.166 Z-14.39
X32.364 Y299.994 Z-14.405
X32.197 Y307.665 Z-14.435
Y307.671
X32.048 Y315.334 Z-14.465
Y315.344
X31.989 Y319.164 Z-14.48
X31.988 Y319.174
X31.944 Y322.981 Z-14.495
X31.943 Y322.992
X31.916 Y326.782 Z-14.509
Y326.796
X31.911 Y330.567 Z-14.524
Y330.584
X31.93 Y334.331 Z-14.539
Y334.345
X31.949 Y336.209 Z-14.546
X31.95 Y336.219
X31.977 Y338.077 Z-14.553
Y338.088
X32.012 Y339.938 Z-14.56
X32.013 Y339.949
X32.056 Y341.791 Z-14.568
X32.057 Y341.804
X32.109 Y343.638 Z-14.575
X32.11 Y343.651
X32.172 Y345.476 Z-14.582
Y345.489
X32.244 Y347.306 Z-14.589
Y347.321
X32.326 Y349.128 Z-14.596
X32.327 Y349.144
X32.42 Y350.942 Z-14.603
Y350.958
X32.524 Y352.745 Z-14.61
X32.525 Y352.762
X32.64 Y354.539 Z-14.617
X32.641 Y354.557
X32.769 Y356.324 Z-14.624
X32.77 Y356.343
X32.91 Y358.098 Z-14.631
X32.912 Y358.117
X33.064 Y359.861 Z-14.638
X33.066 Y359.882
X33.233 Y361.613 Z-14.645
X33.235 Y361.634
X33.415 Y363.354 Z-14.652
X33.417 Y363.377
X33.612 Y365.084 Z-14.658
X33.615 Y365.108
X33.824 Y366.802 Z-14.665
X33.827 Y366.826
X34.052 Y368.506 Z-14.672
X34.055 Y368.532
X34.296 Y370.199 Z-14.678
X34.3 Y370.226
X34.557 Y371.878 Z-14.685
X34.561 Y371.906
X34.834 Y373.544 Z-14.692
X34.839 Y373.572
X35.13 Y375.196 Z-14.698
X35.136 Y375.227
X35.444 Y376.835 Z-14.705
X35.45 Y376.866
X35.776 Y378.458 Z-14.711
X35.783 Y378.49
X36.128 Y380.067 Z-14.717
X36.136 Y380.101
X36.5 Y381.661 Z-14.724
X36.508 Y381.696
X36.892 Y383.24 Z-14.73
X36.901 Y383.276
X37.304 Y384.803 Z-14.736
X37.314 Y384.84
X37.738 Y386.349 Z-14.743
X37.749 Y386.387
X38.194 Y387.879 Z-14.749
X38.206 Y387.919
X38.672 Y389.393 Z-14.755
X38.686 Y389.433
X39.174 Y390.889 Z-14.761
X39.188 Y390.931
X39.698 Y392.368 Z-14.767
X39.714 Y392.411
X40.247 Y393.829 Z-14.773
X40.264 Y393.873
X40.82 Y395.272 Z-14.779
X40.838 Y395.318
X41.418 Y396.697 Z-14.785
X41.438 Y396.743
X42.041 Y398.102 Z-14.791
X42.063 Y398.149
X42.691 Y399.488 Z-14.797
X42.714 Y399.536
X43.367 Y400.854 Z-14.803
X43.391 Y400.902
X44.07 Y402.2 Z-14.809
X44.096 Y402.25
X44.8 Y403.526 Z-14.815
X44.828 Y403.575
X45.559 Y404.83 Z-14.821
X45.588 Y404.88
X46.345 Y406.114 Z-14.827
X46.378 Y406.165
X47.161 Y407.376 Z-14.832
X47.195 Y407.427 Z-14.833
X48.006 Y408.616 Z-14.838
X48.041 Y408.666
X48.88 Y409.833 Z-14.844
X48.918 Y409.884
X49.785 Y411.028 Z-14.85
X49.825 Y411.08
X50.721 Y412.2 Z-14.856
X50.761 Y412.249
X51.686 Y413.346 Z-14.862
X51.729 Y413.396
X52.683 Y414.47 Z-14.867
X52.728 Y414.519 Z-14.868
X53.712 Y415.569 Z-14.873
X53.758 Y415.617
X54.772 Y416.643 Z-14.879
X54.821 Y416.691
X55.865 Y417.692 Z-14.885
X55.914 Y417.737
X56.989 Y418.714 Z-14.891
X57.026 Y418.747
X57.575 Y419.227 Z-14.894
X57.602 Y419.25
X58.159 Y419.723 Z-14.897
X58.185 Y419.744
X58.75 Y420.211 Z-14.9
X58.777 Y420.234
X59.35 Y420.694 Z-14.903
X59.376 Y420.714
X59.957 Y421.168 Z-14.906
X59.983 Y421.188
X60.572 Y421.636 Z-14.909
X60.598 Y421.655
X61.195 Y422.098 Z-14.912
X61.223 Y422.118
X61.829 Y422.553 Z-14.915
X61.855 Y422.572
X62.468 Y423.001 Z-14.918
X62.497 Y423.02
X63.118 Y423.442 Z-14.921
X63.145 Y423.46
X63.775 Y423.876 Z-14.924
X63.801 Y423.893
X64.439 Y424.303 Z-14.927
X64.468 Y424.321
X65.114 Y424.724 Z-14.93
X65.143 Y424.742
X65.798 Y425.138 Z-14.933
X65.824 Y425.154
X66.487 Y425.544 Z-14.936
X66.516 Y425.561
X67.187 Y425.944 Z-14.939
X67.214 Y425.958 Z-14.94
X67.894 Y426.335 Z-14.943
X67.923 Y426.351
X68.611 Y426.721 Z-14.946
X68.637 Y426.735
X69.334 Y427.099 Z-14.949
X69.365 Y427.115
X70.071 Y427.471 Z-14.952
X70.094 Y427.483
X70.808 Y427.834 Z-14.955
X70.839 Y427.849
X71.562 Y428.192 Z-14.959
X71.588 Y428.204
X72.319 Y428.541 Z-14.962
X72.347 Y428.553
X73.087 Y428.883 Z-14.965
X73.115 Y428.896
X73.864 Y429.219 Z-14.968
X73.891 Y429.23 Z-14.969
X74.649 Y429.546 Z-14.972
X74.674 Y429.557
X75.44 Y429.867 Z-14.975
X75.47 Y429.878
X76.246 Y430.18 Z-14.978
X76.27 Y430.19
X77.054 Y430.486 Z-14.982
X77.081 Y430.496
X77.874 Y430.785 Z-14.985
X77.901 Y430.794
X78.702 Y431.076 Z-14.989
X78.729 Y431.086
X79.54 Y431.361 Z-14.992
X79.563 Y431.368
X80.383 Y431.637 Z-14.995
X80.411 Y431.647 Z-14.996
X81.24 Y431.908 Z-14.999
X81.266 Y431.915
X82.104 Y432.169 Z-15.002
X82.126 Y432.176
X82.973 Y432.424 Z-15.006
X83.001 Y432.432
X83.857 Y432.672 Z-15.009
X83.879 Y432.678 Z-15.01
X84.744 Y432.912 Z-15.013
X84.771 Y432.919
X85.645 Y433.145 Z-15.017
X85.669 Y433.152
X86.552 Y433.371 Z-15.02
X86.574 Y433.376
X87.466 Y433.589 Z-15.024
X87.492 Y433.595
X88.394 Y433.8 Z-15.028
X88.417 Y433.805
X89.328 Y434.003 Z-15.031
X89.351 Y434.008
X90.271 Y434.199 Z-15.035
X90.294 Y434.203
X91.223 Y434.387 Z-15.039
X91.245 Y434.392
X92.184 Y434.569 Z-15.043
X92.206 Y434.573
X93.154 Y434.743 Z-15.047
X93.176 Y434.747
X94.133 Y434.91 Z-15.05
X94.157 Y434.913
X95.123 Y435.068 Z-15.054
X95.144 Y435.072
X96.12 Y435.22 Z-15.058
X96.141 Y435.223
X97.127 Y435.364 Z-15.062
X97.147 Y435.367
X98.142 Y435.501 Z-15.066
X98.162 Y435.503
X99.166 Y435.63 Z-15.07
X99.186 Y435.633
X100.199 Y435.753 Z-15.074
X100.221 Y435.755
X101.244 Y435.867 Z-15.078
X101.263 Y435.869
X102.296 Y435.974 Z-15.082
X102.315 Y435.976
X103.357 Y436.074 Z-15.086
X103.375 Y436.076 Z-15.087
X104.426 Y436.167 Z-15.091
X104.447 Y436.168
X105.508 Y436.251 Z-15.095
X105.524 Y436.253
X106.594 Y436.33 Z-15.099
X106.614 Y436.331
X107.694 Y436.4 Z-15.103
X107.713 Y436.401
X108.802 Y436.462 Z-15.108
X108.817 Y436.463
X109.916 Y436.518 Z-15.112
X109.935 Y436.519
X111.044 Y436.566 Z-15.116
X111.061
X112.179 Y436.606 Z-15.121
X112.195 Y436.607
X113.322 Y436.64 Z-15.125
X113.34
X114.477 Y436.665 Z-15.13
X114.493 Y436.666
X115.639 Y436.684 Z-15.134
X115.654
X116.81 Y436.695 Z-15.139
X116.825
X117.991 Y436.699 Z-15.143
G2 X120.5 Y434.199 Z-15.159 I0.009 J-2.5
G1 Y217.6 Z-16
Y1 F1000
G2 X118 Y-1.5 I-2.5 J0
G1 X59.5
G2 X-1.5 Y59.5 I0 J61
G1 Y59.506
X-1.494 Y61.886
Y61.898
X-1.478 Y64.251
Y64.263
X-1.45 Y66.591
Y66.603
X-1.411 Y68.905
Y68.917
X-1.361 Y71.192
X-1.36 Y71.205
X-1.3 Y73.454
X-1.299 Y73.467
X-1.228 Y75.691
X-1.227 Y75.704
X-1.144 Y77.901
Y77.915
X-1.05 Y80.086
Y80.1
X-0.946 Y82.246
X-0.945 Y82.26
X-0.83 Y84.381
X-0.829 Y84.395
X-0.704 Y86.491
X-0.703 Y86.505
X-0.567 Y88.576
X-0.566 Y88.59
X-0.42 Y90.636
X-0.419 Y90.65
X-0.262 Y92.671
X-0.261 Y92.686
X-0.094 Y94.683
X-0.093 Y94.698
X0.083 Y96.671
X0.085 Y96.686
X0.271 Y98.635
X0.273 Y98.65
X0.469 Y100.575
X0.471 Y100.591
X0.676 Y102.493
X0.678 Y102.508
X0.893 Y104.387
X0.895 Y104.403
X1.12 Y106.259
X1.122 Y106.275
X1.355 Y108.109
X1.357 Y108.125
X1.6 Y109.937
X1.602 Y109.952
X1.853 Y111.742
X1.855 Y111.758
X2.115 Y113.527
X2.117 Y113.543
X2.386 Y115.291
X2.388 Y115.307
X2.664 Y117.034
X2.667 Y117.05
X2.951 Y118.757
X2.954 Y118.773
X3.246 Y120.46
X3.249 Y120.475
X3.549 Y122.143
X3.552 Y122.159
X3.859 Y123.808
X3.862 Y123.823
X4.176 Y125.453
X4.179 Y125.468
X4.5 Y127.081
X4.503 Y127.097
X4.831 Y128.691
X4.834 Y128.706
X5.169 Y130.283
X5.172 Y130.297
X5.512 Y131.858
X5.516 Y131.873
X5.863 Y133.416
X5.866 Y133.43
X6.218 Y134.958
X6.222 Y134.972
X6.58 Y136.485
X6.583 Y136.499
X6.946 Y137.997
X6.95 Y138.01
X7.318 Y139.493
X7.322 Y139.506
X7.695 Y140.975
X7.698 Y140.988
X8.076 Y142.443
X8.079 Y142.454
X8.462 Y143.897
X8.465 Y143.909
X8.851 Y145.339
X8.855 Y145.351
X9.245 Y146.768
X9.248 Y146.778
X9.642 Y148.185
X9.645 Y148.196
X10.042 Y149.591
X10.045 Y149.601
X10.445 Y150.985
X10.449 Y150.998
X11.258 Y153.738
X11.263 Y153.754
X12.081 Y156.457
X12.085 Y156.471
X12.911 Y159.142
X12.914 Y159.153
X13.745 Y161.796
X13.748 Y161.805
X14.581 Y164.424
X14.583 Y164.43
X15.417 Y167.029
X15.419 Y167.033
X16.252 Y169.615
X17.906 Y174.745
X19.529 Y179.852
X20.323 Y182.402
X21.104 Y184.958
X21.87 Y187.523
X22.619 Y190.101
X23.35 Y192.694
X24.06 Y195.308
X24.749 Y197.943
X25.416 Y200.61
X25.739 Y201.949
X26.057 Y203.299
X26.368 Y204.657
X26.673 Y206.023
X26.971 Y207.398
X27.263 Y208.783
X27.547 Y210.178
X27.825 Y211.581
X28.096 Y212.996
X28.359 Y214.42
X28.615 Y215.855
X28.863 Y217.301
X29.104 Y218.758
X29.337 Y220.227
X29.563 Y221.706
X29.781 Y223.198
X29.991 Y224.702
X30.193 Y226.218
X30.387 Y227.746
X30.574 Y229.286
X30.752 Y230.838
X30.923 Y232.403
X31.085 Y233.981
X31.24 Y235.571
X31.386 Y237.174
X31.525 Y238.789
X31.655 Y240.417
X31.778 Y242.058
X31.893 Y243.711
X32 Y245.376
X32.099 Y247.054
X32.191 Y248.744
X32.275 Y250.446
X32.352 Y252.159
X32.422 Y253.885
X32.484 Y255.622
X32.539 Y257.371
X32.588 Y259.131
X32.63 Y260.902
X32.665 Y262.684
X32.694 Y264.475
X32.716 Y266.277
X32.733 Y268.088
X32.744 Y269.907
X32.75 Y273.578
X32.735 Y277.28
X32.703 Y281.013
X32.656 Y284.77
X32.596 Y288.551
X32.525 Y292.351
X32.447 Y296.166
X32.364 Y299.994
X32.197 Y307.665
Y307.671
X32.048 Y315.334
Y315.344
X31.989 Y319.164
X31.988 Y319.174
X31.944 Y322.981
X31.943 Y322.992
X31.916 Y326.782
Y326.796
X31.911 Y330.567
Y330.584
X31.93 Y334.331
Y334.345
X31.949 Y336.209
X31.95 Y336.219
X31.977 Y338.077
Y338.088
X32.012 Y339.938
X32.013 Y339.949
X32.056 Y341.791
X32.057 Y341.804
X32.109 Y343.638
X32.11 Y343.651
X32.172 Y345.476
Y345.489
X32.244 Y347.306
Y347.321
X32.326 Y349.128
X32.327 Y349.144
X32.42 Y350.942
Y350.958
X32.524 Y352.745
X32.525 Y352.762
X32.64 Y354.539
X32.641 Y354.557
X32.769 Y356.324
X32.77 Y356.343
X32.91 Y358.098
X32.912 Y358.117
X33.064 Y359.861
X33.066 Y359.882
X33.233 Y361.613
X33.235 Y361.634
X33.415 Y363.354
X33.417 Y363.377
X33.612 Y365.084
X33.615 Y365.108
X33.824 Y366.802
X33.827 Y366.826
X34.052 Y368.506
X34.055 Y368.532
X34.296 Y370.199
X34.3 Y370.226
X34.557 Y371.878
X34.561 Y371.906
X34.834 Y373.544
X34.839 Y373.572
X35.13 Y375.196
X35.136 Y375.227
X35.444 Y376.835
X35.45 Y376.866
X35.776 Y378.458
X35.783 Y378.49
X36.128 Y380.067
X36.136 Y380.101
X36.5 Y381.661
X36.508 Y381.696
X36.892 Y383.24
X36.901 Y383.276
X37.304 Y384.803
X37.314 Y384.84
X37.738 Y386.349
X37.749 Y386.387
X38.194 Y387.879
X38.206 Y387.919
X38.672 Y389.393
X38.686 Y389.433
X39.174 Y390.889
X39.188 Y390.931
X39.698 Y392.368
X39.714 Y392.411
X40.247 Y393.829
X40.264 Y393.873
X40.82 Y395.272
X40.838 Y395.318
X41.418 Y396.697
X41.438 Y396.743
X42.041 Y398.102
X42.063 Y398.149
X42.691 Y399.488
X42.714 Y399.536
X43.367 Y400.854
X43.391 Y400.902
X44.07 Y402.2
X44.096 Y402.25
X44.8 Y403.526
X44.828 Y403.575
X45.559 Y404.83
X45.588 Y404.88
X46.345 Y406.114
X46.378 Y406.165
X47.161 Y407.376
X47.195 Y407.427
X48.006 Y408.616
X48.041 Y408.666
X48.88 Y409.833
X48.918 Y409.884
X49.785 Y411.028
X49.825 Y411.08
X50.721 Y412.2
X50.761 Y412.249
X51.686 Y413.346
X51.729 Y413.396
X52.683 Y414.47
X52.728 Y414.519
X53.712 Y415.569
X53.758 Y415.617
X54.772 Y416.643
X54.821 Y416.691
X55.865 Y417.692
X55.914 Y417.737
X56.989 Y418.714
X57.026 Y418.747
X57.575 Y419.227
X57.602 Y419.25
X58.159 Y419.723
X58.185 Y419.744
X58.75 Y420.211
X58.777 Y420.234
X59.35 Y420.694
X59.376 Y420.714
X59.957 Y421.168
X59.983 Y421.188
X60.572 Y421.636
X60.598 Y421.655
X61.195 Y422.098
X61.223 Y422.118
X61.829 Y422.553
X61.855 Y422.572
X62.468 Y423.001
X62.497 Y423.02
X63.118 Y423.442
X63.145 Y423.46
X63.775 Y423.876
X63.801 Y423.893
X64.439 Y424.303
X64.468 Y424.321
X65.114 Y424.724
X65.143 Y424.742
X65.798 Y425.138
X65.824 Y425.154
X66.487 Y425.544
X66.516 Y425.561
X67.187 Y425.944
X67.214 Y425.958
X67.894 Y426.335
X67.923 Y426.351
X68.611 Y426.721
X68.637 Y426.735
X69.334 Y427.099
X69.365 Y427.115
X70.071 Y427.471
X70.094 Y427.483
X70.808 Y427.834
X70.839 Y427.849
X71.562 Y428.192
X71.588 Y428.204
X72.319 Y428.541
X72.347 Y428.553
X73.087 Y428.883
X73.115 Y428.896
X73.864 Y429.219
X73.891 Y429.23
X74.649 Y429.546
X74.674 Y429.557
X75.44 Y429.867
X75.47 Y429.878
X76.246 Y430.18
X76.27 Y430.19
X77.054 Y430.486
X77.081 Y430.496
X77.874 Y430.785
X77.901 Y430.794
X78.702 Y431.076
X78.729 Y431.086
X79.54 Y431.361
X79.563 Y431.368
X80.383 Y431.637
X80.411 Y431.647
X81.24 Y431.908
X81.266 Y431.915
X82.104 Y432.169
X82.126 Y432.176
X82.973 Y432.424
X83.001 Y432.432
X83.857 Y432.672
X83.879 Y432.678
X84.744 Y432.912
X84.771 Y432.919
X85.645 Y433.145
X85.669 Y433.152
X86.552 Y433.371
X86.574 Y433.376
X87.466 Y433.589
X87.492 Y433.595
X88.394 Y433.8
X88.417 Y433.805
X89.328 Y434.003
X89.351 Y434.008
X90.271 Y434.199
X90.294 Y434.203
X91.223 Y434.387
X91.245 Y434.392
X92.184 Y434.569
X92.206 Y434.573
X93.154 Y434.743
X93.176 Y434.747
X94.133 Y434.91
X94.157 Y434.913
X95.123 Y435.068
X95.144 Y435.072
X96.12 Y435.22
X96.141 Y435.223
X97.127 Y435.364
X97.147 Y435.367
X98.142 Y435.501
X98.162 Y435.503
X99.166 Y435.63
X99.186 Y435.633
X100.199 Y435.753
X100.221 Y435.755
X101.244 Y435.867
X101.263 Y435.869
X102.296 Y435.974
X102.315 Y435.976
X103.357 Y436.074
X103.375 Y436.076
X104.426 Y436.167
X104.447 Y436.168
X105.508 Y436.251
X105.524 Y436.253
X106.594 Y436.33
X106.614 Y436.331
X107.694 Y436.4
X107.713 Y436.401
X108.802 Y436.462
X108.817 Y436.463
X109.916 Y436.518
X109.935 Y436.519
X111.044 Y436.566
X111.061
X112.179 Y436.606
X112.195 Y436.607
X113.322 Y436.64
X113.34
X114.477 Y436.665
X114.493 Y436.666
X115.639 Y436.684
X115.654
X116.81 Y436.695
X116.825
X117.991 Y436.699
G2 X120.5 Y434.199 I0.009 J-2.5
G1 Y217.6
Y1 Z-16.841 F333.3
G2 X118 Y-1.5 Z-16.857 I-2.5 J0
G1 X59.5 Z-17.084
G2 X-1.5 Y59.5 Z-17.456 I0 J61
G1 Y59.506
X-1.494 Y61.886 Z-17.465
Y61.898
X-1.478 Y64.251 Z-17.474
Y64.263
X-1.45 Y66.591 Z-17.484
Y66.603
X-1.411 Y68.905 Z-17.493
Y68.917
X-1.361 Y71.192 Z-17.501
X-1.36 Y71.205
X-1.3 Y73.454 Z-17.51
X-1.299 Y73.467
X-1.228 Y75.691 Z-17.519
X-1.227 Y75.704
X-1.144 Y77.901 Z-17.527
Y77.915 Z-17.528
X-1.05 Y80.086 Z-17.536
Y80.1
X-0.946 Y82.246 Z-17.544
X-0.945 Y82.26
X-0.83 Y84.381 Z-17.553
X-0.829 Y84.395
X-0.704 Y86.491 Z-17.561
X-0.703 Y86.505
X-0.567 Y88.576 Z-17.569
X-0.566 Y88.59
X-0.42 Y90.636 Z-17.577
X-0.419 Y90.65
X-0.262 Y92.671 Z-17.585
X-0.261 Y92.686
X-0.094 Y94.683 Z-17.593
X-0.093 Y94.698
X0.083 Y96.671 Z-17.601
X0.085 Y96.686
X0.271 Y98.635 Z-17.608
X0.273 Y98.65
X0.469 Y100.575 Z-17.616
X0.471 Y100.591
X0.676 Y102.493 Z-17.623
X0.678 Y102.508
X0.893 Y104.387 Z-17.631
X0.895 Y104.403
X1.12 Y106.259 Z-17.638
X1.122 Y106.275
X1.355 Y108.109 Z-17.645
X1.357 Y108.125
X1.6 Y109.937 Z-17.652
X1.602 Y109.952
X1.853 Y111.742 Z-17.659
X1.855 Y111.758 Z-17.66
X2.115 Y113.527 Z-17.666
X2.117 Y113.543 Z-17.667
X2.386 Y115.291 Z-17.673
X2.388 Y115.307
X2.664 Y117.034 Z-17.68
X2.667 Y117.05
X2.951 Y118.757 Z-17.687
X2.954 Y118.773
X3.246 Y120.46 Z-17.694
X3.249 Y120.475
X3.549 Y122.143 Z-17.7
X3.552 Y122.159
X3.859 Y123.808 Z-17.707
X3.862 Y123.823
X4.176 Y125.453 Z-17.714
X4.179 Y125.468
X4.5 Y127.081 Z-17.72
X4.503 Y127.097
X4.831 Y128.691 Z-17.726
X4.834 Y128.706
X5.169 Y130.283 Z-17.733
X5.172 Y130.297
X5.512 Y131.858 Z-17.739
X5.516 Y131.873
X5.863 Y133.416 Z-17.745
X5.866 Y133.43
X6.218 Y134.958 Z-17.751
X6.222 Y134.972
X6.58 Y136.485 Z-17.757
X6.583 Y136.499
X6.946 Y137.997 Z-17.763
X6.95 Y138.01
X7.318 Y139.493 Z-17.769
X7.322 Y139.506
X7.695 Y140.975 Z-17.775
X7.698 Y140.988
X8.076 Y142.443 Z-17.781
X8.079 Y142.454
X8.462 Y143.897 Z-17.787
X8.465 Y143.909
X8.851 Y145.339 Z-17.793
X8.855 Y145.351
X9.245 Y146.768 Z-17.799
X9.248 Y146.778
X9.642 Y148.185 Z-17.804
X9.645 Y148.196
X10.042 Y149.591 Z-17.81
X10.045 Y149.601
X10.445 Y150.985 Z-17.816
X10.449 Y150.998
X11.258 Y153.738 Z-17.827
X11.263 Y153.754
X12.081 Y156.457 Z-17.838
X12.085 Y156.471
X12.911 Y159.142 Z-17.849
X12.914 Y159.153
X13.745 Y161.796 Z-17.86
X13.748 Y161.805
X14.581 Y164.424 Z-17.87
X14.583 Y164.43
X15.417 Y167.029 Z-17.881
X15.419 Y167.033
X16.252 Y169.615 Z-17.891
X17.906 Y174.745 Z-17.912
X19.529 Y179.852 Z-17.933
X20.323 Y182.402 Z-17.944
X21.104 Y184.958 Z-17.954
X21.87 Y187.523 Z-17.964
X22.619 Y190.101 Z-17.975
X23.35 Y192.694 Z-17.985
X24.06 Y195.308 Z-17.996
X24.749 Y197.943 Z-18.006
X25.416 Y200.61 Z-18.017
X25.739 Y201.949 Z-18.022
X26.057 Y203.299 Z-18.028
X26.368 Y204.657 Z-18.033
X26.673 Y206.023 Z-18.039
X26.971 Y207.398 Z-18.044
X27.263 Y208.783 Z-18.05
X27.547 Y210.178 Z-18.055
X27.825 Y211.581 Z-18.061
X28.096 Y212.996 Z-18.066
X28.359 Y214.42 Z-18.072
X28.615 Y215.855 Z-18.078
X28.863 Y217.301 Z-18.083
X29.104 Y218.758 Z-18.089
X29.337 Y220.227 Z-18.095
X29.563 Y221.706 Z-18.101
X29.781 Y223.198 Z-18.106
X29.991 Y224.702 Z-18.112
X30.193 Y226.218 Z-18.118
X30.387 Y227.746 Z-18.124
X30.574 Y229.286 Z-18.13
X30.752 Y230.838 Z-18.136
X30.923 Y232.403 Z-18.142
X31.085 Y233.981 Z-18.149
X31.24 Y235.571 Z-18.155
X31.386 Y237.174 Z-18.161
X31.525 Y238.789 Z-18.167
X31.655 Y240.417 Z-18.174
X31.778 Y242.058 Z-18.18
X31.893 Y243.711 Z-18.187
X32 Y245.376 Z-18.193
X32.099 Y247.054 Z-18.2
X32.191 Y248.744 Z-18.206
X32.275 Y250.446 Z-18.213
X32.352 Y252.159 Z-18.219
X32.422 Y253.885 Z-18.226
X32.484 Y255.622 Z-18.233
X32.539 Y257.371 Z-18.24
X32.588 Y259.131 Z-18.247
X32.63 Y260.902 Z-18.253
X32.665 Y262.684 Z-18.26
X32.694 Y264.475 Z-18.267
X32.716 Y266.277 Z-18.274
X32.733 Y268.088 Z-18.281
X32.744 Y269.907 Z-18.288
X32.75 Y273.578 Z-18.303
X32.735 Y277.28 Z-18.317
X32.703 Y281.013 Z-18.332
X32.656 Y284.77 Z-18.346
X32.596 Y288.551 Z-18.361
X32.525 Y292.351 Z-18.376
X32.447 Y296.166 Z-18.39
X32.364 Y299.994 Z-18.405
X32.197 Y307.665 Z-18.435
Y307.671
X32.048 Y315.334 Z-18.465
Y315.344
X31.989 Y319.164 Z-18.48
X31.988 Y319.174
X31.944 Y322.981 Z-18.495
X31.943 Y322.992
X31.916 Y326.782 Z-18.509
Y326.796
X31.911 Y330.567 Z-18.524
Y330.584
X31.93 Y334.331 Z-18.539
Y334.345
X31.949 Y336.209 Z-18.546
X31.95 Y336.219
X31.977 Y338.077 Z-18.553
Y338.088
X32.012 Y339.938 Z-18.56
X32.013 Y339.949
X32.056 Y341.791 Z-18.568
X32.057 Y341.804
X32.109 Y343.638 Z-18.575
X32.11 Y343.651
X32.172 Y345.476 Z-18.582
Y345.489
X32.244 Y347.306 Z-18.589
Y347.321
X32.326 Y349.128 Z-18.596
X32.327 Y349.144
X32.42 Y350.942 Z-18.603
Y350.958
X32.524 Y352.745 Z-18.61
X32.525 Y352.762
X32.64 Y354.539 Z-18.617
X32.641 Y354.557
X32.769 Y356.324 Z-18.624
X32.77 Y356.343
X32.91 Y358.098 Z-18.631
X32.912 Y358.117
X33.064 Y359.861 Z-18.638
X33.066 Y359.882
X33.233 Y361.613 Z-18.645
X33.235 Y361.634
X33.415 Y363.354 Z-18.652
X33.417 Y363.377
X33.612 Y365.084 Z-18.658
X33.615 Y365.108
X33.824 Y366.802 Z-18.665
X33.827 Y366.826
X34.052 Y368.506 Z-18.672
X34.055 Y368.532
X34.296 Y370.199 Z-18.678
X34.3 Y370.226
X34.557 Y371.878 Z-18.685
X34.561 Y371.906
X34.834 Y373.544 Z-18.692
X34.839 Y373.572
X35.13 Y375.196 Z-18.698
X35.136 Y375.227
X35.444 Y376.835 Z-18.705
X35.45 Y376.866
X35.776 Y378.458 Z-18.711
X35.783 Y378.49
X36.128 Y380.067 Z-18.717
X36.136 Y380.101
X36.5 Y381.661 Z-18.724
X36.508 Y381.696
X36.892 Y383.24 Z-18.73
X36.901 Y383.276
X37.304 Y384.803 Z-18.736
X37.314 Y384.84
X37.738 Y386.349 Z-18.743
X37.749 Y386.387
X38.194 Y387.879 Z-18.749
X38.206 Y387.919
X38.672 Y389.393 Z-18.755
X38.686 Y389.433
X39.174 Y390.889 Z-18.761
X39.188 Y390.931
X39.698 Y392.368 Z-18.767
X39.714 Y392.411
X40.247 Y393.829 Z-18.773
X40.264 Y393.873
X40.82 Y395.272 Z-18.779
X40.838 Y395.318
X41.418 Y396.697 Z-18.785
X41.438 Y396.743
X42.041 Y398.102 Z-18.791
X42.063 Y398.149
X42.691 Y399.488 Z-18.797
X42.714 Y399.536
X43.367 Y400.854 Z-18.803
X43.391 Y400.902
X44.07 Y402.2 Z-18.809
X44.096 Y402.25
X44.8 Y403.526 Z-18.815
X44.828 Y403.575
X45.559 Y404.83 Z-18.821
X45.588 Y404.88
X46.345 Y406.114 Z-18.827
X46.378 Y406.165
X47.161 Y407.376 Z-18.832
X47.195 Y407.427 Z-18.833
X48.006 Y408.616 Z-18.838
X48.041 Y408.666
X48.88 Y409.833 Z-18.844
X48.918 Y409.884
X49.785 Y411.028 Z-18.85
X49.825 Y411.08
X50.721 Y412.2 Z-18.856
X50.761 Y412.249
X51.686 Y413.346 Z-18.862
X51.729 Y413.396
X52.683 Y414.47 Z-18.867
X52.728 Y414.519 Z-18.868
X53.712 Y415.569 Z-18.873
X53.758 Y415.617
X54.772 Y416.643 Z-18.879
X54.821 Y416.691
X55.865 Y417.692 Z-18.885
X55.914 Y417.737
X56.989 Y418.714 Z-18.891
X57.026 Y418.747
X57.575 Y419.227 Z-18.894
X57.602 Y419.25
X58.159 Y419.723 Z-18.897
X58.185 Y419.744
X58.75 Y420.211 Z-18.9
X58.777 Y420.234
X59.35 Y420.694 Z-18.903
X59.376 Y420.714
X59.957 Y421.168 Z-18.906
X59.983 Y421.188
X60.572 Y421.636 Z-18.909
X60.598 Y421.655
X61.195 Y422.098 Z-18.912
X61.223 Y422.118
X61.829 Y422.553 Z-18.915
X61.855 Y422.572
X62.468 Y423.001 Z-18.918
X62.497 Y423.02
X63.118 Y423.442 Z-18.921
X63.145 Y423.46
X63.775 Y423.876 Z-18.924
X63.801 Y423.893
X64.439 Y424.303 Z-18.927
X64.468 Y424.321
X65.114 Y424.724 Z-18.93
X65.143 Y424.742
X65.798 Y425.138 Z-18.933
X65.824 Y425.154
X66.487 Y425.544 Z-18.936
X66.516 Y425.561
X67.187 Y425.944 Z-18.939
X67.214 Y425.958 Z-18.94
X67.894 Y426.335 Z-18.943
X67.923 Y426.351
X68.611 Y426.721 Z-18.946
X68.637 Y426.735
X69.334 Y427.099 Z-18.949
X69.365 Y427.115
X70.071 Y427.471 Z-18.952
X70.094 Y427.483
X70.808 Y427.834 Z-18.955
X70.839 Y427.849
X71.562 Y428.192 Z-18.959
X71.588 Y428.204
X72.319 Y428.541 Z-18.962
X72.347 Y428.553
X73.087 Y428.883 Z-18.965
X73.115 Y428.896
X73.864 Y429.219 Z-18.968
X73.891 Y429.23 Z-18.969
X74.649 Y429.546 Z-18.972
X74.674 Y429.557
X75.44 Y429.867 Z-18.975
X75.47 Y429.878
X76.246 Y430.18 Z-18.978
X76.27 Y430.19
X77.054 Y430.486 Z-18.982
X77.081 Y430.496
X77.874 Y430.785 Z-18.985
X77.901 Y430.794
X78.702 Y431.076 Z-18.989
X78.729 Y431.086
X79.54 Y431.361 Z-18.992
X79.563 Y431.368
X80.383 Y431.637 Z-18.995
X80.411 Y431.647 Z-18.996
X81.24 Y431.908 Z-18.999
X81.266 Y431.915
X81.511 Y431.99 Z-19
X82.104 Y432.169 F1000
X82.126 Y432.176
X82.973 Y432.424
X83.001 Y432.432
X83.857 Y432.672
X83.879 Y432.678
X84.744 Y432.912
X84.771 Y432.919
X85.645 Y433.145
X85.669 Y433.152
X86.552 Y433.371
X86.574 Y433.376
X87.466 Y433.589
X87.492 Y433.595
X88.394 Y433.8
X88.417 Y433.805
X89.328 Y434.003
X89.351 Y434.008
X90.271 Y434.199
X90.294 Y434.203
X91.223 Y434.387
X91.245 Y434.392
X92.184 Y434.569
X92.206 Y434.573
X93.154 Y434.743
X93.176 Y434.747
X94.133 Y434.91
X94.157 Y434.913
X95.123 Y435.068
X95.144 Y435.072
X96.12 Y435.22
X96.141 Y435.223
X97.127 Y435.364
X97.147 Y435.367
X98.142 Y435.501
X98.162 Y435.503
X99.166 Y435.63
X99.186 Y435.633
X100.199 Y435.753
X100.221 Y435.755
X101.244 Y435.867
X101.263 Y435.869
X102.296 Y435.974
X102.315 Y435.976
X103.357 Y436.074
X103.375 Y436.076
X104.426 Y436.167
X104.447 Y436.168
X105.508 Y436.251
X105.524 Y436.253
X106.594 Y436.33
X106.614 Y436.331
X107.694 Y436.4
X107.713 Y436.401
X108.802 Y436.462
X108.817 Y436.463
X109.916 Y436.518
X109.935 Y436.519
X111.044 Y436.566
X111.061
X112.179 Y436.606
X112.195 Y436.607
X113.322 Y436.64
X113.34
X114.477 Y436.665
X114.493 Y436.666
X115.639 Y436.684
X115.654
X116.81 Y436.695
X116.825
X117.991 Y436.699
G2 X120.5 Y434.199 I0.009 J-2.5
G1 Y1
G2 X118 Y-1.5 I-2.5 J0
G1 X59.5
G2 X-1.5 Y59.5 I0 J61
G1 Y59.506
X-1.494 Y61.886
Y61.898
X-1.478 Y64.251
Y64.263
X-1.45 Y66.591
Y66.603
X-1.411 Y68.905
Y68.917
X-1.361 Y71.192
X-1.36 Y71.205
X-1.3 Y73.454
X-1.299 Y73.467
X-1.228 Y75.691
X-1.227 Y75.704
X-1.144 Y77.901
Y77.915
X-1.05 Y80.086
Y80.1
X-0.946 Y82.246
X-0.945 Y82.26
X-0.83 Y84.381
X-0.829 Y84.395
X-0.704 Y86.491
X-0.703 Y86.505
X-0.567 Y88.576
X-0.566 Y88.59
X-0.42 Y90.636
X-0.419 Y90.65
X-0.262 Y92.671
X-0.261 Y92.686
X-0.094 Y94.683
X-0.093 Y94.698
X0.083 Y96.671
X0.085 Y96.686
X0.271 Y98.635
X0.273 Y98.65
X0.469 Y100.575
X0.471 Y100.591
X0.676 Y102.493
X0.678 Y102.508
X0.893 Y104.387
X0.895 Y104.403
X1.12 Y106.259
X1.122 Y106.275
X1.355 Y108.109
X1.357 Y108.125
X1.6 Y109.937
X1.602 Y109.952
X1.853 Y111.742
X1.855 Y111.758
X2.115 Y113.527
X2.117 Y113.543
X2.386 Y115.291
X2.388 Y115.307
X2.664 Y117.034
X2.667 Y117.05
X2.951 Y118.757
X2.954 Y118.773
X3.246 Y120.46
X3.249 Y120.475
X3.549 Y122.143
X3.552 Y122.159
X3.859 Y123.808
X3.862 Y123.823
X4.176 Y125.453
X4.179 Y125.468
X4.5 Y127.081
X4.503 Y127.097
X4.831 Y128.691
X4.834 Y128.706
X5.169 Y130.283
X5.172 Y130.297
X5.512 Y131.858
X5.516 Y131.873
X5.863 Y133.416
X5.866 Y133.43
X6.218 Y134.958
X6.222 Y134.972
X6.58 Y136.485
X6.583 Y136.499
X6.946 Y137.997
X6.95 Y138.01
X7.318 Y139.493
X7.322 Y139.506
X7.695 Y140.975
X7.698 Y140.988
X8.076 Y142.443
X8.079 Y142.454
X8.462 Y143.897
X8.465 Y143.909
X8.851 Y145.339
X8.855 Y145.351
X9.245 Y146.768
X9.248 Y146.778
X9.642 Y148.185
X9.645 Y148.196
X10.042 Y149.591
X10.045 Y149.601
X10.445 Y150.985
X10.449 Y150.998
X11.258 Y153.738
X11.263 Y153.754
X12.081 Y156.457
X12.085 Y156.471
X12.911 Y159.142
X12.914 Y159.153
X13.745 Y161.796
X13.748 Y161.805
X14.581 Y164.424
X14.583 Y164.43
X15.417 Y167.029
X15.419 Y167.033
X16.252 Y169.615
X17.906 Y174.745
X19.529 Y179.852
X20.323 Y182.402
X21.104 Y184.958
X21.87 Y187.523
X22.619 Y190.101
X23.35 Y192.694
X24.06 Y195.308
X24.749 Y197.943
X25.416 Y200.61
X25.739 Y201.949
X26.057 Y203.299
X26.368 Y204.657
X26.673 Y206.023
X26.971 Y207.398
X27.263 Y208.783
X27.547 Y210.178
X27.825 Y211.581
X28.096 Y212.996
X28.359 Y214.42
X28.615 Y215.855
X28.863 Y217.301
X29.104 Y218.758
X29.337 Y220.227
X29.563 Y221.706
X29.781 Y223.198
X29.991 Y224.702
X30.193 Y226.218
X30.387 Y227.746
X30.574 Y229.286
X30.752 Y230.838
X30.923 Y232.403
X31.085 Y233.981
X31.24 Y235.571
X31.386 Y237.174
X31.525 Y238.789
X31.655 Y240.417
X31.778 Y242.058
X31.893 Y243.711
X32 Y245.376
X32.099 Y247.054
X32.191 Y248.744
X32.275 Y250.446
X32.352 Y252.159
X32.422 Y253.885
X32.484 Y255.622
X32.539 Y257.371
X32.588 Y259.131
X32.63 Y260.902
X32.665 Y262.684
X32.694 Y264.475
X32.716 Y266.277
X32.733 Y268.088
X32.744 Y269.907
X32.75 Y273.578
X32.735 Y277.28
X32.703 Y281.013
X32.656 Y284.77
X32.596 Y288.551
X32.525 Y292.351
X32.447 Y296.166
X32.364 Y299.994
X32.197 Y307.665
Y307.671
X32.048 Y315.334
Y315.344
X31.989 Y319.164
X31.988 Y319.174
X31.944 Y322.981
X31.943 Y322.992
X31.916 Y326.782
Y326.796
X31.911 Y330.567
Y330.584
X31.93 Y334.331
Y334.345
X31.949 Y336.209
X31.95 Y336.219
X31.977 Y338.077
Y338.088
X32.012 Y339.938
X32.013 Y339.949
X32.056 Y341.791
X32.057 Y341.804
X32.109 Y343.638
X32.11 Y343.651
X32.172 Y345.476
Y345.489
X32.244 Y347.306
Y347.321
X32.326 Y349.128
X32.327 Y349.144
X32.42 Y350.942
Y350.958
X32.524 Y352.745
X32.525 Y352.762
X32.64 Y354.539
X32.641 Y354.557
X32.769 Y356.324
X32.77 Y356.343
X32.91 Y358.098
X32.912 Y358.117
X33.064 Y359.861
X33.066 Y359.882
X33.233 Y361.613
X33.235 Y361.634
X33.415 Y363.354
X33.417 Y363.377
X33.612 Y365.084
X33.615 Y365.108
X33.824 Y366.802
X33.827 Y366.826
X34.052 Y368.506
X34.055 Y368.532
X34.296 Y370.199
X34.3 Y370.226
X34.557 Y371.878
X34.561 Y371.906
X34.834 Y373.544
X34.839 Y373.572
X35.13 Y375.196
X35.136 Y375.227
X35.444 Y376.835
X35.45 Y376.866
X35.776 Y378.458
X35.783 Y378.49
X36.128 Y380.067
X36.136 Y380.101
X36.5 Y381.661
X36.508 Y381.696
X36.892 Y383.24
X36.901 Y383.276
X37.304 Y384.803
X37.314 Y384.84
X37.738 Y386.349
X37.749 Y386.387
X38.194 Y387.879
X38.206 Y387.919
X38.672 Y389.393
X38.686 Y389.433
X39.174 Y390.889
X39.188 Y390.931
X39.698 Y392.368
X39.714 Y392.411
X40.247 Y393.829
X40.264 Y393.873
X40.82 Y395.272
X40.838 Y395.318
X41.418 Y396.697
X41.438 Y396.743
X42.041 Y398.102
X42.063 Y398.149
X42.691 Y399.488
X42.714 Y399.536
X43.367 Y400.854
X43.391 Y400.902
X44.07 Y402.2
X44.096 Y402.25
X44.8 Y403.526
X44.828 Y403.575
X45.559 Y404.83
X45.588 Y404.88
X46.345 Y406.114
X46.378 Y406.165
X47.161 Y407.376
X47.195 Y407.427
X48.006 Y408.616
X48.041 Y408.666
X48.88 Y409.833
X48.918 Y409.884
X49.785 Y411.028
X49.825 Y411.08
X50.721 Y412.2
X50.761 Y412.249
X51.686 Y413.346
X51.729 Y413.396
X52.683 Y414.47
X52.728 Y414.519
X53.712 Y415.569
X53.758 Y415.617
X54.772 Y416.643
X54.821 Y416.691
X55.865 Y417.692
X55.914 Y417.737
X56.989 Y418.714
X57.026 Y418.747
X57.575 Y419.227
X57.602 Y419.25
X58.159 Y419.723
X58.185 Y419.744
X58.75 Y420.211
X58.777 Y420.234
X59.35 Y420.694
X59.376 Y420.714
X59.957 Y421.168
X59.983 Y421.188
X60.572 Y421.636
X60.598 Y421.655
X61.195 Y422.098
X61.223 Y422.118
X61.829 Y422.553
X61.855 Y422.572
X62.468 Y423.001
X62.497 Y423.02
X63.118 Y423.442
X63.145 Y423.46
X63.775 Y423.876
X63.801 Y423.893
X64.439 Y424.303
X64.468 Y424.321
X65.114 Y424.724
X65.143 Y424.742
X65.798 Y425.138
X65.824 Y425.154
X66.487 Y425.544
X66.516 Y425.561
X67.187 Y425.944
X67.214 Y425.958
X67.894 Y426.335
X67.923 Y426.351
X68.611 Y426.721
X68.637 Y426.735
X69.334 Y427.099
X69.365 Y427.115
X70.071 Y427.471
X70.094 Y427.483
X70.808 Y427.834
X70.839 Y427.849
X71.562 Y428.192
X71.588 Y428.204
X72.319 Y428.541
X72.347 Y428.553
X73.087 Y428.883
X73.115 Y428.896
X73.864 Y429.219
X73.891 Y429.23
X74.649 Y429.546
X74.674 Y429.557
X75.44 Y429.867
X75.47 Y429.878
X76.246 Y430.18
X76.27 Y430.19
X77.054 Y430.486
X77.081 Y430.496
X77.874 Y430.785
X77.901 Y430.794
X78.702 Y431.076
X78.729 Y431.086
X79.54 Y431.361
X79.563 Y431.368
X80.383 Y431.637
X80.411 Y431.647
X81.24 Y431.908
X81.266 Y431.915
X81.511 Y431.99
G0 Z15
M9
M5
M30
