(CamperArbeitsplatteKochfeld)
(T3  D=3 CR=0 - ZMIN=-19 - flat end mill)
G90 G94
G17
G21

(2D Contour1)
T3
S5000 M3
G54
M8
G0 X155.897 Y211.307
Z15
Z5
G1 Z3 F333.3
Z-1.7
G18 G2 X156.197 Z-2 I0.3 K0 F1000
G1 X156.497
G17 G3 X156.797 Y211.607 I0 J0.3
G1 Y253.11
G3 X38.8 Y371.107 I-117.997 J0
G1 X-44.206
G3 X-162.203 Y253.11 I0 J-117.997
G1 Y-247.895
G3 X-44.205 Y-365.893 I117.998 J0
G1 X38.799
G3 X156.797 Y-247.895 I0 J117.998
G1 Y211.607
G3 X156.497 Y211.907 I-0.3 J0
G1 X156.197
G18 G3 X155.897 Z-1.7 I0 K0.3
G1 Y211.307
Z-3.7 F333.3
G2 X156.197 Z-4 I0.3 K0 F1000
G1 X156.497
G17 G3 X156.797 Y211.607 I0 J0.3
G1 Y253.11
G3 X38.8 Y371.107 I-117.997 J0
G1 X-44.206
G3 X-162.203 Y253.11 I0 J-117.997
G1 Y-247.895
G3 X-44.205 Y-365.893 I117.998 J0
G1 X38.799
G3 X156.797 Y-247.895 I0 J117.998
G1 Y211.607
G3 X156.497 Y211.907 I-0.3 J0
G1 X156.197
G18 G3 X155.897 Z-3.7 I0 K0.3
G1 Y211.307
Z-5.7 F333.3
G2 X156.197 Z-6 I0.3 K0 F1000
G1 X156.497
G17 G3 X156.797 Y211.607 I0 J0.3
G1 Y253.11
G3 X38.8 Y371.107 I-117.997 J0
G1 X-44.206
G3 X-162.203 Y253.11 I0 J-117.997
G1 Y-247.895
G3 X-44.205 Y-365.893 I117.998 J0
G1 X38.799
G3 X156.797 Y-247.895 I0 J117.998
G1 Y211.607
G3 X156.497 Y211.907 I-0.3 J0
G1 X156.197
G18 G3 X155.897 Z-5.7 I0 K0.3
G1 Y211.307
Z-7.7 F333.3
G2 X156.197 Z-8 I0.3 K0 F1000
G1 X156.497
G17 G3 X156.797 Y211.607 I0 J0.3
G1 Y253.11
G3 X38.8 Y371.107 I-117.997 J0
G1 X-44.206
G3 X-162.203 Y253.11 I0 J-117.997
G1 Y-247.895
G3 X-44.205 Y-365.893 I117.998 J0
G1 X38.799
G3 X156.797 Y-247.895 I0 J117.998
G1 Y211.607
G3 X156.497 Y211.907 I-0.3 J0
G1 X156.197
G18 G3 X155.897 Z-7.7 I0 K0.3
G1 Y211.307
Z-9.7 F333.3
G2 X156.197 Z-10 I0.3 K0 F1000
G1 X156.497
G17 G3 X156.797 Y211.607 I0 J0.3
G1 Y253.11
G3 X38.8 Y371.107 I-117.997 J0
G1 X-44.206
G3 X-162.203 Y253.11 I0 J-117.997
G1 Y-247.895
G3 X-44.205 Y-365.893 I117.998 J0
G1 X38.799
G3 X156.797 Y-247.895 I0 J117.998
G1 Y211.607
G3 X156.497 Y211.907 I-0.3 J0
G1 X156.197
G18 G3 X155.897 Z-9.7 I0 K0.3
G1 Y211.307
Z-11.7 F333.3
G2 X156.197 Z-12 I0.3 K0 F1000
G1 X156.497
G17 G3 X156.797 Y211.607 I0 J0.3
G1 Y253.11
G3 X38.8 Y371.107 I-117.997 J0
G1 X-44.206
G3 X-162.203 Y253.11 I0 J-117.997
G1 Y-247.895
G3 X-44.205 Y-365.893 I117.998 J0
G1 X38.799
G3 X156.797 Y-247.895 I0 J117.998
G1 Y211.607
G3 X156.497 Y211.907 I-0.3 J0
G1 X156.197
G18 G3 X155.897 Z-11.7 I0 K0.3
G1 Y211.307
Z-13.7 F333.3
G2 X156.197 Z-14 I0.3 K0 F1000
G1 X156.497
G17 G3 X156.797 Y211.607 I0 J0.3
G1 Y253.11
G3 X38.8 Y371.107 I-117.997 J0
G1 X-44.206
G3 X-162.203 Y253.11 I0 J-117.997
G1 Y-247.895
G3 X-44.205 Y-365.893 I117.998 J0
G1 X38.799
G3 X156.797 Y-247.895 I0 J117.998
G1 Y211.607
G3 X156.497 Y211.907 I-0.3 J0
G1 X156.197
G18 G3 X155.897 Z-13.7 I0 K0.3
G1 Y211.307
Z-15.7 F333.3
G2 X156.197 Z-16 I0.3 K0 F1000
G1 X156.497
G17 G3 X156.797 Y211.607 I0 J0.3
G1 Y253.11
G3 X38.8 Y371.107 I-117.997 J0
G1 X-44.206
G3 X-162.203 Y253.11 I0 J-117.997
G1 Y-247.895
G3 X-44.205 Y-365.893 I117.998 J0
G1 X38.799
G3 X156.797 Y-247.895 I0 J117.998
G1 Y211.607
G3 X156.497 Y211.907 I-0.3 J0
G1 X156.197
G18 G3 X155.897 Z-15.7 I0 K0.3
G1 Y211.307
Z-17.7 F333.3
G2 X156.197 Z-18 I0.3 K0 F1000
G1 X156.497
G17 G3 X156.797 Y211.607 I0 J0.3
G1 Y253.11
G3 X38.8 Y371.107 I-117.997 J0
G1 X-44.206
G3 X-162.203 Y253.11 I0 J-117.997
G1 Y-247.895
G3 X-44.205 Y-365.893 I117.998 J0
G1 X38.799
G3 X156.797 Y-247.895 I0 J117.998
G1 Y211.607
G3 X156.497 Y211.907 I-0.3 J0
G1 X156.197
G18 G3 X155.897 Z-17.7 I0 K0.3
G1 Y211.307
Z-18.7 F333.3
G2 X156.197 Z-19 I0.3 K0 F1000
G1 X156.497
G17 G3 X156.797 Y211.607 I0 J0.3
G1 Y253.11
G3 X38.8 Y371.107 I-117.997 J0
G1 X-44.206
G3 X-162.203 Y253.11 I0 J-117.997
G1 Y-247.895
G3 X-44.205 Y-365.893 I117.998 J0
G1 X38.799
G3 X156.797 Y-247.895 I0 J117.998
G1 Y211.607
G3 X156.497 Y211.907 I-0.3 J0
G1 X156.197
G18 G3 X155.897 Z-18.7 I0 K0.3
G0 Z15
G17

(2D Pocket1)
G0 X142.22 Y-355.08
Z15
Z5
G1 Z2.8 F333.3
X142.238 Y-355.114 Z2.653
X142.292 Y-355.205 Z2.544
X142.377 Y-355.323 Z2.5
G3 X144.6 Y-353.54 Z2.344 I1.112 J0.892
X142.377 Y-355.323 Z2.187 I-1.112 J-0.892
X144.6 Y-353.54 Z2.031 I1.112 J0.892
X142.377 Y-355.323 Z1.875 I-1.112 J-0.892
X144.6 Y-353.54 Z1.718 I1.112 J0.892
X142.377 Y-355.323 Z1.562 I-1.112 J-0.892
X144.6 Y-353.54 Z1.406 I1.112 J0.892
X142.377 Y-355.323 Z1.249 I-1.112 J-0.892
X144.6 Y-353.54 Z1.093 I1.112 J0.892
X142.377 Y-355.323 Z0.937 I-1.112 J-0.892
X144.6 Y-353.54 Z0.78 I1.112 J0.892
X142.377 Y-355.323 Z0.624 I-1.112 J-0.892
X144.6 Y-353.54 Z0.468 I1.112 J0.892
X142.377 Y-355.323 Z0.311 I-1.112 J-0.892
X144.6 Y-353.54 Z0.155 I1.112 J0.892
X142.377 Y-355.323 Z-0.001 I-1.112 J-0.892
X144.6 Y-353.54 Z-0.158 I1.112 J0.892
X142.377 Y-355.323 Z-0.314 I-1.112 J-0.892
X144.6 Y-353.54 Z-0.47 I1.112 J0.892
X142.377 Y-355.323 Z-0.627 I-1.112 J-0.892
X144.6 Y-353.54 Z-0.783 I1.112 J0.892
X142.377 Y-355.323 Z-0.939 I-1.112 J-0.892
X144.6 Y-353.54 Z-1.096 I1.112 J0.892
X142.377 Y-355.323 Z-1.252 I-1.112 J-0.892
X144.6 Y-353.54 Z-1.408 I1.112 J0.892
X142.377 Y-355.323 Z-1.565 I-1.112 J-0.892
X144.6 Y-353.54 Z-1.721 I1.112 J0.892
X142.377 Y-355.323 Z-1.877 I-1.112 J-0.892
X144.914 Y-354.431 Z-2 I1.112 J0.892
G1 Y-353.351 F1000
X144.906 Y-353.308
X144.885 Y-353.27
X144.853 Y-353.241
X144.812 Y-353.224
X144.769 Y-353.222
X144.727 Y-353.234
X144.691 Y-353.26
G2 X143.15 Y-354.786 I-105.892 J105.364
G1 X143.124 Y-354.822
X143.112 Y-354.864
X143.114 Y-354.907
X143.13 Y-354.948
X143.159 Y-354.981
X143.198 Y-355.002
X143.241 Y-355.01
X144.594
G3 X144.914 Y-354.69 I0 J0.319
G1 Y-354.431
G2 X145.764 Y-353.156 I1.381 J0
G3 X146.614 Y-351.881 I-0.531 J1.275
G1 Y-349.149
X146.606 Y-349.105
X146.584 Y-349.067
X146.551 Y-349.038
X146.51 Y-349.022
X146.466 Y-349.02
X146.424 Y-349.033
X146.389 Y-349.06
G2 X138.891 Y-356.484 I-107.589 J101.165
G1 X138.864 Y-356.519
X138.85 Y-356.561
X138.851 Y-356.605
X138.867 Y-356.647
X138.896 Y-356.68
X138.935 Y-356.702
X138.979 Y-356.71
X146.294
G3 X146.614 Y-356.39 I0 J0.319
G1 Y-351.881
G2 X147.464 Y-350.606 I1.381 J0
G3 X148.314 Y-349.331 I-0.531 J1.275
G1 Y-344.764
X148.306 Y-344.72
X148.284 Y-344.682
X148.25 Y-344.652
X148.208 Y-344.637
X148.163 Y-344.636
X148.121 Y-344.65
X148.086 Y-344.678
G2 X134.442 Y-358.181 I-109.287 J96.783
G1 X134.414 Y-358.216
X134.399 Y-358.258
Y-358.303
X134.415 Y-358.345
X134.444 Y-358.379
X134.483 Y-358.402
X134.527 Y-358.41
X147.994
G3 X148.314 Y-358.09 I0 J0.319
G1 Y-349.331
G2 X149.164 Y-348.056 I1.381 J0
G3 X150.014 Y-346.781 I-0.531 J1.275
G1 Y-340.172
X150.006 Y-340.127
X149.983 Y-340.088
X149.948 Y-340.059
X149.906 Y-340.043
X149.86 Y-340.044
X149.818 Y-340.059
X149.783 Y-340.089
G2 X129.776 Y-359.878 I-110.984 J92.193
G1 X129.75 Y-359.908
X129.733 Y-359.944
X129.728 Y-359.984
X129.736 Y-360.023
X129.755 Y-360.058
X129.783 Y-360.086
X129.819 Y-360.103
X129.858 Y-360.11
X149.694
G3 X150.014 Y-359.79 I0 J0.319
G1 Y-346.781
G2 X150.864 Y-345.506 I1.381 J0
G3 X151.714 Y-344.231 I-0.531 J1.275
G1 Y-335.338
X151.707 Y-335.298
X151.689 Y-335.262
X151.661 Y-335.234
X151.626 Y-335.215
X151.586 Y-335.208
X151.546 Y-335.213
X151.51 Y-335.231
X151.481 Y-335.258
G2 X124.858 Y-361.576 I-112.681 J87.363
G1 X124.83 Y-361.605
X124.813 Y-361.641
X124.807 Y-361.681
X124.813 Y-361.721
X124.832 Y-361.757
X124.861 Y-361.785
X124.897 Y-361.803
X124.937 Y-361.81
X151.394
G3 X151.714 Y-361.49 I0 J0.319
G1 Y-344.231
G2 X152.564 Y-342.956 I1.381 J0
G3 X153.414 Y-341.681 I-0.531 J1.275
G1 Y-330.221
X153.407 Y-330.181
X153.389 Y-330.145
X153.36 Y-330.116
X153.323 Y-330.097
X153.283 Y-330.091
X153.243 Y-330.098
X153.206 Y-330.116
X153.178 Y-330.145
G2 X119.642 Y-363.273 I-114.378 J82.25
G1 X119.612 Y-363.301
X119.593 Y-363.338
X119.586 Y-363.378
X119.592 Y-363.419
X119.611 Y-363.455
X119.64 Y-363.484
X119.676 Y-363.503
X119.717 Y-363.51
X153.094
G3 X153.414 Y-363.19 I0 J0.319
G1 Y-341.681
G2 X154.264 Y-340.406 I1.381 J0
G3 X155.114 Y-339.131 I-0.531 J1.275
G1 Y-324.765
X155.107 Y-324.724
X155.088 Y-324.687
X155.058 Y-324.658
X155.021 Y-324.64
X154.98 Y-324.634
X154.939 Y-324.642
X154.903 Y-324.662
X154.875 Y-324.693
G2 X114.065 Y-364.97 I-116.076 J76.798
G1 X114.034 Y-364.998
X114.013 Y-365.034
X114.005 Y-365.075
X114.01 Y-365.116
X114.028 Y-365.154
X114.057 Y-365.184
X114.094 Y-365.203
X114.135 Y-365.21
X154.794
G3 X155.114 Y-364.89 I0 J0.319
G1 Y-339.131
G2 X155.964 Y-337.856 I1.381 J0
G3 X156.814 Y-336.581 I-0.531 J1.275
G1 Y-318.89
G3 X156.572 Y-318.823 I-0.13 J0
G2 X108.041 Y-366.667 I-117.773 J70.927
G3 X108.106 Y-366.91 I0.066 J-0.112
G1 X156.494
G3 X156.814 Y-366.59 I0 J0.319
G1 Y-336.581
G2 X157.664 Y-335.306 I1.381 J0
G3 X158.514 Y-334.031 I-0.531 J1.275
G1 Y-312.349
X158.507 Y-312.313
X158.487 Y-312.283
X158.458 Y-312.261
X158.423 Y-312.253
X158.387 Y-312.257
X158.355 Y-312.275
X158.332 Y-312.303
G2 X101.317 Y-368.428 I-119.533 J64.408
G1 X101.288 Y-368.45
X101.27 Y-368.482
X101.265 Y-368.518
X101.274 Y-368.553
X101.295 Y-368.583
X101.326 Y-368.603
X101.361 Y-368.61
X158.194
G3 X158.514 Y-368.29 I0 J0.319
G1 Y-334.031
G2 X159.364 Y-332.756 I1.381 J0
G3 X160.214 Y-331.481 I-0.531 J1.275
G1 Y-305.215
X160.206 Y-305.179
X160.186 Y-305.148
X160.156 Y-305.127
X160.12 Y-305.119
X160.083 Y-305.125
X160.052 Y-305.144
X160.03 Y-305.174
G2 X93.913 Y-370.125 I-121.231 J57.279
G1 X93.883 Y-370.147
X93.863 Y-370.178
X93.857 Y-370.215
X93.864 Y-370.251
X93.885 Y-370.282
X93.917 Y-370.302
X93.953 Y-370.31
X159.894
G3 X160.214 Y-369.99 I0 J0.319
G1 Y-331.481
G2 X161.054 Y-330.221 I1.366 J0
G3 X161.895 Y-328.96 I-0.525 J1.261
G1 Y-297.155
X161.887 Y-297.118
X161.866 Y-297.087
X161.835 Y-297.066
X161.798 Y-297.059
X161.761 Y-297.066
X161.729 Y-297.088
X161.709 Y-297.119
G2 X85.451 Y-371.804 I-122.91 J49.224
G1 X85.419 Y-371.824
X85.397 Y-371.855
X85.389 Y-371.892
X85.395 Y-371.93
X85.416 Y-371.962
X85.448 Y-371.983
X85.485 Y-371.991
X161.575
G3 X161.895 Y-371.671 I0 J0.319
G1 Y-328.96
G2 X162.715 Y-327.729 I1.333 J0
G3 X163.535 Y-326.499 I-0.513 J1.231
G1 Y-287.747
X163.528 Y-287.709
X163.506 Y-287.677
X163.473 Y-287.657
X163.434 Y-287.651
X163.397 Y-287.66
X163.366 Y-287.684
X163.347 Y-287.718
G2 X75.349 Y-373.443 I-124.548 J39.822
G1 X75.319 Y-373.458
X75.295 Y-373.483
X75.282 Y-373.514
X75.281 Y-373.549
X75.292 Y-373.581
X75.313 Y-373.608
X75.343 Y-373.625
X75.376 Y-373.631
X163.216
G3 X163.535 Y-373.312 I0 J0.319
G1 Y-326.499
G2 X164.332 Y-325.304 I1.295 J0
G3 X165.129 Y-324.109 I-0.498 J1.195
G1 Y-275.699
X165.122 Y-275.665
X165.104 Y-275.636
X165.077 Y-275.615
X165.044 Y-275.605
X165.01 Y-275.607
X164.979 Y-275.622
X164.955 Y-275.647
X164.942 Y-275.678
G2 X61.576 Y-375.037 I-126.143 J27.783
G1 X61.544 Y-375.05
X61.518 Y-375.073
X61.502 Y-375.104
X61.499 Y-375.139
X61.508 Y-375.172
X61.529 Y-375.2
X61.559 Y-375.218
X61.593 Y-375.225
X164.816
G3 X165.129 Y-374.912 I0 J0.313
G1 Y-324.109
X165.123 Y-324.052 Z-1.989
X165.107 Y-323.997 Z-1.977
X165.085 Y-323.953 Z-1.945
X165.057 Y-323.914 Z-1.912
X165.009 Y-323.869 Z-1.815
X164.991 Y-323.856 Z-1.7
G0 Z5
X-147.626 Y-353.783
G1 Z2.8 F333.3
X-147.644 Y-353.749 Z2.653
X-147.698 Y-353.658 Z2.544
X-147.783 Y-353.54 Z2.5
G3 X-150.006 Y-355.323 Z2.344 I-1.112 J-0.891
X-147.783 Y-353.54 Z2.187 I1.112 J0.891
X-150.006 Y-355.323 Z2.031 I-1.112 J-0.891
X-147.783 Y-353.54 Z1.875 I1.112 J0.891
X-150.006 Y-355.323 Z1.718 I-1.112 J-0.891
X-147.783 Y-353.54 Z1.562 I1.112 J0.891
X-150.006 Y-355.323 Z1.406 I-1.112 J-0.891
X-147.783 Y-353.54 Z1.249 I1.112 J0.891
X-150.006 Y-355.323 Z1.093 I-1.112 J-0.891
X-147.783 Y-353.54 Z0.937 I1.112 J0.891
X-150.006 Y-355.323 Z0.78 I-1.112 J-0.891
X-147.783 Y-353.54 Z0.624 I1.112 J0.891
X-150.006 Y-355.323 Z0.468 I-1.112 J-0.891
X-147.783 Y-353.54 Z0.311 I1.112 J0.891
X-150.006 Y-355.323 Z0.155 I-1.112 J-0.891
X-147.783 Y-353.54 Z-0.001 I1.112 J0.891
X-150.006 Y-355.323 Z-0.158 I-1.112 J-0.891
X-147.783 Y-353.54 Z-0.314 I1.112 J0.891
X-150.006 Y-355.323 Z-0.47 I-1.112 J-0.891
X-147.783 Y-353.54 Z-0.627 I1.112 J0.891
X-150.006 Y-355.323 Z-0.783 I-1.112 J-0.891
X-147.783 Y-353.54 Z-0.939 I1.112 J0.891
X-150.006 Y-355.323 Z-1.096 I-1.112 J-0.891
X-147.783 Y-353.54 Z-1.252 I1.112 J0.891
X-150.006 Y-355.323 Z-1.408 I-1.112 J-0.891
X-147.783 Y-353.54 Z-1.565 I1.112 J0.891
X-150.006 Y-355.323 Z-1.721 I-1.112 J-0.891
X-147.783 Y-353.54 Z-1.877 I1.112 J0.891
X-150.32 Y-354.431 Z-2 I-1.112 J-0.891
G1 Y-354.69 F1000
G3 X-150 Y-355.01 I0.319 J0
G1 X-148.647
X-148.604 Y-355.002
X-148.565 Y-354.981
X-148.536 Y-354.948
X-148.52 Y-354.907
X-148.518 Y-354.864
X-148.53 Y-354.822
X-148.556 Y-354.786
G2 X-150.097 Y-353.26 I104.351 J106.891
G1 X-150.133 Y-353.234
X-150.175 Y-353.222
X-150.218 Y-353.224
X-150.259 Y-353.241
X-150.291 Y-353.27
X-150.312 Y-353.308
X-150.32 Y-353.351
Y-354.431
G2 X-151.012 Y-355.479 I-1.139 J0
G3 X-150.761 Y-356.71 I0.251 J-0.59
G1 X-144.385
X-144.341 Y-356.702
X-144.302 Y-356.68
X-144.273 Y-356.647
X-144.257 Y-356.605
X-144.256 Y-356.561
X-144.27 Y-356.519
X-144.297 Y-356.484
G2 X-151.795 Y-349.06 I100.091 J108.588
G1 X-151.83 Y-349.033
X-151.872 Y-349.02
X-151.916 Y-349.022
X-151.957 Y-349.038
X-151.99 Y-349.067
X-152.012 Y-349.105
X-152.02 Y-349.149
Y-356.39
G3 X-151.7 Y-356.71 I0.319 J0
G1 X-150.761
G2 X-149.486 Y-357.56 I0 J-1.381
G3 X-148.211 Y-358.41 I1.275 J0.531
G1 X-139.933
X-139.889 Y-358.402
X-139.85 Y-358.379
X-139.821 Y-358.345
X-139.805 Y-358.303
Y-358.258
X-139.82 Y-358.216
X-139.848 Y-358.181
G2 X-153.492 Y-344.678 I95.643 J110.286
G1 X-153.527 Y-344.65
X-153.569 Y-344.636
X-153.614 Y-344.637
X-153.656 Y-344.652
X-153.69 Y-344.682
X-153.712 Y-344.72
X-153.72 Y-344.764
Y-358.09
G3 X-153.4 Y-358.41 I0.319 J0
G1 X-148.211
G2 X-146.936 Y-359.26 I0 J-1.381
G3 X-145.661 Y-360.11 I1.275 J0.531
G1 X-135.264
X-135.225 Y-360.103
X-135.189 Y-360.086
X-135.161 Y-360.058
X-135.142 Y-360.023
X-135.134 Y-359.984
X-135.139 Y-359.944
X-135.156 Y-359.908
X-135.182 Y-359.878
G2 X-155.189 Y-340.089 I90.977 J111.983
G1 X-155.224 Y-340.059
X-155.266 Y-340.044
X-155.312 Y-340.043
X-155.354 Y-340.059
X-155.389 Y-340.088
X-155.412 Y-340.127
X-155.42 Y-340.172
Y-359.79
G3 X-155.1 Y-360.11 I0.319 J0
G1 X-145.661
G2 X-144.386 Y-360.96 I0 J-1.381
G3 X-143.111 Y-361.81 I1.275 J0.531
G1 X-130.343
X-130.303 Y-361.803
X-130.267 Y-361.785
X-130.238 Y-361.757
X-130.22 Y-361.721
X-130.213 Y-361.681
X-130.219 Y-361.641
X-130.236 Y-361.605
X-130.264 Y-361.576
G2 X-156.887 Y-335.258 I86.059 J113.68
G1 X-156.916 Y-335.231
X-156.952 Y-335.213
X-156.992 Y-335.208
X-157.032 Y-335.215
X-157.067 Y-335.234
X-157.095 Y-335.262
X-157.113 Y-335.298
X-157.12 Y-335.338
Y-361.49
G3 X-156.8 Y-361.81 I0.319 J0
G1 X-143.111
G2 X-141.836 Y-362.66 I0 J-1.381
G3 X-140.561 Y-363.51 I1.275 J0.531
G1 X-125.123
X-125.082 Y-363.503
X-125.046 Y-363.484
X-125.017 Y-363.455
X-124.998 Y-363.419
X-124.992 Y-363.378
X-124.999 Y-363.338
X-125.018 Y-363.301
X-125.048 Y-363.273
G2 X-158.584 Y-330.145 I80.843 J115.378
G1 X-158.612 Y-330.116
X-158.649 Y-330.098
X-158.689 Y-330.091
X-158.729 Y-330.097
X-158.766 Y-330.116
X-158.795 Y-330.145
X-158.813 Y-330.181
X-158.82 Y-330.221
Y-363.19
G3 X-158.5 Y-363.51 I0.319 J0
G1 X-140.561
G2 X-139.286 Y-364.36 I0 J-1.381
G3 X-138.011 Y-365.21 I1.275 J0.531
G1 X-119.541
X-119.5 Y-365.203
X-119.463 Y-365.184
X-119.434 Y-365.154
X-119.416 Y-365.116
X-119.411 Y-365.075
X-119.419 Y-365.034
X-119.44 Y-364.998
X-119.471 Y-364.97
G2 X-160.281 Y-324.693 I75.266 J117.075
G1 X-160.309 Y-324.662
X-160.345 Y-324.642
X-160.386 Y-324.634
X-160.427 Y-324.64
X-160.464 Y-324.658
X-160.494 Y-324.687
X-160.513 Y-324.724
X-160.52 Y-324.765
Y-364.89
G3 X-160.2 Y-365.21 I0.319 J0
G1 X-138.011
G2 X-136.736 Y-366.06 I0 J-1.381
G3 X-135.461 Y-366.91 I1.275 J0.531
G1 X-113.512
G3 X-113.447 Y-366.667 I0 J0.13
G2 X-161.978 Y-318.823 I69.241 J118.772
G3 X-162.22 Y-318.89 I-0.111 J-0.067
G1 Y-366.59
G3 X-161.9 Y-366.91 I0.319 J0
G1 X-135.461
G2 X-134.186 Y-367.76 I0 J-1.381
G3 X-132.911 Y-368.61 I1.275 J0.531
G1 X-106.767
X-106.732 Y-368.603
X-106.701 Y-368.583
X-106.68 Y-368.553
X-106.671 Y-368.518
X-106.676 Y-368.482
X-106.694 Y-368.45
X-106.723 Y-368.428
G2 X-163.738 Y-312.303 I62.518 J120.532
G1 X-163.761 Y-312.275
X-163.793 Y-312.257
X-163.829 Y-312.253
X-163.864 Y-312.261
X-163.893 Y-312.283
X-163.913 Y-312.313
X-163.92 Y-312.349
Y-368.29
G3 X-163.6 Y-368.61 I0.319 J0
G1 X-132.911
G2 X-131.636 Y-369.46 I0 J-1.381
G3 X-130.361 Y-370.31 I1.275 J0.531
G1 X-99.359
X-99.323 Y-370.302
X-99.291 Y-370.282
X-99.27 Y-370.251
X-99.263 Y-370.215
X-99.269 Y-370.178
X-99.289 Y-370.147
X-99.319 Y-370.125
G2 X-165.436 Y-305.174 I55.114 J122.23
G1 X-165.458 Y-305.144
X-165.489 Y-305.125
X-165.526 Y-305.119
X-165.562 Y-305.127
X-165.592 Y-305.148
X-165.612 Y-305.179
X-165.62 Y-305.215
Y-369.99
G3 X-165.3 Y-370.31 I0.319 J0
G1 X-130.361
G2 X-129.1 Y-371.15 I0 J-1.366
G3 X-127.839 Y-371.991 I1.261 J0.525
G1 X-90.891
X-90.854 Y-371.983
X-90.822 Y-371.962
X-90.801 Y-371.93
X-90.795 Y-371.892
X-90.803 Y-371.855
X-90.825 Y-371.824
X-90.857 Y-371.804
G2 X-167.115 Y-297.119 I46.652 J123.909
G1 X-167.135 Y-297.088
X-167.167 Y-297.066
X-167.204 Y-297.059
X-167.241 Y-297.066
X-167.272 Y-297.087
X-167.293 Y-297.118
X-167.301 Y-297.155
Y-371.671
G3 X-166.981 Y-371.991 I0.319 J0
G1 X-127.839
G2 X-126.608 Y-372.811 I0 J-1.333
G3 X-125.378 Y-373.631 I1.231 J0.513
G1 X-80.782
X-80.749 Y-373.625
X-80.719 Y-373.608
X-80.698 Y-373.581
X-80.687 Y-373.549
X-80.688 Y-373.514
X-80.701 Y-373.483
X-80.725 Y-373.458
X-80.755 Y-373.443
G2 X-168.753 Y-287.718 I36.55 J125.547
G1 X-168.772 Y-287.684
X-168.803 Y-287.66
X-168.84 Y-287.651
X-168.879 Y-287.657
X-168.912 Y-287.677
X-168.934 Y-287.709
X-168.941 Y-287.747
Y-373.312
G3 X-168.622 Y-373.631 I0.319 J0
G1 X-125.378
G2 X-124.183 Y-374.428 I0 J-1.295
G3 X-122.988 Y-375.225 I1.195 J0.498
G1 X-66.999
X-66.965 Y-375.218
X-66.935 Y-375.2
X-66.914 Y-375.172
X-66.905 Y-375.139
X-66.908 Y-375.104
X-66.924 Y-375.073
X-66.95 Y-375.05
X-66.982 Y-375.037
G2 X-170.348 Y-275.678 I22.777 J127.142
G1 X-170.361 Y-275.647
X-170.385 Y-275.622
X-170.416 Y-275.607
X-170.45 Y-275.605
X-170.483 Y-275.615
X-170.511 Y-275.636
X-170.528 Y-275.665
X-170.535 Y-275.699
Y-374.912
G3 X-170.222 Y-375.225 I0.313 J0
G1 X-122.988
X-122.931 Y-375.219 Z-1.989
X-122.876 Y-375.203 Z-1.977
X-122.833 Y-375.181 Z-1.945
X-122.793 Y-375.153 Z-1.912
X-122.749 Y-375.105 Z-1.815
X-122.736 Y-375.087 Z-1.7
G0 Z5
X-151.691 Y360.692
G1 Z2.8 F333.3
X-151.703 Y360.655 Z2.653
X-151.729 Y360.553 Z2.544
X-151.753 Y360.409 Z2.5
G3 X-148.922 Y360.085 Z2.344 I1.416 J-0.162
X-151.753 Y360.409 Z2.187 I-1.416 J0.162
X-148.922 Y360.085 Z2.031 I1.416 J-0.162
X-151.753 Y360.409 Z1.875 I-1.416 J0.162
X-148.922 Y360.085 Z1.718 I1.416 J-0.162
X-151.753 Y360.409 Z1.562 I-1.416 J0.162
X-148.922 Y360.085 Z1.406 I1.416 J-0.162
X-151.753 Y360.409 Z1.249 I-1.416 J0.162
X-148.922 Y360.085 Z1.093 I1.416 J-0.162
X-151.753 Y360.409 Z0.937 I-1.416 J0.162
X-148.922 Y360.085 Z0.78 I1.416 J-0.162
X-151.753 Y360.409 Z0.624 I-1.416 J0.162
X-148.922 Y360.085 Z0.468 I1.416 J-0.162
X-151.753 Y360.409 Z0.311 I-1.416 J0.162
X-148.922 Y360.085 Z0.155 I1.416 J-0.162
X-151.753 Y360.409 Z-0.001 I-1.416 J0.162
X-148.922 Y360.085 Z-0.158 I1.416 J-0.162
X-151.753 Y360.409 Z-0.314 I-1.416 J0.162
X-148.922 Y360.085 Z-0.47 I1.416 J-0.162
X-151.753 Y360.409 Z-0.627 I-1.416 J0.162
X-148.922 Y360.085 Z-0.783 I1.416 J-0.162
X-151.753 Y360.409 Z-0.939 I-1.416 J0.162
X-148.922 Y360.085 Z-1.096 I1.416 J-0.162
X-151.753 Y360.409 Z-1.252 I-1.416 J0.162
X-148.922 Y360.085 Z-1.408 I1.416 J-0.162
X-151.753 Y360.409 Z-1.565 I-1.416 J0.162
X-148.922 Y360.085 Z-1.721 I1.416 J-0.162
X-151.753 Y360.409 Z-1.877 I-1.416 J0.162
X-149.335 Y359.235 Z-2 I1.416 J-0.162
G2 X-148.556 Y360 I105.129 J-106.125 F1000
G1 X-148.53 Y360.036
X-148.518 Y360.078
X-148.52 Y360.122
X-148.537 Y360.162
X-148.566 Y360.195
X-148.604 Y360.216
X-148.647 Y360.224
X-150
G3 X-150.32 Y359.904 I0 J-0.319
G1 Y358.566
X-150.312 Y358.523
X-150.291 Y358.484
X-150.259 Y358.455
X-150.218 Y358.439
X-150.175 Y358.436
X-150.133 Y358.449
X-150.097 Y358.474
G2 X-149.335 Y359.235 I105.891 J-105.364
X-147.824 Y359.527 I0.974 J-0.983
G3 X-146.311 Y359.806 I0.544 J1.292
G2 X-144.297 Y361.698 I102.105 J-106.696
G1 X-144.27 Y361.733
X-144.256 Y361.775
X-144.258 Y361.819
X-144.274 Y361.861
X-144.303 Y361.894
X-144.341 Y361.916
X-144.385 Y361.924
X-151.7
G3 X-152.02 Y361.604 I0 J-0.319
G1 Y354.363
X-152.012 Y354.32
X-151.99 Y354.281
X-151.957 Y354.252
X-151.916 Y354.236
X-151.872 Y354.234
X-151.83 Y354.248
X-151.795 Y354.274
G2 X-146.311 Y359.806 I107.589 J-101.164
X-144.796 Y360.072 I0.956 J-0.999
G3 X-143.278 Y360.325 I0.566 J1.282
G2 X-139.848 Y363.395 I99.072 J-107.215
G1 X-139.82 Y363.43
X-139.805 Y363.472
X-139.806 Y363.517
X-139.821 Y363.559
X-139.85 Y363.594
X-139.889 Y363.616
X-139.934 Y363.624
X-153.4
G3 X-153.72 Y363.304 I0 J-0.319
G1 Y349.979
X-153.712 Y349.935
X-153.69 Y349.896
X-153.656 Y349.867
X-153.614 Y349.851
X-153.569 Y349.85
X-153.527 Y349.865
X-153.492 Y349.892
G2 X-143.278 Y360.325 I109.286 J-96.783
X-141.758 Y360.564 I0.939 J-1.016
G3 X-140.236 Y360.79 I0.589 J1.272
G2 X-135.183 Y365.092 I96.031 J-107.68
G1 X-135.156 Y365.122
X-135.139 Y365.158
X-135.135 Y365.198
X-135.142 Y365.237
X-135.161 Y365.272
X-135.19 Y365.3
X-135.225 Y365.317
X-135.265 Y365.324
X-155.1
G3 X-155.42 Y365.004 I0 J-0.319
G1 Y345.386
X-155.412 Y345.341
X-155.389 Y345.302
X-155.354 Y345.273
X-155.312 Y345.258
X-155.266
X-155.224 Y345.274
X-155.189 Y345.303
G2 X-140.236 Y360.79 I110.984 J-92.193
X-138.713 Y361.002 I0.921 J-1.032
G3 X-137.187 Y361.201 I0.611 J1.262
G2 X-130.265 Y366.79 I92.981 J-108.092
G1 X-130.237 Y366.819
X-130.219 Y366.855
X-130.213 Y366.895
X-130.22 Y366.935
X-130.239 Y366.971
X-130.267 Y366.999
X-130.303 Y367.017
X-130.343 Y367.024
X-156.8
G3 X-157.12 Y366.704 I0 J-0.319
G1 Y340.552
X-157.113 Y340.513
X-157.095 Y340.477
X-157.067 Y340.448
X-157.032 Y340.429
X-156.992 Y340.422
X-156.952 Y340.428
X-156.916 Y340.445
X-156.887 Y340.473
G2 X-137.187 Y361.201 I112.681 J-87.363
X-135.659 Y361.387 I0.902 J-1.049
G3 X-134.13 Y361.558 I0.634 J1.251
G2 X-125.048 Y368.487 I89.924 J-108.448
G1 X-125.019 Y368.515
X-125 Y368.552
X-124.993 Y368.592
X-124.999 Y368.633
X-125.017 Y368.669
X-125.046 Y368.698
X-125.082 Y368.717
X-125.123 Y368.724
X-158.5
G3 X-158.82 Y368.404 I0 J-0.319
G1 Y335.436
X-158.813 Y335.395
X-158.795 Y335.359
X-158.766 Y335.33
X-158.729 Y335.312
X-158.689 Y335.305
X-158.649 Y335.312
X-158.612 Y335.331
X-158.584 Y335.36
G2 X-134.13 Y361.558 I114.378 J-82.25
X-132.599 Y361.715 I0.883 J-1.065
G3 X-131.067 Y361.859 I0.657 J1.239
G2 X-119.471 Y370.184 I86.861 J-108.749
G1 X-119.44 Y370.212
X-119.42 Y370.248
X-119.412 Y370.289
X-119.417 Y370.33
X-119.435 Y370.368
X-119.464 Y370.398
X-119.501 Y370.417
X-119.542 Y370.424
X-160.2
G3 X-160.52 Y370.104 I0 J-0.319
G1 Y329.979
X-160.513 Y329.938
X-160.494 Y329.901
X-160.464 Y329.872
X-160.427 Y329.854
X-160.386 Y329.849
X-160.345 Y329.857
X-160.309 Y329.877
X-160.281 Y329.907
G2 X-131.067 Y361.859 I116.075 J-76.797
X-129.534 Y361.988 I0.863 J-1.081
G3 X-127.999 Y362.103 I0.679 J1.227
G2 X-113.447 Y371.881 I83.793 J-108.994
G3 X-113.512 Y372.124 I-0.066 J0.112
G1 X-161.9
G3 X-162.22 Y371.804 I0 J-0.319
G1 Y324.104
G3 X-161.978 Y324.037 I0.13 J0
G2 X-127.999 Y362.103 I117.772 J-70.927
X-126.463 Y362.204 I0.843 J-1.097
G3 X-124.927 Y362.291 I0.702 J1.215
G2 X-106.723 Y373.642 I80.721 J-109.181
G1 X-106.695 Y373.664
X-106.677 Y373.696
X-106.672 Y373.732
X-106.68 Y373.767
X-106.701 Y373.797
X-106.732 Y373.817
X-106.768 Y373.824
X-163.6
G3 X-163.92 Y373.504 I0 J-0.319
G1 Y317.563
X-163.913 Y317.528
X-163.893 Y317.497
X-163.864 Y317.476
X-163.829 Y317.467
X-163.793 Y317.472
X-163.761 Y317.489
X-163.738 Y317.517
G2 X-124.927 Y362.291 I119.533 J-64.408
X-123.389 Y362.363 I0.822 J-1.112
G3 X-121.851 Y362.42 I0.725 J1.202
G2 X-99.32 Y375.339 I77.646 J-109.31
G1 X-99.289 Y375.361
X-99.27 Y375.392
X-99.263 Y375.429
X-99.271 Y375.465
X-99.292 Y375.496
X-99.323 Y375.516
X-99.359 Y375.524
X-165.3
G3 X-165.62 Y375.204 I0 J-0.319
G1 Y310.43
X-165.612 Y310.393
X-165.592 Y310.362
X-165.562 Y310.341
X-165.526 Y310.333
X-165.489 Y310.339
X-165.458 Y310.359
X-165.436 Y310.388
G2 X-121.851 Y362.42 I121.23 J-57.279
X-120.33 Y362.462 I0.792 J-1.115
G3 X-118.808 Y362.49 I0.74 J1.174
G2 X-90.857 Y377.018 I74.603 J-109.381
G1 X-90.825 Y377.038
X-90.803 Y377.069
X-90.795 Y377.107
X-90.802 Y377.144
X-90.823 Y377.176
X-90.854 Y377.197
X-90.891 Y377.205
X-166.981
G3 X-167.301 Y376.885 I0 J-0.319
G1 Y302.37
X-167.293 Y302.333
X-167.272 Y302.301
X-167.241 Y302.28
X-167.204 Y302.273
X-167.167 Y302.281
X-167.135 Y302.302
X-167.115 Y302.334
G2 X-118.808 Y362.49 I122.909 J-49.224
X-117.323 Y362.503 I0.752 J-1.103
G3 X-115.838 Y362.502 I0.743 J1.132
G2 X-80.756 Y378.656 I71.632 J-109.393
G1 X-80.725 Y378.672
X-80.702 Y378.697
X-80.689 Y378.728
X-80.687 Y378.763
X-80.698 Y378.795
X-80.719 Y378.822
X-80.749 Y378.839
X-80.783 Y378.845
X-168.622
G3 X-168.941 Y378.526 I0 J-0.319
G1 Y292.961
X-168.934 Y292.923
X-168.912 Y292.892
X-168.879 Y292.871
X-168.84 Y292.865
X-168.803 Y292.875
X-168.772 Y292.898
X-168.753 Y292.932
G2 X-115.838 Y362.502 I124.547 J-39.822
X-114.396 Y362.488 I0.71 J-1.085
G3 X-112.954 Y362.46 I0.742 J1.085
G2 X-66.983 Y380.251 I68.748 J-109.35
G1 X-66.95 Y380.264
X-66.925 Y380.287
X-66.909 Y380.318
X-66.905 Y380.353
X-66.915 Y380.386
X-66.936 Y380.414
X-66.965 Y380.432
X-67 Y380.439
X-170.222
G3 X-170.535 Y380.126 I0 J-0.313
G1 Y280.913
X-170.528 Y280.879
X-170.511 Y280.85
X-170.483 Y280.829
X-170.45 Y280.819
X-170.416 Y280.822
X-170.385 Y280.836
X-170.361 Y280.861
X-170.348 Y280.893
G2 X-112.954 Y362.46 I126.142 J-27.783
G1 X-112.908 Y362.495 Z-1.989
X-112.87 Y362.538 Z-1.977
X-112.845 Y362.58 Z-1.945
X-112.827 Y362.625 Z-1.912
X-112.814 Y362.688 Z-1.815
X-112.813 Y362.711 Z-1.7
G0 Z5
X144.984 Y357.53
G1 Z2.8 F333.3
X145.018 Y357.548 Z2.653
X145.109 Y357.602 Z2.544
X145.227 Y357.687 Z2.5
G3 X143.444 Y359.91 Z2.344 I-0.891 J1.112
X145.227 Y357.687 Z2.187 I0.891 J-1.112
X143.444 Y359.91 Z2.031 I-0.891 J1.112
X145.227 Y357.687 Z1.875 I0.891 J-1.112
X143.444 Y359.91 Z1.718 I-0.891 J1.112
X145.227 Y357.687 Z1.562 I0.891 J-1.112
X143.444 Y359.91 Z1.406 I-0.891 J1.112
X145.227 Y357.687 Z1.249 I0.891 J-1.112
X143.444 Y359.91 Z1.093 I-0.891 J1.112
X145.227 Y357.687 Z0.937 I0.891 J-1.112
X143.444 Y359.91 Z0.78 I-0.891 J1.112
X145.227 Y357.687 Z0.624 I0.891 J-1.112
X143.444 Y359.91 Z0.468 I-0.891 J1.112
X145.227 Y357.687 Z0.311 I0.891 J-1.112
X143.444 Y359.91 Z0.155 I-0.892 J1.112
X145.227 Y357.687 Z-0.001 I0.892 J-1.112
X143.444 Y359.91 Z-0.158 I-0.892 J1.112
X145.227 Y357.687 Z-0.314 I0.892 J-1.112
X143.444 Y359.91 Z-0.47 I-0.892 J1.112
X145.227 Y357.687 Z-0.627 I0.892 J-1.112
X143.444 Y359.91 Z-0.783 I-0.892 J1.112
X145.227 Y357.687 Z-0.939 I0.892 J-1.112
X143.444 Y359.91 Z-1.096 I-0.892 J1.112
X145.227 Y357.687 Z-1.252 I0.892 J-1.112
X143.444 Y359.91 Z-1.408 I-0.892 J1.112
X145.227 Y357.687 Z-1.565 I0.892 J-1.112
X143.444 Y359.91 Z-1.721 I-0.892 J1.112
X145.227 Y357.687 Z-1.877 I0.892 J-1.112
X144.335 Y360.224 Z-2 I-0.892 J1.112
G1 X143.241 F1000
X143.198 Y360.216
X143.16 Y360.195
X143.131 Y360.162
X143.114 Y360.121
X143.112 Y360.078
X143.124 Y360.036
X143.15 Y360
G2 X144.691 Y358.474 I-104.35 J-106.891
G1 X144.727 Y358.449
X144.769 Y358.436
X144.812 Y358.439
X144.853 Y358.455
X144.885 Y358.484
X144.906 Y358.523
X144.914 Y358.566
Y359.904
G3 X144.594 Y360.224 I-0.319 J0
G1 X144.335
G2 X143.06 Y361.074 I0 J1.381
G3 X141.785 Y361.924 I-1.275 J-0.531
G1 X138.979
X138.935 Y361.916
X138.897 Y361.894
X138.868 Y361.861
X138.852 Y361.819
X138.85 Y361.775
X138.864 Y361.733
X138.891 Y361.698
G2 X146.389 Y354.274 I-100.091 J-108.588
G1 X146.424 Y354.248
X146.466 Y354.234
X146.51 Y354.236
X146.551 Y354.252
X146.584 Y354.281
X146.606 Y354.32
X146.614 Y354.363
Y361.604
G3 X146.294 Y361.924 I-0.319 J0
G1 X141.785
G2 X140.51 Y362.774 I0 J1.381
G3 X139.235 Y363.624 I-1.275 J-0.531
G1 X134.528
X134.483 Y363.616
X134.444 Y363.593
X134.415 Y363.559
X134.4 Y363.517
X134.399 Y363.472
X134.414 Y363.43
X134.442 Y363.395
G2 X148.086 Y349.892 I-95.643 J-110.285
G1 X148.121 Y349.865
X148.163 Y349.85
X148.208 Y349.851
X148.25 Y349.867
X148.284 Y349.896
X148.306 Y349.935
X148.314 Y349.979
Y363.304
G3 X147.994 Y363.624 I-0.319 J0
G1 X139.235
G2 X137.96 Y364.474 I0 J1.381
G3 X136.685 Y365.324 I-1.275 J-0.531
G1 X129.859
X129.819 Y365.317
X129.784 Y365.3
X129.755 Y365.272
X129.736 Y365.237
X129.729 Y365.198
X129.733 Y365.158
X129.75 Y365.122
X129.777 Y365.092
G2 X149.783 Y345.303 I-90.977 J-111.983
G1 X149.818 Y345.274
X149.86 Y345.258
X149.906
X149.948 Y345.273
X149.983 Y345.302
X150.006 Y345.341
X150.014 Y345.386
Y365.004
G3 X149.694 Y365.324 I-0.319 J0
G1 X136.685
G2 X135.41 Y366.174 I0 J1.381
G3 X134.135 Y367.024 I-1.275 J-0.531
G1 X124.937
X124.897 Y367.017
X124.861 Y366.999
X124.832 Y366.971
X124.814 Y366.935
X124.807 Y366.895
X124.813 Y366.855
X124.831 Y366.819
X124.859 Y366.79
G2 X151.481 Y340.473 I-86.059 J-113.68
G1 X151.51 Y340.445
X151.546 Y340.428
X151.586 Y340.422
X151.626 Y340.429
X151.661 Y340.448
X151.689 Y340.477
X151.707 Y340.513
X151.714 Y340.552
Y366.704
G3 X151.394 Y367.024 I-0.319 J0
G1 X134.135
G2 X132.86 Y367.874 I0 J1.381
G3 X131.585 Y368.724 I-1.275 J-0.531
G1 X119.717
X119.676 Y368.717
X119.64 Y368.698
X119.611 Y368.669
X119.593 Y368.633
X119.587 Y368.592
X119.594 Y368.552
X119.613 Y368.515
X119.642 Y368.487
G2 X153.178 Y335.36 I-80.842 J-115.377
G1 X153.206 Y335.331
X153.243 Y335.312
X153.283 Y335.305
X153.323 Y335.312
X153.36 Y335.33
X153.389 Y335.359
X153.407 Y335.395
X153.414 Y335.436
Y368.404
G3 X153.094 Y368.724 I-0.319 J0
G1 X131.585
G2 X130.31 Y369.574 I0 J1.381
G3 X129.035 Y370.424 I-1.275 J-0.531
G1 X114.136
X114.095 Y370.417
X114.058 Y370.398
X114.029 Y370.368
X114.011 Y370.33
X114.006 Y370.289
X114.014 Y370.248
X114.034 Y370.212
X114.065 Y370.184
G2 X154.875 Y329.907 I-75.266 J-117.074
G1 X154.903 Y329.877
X154.939 Y329.857
X154.98 Y329.849
X155.021 Y329.854
X155.058 Y329.872
X155.088 Y329.901
X155.107 Y329.938
X155.114 Y329.979
Y370.104
G3 X154.794 Y370.424 I-0.319 J0
G1 X129.035
G2 X127.76 Y371.274 I0 J1.381
G3 X126.485 Y372.124 I-1.275 J-0.531
G1 X108.106
G3 X108.041 Y371.881 I0 J-0.13
G2 X156.572 Y324.037 I-69.241 J-118.771
G3 X156.814 Y324.104 I0.111 J0.067
G1 Y371.804
G3 X156.494 Y372.124 I-0.319 J0
G1 X126.485
G2 X125.21 Y372.974 I0 J1.381
G3 X123.935 Y373.824 I-1.275 J-0.531
G1 X101.362
X101.326 Y373.817
X101.295 Y373.797
X101.274 Y373.767
X101.266 Y373.732
X101.271 Y373.696
X101.289 Y373.664
X101.317 Y373.642
G2 X158.332 Y317.517 I-62.518 J-120.532
G1 X158.355 Y317.489
X158.387 Y317.472
X158.423 Y317.467
X158.458 Y317.476
X158.487 Y317.497
X158.507 Y317.528
X158.514 Y317.563
Y373.504
G3 X158.194 Y373.824 I-0.319 J0
G1 X123.935
G2 X122.66 Y374.674 I0 J1.381
G3 X121.385 Y375.524 I-1.275 J-0.531
G1 X93.953
X93.917 Y375.516
X93.886 Y375.496
X93.865 Y375.465
X93.857 Y375.429
X93.864 Y375.392
X93.883 Y375.361
X93.914 Y375.339
G2 X160.03 Y310.388 I-55.114 J-122.23
G1 X160.052 Y310.359
X160.083 Y310.339
X160.12 Y310.333
X160.156 Y310.341
X160.186 Y310.362
X160.206 Y310.393
X160.214 Y310.43
Y375.204
G3 X159.894 Y375.524 I-0.319 J0
G1 X121.385
G2 X120.125 Y376.364 I0 J1.366
G3 X118.864 Y377.205 I-1.261 J-0.525
G1 X85.485
X85.448 Y377.197
X85.417 Y377.176
X85.396 Y377.144
X85.389 Y377.107
X85.397 Y377.069
X85.419 Y377.038
X85.451 Y377.018
G2 X161.709 Y302.334 I-46.652 J-123.908
G1 X161.729 Y302.302
X161.761 Y302.281
X161.798 Y302.273
X161.835 Y302.28
X161.866 Y302.301
X161.887 Y302.333
X161.895 Y302.37
Y376.885
G3 X161.575 Y377.205 I-0.319 J0
G1 X118.864
G2 X117.633 Y378.025 I0 J1.333
G3 X116.403 Y378.845 I-1.231 J-0.513
G1 X75.377
X75.343 Y378.839
X75.314 Y378.822
X75.292 Y378.795
X75.281 Y378.763
X75.283 Y378.728
X75.296 Y378.697
X75.319 Y378.672
X75.35 Y378.656
G2 X163.347 Y292.932 I-36.55 J-125.547
G1 X163.366 Y292.898
X163.397 Y292.875
X163.434 Y292.865
X163.473 Y292.871
X163.506 Y292.892
X163.528 Y292.923
X163.535 Y292.961
Y378.526
G3 X163.216 Y378.845 I-0.319 J0
G1 X116.403
G2 X115.208 Y379.642 I0 J1.295
G3 X114.013 Y380.439 I-1.195 J-0.498
G1 X61.594
X61.559 Y380.432
X61.53 Y380.414
X61.509 Y380.386
X61.5 Y380.353
X61.503 Y380.318
X61.519 Y380.287
X61.544 Y380.264
X61.577 Y380.251
G2 X164.942 Y280.893 I-22.777 J-127.141
G1 X164.955 Y280.861
X164.979 Y280.836
X165.01 Y280.822
X165.044 Y280.819
X165.077 Y280.829
X165.104 Y280.85
X165.122 Y280.879
X165.129 Y280.913
Y380.126
G3 X164.816 Y380.439 I-0.313 J0
G1 X114.013
G2 X112.864 Y381.205 I0 J1.245
G3 X111.715 Y381.971 I-1.149 J-0.479
G1 X-171.747
G3 X-172.067 Y381.651 I0 J-0.319
G1 Y-376.437
G3 X-171.747 Y-376.757 I0.319 J0
G1 X166.341
G3 X166.661 Y-376.437 I0 J0.319
G1 Y381.651
G3 X166.341 Y381.971 I-0.319 J0
G1 X111.715
G2 X110.566 Y382.736 I0 J1.244
G3 X109.418 Y383.502 I-1.148 J-0.479
G1 X-173.279
G3 X-173.598 Y383.183 I0 J-0.319
G1 Y-377.969
G3 X-173.279 Y-378.288 I0.319 J0
G1 X167.873
G3 X168.192 Y-377.969 I0 J0.319
G1 Y383.183
G3 X167.873 Y383.502 I-0.319 J0
G1 X109.418
G2 X108.177 Y384.329 I0 J1.345
G3 X106.935 Y385.157 I-1.241 J-0.517
G1 X-174.203
G3 X-175.253 Y384.107 I0 J-1.05
G1 Y-378.893
G3 X-174.203 Y-379.943 I1.05 J0
G1 X168.797
G3 X169.847 Y-378.893 I0 J1.05
G1 Y253.11
Y384.107
G3 X168.797 Y385.157 I-1.05 J0
G1 X106.935
G2 X105.66 Y386.007 I0 J1.381
G3 X104.385 Y386.857 I-1.275 J-0.531
G1 X-174.203
G3 X-176.953 Y384.107 I0 J-2.75
G1 Y-247.895
Y-378.893
G3 X-174.203 Y-381.643 I2.75 J0
G1 X168.797
G3 X171.547 Y-378.893 I0 J2.75
G1 Y384.107
G3 X168.797 Y386.857 I-2.75 J0
G1 X104.385
G2 X103.073 Y387.732 I0 J1.422
G3 X101.76 Y388.607 I-1.313 J-0.547
G1 X-174.203
G3 X-178.703 Y384.107 I0 J-4.5
G1 Y-378.893
G3 X-174.203 Y-383.393 I4.5 J0
G1 X168.797
G3 X173.297 Y-378.893 I0 J4.5
G1 Y384.107
G3 X168.797 Y388.607 I-4.5 J0
G1 X101.76
X101.703 Y388.602 Z-1.989
X101.648 Y388.585 Z-1.977
X101.605 Y388.564 Z-1.945
X101.565 Y388.535 Z-1.912
X101.521 Y388.488 Z-1.815
X101.508 Y388.469 Z-1.7
G0 Z5
X-137.219 Y-341.79
G1 Z3 F333.3
Z-1.7
X-137.214 Y-341.785 Z-1.767
X-137.198 Y-341.769 Z-1.83
X-137.173 Y-341.744 Z-1.887
X-137.14 Y-341.71 Z-1.935
X-137.1 Y-341.67 Z-1.97
X-137.055 Y-341.625 Z-1.992
X-137.008 Y-341.577 Z-2
G2 X-136.698 Y-341.361 I0.744 J-0.737 F1000
G1 X-134.364 Y-340.299
G3 X-134.061 Y-338.603 I-0.434 J0.953
G2 X-171.884 Y-247.895 I89.856 J90.707
G1 Y253.11
G2 X-44.205 Y380.788 I127.678 J0
G1 X38.8
G2 X166.478 Y253.11 I0 J-127.678
G1 Y-247.895
G2 X38.8 Y-375.574 I-127.679 J0
G1 X-44.206
G2 X-134.061 Y-338.603 I0 J127.679
X-134.337 Y-337.244 I0.877 J0.885
G3 X-134.601 Y-335.884 I-1.169 J0.48
G2 X-170.353 Y-247.895 I90.395 J87.988
G1 Y253.11
G2 X-44.205 Y379.257 I126.147 J0
G1 X38.8
G2 X164.947 Y253.11 I0 J-126.147
G1 Y-247.895
G2 X38.8 Y-374.043 I-126.148 J0
G1 X-44.206
G2 X-134.601 Y-335.884 I0 J126.148
X-134.879 Y-334.369 I0.992 J0.965
G3 X-135.142 Y-332.853 I-1.29 J0.558
G2 X-168.653 Y-247.895 I90.937 J84.957
G1 Y253.11
G2 X-44.205 Y377.557 I124.447 J0
G1 X38.8
G2 X163.247 Y253.11 I0 J-124.447
G1 Y-247.895
G2 X38.8 Y-372.343 I-124.448 J0
G1 X-44.206
G2 X-135.142 Y-332.853 I0 J124.447
X-135.39 Y-331.333 I1.011 J0.945
G3 X-135.621 Y-329.811 I-1.278 J0.584
G2 X-166.953 Y-247.895 I91.416 J81.915
G1 Y253.11
G2 X-44.205 Y375.857 I122.747 J0
G1 X38.8
G2 X161.547 Y253.11 I0 J-122.747
G1 Y-247.895
G2 X38.8 Y-370.643 I-122.748 J0
G1 X-44.206
G2 X-135.621 Y-329.811 I0 J122.748
X-135.843 Y-328.241 I1.061 J0.951
G3 X-136.048 Y-326.669 I-1.304 J0.629
G2 X-165.203 Y-247.895 I91.843 J78.774
G1 Y253.11
G2 X-44.205 Y374.107 I120.997 J0
G1 X38.799
G2 X159.797 Y253.11 I0 J-120.997
G1 Y-247.895
G2 X38.8 Y-368.893 I-120.998 J0
G1 X-44.206
G2 X-136.048 Y-326.669 I0 J120.998
G3 X-136.385 Y-326.723 I-0.152 J-0.13
G1 X-147.415 Y-353.525
G2 X-147.76 Y-353.57 I-0.185 J0.076
G3 X-150.029 Y-355.293 Z-2.156 I-1.135 J-0.862 F333.3
X-147.76 Y-353.57 Z-2.313 I1.135 J0.862
X-150.029 Y-355.293 Z-2.469 I-1.135 J-0.862
X-147.76 Y-353.57 Z-2.625 I1.135 J0.862
X-150.029 Y-355.293 Z-2.782 I-1.135 J-0.862
X-147.76 Y-353.57 Z-2.938 I1.135 J0.862
X-150.029 Y-355.293 Z-3.094 I-1.135 J-0.862
X-147.76 Y-353.57 Z-3.251 I1.135 J0.862
X-150.029 Y-355.293 Z-3.407 I-1.135 J-0.862
X-147.76 Y-353.57 Z-3.563 I1.135 J0.862
X-150.029 Y-355.293 Z-3.72 I-1.135 J-0.862
X-147.76 Y-353.57 Z-3.876 I1.135 J0.862
X-150.32 Y-354.431 Z-4 I-1.135 J-0.862
G1 Y-354.69 F1000
G3 X-150 Y-355.01 I0.319 J0
G1 X-148.647
X-148.604 Y-355.002
X-148.565 Y-354.981
X-148.536 Y-354.948
X-148.52 Y-354.907
X-148.518 Y-354.864
X-148.53 Y-354.822
X-148.556 Y-354.786
G2 X-150.097 Y-353.26 I104.351 J106.891
G1 X-150.133 Y-353.234
X-150.175 Y-353.222
X-150.218 Y-353.224
X-150.259 Y-353.241
X-150.291 Y-353.27
X-150.312 Y-353.308
X-150.32 Y-353.351
Y-354.431
G2 X-151.012 Y-355.479 I-1.139 J0
G3 X-150.761 Y-356.71 I0.251 J-0.59
G1 X-144.385
X-144.341 Y-356.702
X-144.302 Y-356.68
X-144.273 Y-356.647
X-144.257 Y-356.605
X-144.256 Y-356.561
X-144.27 Y-356.519
X-144.297 Y-356.484
G2 X-151.795 Y-349.06 I100.091 J108.588
G1 X-151.83 Y-349.033
X-151.872 Y-349.02
X-151.916 Y-349.022
X-151.957 Y-349.038
X-151.99 Y-349.067
X-152.012 Y-349.105
X-152.02 Y-349.149
Y-356.39
G3 X-151.7 Y-356.71 I0.319 J0
G1 X-150.761
G2 X-149.486 Y-357.56 I0 J-1.381
G3 X-148.211 Y-358.41 I1.275 J0.531
G1 X-139.933
X-139.889 Y-358.402
X-139.85 Y-358.379
X-139.821 Y-358.345
X-139.805 Y-358.303
Y-358.258
X-139.82 Y-358.216
X-139.848 Y-358.181
G2 X-153.492 Y-344.678 I95.643 J110.286
G1 X-153.527 Y-344.65
X-153.569 Y-344.636
X-153.614 Y-344.637
X-153.656 Y-344.652
X-153.69 Y-344.682
X-153.712 Y-344.72
X-153.72 Y-344.764
Y-358.09
G3 X-153.4 Y-358.41 I0.319 J0
G1 X-148.211
G2 X-146.936 Y-359.26 I0 J-1.381
G3 X-145.661 Y-360.11 I1.275 J0.531
G1 X-135.264
X-135.225 Y-360.103
X-135.189 Y-360.086
X-135.161 Y-360.058
X-135.142 Y-360.023
X-135.134 Y-359.984
X-135.139 Y-359.944
X-135.156 Y-359.908
X-135.182 Y-359.878
G2 X-155.189 Y-340.089 I90.977 J111.983
G1 X-155.224 Y-340.059
X-155.266 Y-340.044
X-155.312 Y-340.043
X-155.354 Y-340.059
X-155.389 Y-340.088
X-155.412 Y-340.127
X-155.42 Y-340.172
Y-359.79
G3 X-155.1 Y-360.11 I0.319 J0
G1 X-145.661
G2 X-144.386 Y-360.96 I0 J-1.381
G3 X-143.111 Y-361.81 I1.275 J0.531
G1 X-130.343
X-130.303 Y-361.803
X-130.267 Y-361.785
X-130.238 Y-361.757
X-130.22 Y-361.721
X-130.213 Y-361.681
X-130.219 Y-361.641
X-130.236 Y-361.605
X-130.264 Y-361.576
G2 X-156.887 Y-335.258 I86.059 J113.68
G1 X-156.916 Y-335.231
X-156.952 Y-335.213
X-156.992 Y-335.208
X-157.032 Y-335.215
X-157.067 Y-335.234
X-157.095 Y-335.262
X-157.113 Y-335.298
X-157.12 Y-335.338
Y-361.49
G3 X-156.8 Y-361.81 I0.319 J0
G1 X-143.111
G2 X-141.836 Y-362.66 I0 J-1.381
G3 X-140.561 Y-363.51 I1.275 J0.531
G1 X-125.123
X-125.082 Y-363.503
X-125.046 Y-363.484
X-125.017 Y-363.455
X-124.998 Y-363.419
X-124.992 Y-363.378
X-124.999 Y-363.338
X-125.018 Y-363.301
X-125.048 Y-363.273
G2 X-158.584 Y-330.145 I80.843 J115.378
G1 X-158.612 Y-330.116
X-158.649 Y-330.098
X-158.689 Y-330.091
X-158.729 Y-330.097
X-158.766 Y-330.116
X-158.795 Y-330.145
X-158.813 Y-330.181
X-158.82 Y-330.221
Y-363.19
G3 X-158.5 Y-363.51 I0.319 J0
G1 X-140.561
G2 X-139.286 Y-364.36 I0 J-1.381
G3 X-138.011 Y-365.21 I1.275 J0.531
G1 X-119.541
X-119.5 Y-365.203
X-119.463 Y-365.184
X-119.434 Y-365.154
X-119.416 Y-365.116
X-119.411 Y-365.075
X-119.419 Y-365.034
X-119.44 Y-364.998
X-119.471 Y-364.97
G2 X-160.281 Y-324.693 I75.266 J117.075
G1 X-160.309 Y-324.662
X-160.345 Y-324.642
X-160.386 Y-324.634
X-160.427 Y-324.64
X-160.464 Y-324.658
X-160.494 Y-324.687
X-160.513 Y-324.724
X-160.52 Y-324.765
Y-364.89
G3 X-160.2 Y-365.21 I0.319 J0
G1 X-138.011
G2 X-136.736 Y-366.06 I0 J-1.381
G3 X-135.461 Y-366.91 I1.275 J0.531
G1 X-113.512
G3 X-113.447 Y-366.667 I0 J0.13
G2 X-161.978 Y-318.823 I69.241 J118.772
G3 X-162.22 Y-318.89 I-0.111 J-0.067
G1 Y-366.59
G3 X-161.9 Y-366.91 I0.319 J0
G1 X-135.461
G2 X-134.186 Y-367.76 I0 J-1.381
G3 X-132.911 Y-368.61 I1.275 J0.531
G1 X-106.767
X-106.732 Y-368.603
X-106.701 Y-368.583
X-106.68 Y-368.553
X-106.671 Y-368.518
X-106.676 Y-368.482
X-106.694 Y-368.45
X-106.723 Y-368.428
G2 X-163.738 Y-312.303 I62.518 J120.532
G1 X-163.761 Y-312.275
X-163.793 Y-312.257
X-163.829 Y-312.253
X-163.864 Y-312.261
X-163.893 Y-312.283
X-163.913 Y-312.313
X-163.92 Y-312.349
Y-368.29
G3 X-163.6 Y-368.61 I0.319 J0
G1 X-132.911
G2 X-131.636 Y-369.46 I0 J-1.381
G3 X-130.361 Y-370.31 I1.275 J0.531
G1 X-99.359
X-99.323 Y-370.302
X-99.291 Y-370.282
X-99.27 Y-370.251
X-99.263 Y-370.215
X-99.269 Y-370.178
X-99.289 Y-370.147
X-99.319 Y-370.125
G2 X-165.436 Y-305.174 I55.114 J122.23
G1 X-165.458 Y-305.144
X-165.489 Y-305.125
X-165.526 Y-305.119
X-165.562 Y-305.127
X-165.592 Y-305.148
X-165.612 Y-305.179
X-165.62 Y-305.215
Y-369.99
G3 X-165.3 Y-370.31 I0.319 J0
G1 X-130.361
G2 X-129.1 Y-371.15 I0 J-1.366
G3 X-127.839 Y-371.991 I1.261 J0.525
G1 X-90.891
X-90.854 Y-371.983
X-90.822 Y-371.962
X-90.801 Y-371.93
X-90.795 Y-371.892
X-90.803 Y-371.855
X-90.825 Y-371.824
X-90.857 Y-371.804
G2 X-167.115 Y-297.119 I46.652 J123.909
G1 X-167.135 Y-297.088
X-167.167 Y-297.066
X-167.204 Y-297.059
X-167.241 Y-297.066
X-167.272 Y-297.087
X-167.293 Y-297.118
X-167.301 Y-297.155
Y-371.671
G3 X-166.981 Y-371.991 I0.319 J0
G1 X-127.839
G2 X-126.608 Y-372.811 I0 J-1.333
G3 X-125.378 Y-373.631 I1.231 J0.513
G1 X-80.782
X-80.749 Y-373.625
X-80.719 Y-373.608
X-80.698 Y-373.581
X-80.687 Y-373.549
X-80.688 Y-373.514
X-80.701 Y-373.483
X-80.725 Y-373.458
X-80.755 Y-373.443
G2 X-168.753 Y-287.718 I36.55 J125.547
G1 X-168.772 Y-287.684
X-168.803 Y-287.66
X-168.84 Y-287.651
X-168.879 Y-287.657
X-168.912 Y-287.677
X-168.934 Y-287.709
X-168.941 Y-287.747
Y-373.312
G3 X-168.622 Y-373.631 I0.319 J0
G1 X-125.378
G2 X-124.183 Y-374.428 I0 J-1.295
G3 X-122.988 Y-375.225 I1.195 J0.498
G1 X-66.999
X-66.965 Y-375.218
X-66.935 Y-375.2
X-66.914 Y-375.172
X-66.905 Y-375.139
X-66.908 Y-375.104
X-66.924 Y-375.073
X-66.95 Y-375.05
X-66.982 Y-375.037
G2 X-170.348 Y-275.678 I22.777 J127.142
G1 X-170.361 Y-275.647
X-170.385 Y-275.622
X-170.416 Y-275.607
X-170.45 Y-275.605
X-170.483 Y-275.615
X-170.511 Y-275.636
X-170.528 Y-275.665
X-170.535 Y-275.699
Y-374.912
G3 X-170.222 Y-375.225 I0.313 J0
G1 X-122.988
X-122.931 Y-375.219 Z-3.989
X-122.876 Y-375.203 Z-3.977
X-122.833 Y-375.181 Z-3.945
X-122.793 Y-375.153 Z-3.912
X-122.749 Y-375.105 Z-3.815
X-122.736 Y-375.087 Z-3.7
G0 Z5
X142.22 Y-355.08
G1 Z0.8 F333.3
X142.238 Y-355.114 Z0.653
X142.292 Y-355.205 Z0.544
X142.377 Y-355.323 Z0.5
G3 X144.6 Y-353.54 Z0.344 I1.112 J0.892
X142.377 Y-355.323 Z0.187 I-1.112 J-0.892
X144.6 Y-353.54 Z0.031 I1.112 J0.892
X142.377 Y-355.323 Z-0.125 I-1.112 J-0.892
X144.6 Y-353.54 Z-0.282 I1.112 J0.892
X142.377 Y-355.323 Z-0.438 I-1.112 J-0.892
X144.6 Y-353.54 Z-0.594 I1.112 J0.892
X142.377 Y-355.323 Z-0.751 I-1.112 J-0.892
X144.6 Y-353.54 Z-0.907 I1.112 J0.892
X142.377 Y-355.323 Z-1.063 I-1.112 J-0.892
X144.6 Y-353.54 Z-1.22 I1.112 J0.892
X142.377 Y-355.323 Z-1.376 I-1.112 J-0.892
X144.6 Y-353.54 Z-1.532 I1.112 J0.892
X142.377 Y-355.323 Z-1.689 I-1.112 J-0.892
X144.6 Y-353.54 Z-1.845 I1.112 J0.892
X142.377 Y-355.323 Z-2.001 I-1.112 J-0.892
X144.6 Y-353.54 Z-2.158 I1.112 J0.892
X142.377 Y-355.323 Z-2.314 I-1.112 J-0.892
X144.6 Y-353.54 Z-2.47 I1.112 J0.892
X142.377 Y-355.323 Z-2.627 I-1.112 J-0.892
X144.6 Y-353.54 Z-2.783 I1.112 J0.892
X142.377 Y-355.323 Z-2.939 I-1.112 J-0.892
X144.6 Y-353.54 Z-3.096 I1.112 J0.892
X142.377 Y-355.323 Z-3.252 I-1.112 J-0.892
X144.6 Y-353.54 Z-3.408 I1.112 J0.892
X142.377 Y-355.323 Z-3.565 I-1.112 J-0.892
X144.6 Y-353.54 Z-3.721 I1.112 J0.892
X142.377 Y-355.323 Z-3.877 I-1.112 J-0.892
X144.914 Y-354.431 Z-4 I1.112 J0.892
G1 Y-353.351 F1000
X144.906 Y-353.308
X144.885 Y-353.27
X144.853 Y-353.241
X144.812 Y-353.224
X144.769 Y-353.222
X144.727 Y-353.234
X144.691 Y-353.26
G2 X143.15 Y-354.786 I-105.892 J105.364
G1 X143.124 Y-354.822
X143.112 Y-354.864
X143.114 Y-354.907
X143.13 Y-354.948
X143.159 Y-354.981
X143.198 Y-355.002
X143.241 Y-355.01
X144.594
G3 X144.914 Y-354.69 I0 J0.319
G1 Y-354.431
G2 X145.764 Y-353.156 I1.381 J0
G3 X146.614 Y-351.881 I-0.531 J1.275
G1 Y-349.149
X146.606 Y-349.105
X146.584 Y-349.067
X146.551 Y-349.038
X146.51 Y-349.022
X146.466 Y-349.02
X146.424 Y-349.033
X146.389 Y-349.06
G2 X138.891 Y-356.484 I-107.589 J101.165
G1 X138.864 Y-356.519
X138.85 Y-356.561
X138.851 Y-356.605
X138.867 Y-356.647
X138.896 Y-356.68
X138.935 Y-356.702
X138.979 Y-356.71
X146.294
G3 X146.614 Y-356.39 I0 J0.319
G1 Y-351.881
G2 X147.464 Y-350.606 I1.381 J0
G3 X148.314 Y-349.331 I-0.531 J1.275
G1 Y-344.764
X148.306 Y-344.72
X148.284 Y-344.682
X148.25 Y-344.652
X148.208 Y-344.637
X148.163 Y-344.636
X148.121 Y-344.65
X148.086 Y-344.678
G2 X134.442 Y-358.181 I-109.287 J96.783
G1 X134.414 Y-358.216
X134.399 Y-358.258
Y-358.303
X134.415 Y-358.345
X134.444 Y-358.379
X134.483 Y-358.402
X134.527 Y-358.41
X147.994
G3 X148.314 Y-358.09 I0 J0.319
G1 Y-349.331
G2 X149.164 Y-348.056 I1.381 J0
G3 X150.014 Y-346.781 I-0.531 J1.275
G1 Y-340.172
X150.006 Y-340.127
X149.983 Y-340.088
X149.948 Y-340.059
X149.906 Y-340.043
X149.86 Y-340.044
X149.818 Y-340.059
X149.783 Y-340.089
G2 X129.776 Y-359.878 I-110.984 J92.193
G1 X129.75 Y-359.908
X129.733 Y-359.944
X129.728 Y-359.984
X129.736 Y-360.023
X129.755 Y-360.058
X129.783 Y-360.086
X129.819 Y-360.103
X129.858 Y-360.11
X149.694
G3 X150.014 Y-359.79 I0 J0.319
G1 Y-346.781
G2 X150.864 Y-345.506 I1.381 J0
G3 X151.714 Y-344.231 I-0.531 J1.275
G1 Y-335.338
X151.707 Y-335.298
X151.689 Y-335.262
X151.661 Y-335.234
X151.626 Y-335.215
X151.586 Y-335.208
X151.546 Y-335.213
X151.51 Y-335.231
X151.481 Y-335.258
G2 X124.858 Y-361.576 I-112.681 J87.363
G1 X124.83 Y-361.605
X124.813 Y-361.641
X124.807 Y-361.681
X124.813 Y-361.721
X124.832 Y-361.757
X124.861 Y-361.785
X124.897 Y-361.803
X124.937 Y-361.81
X151.394
G3 X151.714 Y-361.49 I0 J0.319
G1 Y-344.231
G2 X152.564 Y-342.956 I1.381 J0
G3 X153.414 Y-341.681 I-0.531 J1.275
G1 Y-330.221
X153.407 Y-330.181
X153.389 Y-330.145
X153.36 Y-330.116
X153.323 Y-330.097
X153.283 Y-330.091
X153.243 Y-330.098
X153.206 Y-330.116
X153.178 Y-330.145
G2 X119.642 Y-363.273 I-114.378 J82.25
G1 X119.612 Y-363.301
X119.593 Y-363.338
X119.586 Y-363.378
X119.592 Y-363.419
X119.611 Y-363.455
X119.64 Y-363.484
X119.676 Y-363.503
X119.717 Y-363.51
X153.094
G3 X153.414 Y-363.19 I0 J0.319
G1 Y-341.681
G2 X154.264 Y-340.406 I1.381 J0
G3 X155.114 Y-339.131 I-0.531 J1.275
G1 Y-324.765
X155.107 Y-324.724
X155.088 Y-324.687
X155.058 Y-324.658
X155.021 Y-324.64
X154.98 Y-324.634
X154.939 Y-324.642
X154.903 Y-324.662
X154.875 Y-324.693
G2 X114.065 Y-364.97 I-116.076 J76.798
G1 X114.034 Y-364.998
X114.013 Y-365.034
X114.005 Y-365.075
X114.01 Y-365.116
X114.028 Y-365.154
X114.057 Y-365.184
X114.094 Y-365.203
X114.135 Y-365.21
X154.794
G3 X155.114 Y-364.89 I0 J0.319
G1 Y-339.131
G2 X155.964 Y-337.856 I1.381 J0
G3 X156.814 Y-336.581 I-0.531 J1.275
G1 Y-318.89
G3 X156.572 Y-318.823 I-0.13 J0
G2 X108.041 Y-366.667 I-117.773 J70.927
G3 X108.106 Y-366.91 I0.066 J-0.112
G1 X156.494
G3 X156.814 Y-366.59 I0 J0.319
G1 Y-336.581
G2 X157.664 Y-335.306 I1.381 J0
G3 X158.514 Y-334.031 I-0.531 J1.275
G1 Y-312.349
X158.507 Y-312.313
X158.487 Y-312.283
X158.458 Y-312.261
X158.423 Y-312.253
X158.387 Y-312.257
X158.355 Y-312.275
X158.332 Y-312.303
G2 X101.317 Y-368.428 I-119.533 J64.408
G1 X101.288 Y-368.45
X101.27 Y-368.482
X101.265 Y-368.518
X101.274 Y-368.553
X101.295 Y-368.583
X101.326 Y-368.603
X101.361 Y-368.61
X158.194
G3 X158.514 Y-368.29 I0 J0.319
G1 Y-334.031
G2 X159.364 Y-332.756 I1.381 J0
G3 X160.214 Y-331.481 I-0.531 J1.275
G1 Y-305.215
X160.206 Y-305.179
X160.186 Y-305.148
X160.156 Y-305.127
X160.12 Y-305.119
X160.083 Y-305.125
X160.052 Y-305.144
X160.03 Y-305.174
G2 X93.913 Y-370.125 I-121.231 J57.279
G1 X93.883 Y-370.147
X93.863 Y-370.178
X93.857 Y-370.215
X93.864 Y-370.251
X93.885 Y-370.282
X93.917 Y-370.302
X93.953 Y-370.31
X159.894
G3 X160.214 Y-369.99 I0 J0.319
G1 Y-331.481
G2 X161.054 Y-330.221 I1.366 J0
G3 X161.895 Y-328.96 I-0.525 J1.261
G1 Y-297.155
X161.887 Y-297.118
X161.866 Y-297.087
X161.835 Y-297.066
X161.798 Y-297.059
X161.761 Y-297.066
X161.729 Y-297.088
X161.709 Y-297.119
G2 X85.451 Y-371.804 I-122.91 J49.224
G1 X85.419 Y-371.824
X85.397 Y-371.855
X85.389 Y-371.892
X85.395 Y-371.93
X85.416 Y-371.962
X85.448 Y-371.983
X85.485 Y-371.991
X161.575
G3 X161.895 Y-371.671 I0 J0.319
G1 Y-328.96
G2 X162.715 Y-327.729 I1.333 J0
G3 X163.535 Y-326.499 I-0.513 J1.231
G1 Y-287.747
X163.528 Y-287.709
X163.506 Y-287.677
X163.473 Y-287.657
X163.434 Y-287.651
X163.397 Y-287.66
X163.366 Y-287.684
X163.347 Y-287.718
G2 X75.349 Y-373.443 I-124.548 J39.822
G1 X75.319 Y-373.458
X75.295 Y-373.483
X75.282 Y-373.514
X75.281 Y-373.549
X75.292 Y-373.581
X75.313 Y-373.608
X75.343 Y-373.625
X75.376 Y-373.631
X163.216
G3 X163.535 Y-373.312 I0 J0.319
G1 Y-326.499
G2 X164.332 Y-325.304 I1.295 J0
G3 X165.129 Y-324.109 I-0.498 J1.195
G1 Y-275.699
X165.122 Y-275.665
X165.104 Y-275.636
X165.077 Y-275.615
X165.044 Y-275.605
X165.01 Y-275.607
X164.979 Y-275.622
X164.955 Y-275.647
X164.942 Y-275.678
G2 X61.576 Y-375.037 I-126.143 J27.783
G1 X61.544 Y-375.05
X61.518 Y-375.073
X61.502 Y-375.104
X61.499 Y-375.139
X61.508 Y-375.172
X61.529 Y-375.2
X61.559 Y-375.218
X61.593 Y-375.225
X164.816
G3 X165.129 Y-374.912 I0 J0.313
G1 Y-324.109
X165.123 Y-324.052 Z-3.989
X165.107 Y-323.997 Z-3.977
X165.085 Y-323.953 Z-3.945
X165.057 Y-323.914 Z-3.912
X165.009 Y-323.869 Z-3.815
X164.991 Y-323.856 Z-3.7
G0 Z5
X144.984 Y357.53
G1 Z0.8 F333.3
X145.018 Y357.548 Z0.653
X145.109 Y357.602 Z0.544
X145.227 Y357.687 Z0.5
G3 X143.444 Y359.91 Z0.344 I-0.891 J1.112
X145.227 Y357.687 Z0.187 I0.891 J-1.112
X143.444 Y359.91 Z0.031 I-0.891 J1.112
X145.227 Y357.687 Z-0.125 I0.891 J-1.112
X143.444 Y359.91 Z-0.282 I-0.891 J1.112
X145.227 Y357.687 Z-0.438 I0.891 J-1.112
X143.444 Y359.91 Z-0.594 I-0.891 J1.112
X145.227 Y357.687 Z-0.751 I0.891 J-1.112
X143.444 Y359.91 Z-0.907 I-0.891 J1.112
X145.227 Y357.687 Z-1.063 I0.891 J-1.112
X143.444 Y359.91 Z-1.22 I-0.891 J1.112
X145.227 Y357.687 Z-1.376 I0.891 J-1.112
X143.444 Y359.91 Z-1.532 I-0.891 J1.112
X145.227 Y357.687 Z-1.689 I0.891 J-1.112
X143.444 Y359.91 Z-1.845 I-0.892 J1.112
X145.227 Y357.687 Z-2.001 I0.892 J-1.112
X143.444 Y359.91 Z-2.158 I-0.892 J1.112
X145.227 Y357.687 Z-2.314 I0.892 J-1.112
X143.444 Y359.91 Z-2.47 I-0.892 J1.112
X145.227 Y357.687 Z-2.627 I0.892 J-1.112
X143.444 Y359.91 Z-2.783 I-0.892 J1.112
X145.227 Y357.687 Z-2.939 I0.892 J-1.112
X143.444 Y359.91 Z-3.096 I-0.892 J1.112
X145.227 Y357.687 Z-3.252 I0.892 J-1.112
X143.444 Y359.91 Z-3.408 I-0.892 J1.112
X145.227 Y357.687 Z-3.565 I0.892 J-1.112
X143.444 Y359.91 Z-3.721 I-0.892 J1.112
X145.227 Y357.687 Z-3.877 I0.892 J-1.112
X144.335 Y360.224 Z-4 I-0.892 J1.112
G1 X143.241 F1000
X143.198 Y360.216
X143.16 Y360.195
X143.131 Y360.162
X143.114 Y360.121
X143.112 Y360.078
X143.124 Y360.036
X143.15 Y360
G2 X144.691 Y358.474 I-104.35 J-106.891
G1 X144.727 Y358.449
X144.769 Y358.436
X144.812 Y358.439
X144.853 Y358.455
X144.885 Y358.484
X144.906 Y358.523
X144.914 Y358.566
Y359.904
G3 X144.594 Y360.224 I-0.319 J0
G1 X144.335
G2 X143.06 Y361.074 I0 J1.381
G3 X141.785 Y361.924 I-1.275 J-0.531
G1 X138.979
X138.935 Y361.916
X138.897 Y361.894
X138.868 Y361.861
X138.852 Y361.819
X138.85 Y361.775
X138.864 Y361.733
X138.891 Y361.698
G2 X146.389 Y354.274 I-100.091 J-108.588
G1 X146.424 Y354.248
X146.466 Y354.234
X146.51 Y354.236
X146.551 Y354.252
X146.584 Y354.281
X146.606 Y354.32
X146.614 Y354.363
Y361.604
G3 X146.294 Y361.924 I-0.319 J0
G1 X141.785
G2 X140.51 Y362.774 I0 J1.381
G3 X139.235 Y363.624 I-1.275 J-0.531
G1 X134.528
X134.483 Y363.616
X134.444 Y363.593
X134.415 Y363.559
X134.4 Y363.517
X134.399 Y363.472
X134.414 Y363.43
X134.442 Y363.395
G2 X148.086 Y349.892 I-95.643 J-110.285
G1 X148.121 Y349.865
X148.163 Y349.85
X148.208 Y349.851
X148.25 Y349.867
X148.284 Y349.896
X148.306 Y349.935
X148.314 Y349.979
Y363.304
G3 X147.994 Y363.624 I-0.319 J0
G1 X139.235
G2 X137.96 Y364.474 I0 J1.381
G3 X136.685 Y365.324 I-1.275 J-0.531
G1 X129.859
X129.819 Y365.317
X129.784 Y365.3
X129.755 Y365.272
X129.736 Y365.237
X129.729 Y365.198
X129.733 Y365.158
X129.75 Y365.122
X129.777 Y365.092
G2 X149.783 Y345.303 I-90.977 J-111.983
G1 X149.818 Y345.274
X149.86 Y345.258
X149.906
X149.948 Y345.273
X149.983 Y345.302
X150.006 Y345.341
X150.014 Y345.386
Y365.004
G3 X149.694 Y365.324 I-0.319 J0
G1 X136.685
G2 X135.41 Y366.174 I0 J1.381
G3 X134.135 Y367.024 I-1.275 J-0.531
G1 X124.937
X124.897 Y367.017
X124.861 Y366.999
X124.832 Y366.971
X124.814 Y366.935
X124.807 Y366.895
X124.813 Y366.855
X124.831 Y366.819
X124.859 Y366.79
G2 X151.481 Y340.473 I-86.059 J-113.68
G1 X151.51 Y340.445
X151.546 Y340.428
X151.586 Y340.422
X151.626 Y340.429
X151.661 Y340.448
X151.689 Y340.477
X151.707 Y340.513
X151.714 Y340.552
Y366.704
G3 X151.394 Y367.024 I-0.319 J0
G1 X134.135
G2 X132.86 Y367.874 I0 J1.381
G3 X131.585 Y368.724 I-1.275 J-0.531
G1 X119.717
X119.676 Y368.717
X119.64 Y368.698
X119.611 Y368.669
X119.593 Y368.633
X119.587 Y368.592
X119.594 Y368.552
X119.613 Y368.515
X119.642 Y368.487
G2 X153.178 Y335.36 I-80.842 J-115.377
G1 X153.206 Y335.331
X153.243 Y335.312
X153.283 Y335.305
X153.323 Y335.312
X153.36 Y335.33
X153.389 Y335.359
X153.407 Y335.395
X153.414 Y335.436
Y368.404
G3 X153.094 Y368.724 I-0.319 J0
G1 X131.585
G2 X130.31 Y369.574 I0 J1.381
G3 X129.035 Y370.424 I-1.275 J-0.531
G1 X114.136
X114.095 Y370.417
X114.058 Y370.398
X114.029 Y370.368
X114.011 Y370.33
X114.006 Y370.289
X114.014 Y370.248
X114.034 Y370.212
X114.065 Y370.184
G2 X154.875 Y329.907 I-75.266 J-117.074
G1 X154.903 Y329.877
X154.939 Y329.857
X154.98 Y329.849
X155.021 Y329.854
X155.058 Y329.872
X155.088 Y329.901
X155.107 Y329.938
X155.114 Y329.979
Y370.104
G3 X154.794 Y370.424 I-0.319 J0
G1 X129.035
G2 X127.76 Y371.274 I0 J1.381
G3 X126.485 Y372.124 I-1.275 J-0.531
G1 X108.106
G3 X108.041 Y371.881 I0 J-0.13
G2 X156.572 Y324.037 I-69.241 J-118.771
G3 X156.814 Y324.104 I0.111 J0.067
G1 Y371.804
G3 X156.494 Y372.124 I-0.319 J0
G1 X126.485
G2 X125.21 Y372.974 I0 J1.381
G3 X123.935 Y373.824 I-1.275 J-0.531
G1 X101.362
X101.326 Y373.817
X101.295 Y373.797
X101.274 Y373.767
X101.266 Y373.732
X101.271 Y373.696
X101.289 Y373.664
X101.317 Y373.642
G2 X158.332 Y317.517 I-62.518 J-120.532
G1 X158.355 Y317.489
X158.387 Y317.472
X158.423 Y317.467
X158.458 Y317.476
X158.487 Y317.497
X158.507 Y317.528
X158.514 Y317.563
Y373.504
G3 X158.194 Y373.824 I-0.319 J0
G1 X123.935
G2 X122.66 Y374.674 I0 J1.381
G3 X121.385 Y375.524 I-1.275 J-0.531
G1 X93.953
X93.917 Y375.516
X93.886 Y375.496
X93.865 Y375.465
X93.857 Y375.429
X93.864 Y375.392
X93.883 Y375.361
X93.914 Y375.339
G2 X160.03 Y310.388 I-55.114 J-122.23
G1 X160.052 Y310.359
X160.083 Y310.339
X160.12 Y310.333
X160.156 Y310.341
X160.186 Y310.362
X160.206 Y310.393
X160.214 Y310.43
Y375.204
G3 X159.894 Y375.524 I-0.319 J0
G1 X121.385
G2 X120.125 Y376.364 I0 J1.366
G3 X118.864 Y377.205 I-1.261 J-0.525
G1 X85.485
X85.448 Y377.197
X85.417 Y377.176
X85.396 Y377.144
X85.389 Y377.107
X85.397 Y377.069
X85.419 Y377.038
X85.451 Y377.018
G2 X161.709 Y302.334 I-46.652 J-123.908
G1 X161.729 Y302.302
X161.761 Y302.281
X161.798 Y302.273
X161.835 Y302.28
X161.866 Y302.301
X161.887 Y302.333
X161.895 Y302.37
Y376.885
G3 X161.575 Y377.205 I-0.319 J0
G1 X118.864
G2 X117.633 Y378.025 I0 J1.333
G3 X116.403 Y378.845 I-1.231 J-0.513
G1 X75.377
X75.343 Y378.839
X75.314 Y378.822
X75.292 Y378.795
X75.281 Y378.763
X75.283 Y378.728
X75.296 Y378.697
X75.319 Y378.672
X75.35 Y378.656
G2 X163.347 Y292.932 I-36.55 J-125.547
G1 X163.366 Y292.898
X163.397 Y292.875
X163.434 Y292.865
X163.473 Y292.871
X163.506 Y292.892
X163.528 Y292.923
X163.535 Y292.961
Y378.526
G3 X163.216 Y378.845 I-0.319 J0
G1 X116.403
G2 X115.208 Y379.642 I0 J1.295
G3 X114.013 Y380.439 I-1.195 J-0.498
G1 X61.594
X61.559 Y380.432
X61.53 Y380.414
X61.509 Y380.386
X61.5 Y380.353
X61.503 Y380.318
X61.519 Y380.287
X61.544 Y380.264
X61.577 Y380.251
G2 X164.942 Y280.893 I-22.777 J-127.141
G1 X164.955 Y280.861
X164.979 Y280.836
X165.01 Y280.822
X165.044 Y280.819
X165.077 Y280.829
X165.104 Y280.85
X165.122 Y280.879
X165.129 Y280.913
Y380.126
G3 X164.816 Y380.439 I-0.313 J0
G1 X114.013
X113.956 Y380.433 Z-3.989
X113.901 Y380.417 Z-3.977
X113.857 Y380.395 Z-3.945
X113.818 Y380.367 Z-3.912
X113.773 Y380.319 Z-3.815
X113.76 Y380.301 Z-3.7
G0 Z5
X-151.691 Y360.692
G1 Z0.8 F333.3
X-151.703 Y360.655 Z0.653
X-151.729 Y360.553 Z0.544
X-151.753 Y360.409 Z0.5
G3 X-148.922 Y360.085 Z0.344 I1.416 J-0.162
X-151.753 Y360.409 Z0.187 I-1.416 J0.162
X-148.922 Y360.085 Z0.031 I1.416 J-0.162
X-151.753 Y360.409 Z-0.125 I-1.416 J0.162
X-148.922 Y360.085 Z-0.282 I1.416 J-0.162
X-151.753 Y360.409 Z-0.438 I-1.416 J0.162
X-148.922 Y360.085 Z-0.594 I1.416 J-0.162
X-151.753 Y360.409 Z-0.751 I-1.416 J0.162
X-148.922 Y360.085 Z-0.907 I1.416 J-0.162
X-151.753 Y360.409 Z-1.063 I-1.416 J0.162
X-148.922 Y360.085 Z-1.22 I1.416 J-0.162
X-151.753 Y360.409 Z-1.376 I-1.416 J0.162
X-148.922 Y360.085 Z-1.532 I1.416 J-0.162
X-151.753 Y360.409 Z-1.689 I-1.416 J0.162
X-148.922 Y360.085 Z-1.845 I1.416 J-0.162
X-151.753 Y360.409 Z-2.001 I-1.416 J0.162
X-148.922 Y360.085 Z-2.158 I1.416 J-0.162
X-151.753 Y360.409 Z-2.314 I-1.416 J0.162
X-148.922 Y360.085 Z-2.47 I1.416 J-0.162
X-151.753 Y360.409 Z-2.627 I-1.416 J0.162
X-148.922 Y360.085 Z-2.783 I1.416 J-0.162
X-151.753 Y360.409 Z-2.939 I-1.416 J0.162
X-148.922 Y360.085 Z-3.096 I1.416 J-0.162
X-151.753 Y360.409 Z-3.252 I-1.416 J0.162
X-148.922 Y360.085 Z-3.408 I1.416 J-0.162
X-151.753 Y360.409 Z-3.565 I-1.416 J0.162
X-148.922 Y360.085 Z-3.721 I1.416 J-0.162
X-151.753 Y360.409 Z-3.877 I-1.416 J0.162
X-149.335 Y359.235 Z-4 I1.416 J-0.162
G2 X-148.556 Y360 I105.129 J-106.125 F1000
G1 X-148.53 Y360.036
X-148.518 Y360.078
X-148.52 Y360.122
X-148.537 Y360.162
X-148.566 Y360.195
X-148.604 Y360.216
X-148.647 Y360.224
X-150
G3 X-150.32 Y359.904 I0 J-0.319
G1 Y358.566
X-150.312 Y358.523
X-150.291 Y358.484
X-150.259 Y358.455
X-150.218 Y358.439
X-150.175 Y358.436
X-150.133 Y358.449
X-150.097 Y358.474
G2 X-149.335 Y359.235 I105.891 J-105.364
X-147.824 Y359.527 I0.974 J-0.983
G3 X-146.311 Y359.806 I0.544 J1.292
G2 X-144.297 Y361.698 I102.105 J-106.696
G1 X-144.27 Y361.733
X-144.256 Y361.775
X-144.258 Y361.819
X-144.274 Y361.861
X-144.303 Y361.894
X-144.341 Y361.916
X-144.385 Y361.924
X-151.7
G3 X-152.02 Y361.604 I0 J-0.319
G1 Y354.363
X-152.012 Y354.32
X-151.99 Y354.281
X-151.957 Y354.252
X-151.916 Y354.236
X-151.872 Y354.234
X-151.83 Y354.248
X-151.795 Y354.274
G2 X-146.311 Y359.806 I107.589 J-101.164
X-144.796 Y360.072 I0.956 J-0.999
G3 X-143.278 Y360.325 I0.566 J1.282
G2 X-139.848 Y363.395 I99.072 J-107.215
G1 X-139.82 Y363.43
X-139.805 Y363.472
X-139.806 Y363.517
X-139.821 Y363.559
X-139.85 Y363.594
X-139.889 Y363.616
X-139.934 Y363.624
X-153.4
G3 X-153.72 Y363.304 I0 J-0.319
G1 Y349.979
X-153.712 Y349.935
X-153.69 Y349.896
X-153.656 Y349.867
X-153.614 Y349.851
X-153.569 Y349.85
X-153.527 Y349.865
X-153.492 Y349.892
G2 X-143.278 Y360.325 I109.286 J-96.783
X-141.758 Y360.564 I0.939 J-1.016
G3 X-140.236 Y360.79 I0.589 J1.272
G2 X-135.183 Y365.092 I96.031 J-107.68
G1 X-135.156 Y365.122
X-135.139 Y365.158
X-135.135 Y365.198
X-135.142 Y365.237
X-135.161 Y365.272
X-135.19 Y365.3
X-135.225 Y365.317
X-135.265 Y365.324
X-155.1
G3 X-155.42 Y365.004 I0 J-0.319
G1 Y345.386
X-155.412 Y345.341
X-155.389 Y345.302
X-155.354 Y345.273
X-155.312 Y345.258
X-155.266
X-155.224 Y345.274
X-155.189 Y345.303
G2 X-140.236 Y360.79 I110.984 J-92.193
X-138.713 Y361.002 I0.921 J-1.032
G3 X-137.187 Y361.201 I0.611 J1.262
G2 X-130.265 Y366.79 I92.981 J-108.092
G1 X-130.237 Y366.819
X-130.219 Y366.855
X-130.213 Y366.895
X-130.22 Y366.935
X-130.239 Y366.971
X-130.267 Y366.999
X-130.303 Y367.017
X-130.343 Y367.024
X-156.8
G3 X-157.12 Y366.704 I0 J-0.319
G1 Y340.552
X-157.113 Y340.513
X-157.095 Y340.477
X-157.067 Y340.448
X-157.032 Y340.429
X-156.992 Y340.422
X-156.952 Y340.428
X-156.916 Y340.445
X-156.887 Y340.473
G2 X-137.187 Y361.201 I112.681 J-87.363
X-135.659 Y361.387 I0.902 J-1.049
G3 X-134.13 Y361.558 I0.634 J1.251
G2 X-125.048 Y368.487 I89.924 J-108.448
G1 X-125.019 Y368.515
X-125 Y368.552
X-124.993 Y368.592
X-124.999 Y368.633
X-125.017 Y368.669
X-125.046 Y368.698
X-125.082 Y368.717
X-125.123 Y368.724
X-158.5
G3 X-158.82 Y368.404 I0 J-0.319
G1 Y335.436
X-158.813 Y335.395
X-158.795 Y335.359
X-158.766 Y335.33
X-158.729 Y335.312
X-158.689 Y335.305
X-158.649 Y335.312
X-158.612 Y335.331
X-158.584 Y335.36
G2 X-134.13 Y361.558 I114.378 J-82.25
X-132.599 Y361.715 I0.883 J-1.065
G3 X-131.067 Y361.859 I0.657 J1.239
G2 X-119.471 Y370.184 I86.861 J-108.749
G1 X-119.44 Y370.212
X-119.42 Y370.248
X-119.412 Y370.289
X-119.417 Y370.33
X-119.435 Y370.368
X-119.464 Y370.398
X-119.501 Y370.417
X-119.542 Y370.424
X-160.2
G3 X-160.52 Y370.104 I0 J-0.319
G1 Y329.979
X-160.513 Y329.938
X-160.494 Y329.901
X-160.464 Y329.872
X-160.427 Y329.854
X-160.386 Y329.849
X-160.345 Y329.857
X-160.309 Y329.877
X-160.281 Y329.907
G2 X-131.067 Y361.859 I116.075 J-76.797
X-129.534 Y361.988 I0.863 J-1.081
G3 X-127.999 Y362.103 I0.679 J1.227
G2 X-113.447 Y371.881 I83.793 J-108.994
G3 X-113.512 Y372.124 I-0.066 J0.112
G1 X-161.9
G3 X-162.22 Y371.804 I0 J-0.319
G1 Y324.104
G3 X-161.978 Y324.037 I0.13 J0
G2 X-127.999 Y362.103 I117.772 J-70.927
X-126.463 Y362.204 I0.843 J-1.097
G3 X-124.927 Y362.291 I0.702 J1.215
G2 X-106.723 Y373.642 I80.721 J-109.181
G1 X-106.695 Y373.664
X-106.677 Y373.696
X-106.672 Y373.732
X-106.68 Y373.767
X-106.701 Y373.797
X-106.732 Y373.817
X-106.768 Y373.824
X-163.6
G3 X-163.92 Y373.504 I0 J-0.319
G1 Y317.563
X-163.913 Y317.528
X-163.893 Y317.497
X-163.864 Y317.476
X-163.829 Y317.467
X-163.793 Y317.472
X-163.761 Y317.489
X-163.738 Y317.517
G2 X-124.927 Y362.291 I119.533 J-64.408
X-123.389 Y362.363 I0.822 J-1.112
G3 X-121.851 Y362.42 I0.725 J1.202
G2 X-99.32 Y375.339 I77.646 J-109.31
G1 X-99.289 Y375.361
X-99.27 Y375.392
X-99.263 Y375.429
X-99.271 Y375.465
X-99.292 Y375.496
X-99.323 Y375.516
X-99.359 Y375.524
X-165.3
G3 X-165.62 Y375.204 I0 J-0.319
G1 Y310.43
X-165.612 Y310.393
X-165.592 Y310.362
X-165.562 Y310.341
X-165.526 Y310.333
X-165.489 Y310.339
X-165.458 Y310.359
X-165.436 Y310.388
G2 X-121.851 Y362.42 I121.23 J-57.279
X-120.33 Y362.462 I0.792 J-1.115
G3 X-118.808 Y362.49 I0.74 J1.174
G2 X-90.857 Y377.018 I74.603 J-109.381
G1 X-90.825 Y377.038
X-90.803 Y377.069
X-90.795 Y377.107
X-90.802 Y377.144
X-90.823 Y377.176
X-90.854 Y377.197
X-90.891 Y377.205
X-166.981
G3 X-167.301 Y376.885 I0 J-0.319
G1 Y302.37
X-167.293 Y302.333
X-167.272 Y302.301
X-167.241 Y302.28
X-167.204 Y302.273
X-167.167 Y302.281
X-167.135 Y302.302
X-167.115 Y302.334
G2 X-118.808 Y362.49 I122.909 J-49.224
X-117.323 Y362.503 I0.752 J-1.103
G3 X-115.838 Y362.502 I0.743 J1.132
G2 X-80.756 Y378.656 I71.632 J-109.393
G1 X-80.725 Y378.672
X-80.702 Y378.697
X-80.689 Y378.728
X-80.687 Y378.763
X-80.698 Y378.795
X-80.719 Y378.822
X-80.749 Y378.839
X-80.783 Y378.845
X-168.622
G3 X-168.941 Y378.526 I0 J-0.319
G1 Y292.961
X-168.934 Y292.923
X-168.912 Y292.892
X-168.879 Y292.871
X-168.84 Y292.865
X-168.803 Y292.875
X-168.772 Y292.898
X-168.753 Y292.932
G2 X-115.838 Y362.502 I124.547 J-39.822
X-114.396 Y362.488 I0.71 J-1.085
G3 X-112.954 Y362.46 I0.742 J1.085
G2 X-66.983 Y380.251 I68.748 J-109.35
G1 X-66.95 Y380.264
X-66.925 Y380.287
X-66.909 Y380.318
X-66.905 Y380.353
X-66.915 Y380.386
X-66.936 Y380.414
X-66.965 Y380.432
X-67 Y380.439
X-170.222
G3 X-170.535 Y380.126 I0 J-0.313
G1 Y280.913
X-170.528 Y280.879
X-170.511 Y280.85
X-170.483 Y280.829
X-170.45 Y280.819
X-170.416 Y280.822
X-170.385 Y280.836
X-170.361 Y280.861
X-170.348 Y280.893
G2 X-112.954 Y362.46 I126.142 J-27.783
X-111.608 Y362.422 I0.644 J-1.024
G3 X-110.263 Y362.372 I0.711 J0.999
G2 X-44.205 Y380.788 I66.057 J-109.262
G1 X38.8
G2 X166.478 Y253.11 I0 J-127.678
G1 Y-247.895
G2 X38.8 Y-375.574 I-127.679 J0
G1 X-44.206
G2 X-171.884 Y-247.895 I0 J127.679
G1 Y253.11
G2 X-110.263 Y362.372 I127.678 J0
X-108.879 Y362.308 I0.645 J-1.066
G3 X-107.495 Y362.232 I0.75 J1.017
G2 X-44.205 Y379.257 I63.289 J-109.122
G1 X38.8
G2 X164.947 Y253.11 I0 J-126.147
G1 Y-247.895
G2 X38.8 Y-374.043 I-126.148 J0
G1 X-44.206
G2 X-170.353 Y-247.895 I0 J126.148
G1 Y253.11
G2 X-107.495 Y362.232 I126.147 J0
X-105.959 Y362.133 I0.694 J-1.197
G3 X-104.423 Y362.018 I0.855 J1.115
G2 X-44.205 Y377.557 I60.217 J-108.908
G1 X38.8
G2 X163.247 Y253.11 I0 J-124.447
G1 Y-247.895
G2 X38.8 Y-372.343 I-124.448 J0
G1 X-44.206
G2 X-168.653 Y-247.895 I0 J124.447
G1 Y253.11
G2 X-104.423 Y362.018 I124.447 J0
X-102.889 Y361.887 I0.67 J-1.211
G3 X-101.356 Y361.741 I0.878 J1.097
G2 X-44.205 Y375.857 I57.15 J-108.631
G1 X38.8
G2 X161.547 Y253.11 I0 J-122.747
G1 Y-247.895
G2 X38.8 Y-370.643 I-122.748 J0
G1 X-44.206
G2 X-166.953 Y-247.895 I0 J122.748
G1 Y253.11
G2 X-101.356 Y361.741 I122.747 J0
X-99.78 Y361.573 I0.663 J-1.261
G3 X-98.205 Y361.389 I0.928 J1.111
G2 X-44.205 Y374.107 I54 J-108.279
G1 X38.799
G2 X159.797 Y253.11 I0 J-120.997
G1 Y-247.895
G2 X38.8 Y-368.893 I-120.998 J0
G1 X-44.206
G2 X-165.203 Y-247.895 I0 J120.998
G1 Y253.11
G2 X-98.205 Y361.389 I120.997 J0
G1 X-98.157 Y361.419 Z-3.989
X-98.115 Y361.458 Z-3.977
X-98.086 Y361.497 Z-3.945
X-98.063 Y361.54 Z-3.912
X-98.044 Y361.602 Z-3.815
X-98.041 Y361.625 Z-3.7
G0 Z5
X-167.535 Y-354.431
G1 Z1 F333.3
Z-3.7
G18 G3 X-167.835 Z-4 I-0.3 K0
G17 G2 X-168.21 Y-354.362 I0 J1.058 F1000
G1 X-170.633 Y-353.442
G3 X-172.067 Y-354.431 I-0.376 J-0.989
G1 Y-376.437
G3 X-171.747 Y-376.757 I0.319 J0
G1 X166.341
G3 X166.661 Y-376.437 I0 J0.319
G1 Y381.651
G3 X166.341 Y381.971 I-0.319 J0
G1 X-149.742
X-171.747
G3 X-172.067 Y381.651 I0 J-0.319
G1 Y-354.431
G2 X-172.832 Y-355.58 I-1.244 J0
G3 X-173.598 Y-356.728 I0.479 J-1.148
G1 Y-377.969
G3 X-173.279 Y-378.288 I0.319 J0
G1 X167.873
G3 X168.192 Y-377.969 I0 J0.319
G1 Y383.183
G3 X167.873 Y383.502 I-0.319 J0
G1 X-173.279
G3 X-173.598 Y383.183 I0 J-0.319
G1 Y-356.728
G2 X-174.426 Y-357.969 I-1.345 J0
G3 X-175.253 Y-359.211 I0.517 J-1.241
G1 Y-378.893
G3 X-174.203 Y-379.943 I1.05 J0
G1 X168.797
G3 X169.847 Y-378.893 I0 J1.05
G1 Y253.11
Y384.107
G3 X168.797 Y385.157 I-1.05 J0
G1 X-174.203
G3 X-175.253 Y384.107 I0 J-1.05
G1 Y-359.211
G2 X-176.103 Y-360.486 I-1.381 J0
G3 X-176.953 Y-361.761 I0.531 J-1.275
G1 Y-378.893
G3 X-174.203 Y-381.643 I2.75 J0
G1 X168.797
G3 X171.547 Y-378.893 I0 J2.75
G1 Y384.107
G3 X168.797 Y386.857 I-2.75 J0
G1 X-174.203
G3 X-176.953 Y384.107 I0 J-2.75
G1 Y-247.895
Y-361.761
G2 X-177.828 Y-363.073 I-1.422 J0
G3 X-178.703 Y-364.386 I0.547 J-1.313
G1 Y-378.893
G3 X-174.203 Y-383.393 I4.5 J0
G1 X168.797
G3 X173.297 Y-378.893 I0 J4.5
G1 Y384.107
G3 X168.797 Y388.607 I-4.5 J0
G1 X-174.203
G3 X-178.703 Y384.107 I0 J-4.5
G1 Y-364.386
X-178.696 Y-364.431
X-178.676 Y-364.472
X-178.644 Y-364.505
X-178.603 Y-364.527
X-178.558 Y-364.536
X-178.513 Y-364.53
X-176.839 Y-364.062
X-148.177 Y-353.796
X-147.803 Y-353.695
X-147.775 Y-353.681
X-147.754 Y-353.658
X-147.744 Y-353.629
X-147.746 Y-353.598
X-147.76 Y-353.57
G3 X-150.029 Y-355.293 Z-4.156 I-1.135 J-0.862 F333.3
X-147.76 Y-353.57 Z-4.313 I1.135 J0.862
X-150.029 Y-355.293 Z-4.469 I-1.135 J-0.862
X-147.76 Y-353.57 Z-4.625 I1.135 J0.862
X-150.029 Y-355.293 Z-4.782 I-1.135 J-0.862
X-147.76 Y-353.57 Z-4.938 I1.135 J0.862
X-150.029 Y-355.293 Z-5.094 I-1.135 J-0.862
X-147.76 Y-353.57 Z-5.251 I1.135 J0.862
X-150.029 Y-355.293 Z-5.407 I-1.135 J-0.862
X-147.76 Y-353.57 Z-5.563 I1.135 J0.862
X-150.029 Y-355.293 Z-5.72 I-1.135 J-0.862
X-147.76 Y-353.57 Z-5.876 I1.135 J0.862
X-150.32 Y-354.431 Z-6 I-1.135 J-0.862
G1 Y-354.69 F1000
G3 X-150 Y-355.01 I0.319 J0
G1 X-148.647
X-148.604 Y-355.002
X-148.565 Y-354.981
X-148.536 Y-354.948
X-148.52 Y-354.907
X-148.518 Y-354.864
X-148.53 Y-354.822
X-148.556 Y-354.786
G2 X-150.097 Y-353.26 I104.351 J106.891
G1 X-150.133 Y-353.234
X-150.175 Y-353.222
X-150.218 Y-353.224
X-150.259 Y-353.241
X-150.291 Y-353.27
X-150.312 Y-353.308
X-150.32 Y-353.351
Y-354.431
G2 X-151.012 Y-355.479 I-1.139 J0
G3 X-150.761 Y-356.71 I0.251 J-0.59
G1 X-144.385
X-144.341 Y-356.702
X-144.302 Y-356.68
X-144.273 Y-356.647
X-144.257 Y-356.605
X-144.256 Y-356.561
X-144.27 Y-356.519
X-144.297 Y-356.484
G2 X-151.795 Y-349.06 I100.091 J108.588
G1 X-151.83 Y-349.033
X-151.872 Y-349.02
X-151.916 Y-349.022
X-151.957 Y-349.038
X-151.99 Y-349.067
X-152.012 Y-349.105
X-152.02 Y-349.149
Y-356.39
G3 X-151.7 Y-356.71 I0.319 J0
G1 X-150.761
G2 X-149.486 Y-357.56 I0 J-1.381
G3 X-148.211 Y-358.41 I1.275 J0.531
G1 X-139.933
X-139.889 Y-358.402
X-139.85 Y-358.379
X-139.821 Y-358.345
X-139.805 Y-358.303
Y-358.258
X-139.82 Y-358.216
X-139.848 Y-358.181
G2 X-153.492 Y-344.678 I95.643 J110.286
G1 X-153.527 Y-344.65
X-153.569 Y-344.636
X-153.614 Y-344.637
X-153.656 Y-344.652
X-153.69 Y-344.682
X-153.712 Y-344.72
X-153.72 Y-344.764
Y-358.09
G3 X-153.4 Y-358.41 I0.319 J0
G1 X-148.211
G2 X-146.936 Y-359.26 I0 J-1.381
G3 X-145.661 Y-360.11 I1.275 J0.531
G1 X-135.264
X-135.225 Y-360.103
X-135.189 Y-360.086
X-135.161 Y-360.058
X-135.142 Y-360.023
X-135.134 Y-359.984
X-135.139 Y-359.944
X-135.156 Y-359.908
X-135.182 Y-359.878
G2 X-155.189 Y-340.089 I90.977 J111.983
G1 X-155.224 Y-340.059
X-155.266 Y-340.044
X-155.312 Y-340.043
X-155.354 Y-340.059
X-155.389 Y-340.088
X-155.412 Y-340.127
X-155.42 Y-340.172
Y-359.79
G3 X-155.1 Y-360.11 I0.319 J0
G1 X-145.661
G2 X-144.386 Y-360.96 I0 J-1.381
G3 X-143.111 Y-361.81 I1.275 J0.531
G1 X-130.343
X-130.303 Y-361.803
X-130.267 Y-361.785
X-130.238 Y-361.757
X-130.22 Y-361.721
X-130.213 Y-361.681
X-130.219 Y-361.641
X-130.236 Y-361.605
X-130.264 Y-361.576
G2 X-156.887 Y-335.258 I86.059 J113.68
G1 X-156.916 Y-335.231
X-156.952 Y-335.213
X-156.992 Y-335.208
X-157.032 Y-335.215
X-157.067 Y-335.234
X-157.095 Y-335.262
X-157.113 Y-335.298
X-157.12 Y-335.338
Y-361.49
G3 X-156.8 Y-361.81 I0.319 J0
G1 X-143.111
G2 X-141.836 Y-362.66 I0 J-1.381
G3 X-140.561 Y-363.51 I1.275 J0.531
G1 X-125.123
X-125.082 Y-363.503
X-125.046 Y-363.484
X-125.017 Y-363.455
X-124.998 Y-363.419
X-124.992 Y-363.378
X-124.999 Y-363.338
X-125.018 Y-363.301
X-125.048 Y-363.273
G2 X-158.584 Y-330.145 I80.843 J115.378
G1 X-158.612 Y-330.116
X-158.649 Y-330.098
X-158.689 Y-330.091
X-158.729 Y-330.097
X-158.766 Y-330.116
X-158.795 Y-330.145
X-158.813 Y-330.181
X-158.82 Y-330.221
Y-363.19
G3 X-158.5 Y-363.51 I0.319 J0
G1 X-140.561
G2 X-139.286 Y-364.36 I0 J-1.381
G3 X-138.011 Y-365.21 I1.275 J0.531
G1 X-119.541
X-119.5 Y-365.203
X-119.463 Y-365.184
X-119.434 Y-365.154
X-119.416 Y-365.116
X-119.411 Y-365.075
X-119.419 Y-365.034
X-119.44 Y-364.998
X-119.471 Y-364.97
G2 X-160.281 Y-324.693 I75.266 J117.075
G1 X-160.309 Y-324.662
X-160.345 Y-324.642
X-160.386 Y-324.634
X-160.427 Y-324.64
X-160.464 Y-324.658
X-160.494 Y-324.687
X-160.513 Y-324.724
X-160.52 Y-324.765
Y-364.89
G3 X-160.2 Y-365.21 I0.319 J0
G1 X-138.011
G2 X-136.736 Y-366.06 I0 J-1.381
G3 X-135.461 Y-366.91 I1.275 J0.531
G1 X-113.512
G3 X-113.447 Y-366.667 I0 J0.13
G2 X-161.978 Y-318.823 I69.241 J118.772
G3 X-162.22 Y-318.89 I-0.111 J-0.067
G1 Y-366.59
G3 X-161.9 Y-366.91 I0.319 J0
G1 X-135.461
G2 X-134.186 Y-367.76 I0 J-1.381
G3 X-132.911 Y-368.61 I1.275 J0.531
G1 X-106.767
X-106.732 Y-368.603
X-106.701 Y-368.583
X-106.68 Y-368.553
X-106.671 Y-368.518
X-106.676 Y-368.482
X-106.694 Y-368.45
X-106.723 Y-368.428
G2 X-163.738 Y-312.303 I62.518 J120.532
G1 X-163.761 Y-312.275
X-163.793 Y-312.257
X-163.829 Y-312.253
X-163.864 Y-312.261
X-163.893 Y-312.283
X-163.913 Y-312.313
X-163.92 Y-312.349
Y-368.29
G3 X-163.6 Y-368.61 I0.319 J0
G1 X-132.911
G2 X-131.636 Y-369.46 I0 J-1.381
G3 X-130.361 Y-370.31 I1.275 J0.531
G1 X-99.359
X-99.323 Y-370.302
X-99.291 Y-370.282
X-99.27 Y-370.251
X-99.263 Y-370.215
X-99.269 Y-370.178
X-99.289 Y-370.147
X-99.319 Y-370.125
G2 X-165.436 Y-305.174 I55.114 J122.23
G1 X-165.458 Y-305.144
X-165.489 Y-305.125
X-165.526 Y-305.119
X-165.562 Y-305.127
X-165.592 Y-305.148
X-165.612 Y-305.179
X-165.62 Y-305.215
Y-369.99
G3 X-165.3 Y-370.31 I0.319 J0
G1 X-130.361
G2 X-129.1 Y-371.15 I0 J-1.366
G3 X-127.839 Y-371.991 I1.261 J0.525
G1 X-90.891
X-90.854 Y-371.983
X-90.822 Y-371.962
X-90.801 Y-371.93
X-90.795 Y-371.892
X-90.803 Y-371.855
X-90.825 Y-371.824
X-90.857 Y-371.804
G2 X-167.115 Y-297.119 I46.652 J123.909
G1 X-167.135 Y-297.088
X-167.167 Y-297.066
X-167.204 Y-297.059
X-167.241 Y-297.066
X-167.272 Y-297.087
X-167.293 Y-297.118
X-167.301 Y-297.155
Y-371.671
G3 X-166.981 Y-371.991 I0.319 J0
G1 X-127.839
G2 X-126.608 Y-372.811 I0 J-1.333
G3 X-125.378 Y-373.631 I1.231 J0.513
G1 X-80.782
X-80.749 Y-373.625
X-80.719 Y-373.608
X-80.698 Y-373.581
X-80.687 Y-373.549
X-80.688 Y-373.514
X-80.701 Y-373.483
X-80.725 Y-373.458
X-80.755 Y-373.443
G2 X-168.753 Y-287.718 I36.55 J125.547
G1 X-168.772 Y-287.684
X-168.803 Y-287.66
X-168.84 Y-287.651
X-168.879 Y-287.657
X-168.912 Y-287.677
X-168.934 Y-287.709
X-168.941 Y-287.747
Y-373.312
G3 X-168.622 Y-373.631 I0.319 J0
G1 X-125.378
G2 X-124.183 Y-374.428 I0 J-1.295
G3 X-122.988 Y-375.225 I1.195 J0.498
G1 X-66.999
X-66.965 Y-375.218
X-66.935 Y-375.2
X-66.914 Y-375.172
X-66.905 Y-375.139
X-66.908 Y-375.104
X-66.924 Y-375.073
X-66.95 Y-375.05
X-66.982 Y-375.037
G2 X-170.348 Y-275.678 I22.777 J127.142
G1 X-170.361 Y-275.647
X-170.385 Y-275.622
X-170.416 Y-275.607
X-170.45 Y-275.605
X-170.483 Y-275.615
X-170.511 Y-275.636
X-170.528 Y-275.665
X-170.535 Y-275.699
Y-374.912
G3 X-170.222 Y-375.225 I0.313 J0
G1 X-122.988
X-122.931 Y-375.219 Z-5.989
X-122.876 Y-375.203 Z-5.977
X-122.833 Y-375.181 Z-5.945
X-122.793 Y-375.153 Z-5.912
X-122.749 Y-375.105 Z-5.815
X-122.736 Y-375.087 Z-5.7
G0 Z5
X142.22 Y-355.08
G1 Z0.075 F333.3
Z-1.2 F1000
X142.238 Y-355.114 Z-1.347 F333.3
X142.292 Y-355.205 Z-1.456
X142.377 Y-355.323 Z-1.5
G3 X144.6 Y-353.54 Z-1.656 I1.112 J0.892
X142.377 Y-355.323 Z-1.813 I-1.112 J-0.892
X144.6 Y-353.54 Z-1.969 I1.112 J0.892
X142.377 Y-355.323 Z-2.125 I-1.112 J-0.892
X144.6 Y-353.54 Z-2.282 I1.112 J0.892
X142.377 Y-355.323 Z-2.438 I-1.112 J-0.892
X144.6 Y-353.54 Z-2.594 I1.112 J0.892
X142.377 Y-355.323 Z-2.751 I-1.112 J-0.892
X144.6 Y-353.54 Z-2.907 I1.112 J0.892
X142.377 Y-355.323 Z-3.063 I-1.112 J-0.892
X144.6 Y-353.54 Z-3.22 I1.112 J0.892
X142.377 Y-355.323 Z-3.376 I-1.112 J-0.892
X144.6 Y-353.54 Z-3.532 I1.112 J0.892
X142.377 Y-355.323 Z-3.689 I-1.112 J-0.892
X144.6 Y-353.54 Z-3.845 I1.112 J0.892
X142.377 Y-355.323 Z-4.001 I-1.112 J-0.892
X144.6 Y-353.54 Z-4.158 I1.112 J0.892
X142.377 Y-355.323 Z-4.314 I-1.112 J-0.892
X144.6 Y-353.54 Z-4.47 I1.112 J0.892
X142.377 Y-355.323 Z-4.627 I-1.112 J-0.892
X144.6 Y-353.54 Z-4.783 I1.112 J0.892
X142.377 Y-355.323 Z-4.939 I-1.112 J-0.892
X144.6 Y-353.54 Z-5.096 I1.112 J0.892
X142.377 Y-355.323 Z-5.252 I-1.112 J-0.892
X144.6 Y-353.54 Z-5.408 I1.112 J0.892
X142.377 Y-355.323 Z-5.565 I-1.112 J-0.892
X144.6 Y-353.54 Z-5.721 I1.112 J0.892
X142.377 Y-355.323 Z-5.877 I-1.112 J-0.892
X144.914 Y-354.431 Z-6 I1.112 J0.892
G1 Y-353.351 F1000
X144.906 Y-353.308
X144.885 Y-353.27
X144.853 Y-353.241
X144.812 Y-353.224
X144.769 Y-353.222
X144.727 Y-353.234
X144.691 Y-353.26
G2 X143.15 Y-354.786 I-105.892 J105.364
G1 X143.124 Y-354.822
X143.112 Y-354.864
X143.114 Y-354.907
X143.13 Y-354.948
X143.159 Y-354.981
X143.198 Y-355.002
X143.241 Y-355.01
X144.594
G3 X144.914 Y-354.69 I0 J0.319
G1 Y-354.431
G2 X145.764 Y-353.156 I1.381 J0
G3 X146.614 Y-351.881 I-0.531 J1.275
G1 Y-349.149
X146.606 Y-349.105
X146.584 Y-349.067
X146.551 Y-349.038
X146.51 Y-349.022
X146.466 Y-349.02
X146.424 Y-349.033
X146.389 Y-349.06
G2 X138.891 Y-356.484 I-107.589 J101.165
G1 X138.864 Y-356.519
X138.85 Y-356.561
X138.851 Y-356.605
X138.867 Y-356.647
X138.896 Y-356.68
X138.935 Y-356.702
X138.979 Y-356.71
X146.294
G3 X146.614 Y-356.39 I0 J0.319
G1 Y-351.881
G2 X147.464 Y-350.606 I1.381 J0
G3 X148.314 Y-349.331 I-0.531 J1.275
G1 Y-344.764
X148.306 Y-344.72
X148.284 Y-344.682
X148.25 Y-344.652
X148.208 Y-344.637
X148.163 Y-344.636
X148.121 Y-344.65
X148.086 Y-344.678
G2 X134.442 Y-358.181 I-109.287 J96.783
G1 X134.414 Y-358.216
X134.399 Y-358.258
Y-358.303
X134.415 Y-358.345
X134.444 Y-358.379
X134.483 Y-358.402
X134.527 Y-358.41
X147.994
G3 X148.314 Y-358.09 I0 J0.319
G1 Y-349.331
G2 X149.164 Y-348.056 I1.381 J0
G3 X150.014 Y-346.781 I-0.531 J1.275
G1 Y-340.172
X150.006 Y-340.127
X149.983 Y-340.088
X149.948 Y-340.059
X149.906 Y-340.043
X149.86 Y-340.044
X149.818 Y-340.059
X149.783 Y-340.089
G2 X129.776 Y-359.878 I-110.984 J92.193
G1 X129.75 Y-359.908
X129.733 Y-359.944
X129.728 Y-359.984
X129.736 Y-360.023
X129.755 Y-360.058
X129.783 Y-360.086
X129.819 Y-360.103
X129.858 Y-360.11
X149.694
G3 X150.014 Y-359.79 I0 J0.319
G1 Y-346.781
G2 X150.864 Y-345.506 I1.381 J0
G3 X151.714 Y-344.231 I-0.531 J1.275
G1 Y-335.338
X151.707 Y-335.298
X151.689 Y-335.262
X151.661 Y-335.234
X151.626 Y-335.215
X151.586 Y-335.208
X151.546 Y-335.213
X151.51 Y-335.231
X151.481 Y-335.258
G2 X124.858 Y-361.576 I-112.681 J87.363
G1 X124.83 Y-361.605
X124.813 Y-361.641
X124.807 Y-361.681
X124.813 Y-361.721
X124.832 Y-361.757
X124.861 Y-361.785
X124.897 Y-361.803
X124.937 Y-361.81
X151.394
G3 X151.714 Y-361.49 I0 J0.319
G1 Y-344.231
G2 X152.564 Y-342.956 I1.381 J0
G3 X153.414 Y-341.681 I-0.531 J1.275
G1 Y-330.221
X153.407 Y-330.181
X153.389 Y-330.145
X153.36 Y-330.116
X153.323 Y-330.097
X153.283 Y-330.091
X153.243 Y-330.098
X153.206 Y-330.116
X153.178 Y-330.145
G2 X119.642 Y-363.273 I-114.378 J82.25
G1 X119.612 Y-363.301
X119.593 Y-363.338
X119.586 Y-363.378
X119.592 Y-363.419
X119.611 Y-363.455
X119.64 Y-363.484
X119.676 Y-363.503
X119.717 Y-363.51
X153.094
G3 X153.414 Y-363.19 I0 J0.319
G1 Y-341.681
G2 X154.264 Y-340.406 I1.381 J0
G3 X155.114 Y-339.131 I-0.531 J1.275
G1 Y-324.765
X155.107 Y-324.724
X155.088 Y-324.687
X155.058 Y-324.658
X155.021 Y-324.64
X154.98 Y-324.634
X154.939 Y-324.642
X154.903 Y-324.662
X154.875 Y-324.693
G2 X114.065 Y-364.97 I-116.076 J76.798
G1 X114.034 Y-364.998
X114.013 Y-365.034
X114.005 Y-365.075
X114.01 Y-365.116
X114.028 Y-365.154
X114.057 Y-365.184
X114.094 Y-365.203
X114.135 Y-365.21
X154.794
G3 X155.114 Y-364.89 I0 J0.319
G1 Y-339.131
G2 X155.964 Y-337.856 I1.381 J0
G3 X156.814 Y-336.581 I-0.531 J1.275
G1 Y-318.89
G3 X156.572 Y-318.823 I-0.13 J0
G2 X108.041 Y-366.667 I-117.773 J70.927
G3 X108.106 Y-366.91 I0.066 J-0.112
G1 X156.494
G3 X156.814 Y-366.59 I0 J0.319
G1 Y-336.581
G2 X157.664 Y-335.306 I1.381 J0
G3 X158.514 Y-334.031 I-0.531 J1.275
G1 Y-312.349
X158.507 Y-312.313
X158.487 Y-312.283
X158.458 Y-312.261
X158.423 Y-312.253
X158.387 Y-312.257
X158.355 Y-312.275
X158.332 Y-312.303
G2 X101.317 Y-368.428 I-119.533 J64.408
G1 X101.288 Y-368.45
X101.27 Y-368.482
X101.265 Y-368.518
X101.274 Y-368.553
X101.295 Y-368.583
X101.326 Y-368.603
X101.361 Y-368.61
X158.194
G3 X158.514 Y-368.29 I0 J0.319
G1 Y-334.031
G2 X159.364 Y-332.756 I1.381 J0
G3 X160.214 Y-331.481 I-0.531 J1.275
G1 Y-305.215
X160.206 Y-305.179
X160.186 Y-305.148
X160.156 Y-305.127
X160.12 Y-305.119
X160.083 Y-305.125
X160.052 Y-305.144
X160.03 Y-305.174
G2 X93.913 Y-370.125 I-121.231 J57.279
G1 X93.883 Y-370.147
X93.863 Y-370.178
X93.857 Y-370.215
X93.864 Y-370.251
X93.885 Y-370.282
X93.917 Y-370.302
X93.953 Y-370.31
X159.894
G3 X160.214 Y-369.99 I0 J0.319
G1 Y-331.481
G2 X161.054 Y-330.221 I1.366 J0
G3 X161.895 Y-328.96 I-0.525 J1.261
G1 Y-297.155
X161.887 Y-297.118
X161.866 Y-297.087
X161.835 Y-297.066
X161.798 Y-297.059
X161.761 Y-297.066
X161.729 Y-297.088
X161.709 Y-297.119
G2 X85.451 Y-371.804 I-122.91 J49.224
G1 X85.419 Y-371.824
X85.397 Y-371.855
X85.389 Y-371.892
X85.395 Y-371.93
X85.416 Y-371.962
X85.448 Y-371.983
X85.485 Y-371.991
X161.575
G3 X161.895 Y-371.671 I0 J0.319
G1 Y-328.96
G2 X162.715 Y-327.729 I1.333 J0
G3 X163.535 Y-326.499 I-0.513 J1.231
G1 Y-287.747
X163.528 Y-287.709
X163.506 Y-287.677
X163.473 Y-287.657
X163.434 Y-287.651
X163.397 Y-287.66
X163.366 Y-287.684
X163.347 Y-287.718
G2 X75.349 Y-373.443 I-124.548 J39.822
G1 X75.319 Y-373.458
X75.295 Y-373.483
X75.282 Y-373.514
X75.281 Y-373.549
X75.292 Y-373.581
X75.313 Y-373.608
X75.343 Y-373.625
X75.376 Y-373.631
X163.216
G3 X163.535 Y-373.312 I0 J0.319
G1 Y-326.499
G2 X164.332 Y-325.304 I1.295 J0
G3 X165.129 Y-324.109 I-0.498 J1.195
G1 Y-275.699
X165.122 Y-275.665
X165.104 Y-275.636
X165.077 Y-275.615
X165.044 Y-275.605
X165.01 Y-275.607
X164.979 Y-275.622
X164.955 Y-275.647
X164.942 Y-275.678
G2 X61.576 Y-375.037 I-126.143 J27.783
G1 X61.544 Y-375.05
X61.518 Y-375.073
X61.502 Y-375.104
X61.499 Y-375.139
X61.508 Y-375.172
X61.529 Y-375.2
X61.559 Y-375.218
X61.593 Y-375.225
X164.816
G3 X165.129 Y-374.912 I0 J0.313
G1 Y-324.109
X165.123 Y-324.052 Z-5.989
X165.107 Y-323.997 Z-5.977
X165.085 Y-323.953 Z-5.945
X165.057 Y-323.914 Z-5.912
X165.009 Y-323.869 Z-5.815
X164.991 Y-323.856 Z-5.7
G0 Z5
X144.984 Y357.53
G1 Z0.075 F333.3
Z-1.2 F1000
X145.018 Y357.548 Z-1.347 F333.3
X145.109 Y357.602 Z-1.456
X145.227 Y357.687 Z-1.5
G3 X143.444 Y359.91 Z-1.656 I-0.891 J1.112
X145.227 Y357.687 Z-1.813 I0.891 J-1.112
X143.444 Y359.91 Z-1.969 I-0.891 J1.112
X145.227 Y357.687 Z-2.125 I0.891 J-1.112
X143.444 Y359.91 Z-2.282 I-0.891 J1.112
X145.227 Y357.687 Z-2.438 I0.891 J-1.112
X143.444 Y359.91 Z-2.594 I-0.891 J1.112
X145.227 Y357.687 Z-2.751 I0.891 J-1.112
X143.444 Y359.91 Z-2.907 I-0.891 J1.112
X145.227 Y357.687 Z-3.063 I0.891 J-1.112
X143.444 Y359.91 Z-3.22 I-0.891 J1.112
X145.227 Y357.687 Z-3.376 I0.891 J-1.112
X143.444 Y359.91 Z-3.532 I-0.891 J1.112
X145.227 Y357.687 Z-3.689 I0.891 J-1.112
X143.444 Y359.91 Z-3.845 I-0.892 J1.112
X145.227 Y357.687 Z-4.001 I0.892 J-1.112
X143.444 Y359.91 Z-4.158 I-0.892 J1.112
X145.227 Y357.687 Z-4.314 I0.892 J-1.112
X143.444 Y359.91 Z-4.47 I-0.892 J1.112
X145.227 Y357.687 Z-4.627 I0.892 J-1.112
X143.444 Y359.91 Z-4.783 I-0.892 J1.112
X145.227 Y357.687 Z-4.939 I0.892 J-1.112
X143.444 Y359.91 Z-5.096 I-0.892 J1.112
X145.227 Y357.687 Z-5.252 I0.892 J-1.112
X143.444 Y359.91 Z-5.408 I-0.892 J1.112
X145.227 Y357.687 Z-5.565 I0.892 J-1.112
X143.444 Y359.91 Z-5.721 I-0.892 J1.112
X145.227 Y357.687 Z-5.877 I0.892 J-1.112
X144.335 Y360.224 Z-6 I-0.892 J1.112
G1 X143.241 F1000
X143.198 Y360.216
X143.16 Y360.195
X143.131 Y360.162
X143.114 Y360.121
X143.112 Y360.078
X143.124 Y360.036
X143.15 Y360
G2 X144.691 Y358.474 I-104.35 J-106.891
G1 X144.727 Y358.449
X144.769 Y358.436
X144.812 Y358.439
X144.853 Y358.455
X144.885 Y358.484
X144.906 Y358.523
X144.914 Y358.566
Y359.904
G3 X144.594 Y360.224 I-0.319 J0
G1 X144.335
G2 X143.06 Y361.074 I0 J1.381
G3 X141.785 Y361.924 I-1.275 J-0.531
G1 X138.979
X138.935 Y361.916
X138.897 Y361.894
X138.868 Y361.861
X138.852 Y361.819
X138.85 Y361.775
X138.864 Y361.733
X138.891 Y361.698
G2 X146.389 Y354.274 I-100.091 J-108.588
G1 X146.424 Y354.248
X146.466 Y354.234
X146.51 Y354.236
X146.551 Y354.252
X146.584 Y354.281
X146.606 Y354.32
X146.614 Y354.363
Y361.604
G3 X146.294 Y361.924 I-0.319 J0
G1 X141.785
G2 X140.51 Y362.774 I0 J1.381
G3 X139.235 Y363.624 I-1.275 J-0.531
G1 X134.528
X134.483 Y363.616
X134.444 Y363.593
X134.415 Y363.559
X134.4 Y363.517
X134.399 Y363.472
X134.414 Y363.43
X134.442 Y363.395
G2 X148.086 Y349.892 I-95.643 J-110.285
G1 X148.121 Y349.865
X148.163 Y349.85
X148.208 Y349.851
X148.25 Y349.867
X148.284 Y349.896
X148.306 Y349.935
X148.314 Y349.979
Y363.304
G3 X147.994 Y363.624 I-0.319 J0
G1 X139.235
G2 X137.96 Y364.474 I0 J1.381
G3 X136.685 Y365.324 I-1.275 J-0.531
G1 X129.859
X129.819 Y365.317
X129.784 Y365.3
X129.755 Y365.272
X129.736 Y365.237
X129.729 Y365.198
X129.733 Y365.158
X129.75 Y365.122
X129.777 Y365.092
G2 X149.783 Y345.303 I-90.977 J-111.983
G1 X149.818 Y345.274
X149.86 Y345.258
X149.906
X149.948 Y345.273
X149.983 Y345.302
X150.006 Y345.341
X150.014 Y345.386
Y365.004
G3 X149.694 Y365.324 I-0.319 J0
G1 X136.685
G2 X135.41 Y366.174 I0 J1.381
G3 X134.135 Y367.024 I-1.275 J-0.531
G1 X124.937
X124.897 Y367.017
X124.861 Y366.999
X124.832 Y366.971
X124.814 Y366.935
X124.807 Y366.895
X124.813 Y366.855
X124.831 Y366.819
X124.859 Y366.79
G2 X151.481 Y340.473 I-86.059 J-113.68
G1 X151.51 Y340.445
X151.546 Y340.428
X151.586 Y340.422
X151.626 Y340.429
X151.661 Y340.448
X151.689 Y340.477
X151.707 Y340.513
X151.714 Y340.552
Y366.704
G3 X151.394 Y367.024 I-0.319 J0
G1 X134.135
G2 X132.86 Y367.874 I0 J1.381
G3 X131.585 Y368.724 I-1.275 J-0.531
G1 X119.717
X119.676 Y368.717
X119.64 Y368.698
X119.611 Y368.669
X119.593 Y368.633
X119.587 Y368.592
X119.594 Y368.552
X119.613 Y368.515
X119.642 Y368.487
G2 X153.178 Y335.36 I-80.842 J-115.377
G1 X153.206 Y335.331
X153.243 Y335.312
X153.283 Y335.305
X153.323 Y335.312
X153.36 Y335.33
X153.389 Y335.359
X153.407 Y335.395
X153.414 Y335.436
Y368.404
G3 X153.094 Y368.724 I-0.319 J0
G1 X131.585
G2 X130.31 Y369.574 I0 J1.381
G3 X129.035 Y370.424 I-1.275 J-0.531
G1 X114.136
X114.095 Y370.417
X114.058 Y370.398
X114.029 Y370.368
X114.011 Y370.33
X114.006 Y370.289
X114.014 Y370.248
X114.034 Y370.212
X114.065 Y370.184
G2 X154.875 Y329.907 I-75.266 J-117.074
G1 X154.903 Y329.877
X154.939 Y329.857
X154.98 Y329.849
X155.021 Y329.854
X155.058 Y329.872
X155.088 Y329.901
X155.107 Y329.938
X155.114 Y329.979
Y370.104
G3 X154.794 Y370.424 I-0.319 J0
G1 X129.035
G2 X127.76 Y371.274 I0 J1.381
G3 X126.485 Y372.124 I-1.275 J-0.531
G1 X108.106
G3 X108.041 Y371.881 I0 J-0.13
G2 X156.572 Y324.037 I-69.241 J-118.771
G3 X156.814 Y324.104 I0.111 J0.067
G1 Y371.804
G3 X156.494 Y372.124 I-0.319 J0
G1 X126.485
G2 X125.21 Y372.974 I0 J1.381
G3 X123.935 Y373.824 I-1.275 J-0.531
G1 X101.362
X101.326 Y373.817
X101.295 Y373.797
X101.274 Y373.767
X101.266 Y373.732
X101.271 Y373.696
X101.289 Y373.664
X101.317 Y373.642
G2 X158.332 Y317.517 I-62.518 J-120.532
G1 X158.355 Y317.489
X158.387 Y317.472
X158.423 Y317.467
X158.458 Y317.476
X158.487 Y317.497
X158.507 Y317.528
X158.514 Y317.563
Y373.504
G3 X158.194 Y373.824 I-0.319 J0
G1 X123.935
G2 X122.66 Y374.674 I0 J1.381
G3 X121.385 Y375.524 I-1.275 J-0.531
G1 X93.953
X93.917 Y375.516
X93.886 Y375.496
X93.865 Y375.465
X93.857 Y375.429
X93.864 Y375.392
X93.883 Y375.361
X93.914 Y375.339
G2 X160.03 Y310.388 I-55.114 J-122.23
G1 X160.052 Y310.359
X160.083 Y310.339
X160.12 Y310.333
X160.156 Y310.341
X160.186 Y310.362
X160.206 Y310.393
X160.214 Y310.43
Y375.204
G3 X159.894 Y375.524 I-0.319 J0
G1 X121.385
G2 X120.125 Y376.364 I0 J1.366
G3 X118.864 Y377.205 I-1.261 J-0.525
G1 X85.485
X85.448 Y377.197
X85.417 Y377.176
X85.396 Y377.144
X85.389 Y377.107
X85.397 Y377.069
X85.419 Y377.038
X85.451 Y377.018
G2 X161.709 Y302.334 I-46.652 J-123.908
G1 X161.729 Y302.302
X161.761 Y302.281
X161.798 Y302.273
X161.835 Y302.28
X161.866 Y302.301
X161.887 Y302.333
X161.895 Y302.37
Y376.885
G3 X161.575 Y377.205 I-0.319 J0
G1 X118.864
G2 X117.633 Y378.025 I0 J1.333
G3 X116.403 Y378.845 I-1.231 J-0.513
G1 X75.377
X75.343 Y378.839
X75.314 Y378.822
X75.292 Y378.795
X75.281 Y378.763
X75.283 Y378.728
X75.296 Y378.697
X75.319 Y378.672
X75.35 Y378.656
G2 X163.347 Y292.932 I-36.55 J-125.547
G1 X163.366 Y292.898
X163.397 Y292.875
X163.434 Y292.865
X163.473 Y292.871
X163.506 Y292.892
X163.528 Y292.923
X163.535 Y292.961
Y378.526
G3 X163.216 Y378.845 I-0.319 J0
G1 X116.403
G2 X115.208 Y379.642 I0 J1.295
G3 X114.013 Y380.439 I-1.195 J-0.498
G1 X61.594
X61.559 Y380.432
X61.53 Y380.414
X61.509 Y380.386
X61.5 Y380.353
X61.503 Y380.318
X61.519 Y380.287
X61.544 Y380.264
X61.577 Y380.251
G2 X164.942 Y280.893 I-22.777 J-127.141
G1 X164.955 Y280.861
X164.979 Y280.836
X165.01 Y280.822
X165.044 Y280.819
X165.077 Y280.829
X165.104 Y280.85
X165.122 Y280.879
X165.129 Y280.913
Y380.126
G3 X164.816 Y380.439 I-0.313 J0
G1 X114.013
X113.956 Y380.433 Z-5.989
X113.901 Y380.417 Z-5.977
X113.857 Y380.395 Z-5.945
X113.818 Y380.367 Z-5.912
X113.773 Y380.319 Z-5.815
X113.76 Y380.301 Z-5.7
G0 Z5
X-151.691 Y360.692
G1 Z0.075 F333.3
Z-1.2 F1000
X-151.703 Y360.655 Z-1.347 F333.3
X-151.729 Y360.553 Z-1.456
X-151.753 Y360.409 Z-1.5
G3 X-148.922 Y360.085 Z-1.656 I1.416 J-0.162
X-151.753 Y360.409 Z-1.813 I-1.416 J0.162
X-148.922 Y360.085 Z-1.969 I1.416 J-0.162
X-151.753 Y360.409 Z-2.125 I-1.416 J0.162
X-148.922 Y360.085 Z-2.282 I1.416 J-0.162
X-151.753 Y360.409 Z-2.438 I-1.416 J0.162
X-148.922 Y360.085 Z-2.594 I1.416 J-0.162
X-151.753 Y360.409 Z-2.751 I-1.416 J0.162
X-148.922 Y360.085 Z-2.907 I1.416 J-0.162
X-151.753 Y360.409 Z-3.063 I-1.416 J0.162
X-148.922 Y360.085 Z-3.22 I1.416 J-0.162
X-151.753 Y360.409 Z-3.376 I-1.416 J0.162
X-148.922 Y360.085 Z-3.532 I1.416 J-0.162
X-151.753 Y360.409 Z-3.689 I-1.416 J0.162
X-148.922 Y360.085 Z-3.845 I1.416 J-0.162
X-151.753 Y360.409 Z-4.001 I-1.416 J0.162
X-148.922 Y360.085 Z-4.158 I1.416 J-0.162
X-151.753 Y360.409 Z-4.314 I-1.416 J0.162
X-148.922 Y360.085 Z-4.47 I1.416 J-0.162
X-151.753 Y360.409 Z-4.627 I-1.416 J0.162
X-148.922 Y360.085 Z-4.783 I1.416 J-0.162
X-151.753 Y360.409 Z-4.939 I-1.416 J0.162
X-148.922 Y360.085 Z-5.096 I1.416 J-0.162
X-151.753 Y360.409 Z-5.252 I-1.416 J0.162
X-148.922 Y360.085 Z-5.408 I1.416 J-0.162
X-151.753 Y360.409 Z-5.565 I-1.416 J0.162
X-148.922 Y360.085 Z-5.721 I1.416 J-0.162
X-151.753 Y360.409 Z-5.877 I-1.416 J0.162
X-149.335 Y359.235 Z-6 I1.416 J-0.162
G2 X-148.556 Y360 I105.129 J-106.125 F1000
G1 X-148.53 Y360.036
X-148.518 Y360.078
X-148.52 Y360.122
X-148.537 Y360.162
X-148.566 Y360.195
X-148.604 Y360.216
X-148.647 Y360.224
X-150
G3 X-150.32 Y359.904 I0 J-0.319
G1 Y358.566
X-150.312 Y358.523
X-150.291 Y358.484
X-150.259 Y358.455
X-150.218 Y358.439
X-150.175 Y358.436
X-150.133 Y358.449
X-150.097 Y358.474
G2 X-149.335 Y359.235 I105.891 J-105.364
X-147.824 Y359.527 I0.974 J-0.983
G3 X-146.311 Y359.806 I0.544 J1.292
G2 X-144.297 Y361.698 I102.105 J-106.696
G1 X-144.27 Y361.733
X-144.256 Y361.775
X-144.258 Y361.819
X-144.274 Y361.861
X-144.303 Y361.894
X-144.341 Y361.916
X-144.385 Y361.924
X-151.7
G3 X-152.02 Y361.604 I0 J-0.319
G1 Y354.363
X-152.012 Y354.32
X-151.99 Y354.281
X-151.957 Y354.252
X-151.916 Y354.236
X-151.872 Y354.234
X-151.83 Y354.248
X-151.795 Y354.274
G2 X-146.311 Y359.806 I107.589 J-101.164
X-144.796 Y360.072 I0.956 J-0.999
G3 X-143.278 Y360.325 I0.566 J1.282
G2 X-139.848 Y363.395 I99.072 J-107.215
G1 X-139.82 Y363.43
X-139.805 Y363.472
X-139.806 Y363.517
X-139.821 Y363.559
X-139.85 Y363.594
X-139.889 Y363.616
X-139.934 Y363.624
X-153.4
G3 X-153.72 Y363.304 I0 J-0.319
G1 Y349.979
X-153.712 Y349.935
X-153.69 Y349.896
X-153.656 Y349.867
X-153.614 Y349.851
X-153.569 Y349.85
X-153.527 Y349.865
X-153.492 Y349.892
G2 X-143.278 Y360.325 I109.286 J-96.783
X-141.758 Y360.564 I0.939 J-1.016
G3 X-140.236 Y360.79 I0.589 J1.272
G2 X-135.183 Y365.092 I96.031 J-107.68
G1 X-135.156 Y365.122
X-135.139 Y365.158
X-135.135 Y365.198
X-135.142 Y365.237
X-135.161 Y365.272
X-135.19 Y365.3
X-135.225 Y365.317
X-135.265 Y365.324
X-155.1
G3 X-155.42 Y365.004 I0 J-0.319
G1 Y345.386
X-155.412 Y345.341
X-155.389 Y345.302
X-155.354 Y345.273
X-155.312 Y345.258
X-155.266
X-155.224 Y345.274
X-155.189 Y345.303
G2 X-140.236 Y360.79 I110.984 J-92.193
X-138.713 Y361.002 I0.921 J-1.032
G3 X-137.187 Y361.201 I0.611 J1.262
G2 X-130.265 Y366.79 I92.981 J-108.092
G1 X-130.237 Y366.819
X-130.219 Y366.855
X-130.213 Y366.895
X-130.22 Y366.935
X-130.239 Y366.971
X-130.267 Y366.999
X-130.303 Y367.017
X-130.343 Y367.024
X-156.8
G3 X-157.12 Y366.704 I0 J-0.319
G1 Y340.552
X-157.113 Y340.513
X-157.095 Y340.477
X-157.067 Y340.448
X-157.032 Y340.429
X-156.992 Y340.422
X-156.952 Y340.428
X-156.916 Y340.445
X-156.887 Y340.473
G2 X-137.187 Y361.201 I112.681 J-87.363
X-135.659 Y361.387 I0.902 J-1.049
G3 X-134.13 Y361.558 I0.634 J1.251
G2 X-125.048 Y368.487 I89.924 J-108.448
G1 X-125.019 Y368.515
X-125 Y368.552
X-124.993 Y368.592
X-124.999 Y368.633
X-125.017 Y368.669
X-125.046 Y368.698
X-125.082 Y368.717
X-125.123 Y368.724
X-158.5
G3 X-158.82 Y368.404 I0 J-0.319
G1 Y335.436
X-158.813 Y335.395
X-158.795 Y335.359
X-158.766 Y335.33
X-158.729 Y335.312
X-158.689 Y335.305
X-158.649 Y335.312
X-158.612 Y335.331
X-158.584 Y335.36
G2 X-134.13 Y361.558 I114.378 J-82.25
X-132.599 Y361.715 I0.883 J-1.065
G3 X-131.067 Y361.859 I0.657 J1.239
G2 X-119.471 Y370.184 I86.861 J-108.749
G1 X-119.44 Y370.212
X-119.42 Y370.248
X-119.412 Y370.289
X-119.417 Y370.33
X-119.435 Y370.368
X-119.464 Y370.398
X-119.501 Y370.417
X-119.542 Y370.424
X-160.2
G3 X-160.52 Y370.104 I0 J-0.319
G1 Y329.979
X-160.513 Y329.938
X-160.494 Y329.901
X-160.464 Y329.872
X-160.427 Y329.854
X-160.386 Y329.849
X-160.345 Y329.857
X-160.309 Y329.877
X-160.281 Y329.907
G2 X-131.067 Y361.859 I116.075 J-76.797
X-129.534 Y361.988 I0.863 J-1.081
G3 X-127.999 Y362.103 I0.679 J1.227
G2 X-113.447 Y371.881 I83.793 J-108.994
G3 X-113.512 Y372.124 I-0.066 J0.112
G1 X-161.9
G3 X-162.22 Y371.804 I0 J-0.319
G1 Y324.104
G3 X-161.978 Y324.037 I0.13 J0
G2 X-127.999 Y362.103 I117.772 J-70.927
X-126.463 Y362.204 I0.843 J-1.097
G3 X-124.927 Y362.291 I0.702 J1.215
G2 X-106.723 Y373.642 I80.721 J-109.181
G1 X-106.695 Y373.664
X-106.677 Y373.696
X-106.672 Y373.732
X-106.68 Y373.767
X-106.701 Y373.797
X-106.732 Y373.817
X-106.768 Y373.824
X-163.6
G3 X-163.92 Y373.504 I0 J-0.319
G1 Y317.563
X-163.913 Y317.528
X-163.893 Y317.497
X-163.864 Y317.476
X-163.829 Y317.467
X-163.793 Y317.472
X-163.761 Y317.489
X-163.738 Y317.517
G2 X-124.927 Y362.291 I119.533 J-64.408
X-123.389 Y362.363 I0.822 J-1.112
G3 X-121.851 Y362.42 I0.725 J1.202
G2 X-99.32 Y375.339 I77.646 J-109.31
G1 X-99.289 Y375.361
X-99.27 Y375.392
X-99.263 Y375.429
X-99.271 Y375.465
X-99.292 Y375.496
X-99.323 Y375.516
X-99.359 Y375.524
X-165.3
G3 X-165.62 Y375.204 I0 J-0.319
G1 Y310.43
X-165.612 Y310.393
X-165.592 Y310.362
X-165.562 Y310.341
X-165.526 Y310.333
X-165.489 Y310.339
X-165.458 Y310.359
X-165.436 Y310.388
G2 X-121.851 Y362.42 I121.23 J-57.279
X-120.33 Y362.462 I0.792 J-1.115
G3 X-118.808 Y362.49 I0.74 J1.174
G2 X-90.857 Y377.018 I74.603 J-109.381
G1 X-90.825 Y377.038
X-90.803 Y377.069
X-90.795 Y377.107
X-90.802 Y377.144
X-90.823 Y377.176
X-90.854 Y377.197
X-90.891 Y377.205
X-166.981
G3 X-167.301 Y376.885 I0 J-0.319
G1 Y302.37
X-167.293 Y302.333
X-167.272 Y302.301
X-167.241 Y302.28
X-167.204 Y302.273
X-167.167 Y302.281
X-167.135 Y302.302
X-167.115 Y302.334
G2 X-118.808 Y362.49 I122.909 J-49.224
X-117.323 Y362.503 I0.752 J-1.103
G3 X-115.838 Y362.502 I0.743 J1.132
G2 X-80.756 Y378.656 I71.632 J-109.393
G1 X-80.725 Y378.672
X-80.702 Y378.697
X-80.689 Y378.728
X-80.687 Y378.763
X-80.698 Y378.795
X-80.719 Y378.822
X-80.749 Y378.839
X-80.783 Y378.845
X-168.622
G3 X-168.941 Y378.526 I0 J-0.319
G1 Y292.961
X-168.934 Y292.923
X-168.912 Y292.892
X-168.879 Y292.871
X-168.84 Y292.865
X-168.803 Y292.875
X-168.772 Y292.898
X-168.753 Y292.932
G2 X-115.838 Y362.502 I124.547 J-39.822
X-114.396 Y362.488 I0.71 J-1.085
G3 X-112.954 Y362.46 I0.742 J1.085
G2 X-66.983 Y380.251 I68.748 J-109.35
G1 X-66.95 Y380.264
X-66.925 Y380.287
X-66.909 Y380.318
X-66.905 Y380.353
X-66.915 Y380.386
X-66.936 Y380.414
X-66.965 Y380.432
X-67 Y380.439
X-170.222
G3 X-170.535 Y380.126 I0 J-0.313
G1 Y280.913
X-170.528 Y280.879
X-170.511 Y280.85
X-170.483 Y280.829
X-170.45 Y280.819
X-170.416 Y280.822
X-170.385 Y280.836
X-170.361 Y280.861
X-170.348 Y280.893
G2 X-112.954 Y362.46 I126.142 J-27.783
X-111.608 Y362.422 I0.644 J-1.024
G3 X-110.263 Y362.372 I0.711 J0.999
G2 X-44.205 Y380.788 I66.057 J-109.262
G1 X38.8
G2 X166.478 Y253.11 I0 J-127.678
G1 Y-247.895
G2 X38.8 Y-375.574 I-127.679 J0
G1 X-44.206
G2 X-171.884 Y-247.895 I0 J127.679
G1 Y253.11
G2 X-110.263 Y362.372 I127.678 J0
X-108.879 Y362.308 I0.645 J-1.066
G3 X-107.495 Y362.232 I0.75 J1.017
G2 X-44.205 Y379.257 I63.289 J-109.122
G1 X38.8
G2 X164.947 Y253.11 I0 J-126.147
G1 Y-247.895
G2 X38.8 Y-374.043 I-126.148 J0
G1 X-44.206
G2 X-170.353 Y-247.895 I0 J126.148
G1 Y253.11
G2 X-107.495 Y362.232 I126.147 J0
X-105.959 Y362.133 I0.694 J-1.197
G3 X-104.423 Y362.018 I0.855 J1.115
G2 X-44.205 Y377.557 I60.217 J-108.908
G1 X38.8
G2 X163.247 Y253.11 I0 J-124.447
G1 Y-247.895
G2 X38.8 Y-372.343 I-124.448 J0
G1 X-44.206
G2 X-168.653 Y-247.895 I0 J124.447
G1 Y253.11
G2 X-104.423 Y362.018 I124.447 J0
X-102.889 Y361.887 I0.67 J-1.211
G3 X-101.356 Y361.741 I0.878 J1.097
G2 X-44.205 Y375.857 I57.15 J-108.631
G1 X38.8
G2 X161.547 Y253.11 I0 J-122.747
G1 Y-247.895
G2 X38.8 Y-370.643 I-122.748 J0
G1 X-44.206
G2 X-166.953 Y-247.895 I0 J122.748
G1 Y253.11
G2 X-101.356 Y361.741 I122.747 J0
X-99.78 Y361.573 I0.663 J-1.261
G3 X-98.205 Y361.389 I0.928 J1.111
G2 X-44.205 Y374.107 I54 J-108.279
G1 X38.799
G2 X159.797 Y253.11 I0 J-120.997
G1 Y-247.895
G2 X38.8 Y-368.893 I-120.998 J0
G1 X-44.206
G2 X-165.203 Y-247.895 I0 J120.998
G1 Y253.11
G2 X-98.205 Y361.389 I120.997 J0
G1 X-98.157 Y361.419 Z-5.989
X-98.115 Y361.458 Z-5.977
X-98.086 Y361.497 Z-5.945
X-98.063 Y361.54 Z-5.912
X-98.044 Y361.602 Z-5.815
X-98.041 Y361.625 Z-5.7
G0 Z5
X-167.535 Y-354.431
G1 Z0.075 F333.3
Z-1 F1000
Z-5.7 F333.3
G18 G3 X-167.835 Z-6 I-0.3 K0
G17 G2 X-168.21 Y-354.362 I0 J1.058 F1000
G1 X-170.633 Y-353.442
G3 X-172.067 Y-354.431 I-0.376 J-0.989
G1 Y-376.437
G3 X-171.747 Y-376.757 I0.319 J0
G1 X166.341
G3 X166.661 Y-376.437 I0 J0.319
G1 Y381.651
G3 X166.341 Y381.971 I-0.319 J0
G1 X-149.742
X-171.747
G3 X-172.067 Y381.651 I0 J-0.319
G1 Y-354.431
G2 X-172.832 Y-355.58 I-1.244 J0
G3 X-173.598 Y-356.728 I0.479 J-1.148
G1 Y-377.969
G3 X-173.279 Y-378.288 I0.319 J0
G1 X167.873
G3 X168.192 Y-377.969 I0 J0.319
G1 Y383.183
G3 X167.873 Y383.502 I-0.319 J0
G1 X-173.279
G3 X-173.598 Y383.183 I0 J-0.319
G1 Y-356.728
G2 X-174.426 Y-357.969 I-1.345 J0
G3 X-175.253 Y-359.211 I0.517 J-1.241
G1 Y-378.893
G3 X-174.203 Y-379.943 I1.05 J0
G1 X168.797
G3 X169.847 Y-378.893 I0 J1.05
G1 Y253.11
Y384.107
G3 X168.797 Y385.157 I-1.05 J0
G1 X-174.203
G3 X-175.253 Y384.107 I0 J-1.05
G1 Y-359.211
G2 X-176.103 Y-360.486 I-1.381 J0
G3 X-176.953 Y-361.761 I0.531 J-1.275
G1 Y-378.893
G3 X-174.203 Y-381.643 I2.75 J0
G1 X168.797
G3 X171.547 Y-378.893 I0 J2.75
G1 Y384.107
G3 X168.797 Y386.857 I-2.75 J0
G1 X-174.203
G3 X-176.953 Y384.107 I0 J-2.75
G1 Y-247.895
Y-361.761
G2 X-177.828 Y-363.073 I-1.422 J0
G3 X-178.703 Y-364.386 I0.547 J-1.313
G1 Y-378.893
G3 X-174.203 Y-383.393 I4.5 J0
G1 X168.797
G3 X173.297 Y-378.893 I0 J4.5
G1 Y384.107
G3 X168.797 Y388.607 I-4.5 J0
G1 X-174.203
G3 X-178.703 Y384.107 I0 J-4.5
G1 Y-364.386
X-178.696 Y-364.431
X-178.676 Y-364.472
X-178.644 Y-364.505
X-178.603 Y-364.527
X-178.558 Y-364.536
X-178.513 Y-364.53
X-176.839 Y-364.062
X-148.177 Y-353.796
X-147.803 Y-353.695
X-147.775 Y-353.681
X-147.754 Y-353.658
X-147.744 Y-353.629
X-147.746 Y-353.598
X-147.76 Y-353.57
G3 X-150.029 Y-355.293 Z-6.156 I-1.135 J-0.862 F333.3
X-147.76 Y-353.57 Z-6.313 I1.135 J0.862
X-150.029 Y-355.293 Z-6.469 I-1.135 J-0.862
X-147.76 Y-353.57 Z-6.625 I1.135 J0.862
X-150.029 Y-355.293 Z-6.782 I-1.135 J-0.862
X-147.76 Y-353.57 Z-6.938 I1.135 J0.862
X-150.029 Y-355.293 Z-7.094 I-1.135 J-0.862
X-147.76 Y-353.57 Z-7.251 I1.135 J0.862
X-150.029 Y-355.293 Z-7.407 I-1.135 J-0.862
X-147.76 Y-353.57 Z-7.563 I1.135 J0.862
X-150.029 Y-355.293 Z-7.72 I-1.135 J-0.862
X-147.76 Y-353.57 Z-7.876 I1.135 J0.862
X-150.32 Y-354.431 Z-8 I-1.135 J-0.862
G1 Y-354.69 F1000
G3 X-150 Y-355.01 I0.319 J0
G1 X-148.647
X-148.604 Y-355.002
X-148.565 Y-354.981
X-148.536 Y-354.948
X-148.52 Y-354.907
X-148.518 Y-354.864
X-148.53 Y-354.822
X-148.556 Y-354.786
G2 X-150.097 Y-353.26 I104.351 J106.891
G1 X-150.133 Y-353.234
X-150.175 Y-353.222
X-150.218 Y-353.224
X-150.259 Y-353.241
X-150.291 Y-353.27
X-150.312 Y-353.308
X-150.32 Y-353.351
Y-354.431
G2 X-151.012 Y-355.479 I-1.139 J0
G3 X-150.761 Y-356.71 I0.251 J-0.59
G1 X-144.385
X-144.341 Y-356.702
X-144.302 Y-356.68
X-144.273 Y-356.647
X-144.257 Y-356.605
X-144.256 Y-356.561
X-144.27 Y-356.519
X-144.297 Y-356.484
G2 X-151.795 Y-349.06 I100.091 J108.588
G1 X-151.83 Y-349.033
X-151.872 Y-349.02
X-151.916 Y-349.022
X-151.957 Y-349.038
X-151.99 Y-349.067
X-152.012 Y-349.105
X-152.02 Y-349.149
Y-356.39
G3 X-151.7 Y-356.71 I0.319 J0
G1 X-150.761
G2 X-149.486 Y-357.56 I0 J-1.381
G3 X-148.211 Y-358.41 I1.275 J0.531
G1 X-139.933
X-139.889 Y-358.402
X-139.85 Y-358.379
X-139.821 Y-358.345
X-139.805 Y-358.303
Y-358.258
X-139.82 Y-358.216
X-139.848 Y-358.181
G2 X-153.492 Y-344.678 I95.643 J110.286
G1 X-153.527 Y-344.65
X-153.569 Y-344.636
X-153.614 Y-344.637
X-153.656 Y-344.652
X-153.69 Y-344.682
X-153.712 Y-344.72
X-153.72 Y-344.764
Y-358.09
G3 X-153.4 Y-358.41 I0.319 J0
G1 X-148.211
G2 X-146.936 Y-359.26 I0 J-1.381
G3 X-145.661 Y-360.11 I1.275 J0.531
G1 X-135.264
X-135.225 Y-360.103
X-135.189 Y-360.086
X-135.161 Y-360.058
X-135.142 Y-360.023
X-135.134 Y-359.984
X-135.139 Y-359.944
X-135.156 Y-359.908
X-135.182 Y-359.878
G2 X-155.189 Y-340.089 I90.977 J111.983
G1 X-155.224 Y-340.059
X-155.266 Y-340.044
X-155.312 Y-340.043
X-155.354 Y-340.059
X-155.389 Y-340.088
X-155.412 Y-340.127
X-155.42 Y-340.172
Y-359.79
G3 X-155.1 Y-360.11 I0.319 J0
G1 X-145.661
G2 X-144.386 Y-360.96 I0 J-1.381
