(CamperGaskastenRahmen)
(T3  D=3 CR=0 - ZMIN=-27 - flat end mill)
G90 G94
G17
G21

(2D Contour1)
T3
S5000 M3
G54
M8
G0 X355.5 Y353.25
Z16.5
Z6.5
G1 Z4.5 F333.3
Z-0.5
Y495 F1000
G3 X345 Y505.5 I-10.5 J0
G1 X51
Y24.5
X345
G3 X355.5 Y35 I0 J10.5
G1 Y353.25
Z-2.5 F333.3
Y495 F1000
G3 X345 Y505.5 I-10.5 J0
G1 X51
Y24.5
X345
G3 X355.5 Y35 I0 J10.5
G1 Y353.25
Z-4.5 F333.3
Y495 F1000
G3 X345 Y505.5 I-10.5 J0
G1 X51
Y24.5
X345
G3 X355.5 Y35 I0 J10.5
G1 Y353.25
Z-6.5 F333.3
Y495 F1000
G3 X345 Y505.5 I-10.5 J0
G1 X51
Y24.5
X345
G3 X355.5 Y35 I0 J10.5
G1 Y353.25
Z-8.5 F333.3
Y495 F1000
G3 X345 Y505.5 I-10.5 J0
G1 X51
Y24.5
X345
G3 X355.5 Y35 I0 J10.5
G1 Y353.25
Z-10.5 F333.3
Y495 F1000
G3 X345 Y505.5 I-10.5 J0
G1 X51
Y24.5
X345
G3 X355.5 Y35 I0 J10.5
G1 Y353.25
Z-12.5 F333.3
Y495 F1000
G3 X345 Y505.5 I-10.5 J0
G1 X51
Y24.5
X345
G3 X355.5 Y35 I0 J10.5
G1 Y353.25
Z-14.5 F333.3
Y495 F1000
G3 X345 Y505.5 I-10.5 J0
G1 X51
Y24.5
X345
G3 X355.5 Y35 I0 J10.5
G1 Y353.25
Z-16.5 F333.3
Y495 F1000
G3 X345 Y505.5 I-10.5 J0
G1 X51
Y24.5
X345
G3 X355.5 Y35 I0 J10.5
G1 Y353.25
Z-18.5 F333.3
Y495 F1000
G3 X345 Y505.5 I-10.5 J0
G1 X51
Y24.5
X345
G3 X355.5 Y35 I0 J10.5
G1 Y353.25
Z-20.5 F333.3
Y495 F1000
G3 X345 Y505.5 I-10.5 J0
G1 X51
Y24.5
X345
G3 X355.5 Y35 I0 J10.5
G1 Y353.25
Z-22.5 F333.3
Y495 F1000
G3 X345 Y505.5 I-10.5 J0
G1 X51
Y24.5
X345
G3 X355.5 Y35 I0 J10.5
G1 Y353.25
Z-24.5 F333.3
Y495 F1000
G3 X345 Y505.5 I-10.5 J0
G1 X51
Y24.5
X345
G3 X355.5 Y35 I0 J10.5
G1 Y353.25
Z-26.5 F333.3
Y495 F1000
G3 X345 Y505.5 I-10.5 J0
G1 X51
Y24.5
X345
G3 X355.5 Y35 I0 J10.5
G1 Y353.25
Z-27 F333.3
Y495 F1000
G3 X345 Y505.5 I-10.5 J0
G1 X51
Y24.5
X345
G3 X355.5 Y35 I0 J10.5
G1 Y353.25
G0 Z16.5

(Adaptive2)
X-0.294 Y22.855
Z16.5
Z6.5
Z0.2
G1 Z-0.1 F1000
X-0.292 Y22.863 Z-0.167
X-0.287 Y22.884 Z-0.23
X-0.278 Y22.919 Z-0.287
X-0.266 Y22.965 Z-0.335
X-0.252 Y23.02 Z-0.37
X-0.236 Y23.081 Z-0.392
X-0.22 Y23.146 Z-0.4
G3 X0.015 Y24.779 I-7.419 J1.9
G1 Y24.935
X0.153 Y25.544
X0.186 Y25.614
X0.241 Y25.754
X0.291 Y25.919
X0.336 Y26.125
X0.377 Y26.432
X0.406 Y26.969
X0.389 Y27.593
X0.336 Y28.215
X0.265 Y28.835
X0.182 Y29.453
X0.093 Y30.071
X0.01 Y30.689
X-0.052 Y31.31
X-0.102 Y31.932
X-0.144 Y32.554
X-0.182 Y33.177
X-0.218 Y33.8
X-0.246 Y34.423
X-0.263 Y35.047
X-0.272 Y35.671
X-0.278 Y36.295
X-0.281 Y36.919
X-0.284 Y38.167
X-0.285 Y41.91
Y74.98
Y125.519
Y176.059
Y226.598
Y277.138
Y327.677
Y378.217
Y428.757
Y479.296
Y493.647
X-0.282 Y494.271
X-0.267 Y494.895
X-0.245 Y495.518
X-0.218 Y496.141
X-0.188 Y496.765
X-0.158 Y497.388
X-0.118 Y498.011
X-0.054 Y498.631
X0.024 Y499.25
X0.11 Y499.868
X0.202 Y500.485
X0.295 Y501.102
X0.401 Y501.717
X0.53 Y502.328
X0.673 Y502.935
X0.824 Y503.54
X0.979 Y504.145
X1.137 Y504.748
X1.309 Y505.348
X1.502 Y505.941
X1.709 Y506.53
X1.922 Y507.117
X2.14 Y507.701
X2.361 Y508.285
X2.596 Y508.863
X2.852 Y509.432
X3.12 Y509.995
X3.394 Y510.556
X3.672 Y511.114
X3.952 Y511.672
X4.249 Y512.221
X4.565 Y512.759
X4.89 Y513.291
X5.222 Y513.82
X5.557 Y514.346
X5.894 Y514.871
X6.249 Y515.384
X6.62 Y515.886
X7 Y516.381
X7.386 Y516.871
X7.774 Y517.36
X8.164 Y517.846
X8.573 Y518.318
X8.995 Y518.778
X9.425 Y519.229
X9.86 Y519.677
X10.298 Y520.121
X10.737 Y520.564
X11.194 Y520.989
X11.663 Y521.401
X12.139 Y521.804
X12.619 Y522.203
X13.101 Y522.6
X13.584 Y522.995
X14.084 Y523.367
X14.594 Y523.726
X15.11 Y524.077
X15.629 Y524.424
X16.15 Y524.767
X16.673 Y525.108
X17.211 Y525.424
X17.756 Y525.727
X18.306 Y526.022
X18.859 Y526.312
X19.413 Y526.599
X19.969 Y526.88
X20.538 Y527.138
X21.112 Y527.382
X21.69 Y527.617
X22.27 Y527.847
X22.851 Y528.074
X23.435 Y528.294
X24.028 Y528.49
X24.625 Y528.671
X25.224 Y528.844
X25.825 Y529.012
X26.427 Y529.177
X27.031 Y529.332
X27.641 Y529.463
X28.254 Y529.58
X28.868 Y529.689
X29.483 Y529.793
X30.099 Y529.895
X30.717 Y529.983
X31.337 Y530.048
X31.959 Y530.1
X32.582 Y530.144
X33.204 Y530.183
X33.827 Y530.219
X34.45 Y530.247
X35.074 Y530.263
X35.698 Y530.272
X36.322 Y530.278
X36.946 Y530.281
X38.194 Y530.284
X41.937 Y530.285
X65.023
X115.563
X166.103
X216.642
X267.182
X317.721
X343.927
X344.551 Y530.276
X345.175 Y530.257
X345.798 Y530.233
X346.421 Y530.205
X347.045 Y530.174
X347.668 Y530.143
X348.29 Y530.091
X348.909 Y530.02
X349.528 Y529.938
X350.145 Y529.849
X350.763 Y529.756
X351.379 Y529.662
X351.992 Y529.543
X352.601 Y529.407
X353.207 Y529.26
X353.812 Y529.107
X354.416 Y528.95
X355.019 Y528.791
X355.616 Y528.608
X356.206 Y528.407
X356.794 Y528.196
X357.379 Y527.98
X357.963 Y527.761
X358.547 Y527.54
X359.119 Y527.292
X359.685 Y527.03
X360.247 Y526.758
X360.807 Y526.482
X361.365 Y526.203
X361.921 Y525.92
X362.464 Y525.612
X362.999 Y525.291
X363.529 Y524.962
X364.056 Y524.628
X364.582 Y524.292
X365.104 Y523.95
X365.611 Y523.587
X366.109 Y523.211
X366.601 Y522.828
X367.091 Y522.441
X367.578 Y522.051
X368.06 Y521.655
X368.525 Y521.24
X368.981 Y520.813
X369.43 Y520.38
X369.876 Y519.944
X370.32 Y519.505
X370.756 Y519.059
X371.174 Y518.596
X371.582 Y518.124
X371.984 Y517.646
X372.381 Y517.165
X372.777 Y516.683
X373.162 Y516.192
X373.528 Y515.687
X373.884 Y515.174
X374.233 Y514.657
X374.578 Y514.137
X374.921 Y513.616
X375.25 Y513.086
X375.561 Y512.545
X375.86 Y511.997
X376.152 Y511.446
X376.441 Y510.893
X376.727 Y510.338
X376.997 Y509.776
X377.248 Y509.205
X377.488 Y508.628
X377.72 Y508.05
X377.949 Y507.469
X378.176 Y506.888
X378.384 Y506.299
X378.572 Y505.705
X378.749 Y505.106
X378.92 Y504.506
X379.086 Y503.905
X379.251 Y503.303
X379.393 Y502.696
X379.517 Y502.084
X379.63 Y501.47
X379.736 Y500.856
X379.839 Y500.24
X379.939 Y499.624
X380.016 Y499.005
X380.073 Y498.384
X380.121 Y497.762
X380.162 Y497.139
X380.199 Y496.516
X380.235 Y495.893
X380.256 Y495.27
X380.268 Y494.646
X380.275 Y494.022
X380.279 Y493.398
X380.283 Y492.15
X380.285 Y489.654
Y476.552
Y426.012
Y375.472
Y324.933
Y274.393
Y223.854
Y173.314
Y122.774
Y72.235
Y36.046
X380.276 Y35.422
X380.256 Y34.799
X380.232 Y34.175
X380.203 Y33.552
X380.173 Y32.929
X380.142 Y32.305
X380.089 Y31.684
X380.017 Y31.064
X379.934 Y30.446
X379.845 Y29.828
X379.752 Y29.211
X379.658 Y28.594
X379.538 Y27.982
X379.401 Y27.373
X379.254 Y26.767
X379.1 Y26.162
X378.943 Y25.558
X378.785 Y24.955
X378.599 Y24.359
X378.398 Y23.768
X378.187 Y23.181
X377.971 Y22.596
X377.752 Y22.012
X377.529 Y21.429
X377.281 Y20.856
X377.018 Y20.29
X376.746 Y19.729
X376.47 Y19.169
X376.191 Y18.612
X375.906 Y18.056
X375.598 Y17.513
X375.277 Y16.979
X374.948 Y16.449
X374.614 Y15.921
X374.278 Y15.396
X373.935 Y14.874
X373.571 Y14.368
X373.195 Y13.87
X372.811 Y13.378
X372.424 Y12.888
X372.034 Y12.401
X371.637 Y11.92
X371.221 Y11.455
X370.794 Y11
X370.361 Y10.551
X369.925 Y10.105
X369.486 Y9.661
X369.039 Y9.226
X368.576 Y8.808
X368.103 Y8.401
X367.625 Y7.999
X367.144 Y7.602
X366.662 Y7.206
X366.17 Y6.822
X365.665 Y6.456
X365.152 Y6.101
X364.634 Y5.753
X364.114 Y5.408
X363.593 Y5.065
X363.063 Y4.736
X362.521 Y4.426
X361.973 Y4.128
X361.422 Y3.835
X360.869 Y3.547
X360.314 Y3.261
X359.751 Y2.991
X359.18 Y2.741
X358.604 Y2.502
X358.025 Y2.27
X357.444 Y2.041
X356.863 Y1.814
X356.274 Y1.608
X355.679 Y1.42
X355.081 Y1.243
X354.48 Y1.073
X353.879 Y0.906
X353.277 Y0.742
X352.669 Y0.601
X352.058 Y0.477
X351.444 Y0.365
X350.829 Y0.259
X350.214 Y0.156
X349.598 Y0.056
X348.978 Y-0.019
X348.357 Y-0.076
X347.735 Y-0.123
X347.112 Y-0.164
X346.489 Y-0.201
X345.866 Y-0.236
X345.243 Y-0.257
X344.619 Y-0.269
X343.995 Y-0.276
X343.371 Y-0.28
X342.123 Y-0.283
X339.628 Y-0.285
X336.508
X285.968
X235.429
X184.889
X134.35
X83.81
X36.39
X35.766 Y-0.283
X35.142 Y-0.268
X34.519 Y-0.246
X33.895 Y-0.219
X33.272 Y-0.19
X32.649 Y-0.159
X32.026 Y-0.122
X31.405 Y-0.059
X30.786 Y0.019
X30.168 Y0.105
X29.551 Y0.196
X28.934 Y0.29
X28.319 Y0.394
X27.708 Y0.522
X27.101 Y0.664
X26.495 Y0.815
X25.891 Y0.97
X25.287 Y1.128
X24.687 Y1.298
X24.094 Y1.491
X23.505 Y1.696
X22.918 Y1.91
X22.333 Y2.127
X21.75 Y2.348
X21.171 Y2.582
X20.602 Y2.837
X20.038 Y3.104
X19.477 Y3.378
X18.919 Y3.656
X18.361 Y3.936
X17.812 Y4.231
X17.273 Y4.546
X16.74 Y4.871
X16.212 Y5.202
X15.685 Y5.537
X15.16 Y5.874
X14.646 Y6.228
X14.144 Y6.598
X13.648 Y6.977
X13.158 Y7.363
X12.669 Y7.751
X12.182 Y8.141
X11.709 Y8.548
X11.25 Y8.97
X10.797 Y9.4
X10.35 Y9.835
X9.905 Y10.272
X9.462 Y10.711
X9.036 Y11.167
X8.624 Y11.636
X8.219 Y12.111
X7.82 Y12.59
X7.424 Y13.072
X7.029 Y13.555
X6.655 Y14.055
X6.295 Y14.564
X5.944 Y15.08
X5.597 Y15.599
X5.253 Y16.12
X4.911 Y16.642
X4.594 Y17.179
X4.29 Y17.724
X3.995 Y18.274
X3.705 Y18.826
X3.418 Y19.38
X3.135 Y19.936
X2.876 Y20.504
X2.632 Y21.078
X2.397 Y21.656
X2.166 Y22.236
X1.939 Y22.817
X1.718 Y23.4
X1.523 Y23.993
X1.482 Y24.615
X1.507 Y25.239
X1.544 Y25.862
X1.566 Y26.485
X1.565 Y27.109
X1.539 Y27.732
X1.492 Y28.355
X1.428 Y28.975
X1.28 Y30.214
X1.213 Y30.835
X1.155 Y31.456
X1.105 Y32.078
X1.06 Y32.7
X1.02 Y33.323
X0.988 Y33.946
X0.964 Y34.57
X0.947 Y35.193
X0.936 Y35.817
X0.928 Y36.441
X0.924 Y37.065
X0.92 Y37.689
X0.917 Y38.937
X0.915 Y41.432
Y82.613
Y133.152
Y183.692
Y234.232
Y284.771
Y335.311
Y385.85
Y436.39
Y486.93
Y492.545
X0.916 Y493.169
X0.92 Y493.793
X0.932 Y494.417
X0.949 Y495.04
X0.971 Y495.664
X0.997 Y496.287
X1.027 Y496.911
X1.069 Y497.533
X1.125 Y498.155
X1.194 Y498.775
X1.272 Y499.394
X1.356 Y500.012
X1.449 Y500.629
X1.558 Y501.243
X1.681 Y501.855
X1.816 Y502.464
X1.959 Y503.071
X2.11 Y503.677
X2.271 Y504.28
X2.447 Y504.878
X2.637 Y505.473
X2.838 Y506.064
X3.046 Y506.652
X3.261 Y507.237
X3.489 Y507.818
X3.73 Y508.393
X3.985 Y508.963
X4.248 Y509.529
X4.518 Y510.091
X4.796 Y510.65
X5.087 Y511.202
X5.392 Y511.746
X5.707 Y512.285
X6.03 Y512.819
X6.359 Y513.349
X6.697 Y513.873
X7.048 Y514.389
X7.411 Y514.897
X7.783 Y515.398
X8.162 Y515.893
X8.546 Y516.385
X8.94 Y516.869
X9.346 Y517.343
X9.763 Y517.807
X10.188 Y518.264
X10.618 Y518.716
X11.054 Y519.162
X11.499 Y519.599
X11.956 Y520.024
X12.422 Y520.44
X12.893 Y520.848
X13.37 Y521.251
X13.852 Y521.647
X14.344 Y522.031
X14.845 Y522.403
X15.353 Y522.765
X15.866 Y523.12
X16.383 Y523.469
X16.906 Y523.809
X17.438 Y524.135
X17.977 Y524.45
X18.522 Y524.754
X19.07 Y525.052
X19.622 Y525.343
X20.18 Y525.622
X20.744 Y525.887
X21.315 Y526.14
X21.889 Y526.384
X22.467 Y526.621
X23.047 Y526.85
X23.633 Y527.065
X24.223 Y527.265
X24.818 Y527.454
X25.416 Y527.634
X26.015 Y527.807
X26.617 Y527.97
X27.224 Y528.118
X27.833 Y528.252
X28.445 Y528.374
X29.058 Y528.489
X29.673 Y528.596
X30.29 Y528.691
X30.908 Y528.77
X31.529 Y528.836
X32.15 Y528.892
X32.772 Y528.94
X33.395 Y528.981
X34.018 Y529.013
X34.642 Y529.037
X35.265 Y529.053
X35.889 Y529.065
X36.513 Y529.072
X37.137 Y529.077
X37.761 Y529.08
X39.009 Y529.083
X41.505 Y529.085
X74.574
X125.113
X175.653
X226.192
X276.732
X327.272
X342.87
X343.494 Y529.082
X344.118 Y529.074
X344.742 Y529.06
X345.365 Y529.04
X345.989 Y529.016
X346.612 Y528.989
X347.235 Y528.953
X347.857 Y528.903
X348.478 Y528.84
X349.098 Y528.766
X349.716 Y528.685
X350.334 Y528.597
X350.95 Y528.497
X351.563 Y528.38
X352.173 Y528.25
X352.781 Y528.11
X353.387 Y527.963
X353.992 Y527.809
X354.592 Y527.64
X355.189 Y527.456
X355.781 Y527.26
X356.37 Y527.055
X356.958 Y526.844
X357.541 Y526.623
X358.119 Y526.388
X358.691 Y526.14
X359.259 Y525.88
X359.823 Y525.613
X360.383 Y525.339
X360.939 Y525.055
X361.487 Y524.757
X362.028 Y524.446
X362.564 Y524.126
X363.096 Y523.8
X363.623 Y523.467
X364.144 Y523.123
X364.655 Y522.766
X365.159 Y522.397
X365.657 Y522.021
X366.15 Y521.639
X366.638 Y521.251
X367.117 Y520.85
X367.585 Y520.438
X368.045 Y520.017
X368.499 Y519.589
X368.949 Y519.156
X369.39 Y518.715
X369.821 Y518.263
X370.241 Y517.802
X370.653 Y517.333
X371.058 Y516.859
X371.458 Y516.38
X371.847 Y515.892
X372.225 Y515.396
X372.592 Y514.891
X372.95 Y514.38
X373.302 Y513.865
X373.647 Y513.345
X373.98 Y512.817
X374.3 Y512.281
X374.609 Y511.739
X374.909 Y511.193
X375.204 Y510.643
X375.49 Y510.088
X375.762 Y509.527
X376.02 Y508.959
X376.268 Y508.386
X376.508 Y507.81
X376.742 Y507.232
X376.964 Y506.648
X377.171 Y506.06
X377.365 Y505.467
X377.548 Y504.87
X377.725 Y504.272
X377.894 Y503.671
X378.049 Y503.067
X378.189 Y502.459
X378.317 Y501.848
X378.435 Y501.236
X378.546 Y500.622
X378.648 Y500.006
X378.735 Y499.388
X378.807 Y498.768
X378.867 Y498.147
X378.918 Y497.526
X378.963 Y496.903
X378.999 Y496.28
X379.027 Y495.657
X379.047 Y495.033
X379.06 Y494.41
X379.069 Y493.786
X379.075 Y493.162
X379.079 Y492.538
X379.083 Y491.29
X379.085 Y488.794
Y465.084
Y414.545
Y364.005
Y313.466
Y262.926
Y212.386
Y161.847
Y111.307
Y60.768
Y37.058
X379.082 Y36.434
X379.073 Y35.81
X379.058 Y35.186
X379.037 Y34.563
X379.013 Y33.939
X378.986 Y33.316
X378.949 Y32.693
X378.897 Y32.071
X378.833 Y31.45
X378.758 Y30.831
X378.675 Y30.213
X378.587 Y29.595
X378.484 Y28.98
X378.366 Y28.367
X378.234 Y27.757
X378.094 Y27.149
X377.946 Y26.543
X377.79 Y25.939
X377.619 Y25.339
X377.434 Y24.743
X377.237 Y24.151
X377.031 Y23.562
X376.819 Y22.975
X376.597 Y22.392
X376.36 Y21.815
X376.11 Y21.243
X375.849 Y20.676
X375.581 Y20.113
X375.307 Y19.552
X375.021 Y18.998
X374.722 Y18.45
X374.41 Y17.91
X374.089 Y17.375
X373.762 Y16.843
X373.429 Y16.316
X373.083 Y15.797
X372.724 Y15.286
X372.354 Y14.783
X371.977 Y14.286
X371.595 Y13.793
X371.205 Y13.306
X370.803 Y12.829
X370.389 Y12.362
X369.967 Y11.902
X369.539 Y11.449
X369.105 Y11
X368.663 Y10.56
X368.21 Y10.13
X367.748 Y9.711
X367.278 Y9.3
X366.804 Y8.896
X366.324 Y8.497
X365.835 Y8.109
X365.337 Y7.733
X364.832 Y7.367
X364.321 Y7.009
X363.805 Y6.658
X363.284 Y6.314
X362.756 Y5.983
X362.219 Y5.664
X361.677 Y5.356
X361.129 Y5.056
X360.579 Y4.762
X360.024 Y4.477
X359.461 Y4.207
X358.893 Y3.95
X358.32 Y3.704
X357.743 Y3.465
X357.164 Y3.232
X356.581 Y3.012
X355.991 Y2.807
X355.398 Y2.614
X354.801 Y2.431
X354.203 Y2.255
X353.602 Y2.088
X352.997 Y1.934
X352.389 Y1.795
X351.778 Y1.669
X351.165 Y1.552
X350.551 Y1.441
X349.935 Y1.341
X349.317 Y1.256
X348.697 Y1.185
X348.076 Y1.127
X347.454 Y1.077
X346.831 Y1.032
X346.208 Y0.997
X345.585 Y0.97
X344.961 Y0.951
X344.338 Y0.938
X343.714 Y0.93
X343.09 Y0.924
X342.466 Y0.921
X341.218 Y0.917
X338.722 Y0.915
X323.124
X272.584
X222.044
X171.505
X120.965
X70.426
X37.357
X36.733 Y0.916
X36.109 Y0.921
X35.485 Y0.934
X34.861 Y0.952
X34.238 Y0.975
X33.614 Y1.001
X32.991 Y1.032
X32.369 Y1.076
X31.748 Y1.135
X31.128 Y1.205
X30.509 Y1.284
X29.891 Y1.37
X29.274 Y1.466
X28.66 Y1.577
X28.049 Y1.702
X27.44 Y1.838
X26.833 Y1.983
X26.228 Y2.135
X25.626 Y2.299
X25.028 Y2.477
X24.434 Y2.669
X23.844 Y2.87
X23.256 Y3.079
X22.671 Y3.296
X22.091 Y3.526
X21.516 Y3.77
X20.947 Y4.026
X20.382 Y4.29
X19.82 Y4.561
X19.262 Y4.841
X18.712 Y5.134
X18.168 Y5.44
X17.63 Y5.757
X17.097 Y6.081
X16.567 Y6.411
X16.044 Y6.751
X15.53 Y7.104
X15.023 Y7.468
X14.524 Y7.842
X14.029 Y8.222
X13.538 Y8.608
X13.056 Y9.004
X12.584 Y9.412
X12.121 Y9.83
X11.665 Y10.256
X11.214 Y10.687
X10.769 Y11.124
X10.334 Y11.572
X9.91 Y12.03
X9.496 Y12.496
X9.088 Y12.969
X8.686 Y13.445
X8.292 Y13.929
X7.91 Y14.422
X7.54 Y14.925
X7.179 Y15.434
X6.825 Y15.947
X6.476 Y16.465
X6.138 Y16.989
X5.813 Y17.522
X5.501 Y18.062
X5.198 Y18.608
X4.902 Y19.157
X4.611 Y19.709
X4.334 Y20.268
X4.071 Y20.834
X3.82 Y21.405
X3.578 Y21.98
X3.343 Y22.558
X3.116 Y23.139
X2.938 Y23.737
X2.842 Y24.354
X2.801 Y24.976
X2.786 Y25.6
X2.777 Y26.224
X2.762 Y26.848
X2.735 Y27.471
X2.694 Y28.094
X2.64 Y28.715
X2.578 Y29.336
X2.513 Y29.957
X2.45 Y30.577
X2.391 Y31.199
X2.338 Y31.82
X2.29 Y32.442
X2.248 Y33.065
X2.213 Y33.688
X2.186 Y34.311
X2.165 Y34.935
X2.15 Y35.559
X2.139 Y36.182
X2.131 Y36.806
X2.126 Y37.43
X2.122 Y38.054
X2.118 Y39.302
X2.116 Y41.174
X2.115 Y47.413
Y97.953
Y148.493
Y199.032
Y249.572
Y300.111
Y350.651
Y401.19
Y451.73
Y492.286
X2.117 Y492.91
X2.123 Y493.534
X2.134 Y494.158
X2.15 Y494.782
X2.169 Y495.406
X2.194 Y496.029
X2.227 Y496.652
X2.27 Y497.275
X2.325 Y497.896
X2.39 Y498.517
X2.464 Y499.136
X2.548 Y499.754
X2.644 Y500.371
X2.754 Y500.985
X2.875 Y501.597
X3.007 Y502.207
X3.149 Y502.815
X3.303 Y503.419
X3.469 Y504.021
X3.647 Y504.619
X3.837 Y505.213
X4.037 Y505.804
X4.247 Y506.392
X4.468 Y506.975
X4.702 Y507.553
X4.948 Y508.127
X5.204 Y508.696
X5.468 Y509.261
X5.743 Y509.821
X6.03 Y510.375
X6.329 Y510.923
X6.639 Y511.465
X6.957 Y512.002
X7.284 Y512.533
X7.621 Y513.057
X7.971 Y513.575
X8.33 Y514.084
X8.699 Y514.588
X9.075 Y515.086
X9.46 Y515.576
X9.856 Y516.059
X10.263 Y516.532
X10.678 Y516.998
X11.101 Y517.457
X11.531 Y517.909
X11.97 Y518.352
X12.419 Y518.785
X12.877 Y519.209
X13.342 Y519.625
X13.814 Y520.034
X14.292 Y520.433
X14.78 Y520.823
X15.276 Y521.202
X15.779 Y521.571
X16.287 Y521.932
X16.802 Y522.285
X17.324 Y522.627
X17.853 Y522.958
X18.389 Y523.278
X18.93 Y523.588
X19.476 Y523.889
X20.028 Y524.181
X20.586 Y524.46
X21.15 Y524.728
X21.718 Y524.985
X22.291 Y525.232
X22.868 Y525.47
X23.449 Y525.696
X24.036 Y525.91
X24.626 Y526.111
X25.22 Y526.302
X25.817 Y526.483
X26.417 Y526.653
X27.021 Y526.811
X27.628 Y526.955
X28.238 Y527.089
X28.849 Y527.212
X29.463 Y527.324
X30.079 Y527.425
X30.697 Y527.512
X31.316 Y527.586
X31.937 Y527.65
X32.559 Y527.704
X33.181 Y527.75
X33.804 Y527.786
X34.427 Y527.815
X35.051 Y527.836
X35.674 Y527.851
X36.298 Y527.862
X36.922 Y527.87
X37.546 Y527.875
X38.17 Y527.878
X39.418 Y527.882
X41.29 Y527.884
X54.393 Y527.885
X91.829
X142.369
X192.908
X243.448
X293.988
X342.031
X342.655 Y527.884
X343.279 Y527.88
X343.903 Y527.871
X344.527 Y527.857
X345.151 Y527.839
X345.774 Y527.817
X346.397 Y527.788
X347.02 Y527.749
X347.642 Y527.699
X348.263 Y527.638
X348.883 Y527.567
X349.502 Y527.488
X350.119 Y527.397
X350.734 Y527.293
X351.347 Y527.176
X351.958 Y527.048
X352.566 Y526.91
X353.173 Y526.762
X353.775 Y526.601
X354.375 Y526.428
X354.97 Y526.242
X355.563 Y526.046
X356.152 Y525.841
X356.737 Y525.625
X357.318 Y525.396
X357.893 Y525.155
X358.464 Y524.903
X359.031 Y524.642
X359.593 Y524.372
X360.15 Y524.09
X360.7 Y523.795
X361.244 Y523.49
X361.783 Y523.175
X362.316 Y522.852
X362.844 Y522.519
X363.364 Y522.174
X363.877 Y521.819
X364.383 Y521.453
X364.883 Y521.08
X365.377 Y520.699
X365.862 Y520.307
X366.339 Y519.905
X366.808 Y519.493
X367.27 Y519.073
X367.724 Y518.646
X368.171 Y518.21
X368.608 Y517.765
X369.036 Y517.311
X369.455 Y516.849
X369.867 Y516.38
X370.27 Y515.904
X370.664 Y515.42
X371.047 Y514.927
X371.42 Y514.427
X371.785 Y513.921
X372.141 Y513.409
X372.488 Y512.89
X372.823 Y512.364
X373.147 Y511.831
X373.461 Y511.291
X373.766 Y510.747
X374.062 Y510.198
X374.347 Y509.643
X374.619 Y509.081
X374.88 Y508.515
X375.132 Y507.944
X375.374 Y507.369
X375.605 Y506.789
X375.823 Y506.205
X376.029 Y505.616
X376.225 Y505.023
X376.41 Y504.427
X376.585 Y503.828
X376.748 Y503.226
X376.898 Y502.62
X377.035 Y502.012
X377.163 Y501.401
X377.28 Y500.788
X377.386 Y500.173
X377.479 Y499.556
X377.558 Y498.937
X377.626 Y498.317
X377.684 Y497.696
X377.733 Y497.074
X377.773 Y496.451
X377.805 Y495.828
X377.829 Y495.205
X377.846 Y494.581
X377.858 Y493.957
X377.867 Y493.333
X377.873 Y492.709
X377.877 Y492.085
X377.882 Y490.837
X377.884 Y488.966
X377.885 Y480.23
Y445.913
Y395.374
Y344.834
Y294.295
Y243.755
Y193.215
Y142.676
Y92.136
Y41.597
Y37.853
X377.883 Y37.229
X377.878 Y36.605
X377.869 Y35.981
X377.854 Y35.358
X377.835 Y34.734
X377.812 Y34.11
X377.781 Y33.487
X377.741 Y32.865
X377.688 Y32.243
X377.625 Y31.622
X377.553 Y31.002
X377.472 Y30.384
X377.378 Y29.767
X377.272 Y29.152
X377.153 Y28.54
X377.023 Y27.929
X376.883 Y27.321
X376.733 Y26.715
X376.57 Y26.113
X376.394 Y25.515
X376.207 Y24.92
X376.009 Y24.328
X375.802 Y23.739
X375.584 Y23.155
X375.353 Y22.575
X375.109 Y22.001
X374.855 Y21.43
X374.593 Y20.864
X374.321 Y20.303
X374.036 Y19.748
X373.739 Y19.199
X373.432 Y18.656
X373.116 Y18.118
X372.791 Y17.585
X372.456 Y17.059
X372.109 Y16.54
X371.752 Y16.029
X371.385 Y15.524
X371.01 Y15.025
X370.627 Y14.533
X370.233 Y14.049
X369.829 Y13.574
X369.415 Y13.106
X368.994 Y12.646
X368.566 Y12.192
X368.128 Y11.747
X367.681 Y11.312
X367.226 Y10.886
X366.762 Y10.468
X366.292 Y10.058
X365.815 Y9.656
X365.329 Y9.264
X364.835 Y8.883
X364.334 Y8.512
X363.827 Y8.148
X363.313 Y7.794
X362.793 Y7.449
X362.266 Y7.116
X361.731 Y6.794
X361.191 Y6.482
X360.646 Y6.178
X360.096 Y5.884
X359.539 Y5.602
X358.977 Y5.331
X358.409 Y5.072
X357.837 Y4.823
X357.261 Y4.583
X356.681 Y4.354
X356.096 Y4.138
X355.506 Y3.934
X354.913 Y3.74
X354.316 Y3.557
X353.717 Y3.383
X353.114 Y3.223
X352.508 Y3.075
X351.899 Y2.94
X351.288 Y2.814
X350.674 Y2.699
X350.059 Y2.595
X349.442 Y2.505
X348.823 Y2.428
X348.202 Y2.362
X347.581 Y2.306
X346.959 Y2.258
X346.336 Y2.22
X345.713 Y2.19
X345.089 Y2.168
X344.465 Y2.151
X343.841 Y2.14
X343.218 Y2.132
X342.594 Y2.126
X341.97 Y2.122
X340.722 Y2.118
X338.85 Y2.116
X328.243 Y2.115
X302.037
X251.498
X200.958
X150.418
X99.879
X49.339
X38.108
X37.484 Y2.116
X36.86 Y2.119
X36.237 Y2.127
X35.613 Y2.139
X34.989 Y2.156
X34.365 Y2.178
X33.742 Y2.205
X33.119 Y2.241
X32.497 Y2.289
X31.876 Y2.348
X31.256 Y2.416
X30.637 Y2.494
X30.019 Y2.582
X29.403 Y2.683
X28.79 Y2.798
X28.179 Y2.923
X27.57 Y3.059
X26.963 Y3.205
X26.359 Y3.362
X25.759 Y3.533
X25.163 Y3.716
X24.57 Y3.91
X23.979 Y4.112
X23.393 Y4.326
X22.812 Y4.552
X22.235 Y4.791
X21.663 Y5.04
X21.096 Y5.299
X20.532 Y5.568
X19.975 Y5.847
X19.423 Y6.139
X18.878 Y6.442
X18.338 Y6.755
X17.803 Y7.076
X17.274 Y7.406
X16.752 Y7.748
X16.237 Y8.102
X15.73 Y8.465
X15.229 Y8.836
X14.733 Y9.216
X14.246 Y9.605
X13.767 Y10.005
X13.296 Y10.415
X12.833 Y10.833
X12.377 Y11.258
X11.928 Y11.692
X11.488 Y12.135
X11.059 Y12.587
X10.638 Y13.047
X10.224 Y13.515
X9.818 Y13.988
X9.422 Y14.47
X9.036 Y14.961
X8.661 Y15.46
X8.295 Y15.965
X7.937 Y16.476
X7.588 Y16.993
X7.25 Y17.517
X6.923 Y18.049
X6.607 Y18.587
X6.3 Y19.13
X6.002 Y19.678
X5.715 Y20.232
X5.44 Y20.792
X5.177 Y21.358
X4.923 Y21.928
X4.679 Y22.502
X4.455 Y23.085
X4.28 Y23.683
X4.162 Y24.296
X4.087 Y24.916
X4.039 Y25.538
X4.004 Y26.161
X3.971 Y26.784
X3.935 Y27.407
X3.891 Y28.029
X3.839 Y28.651
X3.781 Y29.272
X3.662 Y30.514
X3.606 Y31.136
X3.553 Y31.757
X3.506 Y32.38
X3.464 Y33.002
X3.429 Y33.625
X3.4 Y34.248
X3.378 Y34.872
X3.361 Y35.496
X3.347 Y36.119
X3.338 Y36.743
X3.331 Y37.367
X3.326 Y37.991
X3.322 Y38.615
X3.318 Y39.863
X3.316 Y41.735
X3.315 Y49.222
Y70.436
Y120.976
Y171.515
Y222.055
Y272.595
Y323.134
Y373.674
Y424.213
Y474.753
Y491.599
X3.317 Y492.223
X3.321 Y492.847
X3.328 Y493.471
X3.34 Y494.095
X3.355 Y494.719
X3.376 Y495.342
X3.404 Y495.966
X3.44 Y496.589
X3.486 Y497.211
X3.542 Y497.832
X3.607 Y498.453
X3.684 Y499.072
X3.772 Y499.69
X3.872 Y500.306
X3.984 Y500.919
X4.108 Y501.531
X4.243 Y502.14
X4.39 Y502.746
X4.549 Y503.35
X4.721 Y503.95
X4.904 Y504.546
X5.098 Y505.139
X5.303 Y505.728
X5.521 Y506.313
X5.751 Y506.893
X5.992 Y507.468
X6.244 Y508.039
X6.507 Y508.605
X6.781 Y509.166
X7.067 Y509.72
X7.364 Y510.269
X7.671 Y510.812
X7.988 Y511.349
X8.316 Y511.88
X8.655 Y512.404
X9.005 Y512.921
X9.364 Y513.431
X9.733 Y513.934
X10.111 Y514.43
X10.5 Y514.918
X10.899 Y515.398
X11.307 Y515.87
X11.724 Y516.335
X12.149 Y516.791
X12.584 Y517.238
X13.028 Y517.677
X13.481 Y518.106
X13.941 Y518.527
X14.41 Y518.939
X14.887 Y519.342
X15.372 Y519.734
X15.865 Y520.116
X16.365 Y520.489
X16.872 Y520.853
X17.386 Y521.207
X17.907 Y521.55
X18.436 Y521.882
X18.97 Y522.203
X19.511 Y522.515
X20.057 Y522.816
X20.61 Y523.106
X21.168 Y523.384
X21.732 Y523.651
X22.301 Y523.908
X22.874 Y524.154
X23.453 Y524.388
X24.036 Y524.61
X24.623 Y524.82
X25.214 Y525.019
X25.809 Y525.207
X26.408 Y525.383
X27.01 Y525.547
X27.615 Y525.698
X28.223 Y525.838
X28.834 Y525.966
X29.447 Y526.083
X30.062 Y526.186
X30.68 Y526.277
X31.299 Y526.356
X31.919 Y526.424
X32.54 Y526.481
X33.162 Y526.529
X33.785 Y526.568
X34.408 Y526.599
X35.032 Y526.622
X35.655 Y526.64
X36.279 Y526.653
X36.903 Y526.663
X37.527 Y526.67
X38.151 Y526.675
X38.775 Y526.678
X40.023 Y526.682
X42.518 Y526.684
X66.228 Y526.685
X116.768
X167.308
X217.847
X268.387
X318.926
X341.388
X342.012 Y526.684
X342.636 Y526.681
X343.26 Y526.674
X343.884 Y526.664
X344.508 Y526.65
X345.131 Y526.631
X345.755 Y526.606
X346.378 Y526.573
X347 Y526.531
X347.622 Y526.478
X348.243 Y526.416
X348.863 Y526.343
X349.481 Y526.259
X350.097 Y526.163
X350.712 Y526.055
X351.324 Y525.935
X351.934 Y525.804
X352.542 Y525.662
X353.146 Y525.507
X353.747 Y525.339
X354.345 Y525.16
X354.939 Y524.97
X355.53 Y524.769
X356.116 Y524.555
X356.698 Y524.329
X357.274 Y524.091
X357.847 Y523.843
X358.415 Y523.584
X358.977 Y523.314
X359.534 Y523.032
X360.084 Y522.739
X360.629 Y522.435
X361.169 Y522.121
X361.702 Y521.797
X362.228 Y521.462
X362.747 Y521.115
X363.259 Y520.759
X363.765 Y520.394
X364.263 Y520.018
X364.754 Y519.633
X365.237 Y519.237
X365.711 Y518.832
X366.178 Y518.418
X366.637 Y517.996
X367.088 Y517.564
X367.529 Y517.123
X367.961 Y516.673
X368.385 Y516.215
X368.8 Y515.749
X369.206 Y515.275
X369.601 Y514.793
X369.987 Y514.302
X370.363 Y513.805
X370.73 Y513.3
X371.087 Y512.788
X371.434 Y512.269
X371.769 Y511.743
X372.095 Y511.211
X372.41 Y510.672
X372.715 Y510.128
X373.008 Y509.578
X373.291 Y509.021
X373.562 Y508.459
X373.822 Y507.892
X374.072 Y507.32
X374.31 Y506.744
X374.536 Y506.162
X374.75 Y505.576
X374.953 Y504.986
X375.145 Y504.392
X375.325 Y503.795
X375.493 Y503.194
X375.649 Y502.59
X375.792 Y501.983
X375.925 Y501.373
X376.045 Y500.761
X376.153 Y500.146
X376.248 Y499.529
X376.331 Y498.911
X376.403 Y498.291
X376.464 Y497.67
X376.515 Y497.048
X376.557 Y496.426
X376.59 Y495.803
X376.616 Y495.179
X376.635 Y494.556
X376.65 Y493.932
X376.66 Y493.308
X376.668 Y492.684
X376.673 Y492.06
X376.677 Y491.436
X376.681 Y490.188
X376.684 Y488.317
X376.685 Y481.453
Y469.598
Y419.059
Y368.519
Y317.98
Y267.44
Y216.9
Y166.361
Y115.821
Y65.282
Y38.452
X376.683 Y37.828
X376.679 Y37.204
X376.672 Y36.58
X376.661 Y35.956
X376.646 Y35.333
X376.626 Y34.709
X376.599 Y34.086
X376.564 Y33.463
X376.518 Y32.84
X376.463 Y32.219
X376.398 Y31.598
X376.323 Y30.979
X376.236 Y30.361
X376.137 Y29.745
X376.026 Y29.131
X375.903 Y28.519
X375.769 Y27.91
X375.624 Y27.303
X375.466 Y26.7
X375.295 Y26.099
X375.113 Y25.503
X374.92 Y24.909
X374.715 Y24.32
X374.498 Y23.735
X374.269 Y23.154
X374.029 Y22.579
X373.778 Y22.007
X373.516 Y21.441
X373.243 Y20.88
X372.958 Y20.325
X372.662 Y19.776
X372.356 Y19.232
X372.039 Y18.694
X371.712 Y18.163
X371.374 Y17.639
X371.025 Y17.121
X370.667 Y16.611
X370.298 Y16.107
X369.921 Y15.61
X369.533 Y15.122
X369.134 Y14.641
X368.727 Y14.169
X368.311 Y13.704
X367.886 Y13.247
X367.452 Y12.799
X367.009 Y12.36
X366.557 Y11.93
X366.096 Y11.508
X365.629 Y11.096
X365.152 Y10.692
X364.668 Y10.299
X364.176 Y9.916
X363.676 Y9.542
X363.17 Y9.178
X362.656 Y8.823
X362.135 Y8.479
X361.608 Y8.147
X361.073 Y7.824
X360.534 Y7.511
X359.988 Y7.209
X359.436 Y6.918
X358.878 Y6.639
X358.314 Y6.371
X357.746 Y6.113
X357.173 Y5.866
X356.595 Y5.631
X356.012 Y5.408
X355.425 Y5.197
X354.834 Y4.997
X354.24 Y4.807
X353.642 Y4.63
X353.04 Y4.465
X352.435 Y4.313
X351.827 Y4.173
X351.216 Y4.043
X350.604 Y3.926
X349.989 Y3.821
X349.371 Y3.729
X348.753 Y3.649
X348.132 Y3.581
X347.511 Y3.522
X346.889 Y3.473
X346.266 Y3.434
X345.643 Y3.403
X345.02 Y3.379
X344.396 Y3.361
X343.772 Y3.347
X343.148 Y3.338
X342.525 Y3.331
X341.901 Y3.326
X341.277 Y3.322
X340.029 Y3.318
X338.157 Y3.316
X330.046 Y3.315
X323.806
X273.267
X222.727
X172.188
X121.648
X71.108
X38.663
X38.039 Y3.316
X37.415 Y3.319
X36.791 Y3.325
X36.168 Y3.334
X35.544 Y3.348
X34.92 Y3.367
X34.297 Y3.391
X33.673 Y3.423
X33.051 Y3.465
X32.429 Y3.517
X31.808 Y3.578
X31.188 Y3.65
X30.57 Y3.733
X29.953 Y3.828
X29.339 Y3.936
X28.726 Y4.055
X28.116 Y4.185
X27.508 Y4.326
X26.904 Y4.48
X26.302 Y4.647
X25.705 Y4.825
X25.11 Y5.015
X24.519 Y5.215
X23.933 Y5.428
X23.351 Y5.653
X22.773 Y5.889
X22.2 Y6.137
X21.632 Y6.395
X21.07 Y6.664
X20.512 Y6.945
X19.961 Y7.238
X19.416 Y7.54
X18.876 Y7.853
X18.342 Y8.177
X17.816 Y8.511
X17.296 Y8.856
X16.783 Y9.212
X16.277 Y9.576
X15.778 Y9.951
X15.286 Y10.335
X14.803 Y10.73
X14.328 Y11.134
X13.86 Y11.547
X13.4 Y11.969
X12.949 Y12.4
X12.507 Y12.84
X12.074 Y13.29
X11.65 Y13.747
X11.234 Y14.212
X10.827 Y14.685
X10.43 Y15.167
X10.044 Y15.657
X9.667 Y16.154
X9.299 Y16.658
X8.941 Y17.169
X8.593 Y17.687
X8.257 Y18.213
X7.931 Y18.745
X7.615 Y19.283
X7.309 Y19.827
X7.015 Y20.376
X6.731 Y20.932
X6.46 Y21.494
X6.199 Y22.061
X5.951 Y22.634
X5.735 Y23.219
X5.565 Y23.819
X5.438 Y24.43
X5.347 Y25.047
X5.279 Y25.668
X5.226 Y26.289
X5.13 Y27.534
X5.08 Y28.155
X5.026 Y28.777
X4.857 Y30.641
X4.803 Y31.263
X4.753 Y31.885
X4.708 Y32.507
X4.668 Y33.13
X4.634 Y33.753
X4.606 Y34.376
X4.584 Y35
X4.566 Y35.623
X4.553 Y36.247
X4.542 Y36.871
X4.535 Y37.495
X4.529 Y38.119
X4.525 Y38.743
X4.52 Y39.991
X4.516 Y41.862
X4.515 Y46.23
Y50.598
Y101.137
Y151.677
Y202.216
Y252.756
Y303.296
Y353.835
Y404.375
Y454.914
Y490.479
X4.516 Y491.103
X4.517 Y491.727
X4.52 Y492.351
X4.527 Y492.975
X4.536 Y493.599
X4.549 Y494.223
X4.568 Y494.846
X4.592 Y495.47
X4.625 Y496.093
X4.666 Y496.715
X4.717 Y497.337
X4.777 Y497.958
X4.849 Y498.578
X4.932 Y499.197
X5.026 Y499.813
X5.133 Y500.428
X5.252 Y501.041
X5.383 Y501.651
X5.526 Y502.258
X5.682 Y502.862
X5.851 Y503.463
X6.031 Y504.06
X6.223 Y504.654
X6.428 Y505.243
X6.644 Y505.828
X6.873 Y506.409
X7.114 Y506.984
X7.366 Y507.555
X7.63 Y508.121
X7.906 Y508.68
X8.193 Y509.234
X8.491 Y509.782
X8.8 Y510.324
X9.121 Y510.86
X9.452 Y511.388
X9.795 Y511.91
X10.147 Y512.424
X10.51 Y512.932
X10.884 Y513.432
X11.268 Y513.924
X11.662 Y514.407
X12.065 Y514.883
X12.479 Y515.351
X12.902 Y515.809
X13.334 Y516.259
X13.776 Y516.7
X14.227 Y517.131
X14.686 Y517.554
X15.153 Y517.967
X15.63 Y518.37
X16.114 Y518.763
X16.607 Y519.146
X17.107 Y519.519
X17.615 Y519.882
X18.13 Y520.234
X18.652 Y520.575
X19.181 Y520.905
X19.717 Y521.225
X20.259 Y521.534
X20.808 Y521.831
X21.363 Y522.117
X21.923 Y522.391
X22.489 Y522.655
X23.06 Y522.906
X23.636 Y523.146
X24.217 Y523.374
X24.802 Y523.589
X25.392 Y523.793
X25.986 Y523.984
X26.584 Y524.163
X27.185 Y524.33
X27.789 Y524.484
X28.397 Y524.626
X29.007 Y524.755
X29.62 Y524.872
X30.236 Y524.976
X30.853 Y525.067
X31.472 Y525.147
X32.092 Y525.215
X32.713 Y525.273
X33.335 Y525.321
X33.958 Y525.36
X34.581 Y525.391
X35.205 Y525.415
X35.828 Y525.434
X36.452 Y525.448
X37.076 Y525.459
X37.7 Y525.466
X38.324 Y525.472
X38.948 Y525.476
X40.195 Y525.481
X42.067 Y525.484
X47.059 Y525.485
X48.307
X98.846
X149.386
X199.925
X250.465
X301.005
X340.937
X341.561 Y525.483
X342.185 Y525.481
X342.809 Y525.475
X343.433 Y525.467
X344.057 Y525.454
X344.68 Y525.438
X345.304 Y525.415
X345.927 Y525.384
X346.55 Y525.346
X347.172 Y525.298
X347.793 Y525.24
X348.413 Y525.172
X349.032 Y525.092
X349.649 Y525
X350.265 Y524.897
X350.878 Y524.781
X351.489 Y524.654
X352.097 Y524.513
X352.702 Y524.361
X353.303 Y524.196
X353.902 Y524.019
X354.496 Y523.83
X355.087 Y523.629
X355.673 Y523.415
X356.255 Y523.19
X356.832 Y522.952
X357.404 Y522.703
X357.971 Y522.443
X358.532 Y522.17
X359.088 Y521.886
X359.637 Y521.59
X360.181 Y521.284
X360.718 Y520.967
X361.248 Y520.638
X361.772 Y520.299
X362.288 Y519.948
X362.798 Y519.588
X363.3 Y519.217
X363.794 Y518.836
X364.279 Y518.445
X364.757 Y518.043
X365.227 Y517.632
X365.688 Y517.212
X366.14 Y516.782
X366.583 Y516.342
X367.017 Y515.894
X367.441 Y515.437
X367.857 Y514.972
X368.262 Y514.497
X368.658 Y514.015
X369.044 Y513.524
X369.419 Y513.026
X369.785 Y512.521
X370.14 Y512.008
X370.484 Y511.487
X370.817 Y510.96
X371.14 Y510.426
X371.452 Y509.885
X371.753 Y509.338
X372.042 Y508.785
X372.319 Y508.227
X372.585 Y507.662
X372.84 Y507.093
X373.083 Y506.518
X373.314 Y505.938
X373.532 Y505.354
X373.739 Y504.765
X373.934 Y504.173
X374.117 Y503.576
X374.286 Y502.976
X374.444 Y502.372
X374.589 Y501.765
X374.722 Y501.155
X374.842 Y500.543
X374.95 Y499.928
X375.045 Y499.312
X375.127 Y498.693
X375.199 Y498.073
X375.259 Y497.452
X375.31 Y496.831
X375.351 Y496.208
X375.384 Y495.585
X375.41 Y494.962
X375.43 Y494.338
X375.445 Y493.714
X375.456 Y493.09
X375.465 Y492.466
X375.471 Y491.842
X375.475 Y491.219
X375.48 Y489.971
X375.484 Y488.099
X375.485 Y485.603
Y435.064
Y384.524
Y333.984
Y283.445
Y232.905
Y182.366
Y131.826
Y81.286
Y39.482
X375.484 Y38.858
X375.483 Y38.234
X375.479 Y37.61
X375.473 Y36.986
X375.463 Y36.363
X375.449 Y35.739
X375.431 Y35.115
X375.406 Y34.492
X375.373 Y33.869
X375.331 Y33.246
X375.28 Y32.624
X375.219 Y32.003
X375.147 Y31.383
X375.063 Y30.765
X374.968 Y30.149
X374.86 Y29.534
X374.74 Y28.922
X374.609 Y28.312
X374.465 Y27.705
X374.308 Y27.101
X374.139 Y26.5
X373.958 Y25.903
X373.765 Y25.31
X373.56 Y24.72
X373.342 Y24.136
X373.113 Y23.555
X372.872 Y22.98
X372.619 Y22.409
X372.354 Y21.844
X372.078 Y21.285
X371.79 Y20.731
X371.491 Y20.184
X371.181 Y19.642
X370.86 Y19.107
X370.528 Y18.579
X370.185 Y18.058
X369.832 Y17.544
X369.468 Y17.037
X369.093 Y16.537
X368.709 Y16.046
X368.314 Y15.563
X367.909 Y15.088
X367.495 Y14.621
X367.072 Y14.163
X366.638 Y13.714
X366.196 Y13.274
X365.745 Y12.843
X365.285 Y12.421
X364.817 Y12.009
X364.34 Y11.607
X363.855 Y11.215
X363.362 Y10.832
X362.861 Y10.46
X362.353 Y10.097
X361.837 Y9.746
X361.315 Y9.405
X360.785 Y9.075
X360.249 Y8.756
X359.707 Y8.448
X359.158 Y8.151
X358.603 Y7.866
X358.042 Y7.592
X357.476 Y7.329
X356.905 Y7.078
X356.328 Y6.84
X355.747 Y6.613
X355.161 Y6.398
X354.571 Y6.196
X353.977 Y6.005
X353.379 Y5.826
X352.778 Y5.661
X352.173 Y5.507
X351.565 Y5.366
X350.955 Y5.237
X350.342 Y5.121
X349.726 Y5.017
X349.109 Y4.927
X348.49 Y4.848
X347.87 Y4.78
X347.249 Y4.723
X346.626 Y4.676
X346.004 Y4.637
X345.38 Y4.607
X344.757 Y4.583
X344.133 Y4.565
X343.509 Y4.551
X342.886 Y4.541
X342.262 Y4.533
X341.638 Y4.528
X341.014 Y4.524
X339.766 Y4.519
X337.894 Y4.516
X332.279 Y4.515
X287.355
X236.815
X186.275
X135.736
X85.196
X39.024
X38.4 Y4.517
X37.776 Y4.52
X37.153 Y4.525
X36.529 Y4.534
X35.905 Y4.546
X35.281 Y4.563
X34.658 Y4.586
X34.034 Y4.617
X33.412 Y4.656
X32.79 Y4.705
X32.168 Y4.763
X31.548 Y4.833
X30.93 Y4.913
X30.313 Y5.006
X29.698 Y5.111
X29.085 Y5.227
X28.474 Y5.355
X27.866 Y5.496
X27.261 Y5.65
X26.66 Y5.816
X26.062 Y5.993
X25.467 Y6.183
X24.877 Y6.385
X24.291 Y6.6
X23.71 Y6.826
X23.133 Y7.064
X22.561 Y7.314
X21.994 Y7.575
X21.434 Y7.848
X20.878 Y8.133
X20.329 Y8.429
X19.786 Y8.736
X19.249 Y9.054
X18.719 Y9.383
X18.196 Y9.723
X17.68 Y10.074
X17.171 Y10.435
X16.67 Y10.806
X16.176 Y11.188
X15.691 Y11.581
X15.214 Y11.983
X14.745 Y12.394
X14.284 Y12.815
X13.833 Y13.246
X13.39 Y13.686
X12.957 Y14.134
X12.532 Y14.592
X12.117 Y15.058
X11.712 Y15.532
X11.317 Y16.015
X10.932 Y16.506
X10.557 Y17.004
X10.192 Y17.51
X9.837 Y18.024
X9.494 Y18.545
X9.161 Y19.073
X8.839 Y19.607
X8.528 Y20.148
X8.228 Y20.695
X7.94 Y21.248
X7.663 Y21.808
X7.4 Y22.374
X7.162 Y22.95
X6.959 Y23.54
X6.796 Y24.143
X6.669 Y24.754
X6.571 Y25.37
X6.494 Y25.989
X6.428 Y26.609
X6.37 Y27.231
X6.145 Y29.716
X6.09 Y30.338
X6.036 Y30.959
X5.985 Y31.581
X5.939 Y32.203
X5.897 Y32.826
X5.861 Y33.449
X5.83 Y34.072
X5.804 Y34.695
X5.783 Y35.319
X5.766 Y35.943
X5.753 Y36.567
X5.743 Y37.19
X5.736 Y37.814
X5.73 Y38.438
X5.726 Y39.062
X5.72 Y40.31
X5.717 Y42.182
X5.715 Y45.926
Y88.978
Y139.517
Y190.057
Y240.596
Y291.136
Y341.676
Y392.215
Y442.755
Y490.175
X5.716 Y490.799
X5.718 Y491.423
X5.721 Y492.046
X5.727 Y492.67
X5.736 Y493.294
X5.749 Y493.918
X5.766 Y494.542
X5.79 Y495.165
X5.821 Y495.788
X5.861 Y496.411
X5.91 Y497.033
X5.969 Y497.654
X6.039 Y498.274
X6.12 Y498.893
X6.213 Y499.51
X6.319 Y500.125
X6.437 Y500.738
X6.567 Y501.348
X6.711 Y501.955
X6.867 Y502.559
X7.036 Y503.16
X7.217 Y503.757
X7.411 Y504.35
X7.618 Y504.938
X7.837 Y505.522
X8.069 Y506.102
X8.313 Y506.676
X8.569 Y507.245
X8.837 Y507.808
X9.118 Y508.366
X9.41 Y508.917
X9.713 Y509.462
X10.029 Y510.001
X10.356 Y510.532
X10.694 Y511.056
X11.043 Y511.573
X11.404 Y512.083
X11.775 Y512.584
X12.157 Y513.077
X12.549 Y513.563
X12.952 Y514.039
X13.365 Y514.507
X13.788 Y514.966
X14.22 Y515.415
X14.662 Y515.856
X15.114 Y516.287
X15.574 Y516.708
X16.044 Y517.119
X16.522 Y517.52
X17.008 Y517.91
X17.503 Y518.29
X18.006 Y518.66
X18.516 Y519.019
X19.034 Y519.366
X19.56 Y519.703
X20.092 Y520.028
X20.632 Y520.341
X21.178 Y520.643
X21.73 Y520.933
X22.289 Y521.211
X22.853 Y521.478
X23.423 Y521.732
X23.998 Y521.973
X24.579 Y522.203
X25.164 Y522.42
X25.753 Y522.624
X26.347 Y522.815
X26.945 Y522.994
X27.546 Y523.16
X28.151 Y523.313
X28.759 Y523.453
X29.37 Y523.58
X29.983 Y523.694
X30.599 Y523.795
X31.217 Y523.884
X31.836 Y523.96
X32.457 Y524.026
X33.078 Y524.081
X33.7 Y524.126
X34.323 Y524.163
X34.946 Y524.192
X35.57 Y524.216
X36.194 Y524.233
X36.817 Y524.247
X37.441 Y524.257
X38.065 Y524.265
X38.689 Y524.271
X39.313 Y524.275
X40.561 Y524.28
X42.433 Y524.283
X46.8 Y524.285
X88.605
X139.144
X189.684
X240.223
X290.763
X340.055
X341.303 Y524.283
X341.927 Y524.28
X342.55 Y524.274
X343.174 Y524.266
X343.798 Y524.254
X344.422 Y524.237
X345.045 Y524.215
X345.669 Y524.185
X346.291 Y524.147
X346.914 Y524.1
X347.535 Y524.043
X348.155 Y523.976
X348.774 Y523.897
X349.391 Y523.806
X350.007 Y523.702
X350.62 Y523.587
X351.231 Y523.459
X351.838 Y523.318
X352.443 Y523.164
X353.045 Y522.998
X353.642 Y522.819
X354.236 Y522.628
X354.826 Y522.424
X355.411 Y522.207
X355.991 Y521.977
X356.566 Y521.736
X357.137 Y521.482
X357.701 Y521.216
X358.26 Y520.938
X358.812 Y520.649
X359.358 Y520.347
X359.898 Y520.034
X360.431 Y519.709
X360.956 Y519.372
X361.474 Y519.025
X361.985 Y518.667
X362.488 Y518.298
X362.983 Y517.918
X363.47 Y517.527
X363.948 Y517.126
X364.417 Y516.715
X364.878 Y516.294
X365.329 Y515.863
X365.771 Y515.423
X366.204 Y514.974
X366.627 Y514.515
X367.04 Y514.047
X367.443 Y513.57
X367.835 Y513.086
X368.217 Y512.592
X368.589 Y512.091
X368.95 Y511.582
X369.299 Y511.065
X369.638 Y510.541
X369.966 Y510.01
X370.281 Y509.472
X370.585 Y508.927
X370.878 Y508.376
X371.158 Y507.819
X371.427 Y507.256
X371.683 Y506.687
X371.928 Y506.113
X372.159 Y505.533
X372.378 Y504.949
X372.585 Y504.36
X372.779 Y503.767
X372.961 Y503.17
X373.129 Y502.57
X373.285 Y501.965
X373.427 Y501.358
X373.557 Y500.748
X373.674 Y500.135
X373.777 Y499.519
X373.868 Y498.902
X373.947 Y498.283
X374.015 Y497.663
X374.072 Y497.042
X374.119 Y496.419
X374.157 Y495.797
X374.188 Y495.173
X374.212 Y494.55
X374.231 Y493.926
X374.245 Y493.303
X374.256 Y492.679
X374.264 Y492.055
X374.27 Y491.431
X374.274 Y490.807
X374.28 Y489.559
X374.283 Y487.687
X374.285 Y483.32
Y443.387
Y392.848
Y342.308
Y291.768
Y241.229
Y190.689
Y140.15
Y89.61
Y39.694
X374.284 Y39.07
X374.282 Y38.447
X374.278 Y37.823
X374.271 Y37.199
X374.262 Y36.575
X374.248 Y35.951
X374.229 Y35.327
X374.204 Y34.704
X374.171 Y34.081
X374.129 Y33.458
X374.079 Y32.836
X374.018 Y32.215
X373.945 Y31.596
X373.861 Y30.977
X373.765 Y30.361
X373.657 Y29.746
X373.537 Y29.134
X373.404 Y28.525
X373.258 Y27.918
X373.099 Y27.315
X372.928 Y26.715
X372.744 Y26.118
X372.547 Y25.526
X372.338 Y24.938
X372.116 Y24.355
X371.882 Y23.777
X371.636 Y23.204
X371.377 Y22.636
X371.106 Y22.074
X370.823 Y21.518
X370.529 Y20.968
X370.222 Y20.424
X369.904 Y19.887
X369.575 Y19.357
X369.234 Y18.835
X368.882 Y18.319
X368.52 Y17.812
X368.146 Y17.312
X367.761 Y16.821
X367.367 Y16.337
X366.962 Y15.863
X366.547 Y15.397
X366.122 Y14.94
X365.687 Y14.492
X365.243 Y14.054
X364.79 Y13.625
X364.328 Y13.206
X363.856 Y12.797
X363.376 Y12.398
X362.888 Y12.01
X362.392 Y11.632
X361.888 Y11.264
X361.375 Y10.908
X360.856 Y10.563
X360.329 Y10.229
X359.795 Y9.906
X359.254 Y9.595
X358.706 Y9.296
X358.153 Y9.008
X357.593 Y8.732
X357.027 Y8.468
X356.456 Y8.217
X355.88 Y7.978
X355.299 Y7.751
X354.713 Y7.537
X354.122 Y7.335
X353.528 Y7.146
X352.929 Y6.97
X352.327 Y6.807
X351.721 Y6.656
X351.113 Y6.519
X350.501 Y6.394
X349.888 Y6.283
X349.271 Y6.184
X348.653 Y6.098
X348.034 Y6.024
X347.413 Y5.961
X346.792 Y5.908
X346.169 Y5.864
X345.546 Y5.829
X344.923 Y5.801
X344.299 Y5.78
X343.676 Y5.763
X343.052 Y5.75
X342.428 Y5.74
X341.804 Y5.733
X341.18 Y5.728
X340.556 Y5.724
X339.308 Y5.72
X337.436 Y5.716
X332.445 Y5.715
X293.76
X243.221
X192.681
X142.141
X91.602
X41.062
X39.19 Y5.716
X38.567 Y5.718
X37.943 Y5.721
X37.319 Y5.727
X36.695 Y5.736
X36.071 Y5.749
X35.447 Y5.767
X34.824 Y5.791
X34.201 Y5.822
X33.578 Y5.862
X32.956 Y5.911
X32.335 Y5.97
X31.715 Y6.04
X31.096 Y6.122
X30.479 Y6.216
X29.865 Y6.321
X29.252 Y6.44
X28.642 Y6.57
X28.035 Y6.714
X27.431 Y6.87
X26.83 Y7.039
X26.233 Y7.221
X25.64 Y7.415
X25.051 Y7.622
X24.467 Y7.841
X23.888 Y8.073
X23.314 Y8.317
X22.745 Y8.573
X22.182 Y8.842
X21.624 Y9.122
X21.073 Y9.415
X20.528 Y9.719
X19.99 Y10.034
X19.459 Y10.362
X18.935 Y10.7
X18.418 Y11.05
X17.909 Y11.411
X17.408 Y11.782
X16.914 Y12.164
X16.43 Y12.557
X15.953 Y12.96
X15.485 Y13.373
X15.027 Y13.796
X14.577 Y14.229
X14.137 Y14.671
X13.706 Y15.122
X13.285 Y15.583
X12.874 Y16.052
X12.473 Y16.53
X12.083 Y17.017
X11.702 Y17.511
X11.333 Y18.014
X10.975 Y18.525
X10.627 Y19.043
X10.291 Y19.569
X9.966 Y20.102
X9.653 Y20.641
X9.351 Y21.188
X9.062 Y21.74
X8.788 Y22.301
X8.535 Y22.871
X8.314 Y23.455
X8.127 Y24.05
X7.976 Y24.655
X7.855 Y25.267
X7.757 Y25.884
X7.675 Y26.502
X7.605 Y27.122
X7.54 Y27.743
X7.479 Y28.364
X7.42 Y28.985
X7.363 Y29.606
X7.307 Y30.228
X7.253 Y30.849
X7.203 Y31.471
X7.156 Y32.093
X7.114 Y32.716
X7.077 Y33.339
X7.045 Y33.962
X7.017 Y34.585
X6.995 Y35.209
X6.977 Y35.832
X6.962 Y36.456
X6.95 Y37.08
X6.941 Y37.704
X6.934 Y38.328
X6.929 Y38.952
X6.925 Y39.576
X6.92 Y40.824
X6.917 Y42.695
X6.915 Y46.439
Y84.5
Y135.039
Y185.579
Y236.118
Y286.658
Y337.198
Y387.737
Y438.277
Y488.816
X6.916 Y490.064
X6.917 Y490.688
X6.919 Y491.312
X6.923 Y491.936
X6.93 Y492.56
X6.939 Y493.184
X6.953 Y493.808
X6.972 Y494.431
X6.997 Y495.055
X7.029 Y495.678
X7.07 Y496.3
X7.121 Y496.922
X7.181 Y497.543
X7.253 Y498.163
X7.337 Y498.781
X7.432 Y499.398
X7.541 Y500.012
X7.662 Y500.625
X7.796 Y501.234
X7.943 Y501.84
X8.103 Y502.443
X8.277 Y503.043
X8.464 Y503.638
X8.664 Y504.229
X8.876 Y504.815
X9.102 Y505.397
X9.341 Y505.973
X9.593 Y506.544
X9.858 Y507.109
X10.135 Y507.668
X10.424 Y508.221
X10.726 Y508.767
X11.04 Y509.307
X11.366 Y509.839
X11.703 Y510.363
X12.053 Y510.88
X12.413 Y511.389
X12.785 Y511.89
X13.169 Y512.383
X13.563 Y512.867
X13.967 Y513.341
X14.383 Y513.807
X14.808 Y514.263
X15.244 Y514.71
X15.689 Y515.147
X16.145 Y515.574
X16.609 Y515.99
X17.083 Y516.396
X17.566 Y516.792
X18.057 Y517.176
X18.557 Y517.549
X19.065 Y517.911
X19.582 Y518.262
X20.105 Y518.6
X20.637 Y518.927
X21.175 Y519.242
X21.721 Y519.545
X22.273 Y519.836
X22.831 Y520.114
X23.396 Y520.38
X23.966 Y520.633
X24.542 Y520.873
X25.123 Y521.1
X25.709 Y521.315
X26.3 Y521.516
X26.895 Y521.703
X27.494 Y521.878
X28.097 Y522.039
X28.703 Y522.187
X29.313 Y522.321
X29.925 Y522.441
X30.539 Y522.548
X31.156 Y522.642
X31.775 Y522.724
X32.395 Y522.794
X33.016 Y522.853
X33.638 Y522.902
X34.261 Y522.943
X34.884 Y522.975
X35.507 Y523.001
X36.131 Y523.022
X36.754 Y523.038
X37.378 Y523.05
X38.002 Y523.059
X38.626 Y523.066
X39.25 Y523.071
X39.874 Y523.075
X41.122 Y523.08
X42.994 Y523.083
X47.361 Y523.085
X86.046
X136.585
X187.125
X237.665
X288.204
X338.744
X339.992 Y523.084
X340.616 Y523.083
X341.239 Y523.081
X341.863 Y523.077
X342.487 Y523.071
X343.111 Y523.062
X343.735 Y523.049
X344.359 Y523.031
X344.982 Y523.006
X345.605 Y522.975
X346.228 Y522.935
X346.85 Y522.885
X347.471 Y522.826
X348.091 Y522.756
X348.71 Y522.674
X349.326 Y522.579
X349.941 Y522.473
X350.554 Y522.353
X351.163 Y522.221
X351.77 Y522.075
X352.373 Y521.917
X352.973 Y521.745
X353.569 Y521.56
X354.161 Y521.362
X354.748 Y521.15
X355.33 Y520.926
X355.907 Y520.688
X356.478 Y520.438
X357.044 Y520.175
X357.604 Y519.899
X358.157 Y519.611
X358.704 Y519.311
X359.244 Y518.998
X359.777 Y518.674
X360.303 Y518.337
X360.821 Y517.989
X361.331 Y517.63
X361.832 Y517.259
X362.326 Y516.877
X362.81 Y516.484
X363.286 Y516.08
X363.753 Y515.666
X364.21 Y515.242
X364.658 Y514.807
X365.096 Y514.363
X365.524 Y513.909
X365.942 Y513.445
X366.349 Y512.973
X366.745 Y512.491
X367.131 Y512
X367.505 Y511.501
X367.869 Y510.994
X368.22 Y510.479
X368.561 Y509.956
X368.889 Y509.425
X369.206 Y508.887
X369.51 Y508.343
X369.802 Y507.791
X370.082 Y507.234
X370.349 Y506.67
X370.604 Y506.1
X370.845 Y505.525
X371.074 Y504.944
X371.29 Y504.359
X371.493 Y503.769
X371.682 Y503.174
X371.858 Y502.576
X372.021 Y501.973
X372.17 Y501.368
X372.306 Y500.759
X372.428 Y500.147
X372.537 Y499.532
X372.632 Y498.916
X372.715 Y498.297
X372.787 Y497.678
X372.847 Y497.056
X372.897 Y496.435
X372.939 Y495.812
X372.972 Y495.189
X372.999 Y494.566
X373.02 Y493.942
X373.036 Y493.318
X373.049 Y492.694
X373.058 Y492.071
X373.066 Y491.447
X373.071 Y490.823
X373.075 Y490.199
X373.08 Y488.951
X373.083 Y487.079
X373.085 Y482.711
Y444.027
Y393.487
Y342.948
Y292.408
Y241.869
Y191.329
Y140.789
Y90.25
Y40.334
X373.084 Y39.71
X373.083 Y39.086
X373.08 Y38.462
X373.075 Y37.838
X373.067 Y37.215
X373.056 Y36.591
X373.041 Y35.967
X373.02 Y35.343
X372.992 Y34.72
X372.957 Y34.097
X372.912 Y33.475
X372.859 Y32.853
X372.794 Y32.233
X372.718 Y31.613
X372.63 Y30.995
X372.53 Y30.38
X372.417 Y29.766
X372.292 Y29.155
X372.153 Y28.546
X372.001 Y27.941
X371.836 Y27.339
X371.658 Y26.741
X371.467 Y26.148
X371.262 Y25.558
X371.044 Y24.974
X370.814 Y24.394
X370.57 Y23.819
X370.314 Y23.251
X370.044 Y22.688
X369.763 Y22.131
X369.469 Y21.58
X369.163 Y21.037
X368.844 Y20.5
X368.514 Y19.971
X368.172 Y19.449
X367.819 Y18.935
X367.454 Y18.429
X367.078 Y17.931
X366.69 Y17.442
X366.292 Y16.961
X365.884 Y16.49
X365.465 Y16.027
X365.035 Y15.574
X364.596 Y15.131
X364.147 Y14.698
X363.689 Y14.275
X363.22 Y13.863
X362.743 Y13.461
X362.257 Y13.069
X361.763 Y12.689
X361.26 Y12.32
X360.748 Y11.962
X360.229 Y11.616
X359.703 Y11.281
X359.169 Y10.958
X358.628 Y10.648
X358.08 Y10.349
X357.525 Y10.063
X356.965 Y9.789
X356.398 Y9.528
X355.826 Y9.279
X355.248 Y9.044
X354.665 Y8.821
X354.078 Y8.611
X353.485 Y8.415
X352.889 Y8.232
X352.289 Y8.062
X351.685 Y7.905
X351.077 Y7.763
X350.467 Y7.634
X349.853 Y7.518
X349.238 Y7.416
X348.621 Y7.326
X348.001 Y7.249
X347.381 Y7.183
X346.759 Y7.127
X346.137 Y7.082
X345.514 Y7.044
X344.891 Y7.014
X344.268 Y6.99
X343.644 Y6.972
X343.02 Y6.957
X342.396 Y6.946
X341.772 Y6.938
X341.149 Y6.932
X340.525 Y6.927
X339.277 Y6.921
X337.405 Y6.917
X333.661 Y6.915
X292.481
X241.941
X191.402
X140.862
X90.323
X40.407
X39.783 Y6.916
X39.159 Y6.917
X38.535 Y6.92
X37.911 Y6.925
X37.287 Y6.932
X36.663 Y6.942
X36.04 Y6.957
X35.416 Y6.977
X34.793 Y7.004
X34.17 Y7.039
X33.547 Y7.082
X32.926 Y7.135
X32.305 Y7.198
X31.685 Y7.273
X31.067 Y7.359
X30.451 Y7.458
X29.837 Y7.569
X29.226 Y7.693
X28.617 Y7.83
X28.012 Y7.981
X27.409 Y8.144
X26.811 Y8.321
X26.217 Y8.511
X25.627 Y8.714
X25.042 Y8.931
X24.461 Y9.16
X23.886 Y9.402
X23.317 Y9.657
X22.753 Y9.924
X22.196 Y10.205
X21.645 Y10.497
X21.1 Y10.802
X20.563 Y11.119
X20.032 Y11.447
X19.509 Y11.788
X18.994 Y12.14
X18.487 Y12.504
X17.988 Y12.879
X17.498 Y13.264
X17.016 Y13.661
X16.544 Y14.068
X16.08 Y14.486
X15.626 Y14.914
X15.182 Y15.352
X14.748 Y15.8
X14.323 Y16.257
X13.91 Y16.724
X13.506 Y17.2
X13.114 Y17.685
X12.732 Y18.179
X12.361 Y18.681
X12.002 Y19.191
X11.655 Y19.709
X11.319 Y20.235
X10.994 Y20.768
X10.682 Y21.309
X10.383 Y21.856
X10.101 Y22.412
X9.84 Y22.979
X9.608 Y23.559
X9.411 Y24.15
X9.246 Y24.752
X9.111 Y25.362
X9 Y25.975
X8.906 Y26.592
X8.826 Y27.211
X8.753 Y27.831
X8.687 Y28.451
X8.624 Y29.072
X8.565 Y29.693
X8.509 Y30.315
X8.455 Y30.936
X8.406 Y31.558
X8.36 Y32.18
X8.318 Y32.803
X8.282 Y33.426
X8.25 Y34.049
X8.223 Y34.672
X8.2 Y35.296
X8.182 Y35.92
X8.167 Y36.543
X8.154 Y37.167
X8.145 Y37.791
X8.137 Y38.415
X8.132 Y39.039
X8.127 Y39.663
X8.122 Y40.911
X8.117 Y42.782
X8.115 Y45.902
Y87.707
Y138.246
Y188.786
Y239.325
Y289.865
Y340.404
Y390.944
Y441.484
Y488.903
X8.117 Y490.151
X8.119 Y490.775
X8.122 Y491.399
X8.127 Y492.023
X8.135 Y492.647
X8.147 Y493.271
X8.163 Y493.895
X8.185 Y494.518
X8.214 Y495.141
X8.25 Y495.764
X8.295 Y496.387
X8.35 Y497.008
X8.416 Y497.629
X8.494 Y498.248
X8.583 Y498.865
X8.685 Y499.481
X8.801 Y500.094
X8.929 Y500.704
X9.071 Y501.312
X9.227 Y501.916
X9.397 Y502.517
X9.58 Y503.113
X9.777 Y503.705
X9.988 Y504.292
X10.212 Y504.874
X10.45 Y505.451
X10.702 Y506.022
X10.966 Y506.587
X11.244 Y507.146
X11.534 Y507.698
X11.838 Y508.244
X12.154 Y508.782
X12.482 Y509.312
X12.823 Y509.835
X13.176 Y510.349
X13.541 Y510.856
X13.917 Y511.353
X14.305 Y511.842
X14.704 Y512.321
X15.115 Y512.791
X15.536 Y513.251
X15.968 Y513.702
X16.411 Y514.141
X16.863 Y514.571
X17.326 Y514.99
X17.798 Y515.397
X18.28 Y515.794
X18.771 Y516.179
X19.27 Y516.553
X19.779 Y516.915
X20.295 Y517.265
X20.82 Y517.602
X21.352 Y517.928
X21.892 Y518.24
X22.439 Y518.541
X22.993 Y518.828
X23.554 Y519.102
X24.12 Y519.363
X24.693 Y519.611
X25.271 Y519.845
X25.855 Y520.066
X26.443 Y520.273
X27.037 Y520.466
X27.634 Y520.645
X28.236 Y520.81
X28.841 Y520.961
X29.45 Y521.098
X30.062 Y521.221
X30.676 Y521.33
X31.293 Y521.426
X31.911 Y521.509
X32.531 Y521.581
X33.152 Y521.641
X33.774 Y521.691
X34.396 Y521.733
X35.019 Y521.766
X35.643 Y521.794
X36.266 Y521.815
X36.89 Y521.832
X37.514 Y521.845
X38.138 Y521.855
X38.762 Y521.863
X39.386 Y521.869
X40.01 Y521.873
X40.633 Y521.877
X41.881 Y521.881
X43.753 Y521.883
X48.745 Y521.885
X91.173
X141.713
X192.252
X242.792
X293.331
X338.879
X340.127 Y521.883
X340.751 Y521.882
X341.375 Y521.878
X341.999 Y521.873
X342.623 Y521.865
X343.247 Y521.853
X343.871 Y521.837
X344.494 Y521.816
X345.117 Y521.788
X345.74 Y521.751
X346.363 Y521.707
X346.984 Y521.652
X347.605 Y521.587
X348.224 Y521.51
X348.841 Y521.421
X349.457 Y521.319
X350.07 Y521.205
X350.681 Y521.076
X351.289 Y520.935
X351.893 Y520.779
X352.494 Y520.61
X353.09 Y520.428
X353.682 Y520.231
X354.27 Y520.021
X354.852 Y519.797
X355.429 Y519.56
X356.001 Y519.309
X356.566 Y519.045
X357.125 Y518.768
X357.678 Y518.478
X358.223 Y518.175
X358.761 Y517.86
X359.292 Y517.531
X359.815 Y517.191
X360.33 Y516.839
X360.836 Y516.474
X361.334 Y516.098
X361.823 Y515.711
X362.303 Y515.312
X362.773 Y514.902
X363.233 Y514.48
X363.684 Y514.049
X364.124 Y513.606
X364.554 Y513.154
X364.973 Y512.692
X365.381 Y512.22
X365.778 Y511.739
X366.164 Y511.248
X366.538 Y510.749
X366.9 Y510.241
X367.25 Y509.724
X367.589 Y509.2
X367.915 Y508.668
X368.228 Y508.128
X368.529 Y507.582
X368.816 Y507.028
X369.091 Y506.468
X369.353 Y505.902
X369.601 Y505.329
X369.836 Y504.751
X370.058 Y504.168
X370.265 Y503.579
X370.459 Y502.986
X370.638 Y502.389
X370.804 Y501.787
X370.956 Y501.182
X371.093 Y500.573
X371.217 Y499.962
X371.326 Y499.348
X371.423 Y498.731
X371.507 Y498.113
X371.578 Y497.493
X371.639 Y496.872
X371.69 Y496.25
X371.732 Y495.628
X371.766 Y495.005
X371.793 Y494.381
X371.815 Y493.758
X371.832 Y493.134
X371.845 Y492.51
X371.855 Y491.886
X371.863 Y491.262
X371.869 Y490.638
X371.873 Y490.015
X371.879 Y488.767
X371.882 Y487.519
X371.884 Y485.023
X371.885 Y469.424
Y436.979
Y386.44
Y335.9
Y285.36
Y234.821
Y184.281
Y133.742
Y83.202
Y40.774
X371.883 Y39.526
X371.88 Y38.902
X371.876 Y38.278
X371.869 Y37.654
X371.859 Y37.03
X371.845 Y36.407
X371.826 Y35.783
X371.801 Y35.159
X371.769 Y34.536
X371.728 Y33.914
X371.678 Y33.292
X371.617 Y32.671
X371.546 Y32.051
X371.462 Y31.433
X371.366 Y30.816
X371.257 Y30.202
X371.135 Y29.59
X370.999 Y28.981
X370.85 Y28.375
X370.687 Y27.773
X370.511 Y27.174
X370.32 Y26.58
X370.116 Y25.991
X369.898 Y25.406
X369.667 Y24.826
X369.422 Y24.253
X369.164 Y23.684
X368.893 Y23.123
X368.608 Y22.567
X368.311 Y22.018
X368.001 Y21.477
X367.679 Y20.943
X367.344 Y20.416
X366.997 Y19.898
X366.638 Y19.387
X366.267 Y18.886
X365.884 Y18.393
X365.49 Y17.909
X365.085 Y17.435
X364.669 Y16.97
X364.242 Y16.515
X363.804 Y16.07
X363.356 Y15.636
X362.898 Y15.212
X362.431 Y14.799
X361.953 Y14.397
X361.467 Y14.006
X360.971 Y13.627
X360.467 Y13.26
X359.955 Y12.904
X359.434 Y12.56
X358.905 Y12.229
X358.369 Y11.91
X357.826 Y11.603
X357.275 Y11.31
X356.718 Y11.029
X356.154 Y10.761
X355.584 Y10.507
X355.009 Y10.266
X354.428 Y10.039
X353.841 Y9.825
X353.25 Y9.626
X352.655 Y9.44
X352.055 Y9.268
X351.451 Y9.11
X350.844 Y8.966
X350.234 Y8.836
X349.621 Y8.72
X349.005 Y8.618
X348.388 Y8.529
X347.769 Y8.452
X347.148 Y8.386
X346.527 Y8.331
X345.904 Y8.286
X345.281 Y8.248
X344.658 Y8.218
X344.035 Y8.194
X343.411 Y8.175
X342.787 Y8.16
X342.163 Y8.149
X341.54 Y8.14
X340.916 Y8.134
X340.292 Y8.129
X339.044 Y8.122
X337.172 Y8.118
X334.052 Y8.115
X283.513
X232.973
X182.434
X131.894
X81.354
X40.798
X39.55 Y8.117
X38.926 Y8.12
X38.302 Y8.124
X37.678 Y8.131
X37.054 Y8.14
X36.431 Y8.154
X35.807 Y8.173
X35.184 Y8.198
X34.56 Y8.23
X33.938 Y8.27
X33.316 Y8.32
X32.695 Y8.38
X32.075 Y8.451
X31.457 Y8.534
X30.84 Y8.63
X30.226 Y8.739
X29.614 Y8.861
X29.005 Y8.996
X28.399 Y9.145
X27.796 Y9.307
X27.198 Y9.483
X26.603 Y9.673
X26.014 Y9.877
X25.429 Y10.094
X24.849 Y10.325
X24.275 Y10.569
X23.706 Y10.827
X23.144 Y11.097
X22.589 Y11.381
X22.04 Y11.678
X21.498 Y11.987
X20.963 Y12.309
X20.436 Y12.643
X19.918 Y12.99
X19.407 Y13.348
X18.905 Y13.719
X18.412 Y14.101
X17.928 Y14.495
X17.453 Y14.9
X16.988 Y15.315
X16.532 Y15.742
X16.087 Y16.179
X15.652 Y16.626
X15.228 Y17.084
X14.814 Y17.551
X14.412 Y18.028
X14.021 Y18.514
X13.641 Y19.009
X13.273 Y19.513
X12.916 Y20.025
X12.572 Y20.545
X12.24 Y21.074
X11.921 Y21.61
X11.616 Y22.154
X11.33 Y22.709
X11.068 Y23.275
X10.837 Y23.854
X10.638 Y24.446
X10.469 Y25.047
X10.329 Y25.655
X10.211 Y26.267
X10.111 Y26.883
X10.024 Y27.501
X9.947 Y28.12
X9.876 Y28.74
X9.812 Y29.361
X9.751 Y29.982
X9.695 Y30.603
X9.642 Y31.225
X9.594 Y31.847
X9.55 Y32.469
X9.511 Y33.092
X9.476 Y33.715
X9.446 Y34.338
X9.42 Y34.962
X9.399 Y35.585
X9.381 Y36.209
X9.367 Y36.833
X9.355 Y37.456
X9.345 Y38.08
X9.338 Y38.704
X9.332 Y39.328
X9.328 Y39.952
X9.322 Y41.2
X9.318 Y43.072
X9.315 Y46.192
Y48.063
Y98.603
Y149.143
Y199.682
Y250.222
Y300.761
Y351.301
Y401.84
Y452.38
Y488.569
X9.317 Y489.817
X9.319 Y490.441
X9.322 Y491.065
X9.327 Y491.688
X9.335 Y492.312
X9.346 Y492.936
X9.361 Y493.56
X9.382 Y494.184
X9.409 Y494.807
X9.443 Y495.43
X9.487 Y496.052
X9.54 Y496.674
X9.604 Y497.295
X9.679 Y497.914
X9.767 Y498.532
X9.867 Y499.148
X9.981 Y499.761
X10.109 Y500.372
X10.251 Y500.98
X10.406 Y501.584
X10.576 Y502.184
X10.761 Y502.78
X10.959 Y503.372
X11.172 Y503.958
X11.399 Y504.539
X11.64 Y505.115
X11.895 Y505.684
X12.164 Y506.247
X12.447 Y506.804
X12.743 Y507.353
X13.052 Y507.895
X13.374 Y508.429
X13.71 Y508.955
X14.058 Y509.473
X14.419 Y509.982
X14.793 Y510.482
X15.178 Y510.972
X15.575 Y511.453
X15.984 Y511.924
X16.405 Y512.385
X16.837 Y512.836
X17.279 Y513.275
X17.733 Y513.704
X18.196 Y514.122
X18.67 Y514.528
X19.153 Y514.922
X19.646 Y515.305
X20.149 Y515.675
X20.66 Y516.033
X21.18 Y516.378
X21.708 Y516.71
X22.244 Y517.03
X22.787 Y517.336
X23.338 Y517.629
X23.896 Y517.908
X24.461 Y518.173
X25.032 Y518.424
X25.61 Y518.661
X26.192 Y518.884
X26.78 Y519.092
X27.373 Y519.286
X27.971 Y519.466
X28.573 Y519.631
X29.178 Y519.781
X29.787 Y519.916
X30.399 Y520.037
X31.014 Y520.144
X31.631 Y520.238
X32.25 Y520.319
X32.87 Y520.388
X33.491 Y520.447
X34.113 Y520.495
X34.736 Y520.535
X35.359 Y520.568
X35.982 Y520.594
X36.606 Y520.615
X37.23 Y520.632
X37.853 Y520.645
X38.477 Y520.655
X39.101 Y520.662
X39.725 Y520.668
X40.349 Y520.673
X41.597 Y520.678
X43.469 Y520.683
X46.588 Y520.685
X53.452
X103.991
X154.531
X205.071
X255.61
X306.15
X338.595
X339.843 Y520.683
X340.467 Y520.681
X341.091 Y520.678
X341.715 Y520.673
X342.338 Y520.665
X342.962 Y520.654
X343.586 Y520.638
X344.21 Y520.617
X344.833 Y520.59
X345.456 Y520.555
X346.078 Y520.511
X346.7 Y520.458
X347.321 Y520.393
X347.94 Y520.317
X348.558 Y520.229
X349.173 Y520.128
X349.787 Y520.014
X350.397 Y519.886
X351.005 Y519.743
X351.609 Y519.587
X352.209 Y519.417
X352.805 Y519.232
X353.396 Y519.033
X353.983 Y518.819
X354.564 Y518.592
X355.139 Y518.35
X355.708 Y518.095
X356.271 Y517.825
X356.827 Y517.542
X357.376 Y517.246
X357.918 Y516.936
X358.451 Y516.613
X358.977 Y516.277
X359.494 Y515.928
X360.003 Y515.566
X360.502 Y515.192
X360.992 Y514.806
X361.473 Y514.408
X361.943 Y513.998
X362.404 Y513.577
X362.854 Y513.145
X363.293 Y512.702
X363.721 Y512.248
X364.138 Y511.784
X364.544 Y511.31
X364.938 Y510.826
X365.32 Y510.332
X365.689 Y509.83
X366.047 Y509.318
X366.392 Y508.798
X366.724 Y508.27
X367.042 Y507.734
X367.348 Y507.19
X367.64 Y506.638
X367.918 Y506.08
X368.183 Y505.515
X368.434 Y504.944
X368.67 Y504.366
X368.893 Y503.783
X369.101 Y503.195
X369.294 Y502.602
X369.473 Y502.004
X369.637 Y501.402
X369.787 Y500.796
X369.922 Y500.187
X370.042 Y499.575
X370.149 Y498.96
X370.242 Y498.343
X370.323 Y497.725
X370.391 Y497.104
X370.449 Y496.483
X370.498 Y495.861
X370.537 Y495.238
X370.57 Y494.615
X370.596 Y493.992
X370.616 Y493.368
X370.633 Y492.745
X370.646 Y492.121
X370.655 Y491.497
X370.663 Y490.873
X370.669 Y490.249
X370.673 Y489.625
X370.679 Y488.377
X370.683 Y486.505
X370.685 Y482.762
Y472.779
Y422.239
Y371.699
Y321.16
Y270.62
Y220.081
Y169.541
Y119.002
Y68.462
X370.684 Y41.008
X370.682 Y39.76
X370.679 Y39.137
X370.675 Y38.513
X370.668 Y37.889
X370.658 Y37.265
X370.644 Y36.641
X370.626 Y36.017
X370.601 Y35.394
X370.569 Y34.771
X370.528 Y34.148
X370.478 Y33.526
X370.418 Y32.905
X370.346 Y32.285
X370.263 Y31.667
X370.167 Y31.051
X370.057 Y30.436
X369.934 Y29.825
X369.797 Y29.216
X369.646 Y28.611
X369.48 Y28.009
X369.301 Y27.411
X369.107 Y26.818
X368.899 Y26.23
X368.676 Y25.647
X368.44 Y25.07
X368.19 Y24.498
X367.925 Y23.933
X367.647 Y23.374
X367.356 Y22.823
X367.05 Y22.279
X366.732 Y21.742
X366.4 Y21.214
X366.056 Y20.693
X365.699 Y20.182
X365.329 Y19.679
X364.948 Y19.185
X364.554 Y18.701
X364.148 Y18.227
X363.731 Y17.763
X363.303 Y17.309
X362.864 Y16.866
X362.414 Y16.434
X361.954 Y16.012
X361.483 Y15.602
X361.003 Y15.204
X360.513 Y14.818
X360.014 Y14.444
X359.506 Y14.082
X358.989 Y13.732
X358.463 Y13.396
X357.93 Y13.072
X357.388 Y12.762
X356.84 Y12.465
X356.284 Y12.182
X355.721 Y11.912
X355.152 Y11.656
X354.577 Y11.414
X353.996 Y11.187
X353.41 Y10.974
X352.818 Y10.775
X352.222 Y10.59
X351.622 Y10.421
X351.017 Y10.266
X350.409 Y10.125
X349.798 Y10
X349.184 Y9.888
X348.568 Y9.79
X347.95 Y9.705
X347.33 Y9.632
X346.709 Y9.57
X346.088 Y9.518
X345.465 Y9.476
X344.842 Y9.441
X344.219 Y9.413
X343.595 Y9.39
X342.972 Y9.373
X342.348 Y9.359
X341.724 Y9.348
X341.1 Y9.34
X340.476 Y9.333
X339.852 Y9.328
X338.604 Y9.322
X336.733 Y9.318
X333.613 Y9.315
X317.39
X266.851
X216.311
X165.771
X115.232
X64.692
X41.606
X40.358 Y9.316
X39.735 Y9.318
X39.111 Y9.321
X38.487 Y9.325
X37.863 Y9.332
X37.239 Y9.342
X36.615 Y9.356
X35.991 Y9.375
X35.368 Y9.4
X34.745 Y9.433
X34.122 Y9.474
X33.5 Y9.524
X32.879 Y9.585
X32.26 Y9.657
X31.641 Y9.741
X31.025 Y9.838
X30.411 Y9.948
X29.799 Y10.072
X29.191 Y10.21
X28.586 Y10.362
X27.984 Y10.528
X27.387 Y10.708
X26.794 Y10.902
X26.206 Y11.111
X25.623 Y11.334
X25.046 Y11.571
X24.475 Y11.822
X23.91 Y12.087
X23.351 Y12.365
X22.8 Y12.658
X22.256 Y12.963
X21.72 Y13.282
X21.192 Y13.614
X20.672 Y13.959
X20.161 Y14.317
X19.658 Y14.687
X19.165 Y15.069
X18.681 Y15.463
X18.207 Y15.869
X17.744 Y16.286
X17.29 Y16.715
X16.847 Y17.154
X16.415 Y17.605
X15.994 Y18.065
X15.585 Y18.536
X15.187 Y19.017
X14.801 Y19.507
X14.427 Y20.006
X14.066 Y20.515
X13.717 Y21.033
X13.381 Y21.559
X13.06 Y22.093
X12.756 Y22.638
X12.474 Y23.195
X12.22 Y23.765
X11.996 Y24.347
X11.803 Y24.94
X11.639 Y25.542
X11.5 Y26.151
X11.382 Y26.763
X11.281 Y27.379
X11.193 Y27.997
X11.115 Y28.616
X11.044 Y29.236
X10.979 Y29.856
X10.92 Y30.477
X10.865 Y31.099
X10.815 Y31.721
X10.769 Y32.343
X10.728 Y32.966
X10.692 Y33.589
X10.661 Y34.212
X10.633 Y34.835
X10.61 Y35.459
X10.591 Y36.082
X10.575 Y36.706
X10.562 Y37.33
X10.552 Y37.954
X10.543 Y38.578
X10.537 Y39.201
X10.531 Y39.825
X10.524 Y41.073
X10.52 Y42.321
X10.517 Y44.193
X10.515 Y48.561
Y66.655
Y117.195
Y167.734
Y218.274
Y268.813
Y319.353
Y369.892
Y420.432
Y470.972
Y488.442
X10.517 Y489.69
X10.52 Y490.314
X10.523 Y490.938
X10.529 Y491.562
X10.537 Y492.186
X10.549 Y492.809
X10.565 Y493.433
X10.587 Y494.057
X10.615 Y494.68
X10.651 Y495.303
X10.695 Y495.925
X10.75 Y496.547
X10.816 Y497.167
X10.893 Y497.786
X10.983 Y498.404
X11.087 Y499.019
X11.204 Y499.632
X11.335 Y500.242
X11.481 Y500.849
X11.641 Y501.452
X11.817 Y502.05
X12.007 Y502.645
X12.212 Y503.234
X12.432 Y503.818
X12.667 Y504.396
X12.916 Y504.968
X13.18 Y505.533
X13.459 Y506.091
X13.752 Y506.642
X14.059 Y507.186
X14.379 Y507.721
X14.714 Y508.248
X15.062 Y508.766
X15.423 Y509.274
X15.797 Y509.774
X16.184 Y510.263
X16.583 Y510.743
X16.995 Y511.212
X17.418 Y511.67
X17.853 Y512.117
X18.299 Y512.553
X18.757 Y512.978
X19.225 Y513.39
X19.703 Y513.791
X20.192 Y514.178
X20.691 Y514.553
X21.199 Y514.915
X21.717 Y515.264
X22.243 Y515.599
X22.778 Y515.921
X23.32 Y516.228
X23.871 Y516.522
X24.429 Y516.801
X24.994 Y517.066
X25.566 Y517.316
X26.143 Y517.552
X26.727 Y517.772
X27.316 Y517.978
X27.91 Y518.168
X28.509 Y518.343
X29.113 Y518.502
X29.72 Y518.646
X30.33 Y518.776
X30.943 Y518.891
X31.559 Y518.991
X32.177 Y519.078
X32.796 Y519.153
X33.417 Y519.216
X34.039 Y519.269
X34.661 Y519.313
X35.284 Y519.349
X35.907 Y519.379
X36.531 Y519.402
X37.155 Y519.421
X37.778 Y519.436
X38.402 Y519.448
X39.026 Y519.457
X39.65 Y519.464
X40.274 Y519.469
X41.522 Y519.476
X42.77 Y519.48
X44.641 Y519.483
X49.633 Y519.485
X73.967
X124.506
X175.046
X225.586
X276.125
X326.665
X338.52 Y519.484
X339.768 Y519.482
X340.392 Y519.48
X341.015 Y519.476
X341.639 Y519.47
X342.263 Y519.461
X342.887 Y519.449
X343.511 Y519.432
X344.134 Y519.41
X344.758 Y519.381
X345.38 Y519.344
X346.003 Y519.298
X346.624 Y519.242
X347.244 Y519.175
X347.863 Y519.096
X348.481 Y519.005
X349.096 Y518.9
X349.708 Y518.781
X350.318 Y518.648
X350.924 Y518.5
X351.527 Y518.338
X352.125 Y518.161
X352.719 Y517.969
X353.307 Y517.763
X353.89 Y517.541
X354.468 Y517.304
X355.039 Y517.052
X355.603 Y516.786
X356.161 Y516.506
X356.711 Y516.212
X357.253 Y515.903
X357.787 Y515.58
X358.312 Y515.244
X358.829 Y514.894
X359.337 Y514.532
X359.835 Y514.156
X360.323 Y513.767
X360.801 Y513.367
X361.269 Y512.954
X361.726 Y512.529
X362.172 Y512.092
X362.606 Y511.644
X363.029 Y511.186
X363.44 Y510.716
X363.839 Y510.236
X364.225 Y509.746
X364.598 Y509.246
X364.958 Y508.736
X365.305 Y508.218
X365.639 Y507.691
X365.959 Y507.155
X366.265 Y506.611
X366.557 Y506.06
X366.834 Y505.501
X367.097 Y504.935
X367.346 Y504.363
X367.58 Y503.784
X367.798 Y503.2
X368.002 Y502.61
X368.19 Y502.015
X368.363 Y501.416
X368.521 Y500.812
X368.664 Y500.205
X368.791 Y499.594
X368.904 Y498.98
X369.003 Y498.364
X369.088 Y497.746
X369.162 Y497.127
X369.224 Y496.506
X369.276 Y495.884
X369.319 Y495.261
X369.354 Y494.638
X369.382 Y494.015
X369.405 Y493.392
X369.424 Y492.768
X369.438 Y492.144
X369.449 Y491.52
X369.458 Y490.897
X369.465 Y490.273
X369.47 Y489.649
X369.477 Y488.401
X369.481 Y487.153
X369.484 Y484.657
X369.485 Y477.17
Y450.34
Y399.801
Y349.261
Y298.721
Y248.182
Y197.642
Y147.103
Y96.563
Y46.024
Y41.656
X369.483 Y40.408
X369.481 Y39.784
X369.477 Y39.16
X369.472 Y38.536
X369.464 Y37.912
X369.453 Y37.288
X369.438 Y36.665
X369.417 Y36.041
X369.39 Y35.418
X369.355 Y34.795
X369.312 Y34.172
X369.259 Y33.551
X369.195 Y32.93
X369.12 Y32.311
X369.032 Y31.693
X368.931 Y31.077
X368.816 Y30.464
X368.687 Y29.853
X368.544 Y29.246
X368.386 Y28.643
X368.213 Y28.043
X368.025 Y27.448
X367.822 Y26.858
X367.605 Y26.273
X367.372 Y25.694
X367.125 Y25.121
X366.863 Y24.555
X366.586 Y23.996
X366.296 Y23.444
X365.991 Y22.899
X365.672 Y22.363
X365.34 Y21.835
X364.994 Y21.315
X364.635 Y20.805
X364.263 Y20.304
X363.878 Y19.813
X363.481 Y19.332
X363.071 Y18.861
X362.649 Y18.401
X362.216 Y17.952
X361.772 Y17.515
X361.316 Y17.088
X360.849 Y16.674
X360.372 Y16.272
X359.885 Y15.883
X359.387 Y15.506
X358.881 Y15.142
X358.365 Y14.791
X357.84 Y14.454
X357.306 Y14.13
X356.765 Y13.82
X356.216 Y13.524
X355.659 Y13.242
X355.095 Y12.975
X354.524 Y12.722
X353.948 Y12.485
X353.365 Y12.262
X352.777 Y12.054
X352.183 Y11.861
X351.585 Y11.683
X350.983 Y11.521
X350.376 Y11.374
X349.766 Y11.243
X349.153 Y11.126
X348.538 Y11.023
X347.92 Y10.934
X347.301 Y10.858
X346.681 Y10.793
X346.059 Y10.738
X345.437 Y10.692
X344.814 Y10.655
X344.191 Y10.625
X343.567 Y10.6
X342.944 Y10.581
X342.32 Y10.566
X341.696 Y10.553
X341.072 Y10.544
X340.448 Y10.537
X339.824 Y10.531
X339.2 Y10.527
X337.952 Y10.522
X336.081 Y10.518
X332.337 Y10.515
X293.028
X242.489
X191.949
X141.41
X90.87
X41.578
X40.331 Y10.517
X39.707 Y10.52
X39.083 Y10.523
X38.459 Y10.529
X37.835 Y10.537
X37.211 Y10.549
X36.587 Y10.565
X35.964 Y10.586
X35.34 Y10.614
X34.717 Y10.65
X34.095 Y10.694
X33.474 Y10.748
X32.853 Y10.814
X32.234 Y10.891
X31.616 Y10.98
X31.001 Y11.083
X30.388 Y11.2
X29.778 Y11.33
X29.171 Y11.475
X28.568 Y11.635
X27.969 Y11.81
X27.375 Y12
X26.785 Y12.205
X26.201 Y12.424
X25.623 Y12.659
X25.051 Y12.908
X24.485 Y13.172
X23.927 Y13.45
X23.376 Y13.742
X22.832 Y14.049
X22.297 Y14.369
X21.77 Y14.703
X21.252 Y15.051
X20.742 Y15.411
X20.243 Y15.785
X19.753 Y16.171
X19.273 Y16.57
X18.803 Y16.981
X18.344 Y17.404
X17.897 Y17.838
X17.46 Y18.284
X17.036 Y18.741
X16.623 Y19.209
X16.223 Y19.688
X15.835 Y20.176
X15.459 Y20.675
X15.097 Y21.183
X14.748 Y21.7
X14.414 Y22.227
X14.098 Y22.765
X13.803 Y23.315
X13.534 Y23.878
X13.294 Y24.454
X13.086 Y25.042
X12.908 Y25.64
X12.756 Y26.245
X12.626 Y26.856
X12.515 Y27.469
X12.419 Y28.086
X12.334 Y28.704
X12.258 Y29.323
X12.19 Y29.944
X12.128 Y30.564
X12.072 Y31.186
X12.021 Y31.808
X11.975 Y32.43
X11.934 Y33.053
X11.897 Y33.675
X11.866 Y34.299
X11.839 Y34.922
X11.815 Y35.545
X11.796 Y36.169
X11.779 Y36.793
X11.766 Y37.417
X11.755 Y38.04
X11.746 Y38.664
X11.739 Y39.288
X11.733 Y39.912
X11.726 Y41.16
X11.721 Y42.408
X11.717 Y44.28
X11.715 Y48.023
Y92.948
Y143.487
Y194.027
Y244.566
Y295.106
Y345.645
Y396.185
Y446.725
Y487.905
X11.717 Y489.153
X11.719 Y489.777
X11.722 Y490.401
X11.727 Y491.025
X11.734 Y491.649
X11.744 Y492.272
X11.758 Y492.896
X11.776 Y493.52
X11.801 Y494.143
X11.833 Y494.766
X11.873 Y495.389
X11.922 Y496.011
X11.982 Y496.632
X12.054 Y497.252
X12.138 Y497.87
X12.235 Y498.487
X12.346 Y499.101
X12.471 Y499.712
X12.612 Y500.32
X12.768 Y500.924
X12.939 Y501.524
X13.126 Y502.119
X13.328 Y502.709
X13.546 Y503.294
X13.779 Y503.873
X14.028 Y504.445
X14.293 Y505.01
X14.572 Y505.568
X14.866 Y506.118
X15.175 Y506.66
X15.499 Y507.194
X15.837 Y507.718
X16.189 Y508.233
X16.555 Y508.739
X16.934 Y509.234
X17.326 Y509.719
X17.732 Y510.193
X18.15 Y510.656
X18.581 Y511.108
X19.024 Y511.547
X19.479 Y511.974
X19.945 Y512.389
X20.422 Y512.791
X20.91 Y513.18
X21.409 Y513.555
X21.917 Y513.917
X22.435 Y514.265
X22.962 Y514.598
X23.498 Y514.918
X24.043 Y515.222
X24.596 Y515.512
X25.156 Y515.787
X25.723 Y516.046
X26.297 Y516.29
X26.878 Y516.519
X27.465 Y516.731
X28.057 Y516.927
X28.654 Y517.107
X29.256 Y517.272
X29.862 Y517.42
X30.472 Y517.552
X31.085 Y517.67
X31.7 Y517.773
X32.318 Y517.862
X32.937 Y517.939
X33.558 Y518.003
X34.179 Y518.058
X34.801 Y518.103
X35.424 Y518.141
X36.048 Y518.171
X36.671 Y518.196
X37.295 Y518.216
X37.918 Y518.232
X38.542 Y518.244
X39.166 Y518.254
X39.79 Y518.261
X40.414 Y518.267
X41.038 Y518.272
X42.286 Y518.278
X44.157 Y518.282
X47.277 Y518.284
X51.645 Y518.285
X102.184
X152.724
X203.264
X253.803
X304.343
X337.412
X339.284 Y518.283
X339.908 Y518.28
X340.532 Y518.277
X341.155 Y518.272
X341.779 Y518.264
X342.403 Y518.254
X343.027 Y518.239
X343.651 Y518.219
X344.274 Y518.193
X344.897 Y518.159
X345.52 Y518.117
X346.141 Y518.066
X346.762 Y518.004
X347.382 Y517.93
X348 Y517.844
X348.616 Y517.744
X349.229 Y517.63
X349.84 Y517.501
X350.447 Y517.357
X351.05 Y517.198
X351.649 Y517.024
X352.244 Y516.834
X352.833 Y516.628
X353.416 Y516.407
X353.993 Y516.17
X354.564 Y515.918
X355.128 Y515.651
X355.684 Y515.368
X356.233 Y515.071
X356.773 Y514.759
X357.304 Y514.432
X357.827 Y514.091
X358.34 Y513.736
X358.844 Y513.368
X359.337 Y512.986
X359.819 Y512.59
X360.291 Y512.181
X360.751 Y511.76
X361.2 Y511.327
X361.637 Y510.881
X362.061 Y510.424
X362.474 Y509.955
X362.873 Y509.476
X363.259 Y508.986
X363.631 Y508.485
X363.99 Y507.975
X364.335 Y507.455
X364.666 Y506.926
X364.982 Y506.388
X365.284 Y505.842
X365.57 Y505.288
X365.842 Y504.726
X366.099 Y504.157
X366.339 Y503.581
X366.564 Y502.999
X366.773 Y502.411
X366.966 Y501.818
X367.143 Y501.22
X367.304 Y500.617
X367.449 Y500.01
X367.578 Y499.4
X367.693 Y498.786
X367.793 Y498.17
X367.879 Y497.553
X367.953 Y496.933
X368.016 Y496.312
X368.069 Y495.69
X368.112 Y495.068
X368.148 Y494.445
X368.177 Y493.822
X368.201 Y493.198
X368.22 Y492.575
X368.235 Y491.951
X368.247 Y491.327
X368.256 Y490.703
X368.263 Y490.079
X368.268 Y489.455
X368.273 Y488.831
X368.278 Y487.584
X368.282 Y485.712
X368.284 Y482.592
X368.285 Y470.737
Y420.198
Y369.658
Y319.118
Y268.579
Y218.039
Y167.5
Y116.96
Y66.42
Y42.087
X368.283 Y40.839
X368.281 Y40.215
X368.278 Y39.591
X368.273 Y38.967
X368.266 Y38.343
X368.256 Y37.719
X368.242 Y37.095
X368.223 Y36.472
X368.198 Y35.848
X368.167 Y35.225
X368.127 Y34.602
X368.077 Y33.98
X368.017 Y33.359
X367.946 Y32.74
X367.862 Y32.121
X367.764 Y31.505
X367.653 Y30.891
X367.527 Y30.28
X367.386 Y29.672
X367.231 Y29.068
X367.059 Y28.468
X366.872 Y27.873
X366.67 Y27.283
X366.451 Y26.698
X366.218 Y26.119
X365.969 Y25.547
X365.704 Y24.982
X365.425 Y24.424
X365.13 Y23.874
X364.821 Y23.332
X364.497 Y22.799
X364.159 Y22.275
X363.807 Y21.759
X363.441 Y21.254
X363.061 Y20.759
X362.668 Y20.274
X362.262 Y19.801
X361.844 Y19.338
X361.412 Y18.887
X360.969 Y18.448
X360.514 Y18.021
X360.048 Y17.607
X359.57 Y17.205
X359.082 Y16.816
X358.584 Y16.441
X358.075 Y16.079
X357.557 Y15.732
X357.03 Y15.398
X356.494 Y15.079
X355.949 Y14.774
X355.397 Y14.484
X354.837 Y14.21
X354.269 Y13.95
X353.695 Y13.707
X353.114 Y13.479
X352.527 Y13.267
X351.935 Y13.07
X351.337 Y12.89
X350.736 Y12.726
X350.129 Y12.578
X349.52 Y12.446
X348.907 Y12.328
X348.291 Y12.226
X347.674 Y12.137
X347.055 Y12.06
X346.434 Y11.995
X345.812 Y11.941
X345.19 Y11.895
X344.567 Y11.858
X343.944 Y11.828
X343.321 Y11.803
X342.697 Y11.783
X342.073 Y11.768
X341.449 Y11.755
X340.826 Y11.746
X340.202 Y11.738
X339.578 Y11.733
X338.954 Y11.728
X337.706 Y11.722
X335.834 Y11.718
X332.714 Y11.716
X311.5 Y11.715
X260.961
X210.421
X159.882
X109.342
X58.802
X41.956 Y11.716
X40.708 Y11.717
X40.084 Y11.72
X39.46 Y11.723
X38.836 Y11.728
X38.212 Y11.736
X37.588 Y11.746
X36.965 Y11.761
X36.341 Y11.781
X35.718 Y11.807
X35.095 Y11.841
X34.472 Y11.883
X33.85 Y11.934
X33.229 Y11.997
X32.61 Y12.071
X31.992 Y12.158
X31.376 Y12.258
X30.763 Y12.373
X30.152 Y12.502
X29.545 Y12.646
X28.942 Y12.805
X28.343 Y12.98
X27.749 Y13.17
X27.16 Y13.376
X26.576 Y13.597
X25.999 Y13.834
X25.429 Y14.086
X24.865 Y14.354
X24.309 Y14.636
X23.76 Y14.934
X23.22 Y15.246
X22.688 Y15.573
X22.166 Y15.914
X21.653 Y16.269
X21.15 Y16.638
X20.657 Y17.02
X20.174 Y17.416
X19.703 Y17.825
X19.242 Y18.246
X18.794 Y18.68
X18.357 Y19.125
X17.933 Y19.583
X17.521 Y20.051
X17.122 Y20.531
X16.736 Y21.021
X16.363 Y21.522
X16.005 Y22.033
X15.663 Y22.554
X15.339 Y23.087
X15.037 Y23.634
X14.763 Y24.194
X14.52 Y24.769
X14.307 Y25.355
X14.123 Y25.952
X13.966 Y26.555
X13.831 Y27.165
X13.716 Y27.778
X13.615 Y28.393
X13.527 Y29.011
X13.449 Y29.63
X13.379 Y30.25
X13.317 Y30.871
X13.261 Y31.493
X13.211 Y32.114
X13.166 Y32.737
X13.126 Y33.359
X13.091 Y33.982
X13.061 Y34.606
X13.035 Y35.229
X13.012 Y35.853
X12.994 Y36.476
X12.978 Y37.1
X12.965 Y37.724
X12.954 Y38.348
X12.946 Y38.972
X12.939 Y39.595
X12.934 Y40.219
X12.926 Y41.467
X12.921 Y42.715
X12.918 Y44.587
X12.915 Y48.331
Y76.408
Y126.948
Y177.487
Y228.027
Y278.566
Y329.106
Y379.646
Y430.185
Y480.725
X12.916 Y487.588
X12.917 Y488.836
X12.919 Y489.46
X12.922 Y490.084
X12.927 Y490.708
X12.933 Y491.332
X12.943 Y491.956
X12.956 Y492.579
X12.974 Y493.203
X12.998 Y493.827
X13.028 Y494.45
X13.067 Y495.073
X13.115 Y495.695
X13.173 Y496.316
X13.243 Y496.936
X13.326 Y497.554
X13.422 Y498.171
X13.532 Y498.785
X13.657 Y499.396
X13.798 Y500.004
X13.954 Y500.608
X14.127 Y501.208
X14.316 Y501.802
X14.521 Y502.392
X14.742 Y502.975
X14.98 Y503.552
X15.233 Y504.122
X15.503 Y504.685
X15.789 Y505.239
X16.09 Y505.786
X16.407 Y506.323
X16.739 Y506.852
X17.086 Y507.37
X17.448 Y507.878
X17.824 Y508.376
X18.215 Y508.863
X18.619 Y509.338
X19.037 Y509.802
X19.467 Y510.253
X19.911 Y510.692
X20.367 Y511.118
X20.835 Y511.53
X21.314 Y511.93
X21.805 Y512.315
X22.307 Y512.686
X22.819 Y513.043
X23.341 Y513.385
X23.872 Y513.711
X24.413 Y514.023
X24.962 Y514.318
X25.52 Y514.598
X26.086 Y514.861
X26.659 Y515.108
X27.238 Y515.339
X27.824 Y515.553
X28.416 Y515.75
X29.014 Y515.93
X29.616 Y516.094
X30.222 Y516.241
X30.832 Y516.372
X31.446 Y516.487
X32.061 Y516.588
X32.679 Y516.675
X33.299 Y516.749
X33.92 Y516.812
X34.541 Y516.865
X35.164 Y516.909
X35.787 Y516.945
X36.41 Y516.974
X37.033 Y516.998
X37.657 Y517.017
X38.281 Y517.032
X38.904 Y517.044
X39.528 Y517.054
X40.152 Y517.061
X40.776 Y517.067
X41.4 Y517.071
X42.648 Y517.077
X44.52 Y517.082
X47.64 Y517.084
X86.948 Y517.085
X87.572
X138.112
X188.651
X239.191
X289.73
X337.15
X339.022 Y517.082
X339.646 Y517.08
X340.27 Y517.077
X340.894 Y517.072
X341.518 Y517.064
X342.142 Y517.054
X342.765 Y517.039
X343.389 Y517.02
X344.012 Y516.994
X344.636 Y516.961
X345.258 Y516.92
X345.88 Y516.869
X346.501 Y516.807
X347.12 Y516.734
X347.738 Y516.647
X348.354 Y516.547
X348.968 Y516.432
X349.578 Y516.303
X350.185 Y516.157
X350.787 Y515.996
X351.386 Y515.819
X351.979 Y515.626
X352.566 Y515.416
X353.148 Y515.19
X353.723 Y514.947
X354.291 Y514.689
X354.851 Y514.415
X355.404 Y514.124
X355.947 Y513.818
X356.482 Y513.496
X357.007 Y513.16
X357.523 Y512.808
X358.028 Y512.442
X358.522 Y512.061
X359.005 Y511.666
X359.477 Y511.258
X359.937 Y510.836
X360.384 Y510.402
X360.819 Y509.954
X361.242 Y509.495
X361.65 Y509.023
X362.045 Y508.54
X362.427 Y508.046
X362.793 Y507.542
X363.146 Y507.027
X363.483 Y506.502
X363.805 Y505.967
X364.112 Y505.424
X364.402 Y504.872
X364.677 Y504.312
X364.936 Y503.744
X365.178 Y503.169
X365.404 Y502.587
X365.613 Y502
X365.805 Y501.406
X365.981 Y500.807
X366.139 Y500.204
X366.282 Y499.596
X366.408 Y498.985
X366.519 Y498.371
X366.615 Y497.755
X366.698 Y497.136
X366.769 Y496.516
X366.829 Y495.895
X366.879 Y495.273
X366.921 Y494.651
X366.955 Y494.028
X366.982 Y493.404
X367.005 Y492.781
X367.022 Y492.157
X367.037 Y491.533
X367.048 Y490.91
X367.057 Y490.286
X367.063 Y489.662
X367.069 Y489.038
X367.076 Y487.79
X367.08 Y486.542
X367.083 Y484.67
X367.084 Y483.422
X367.085 Y474.687
Y432.883
Y382.343
Y331.804
Y281.264
Y230.725
Y180.185
Y129.645
Y79.106
Y42.917
X367.083 Y41.045
X367.081 Y40.421
X367.077 Y39.797
X367.072 Y39.173
X367.065 Y38.549
X367.055 Y37.926
X367.041 Y37.302
X367.022 Y36.678
X366.997 Y36.055
X366.965 Y35.432
X366.924 Y34.809
X366.875 Y34.187
X366.814 Y33.566
X366.742 Y32.946
X366.657 Y32.328
X366.558 Y31.712
X366.445 Y31.098
X366.317 Y30.488
X366.174 Y29.881
X366.014 Y29.277
X365.839 Y28.678
X365.647 Y28.085
X365.439 Y27.496
X365.215 Y26.914
X364.975 Y26.338
X364.718 Y25.77
X364.445 Y25.209
X364.156 Y24.656
X363.852 Y24.111
X363.532 Y23.575
X363.196 Y23.049
X362.846 Y22.533
X362.482 Y22.026
X362.102 Y21.531
X361.709 Y21.046
X361.302 Y20.573
X360.882 Y20.112
X360.449 Y19.663
X360.003 Y19.227
X359.545 Y18.803
X359.075 Y18.393
X358.593 Y17.996
X358.1 Y17.614
X357.597 Y17.245
X357.083 Y16.891
X356.559 Y16.553
X356.025 Y16.229
X355.483 Y15.921
X354.932 Y15.628
X354.372 Y15.352
X353.805 Y15.091
X353.231 Y14.847
X352.65 Y14.619
X352.063 Y14.409
X351.47 Y14.215
X350.872 Y14.037
X350.269 Y13.877
X349.662 Y13.733
X349.051 Y13.605
X348.437 Y13.492
X347.821 Y13.394
X347.203 Y13.309
X346.583 Y13.237
X345.962 Y13.176
X345.34 Y13.125
X344.718 Y13.083
X344.095 Y13.048
X343.472 Y13.02
X342.848 Y12.998
X342.224 Y12.979
X341.601 Y12.965
X340.977 Y12.953
X340.353 Y12.944
X339.729 Y12.937
X339.105 Y12.932
X337.857 Y12.925
X336.609 Y12.92
X334.738 Y12.917
X330.37 Y12.915
X322.259
X271.719
X221.179
X170.64
X120.1
X69.561
X42.731
X41.483 Y12.917
X40.235 Y12.92
X39.611 Y12.924
X38.987 Y12.93
X38.364 Y12.938
X37.74 Y12.949
X37.116 Y12.964
X36.492 Y12.985
X35.869 Y13.012
X35.246 Y13.046
X34.624 Y13.089
X34.002 Y13.142
X33.381 Y13.206
X32.762 Y13.282
X32.144 Y13.371
X31.529 Y13.474
X30.916 Y13.592
X30.307 Y13.724
X29.7 Y13.873
X29.098 Y14.037
X28.501 Y14.217
X27.909 Y14.414
X27.322 Y14.626
X26.742 Y14.855
X26.168 Y15.101
X25.602 Y15.362
X25.043 Y15.64
X24.493 Y15.934
X23.951 Y16.243
X23.418 Y16.567
X22.894 Y16.907
X22.381 Y17.261
X21.878 Y17.63
X21.385 Y18.014
X20.904 Y18.411
X20.435 Y18.822
X19.977 Y19.246
X19.531 Y19.683
X19.099 Y20.132
X18.679 Y20.594
X18.273 Y21.067
X17.88 Y21.552
X17.502 Y22.049
X17.139 Y22.556
X16.795 Y23.077
X16.471 Y23.61
X16.173 Y24.158
X15.904 Y24.721
X15.665 Y25.297
X15.456 Y25.885
X15.277 Y26.483
X15.122 Y27.088
X14.99 Y27.697
X14.876 Y28.311
X14.776 Y28.927
X14.69 Y29.545
X14.653 Y29.845
X14.622 Y30.109
X14.614 Y30.156
X14.255 Y31.807
X14.225 Y31.949
X14.211 Y32.091
X14.185 Y32.375
X14.154 Y32.8
X14.022 Y34.643
X14.013 Y34.785
X14 Y35.211
Y494.789
X14.013 Y495.215
X14.032 Y495.498
X14.174 Y497.484
X14.185 Y497.625
X14.216 Y497.965
X14.225 Y498.051
X14.316 Y498.476
X14.81 Y500.745
X14.847 Y500.887
X14.994 Y501.312
X15.841 Y503.581
X15.906 Y503.723
X16.059 Y504.022
X16.125 Y504.148
X17.054 Y505.85
X17.133 Y505.992
X17.378 Y506.417
X17.589 Y506.701
X18.894 Y508.444
X18.97 Y508.544
X19.079 Y508.686
X19.177 Y508.801
X19.342 Y508.97
X19.625 Y509.253
X21.02 Y510.648
X21.191 Y510.813
X21.304 Y510.914
X21.587 Y511.13
X23.438 Y512.515
X23.572 Y512.614
X23.639 Y512.656
X23.997 Y512.861
X24.14 Y512.94
X25.84 Y513.868
X25.96 Y513.933
X26.265 Y514.087
X26.407 Y514.155
X28.675 Y515.001
X28.864 Y515.067
X29.101 Y515.147
X29.242 Y515.188
X31.794 Y515.743
X31.956 Y515.776
X32.078 Y515.789
X32.361 Y515.814
X32.503 Y515.825
X34.771 Y515.987
X35.196 Y515.999
X35.338 Y516
X344.662
X344.804 Y515.999
X345.229 Y515.987
X347.497 Y515.825
X347.639 Y515.814
X347.922 Y515.789
X348.044 Y515.776
X348.206 Y515.743
X350.758 Y515.188
X350.899 Y515.147
X351.183 Y515.051
X351.325 Y515.001
X353.593 Y514.155
X353.759 Y514.074
X354.04 Y513.933
X354.16 Y513.868
X355.861 Y512.94
X356.003 Y512.861
X356.361 Y512.656
X356.428 Y512.614
X356.853 Y512.297
X358.457 Y511.097
X358.696 Y510.914
X358.809 Y510.813
X358.98 Y510.648
X360.539 Y509.089
X360.681 Y508.946
X360.823 Y508.801
X360.921 Y508.686
X361.03 Y508.544
X361.39 Y508.065
X362.524 Y506.55
X362.622 Y506.417
X362.867 Y505.992
X363.233 Y505.324
X363.875 Y504.148
X363.949 Y504.007
X364.094 Y503.723
X364.159 Y503.581
X365.006 Y501.312
X365.153 Y500.887
X365.19 Y500.745
X365.745 Y498.193
X365.775 Y498.051
X365.789 Y497.909
X365.815 Y497.625
X365.846 Y497.2
X365.978 Y495.357
X365.987 Y495.215
X366 Y494.789
Y35.211
X365.987 Y34.785
X365.968 Y34.502
X365.826 Y32.516
X365.815 Y32.375
X365.784 Y32.035
X365.775 Y31.949
X365.684 Y31.524
X365.19 Y29.255
X365.153 Y29.113
X365.006 Y28.688
X364.159 Y26.419
X364.094 Y26.277
X363.941 Y25.978
X363.875 Y25.852
X362.946 Y24.15
X362.867 Y24.008
X362.622 Y23.583
X362.411 Y23.299
X361.106 Y21.556
X361.03 Y21.456
X360.921 Y21.314
X360.823 Y21.199
X360.658 Y21.03
X360.375 Y20.747
X358.98 Y19.352
X358.809 Y19.187
X358.696 Y19.086
X358.413 Y18.87
X356.562 Y17.485
X356.428 Y17.386
X356.361 Y17.344
X356.003 Y17.139
X355.86 Y17.06
X354.16 Y16.132
X354.04 Y16.067
X353.735 Y15.913
X353.593 Y15.845
X351.325 Y14.999
X351.135 Y14.933
X350.899 Y14.853
X350.758 Y14.812
X348.206 Y14.257
X348.044 Y14.224
X347.922 Y14.211
X347.639 Y14.186
X347.497 Y14.175
X345.229 Y14.013
X344.804 Y14.001
X344.662 Y14
X35.338
X35.196 Y14.001
X34.771 Y14.013
X32.503 Y14.175
X32.361 Y14.186
X32.078 Y14.211
X31.956 Y14.224
X31.794 Y14.257
X29.242 Y14.812
X29.101 Y14.853
X28.817 Y14.949
X28.675 Y14.999
X26.407 Y15.845
X26.241 Y15.926
X25.96 Y16.067
X25.84 Y16.132
X24.139 Y17.06
X23.997 Y17.139
X23.639 Y17.344
X23.572 Y17.386
X23.147 Y17.703
X21.543 Y18.903
X21.304 Y19.086
X21.191 Y19.187
X21.02 Y19.352
X19.461 Y20.911
X19.319 Y21.054
X19.177 Y21.199
X19.079 Y21.314
X18.97 Y21.456
X18.61 Y21.935
X17.476 Y23.45
X17.378 Y23.583
X17.133 Y24.008
X16.767 Y24.676
X16.125 Y25.852
X16.051 Y25.993
X15.906 Y26.277
X15.841 Y26.419
X14.994 Y28.688
X14.847 Y29.113
X14.81 Y29.255
X14.614 Y30.156
G3 X14.235 Y30.369 I-0.291 J-0.074
G1 X14.19 Y30.341 Z-0.395
X14.147 Y30.314 Z-0.381
X14.106 Y30.289 Z-0.358
X14.081 Y30.246 Z-0.321
X14.061 Y30.211 Z-0.274
X14.046 Y30.185 Z-0.22
X14.037 Y30.168 Z-0.162
X14.034 Y30.163 Z-0.1
G0 Z6.5
X-0.294 Y22.855
Z-1.8
G1 Z-2.1 F1000
X-0.292 Y22.863 Z-2.167
X-0.287 Y22.884 Z-2.23
X-0.278 Y22.919 Z-2.287
X-0.266 Y22.965 Z-2.335
X-0.252 Y23.02 Z-2.37
X-0.236 Y23.081 Z-2.392
X-0.22 Y23.146 Z-2.4
G3 X0.015 Y24.779 I-7.419 J1.9
G1 Y24.935
X0.153 Y25.544
X0.186 Y25.614
X0.241 Y25.754
X0.291 Y25.919
X0.336 Y26.125
X0.377 Y26.432
X0.406 Y26.969
X0.389 Y27.593
X0.336 Y28.215
X0.265 Y28.835
X0.182 Y29.453
X0.093 Y30.071
X0.01 Y30.689
X-0.052 Y31.31
X-0.102 Y31.932
X-0.144 Y32.554
X-0.182 Y33.177
X-0.218 Y33.8
X-0.246 Y34.423
X-0.263 Y35.047
X-0.272 Y35.671
X-0.278 Y36.295
X-0.281 Y36.919
X-0.284 Y38.167
X-0.285 Y41.91
Y74.98
Y125.519
Y176.059
Y226.598
Y277.138
Y327.677
Y378.217
Y428.757
Y479.296
Y493.647
X-0.282 Y494.271
X-0.267 Y494.895
X-0.245 Y495.518
X-0.218 Y496.141
X-0.188 Y496.765
X-0.158 Y497.388
X-0.118 Y498.011
X-0.054 Y498.631
X0.024 Y499.25
X0.11 Y499.868
X0.202 Y500.485
X0.295 Y501.102
X0.401 Y501.717
X0.53 Y502.328
X0.673 Y502.935
X0.824 Y503.54
X0.979 Y504.145
X1.137 Y504.748
X1.309 Y505.348
X1.502 Y505.941
X1.709 Y506.53
X1.922 Y507.117
X2.14 Y507.701
X2.361 Y508.285
X2.596 Y508.863
X2.852 Y509.432
X3.12 Y509.995
X3.394 Y510.556
X3.672 Y511.114
X3.952 Y511.672
X4.249 Y512.221
X4.565 Y512.759
X4.89 Y513.291
X5.222 Y513.82
X5.557 Y514.346
X5.894 Y514.871
X6.249 Y515.384
X6.62 Y515.886
X7 Y516.381
X7.386 Y516.871
X7.774 Y517.36
X8.164 Y517.846
X8.573 Y518.318
X8.995 Y518.778
X9.425 Y519.229
X9.86 Y519.677
X10.298 Y520.121
X10.737 Y520.564
X11.194 Y520.989
X11.663 Y521.401
X12.139 Y521.804
X12.619 Y522.203
X13.101 Y522.6
X13.584 Y522.995
X14.084 Y523.367
X14.594 Y523.726
X15.11 Y524.077
X15.629 Y524.424
X16.15 Y524.767
X16.673 Y525.108
X17.211 Y525.424
X17.756 Y525.727
X18.306 Y526.022
X18.859 Y526.312
X19.413 Y526.599
X19.969 Y526.88
X20.538 Y527.138
X21.112 Y527.382
X21.69 Y527.617
X22.27 Y527.847
X22.851 Y528.074
X23.435 Y528.294
X24.028 Y528.49
X24.625 Y528.671
X25.224 Y528.844
X25.825 Y529.012
X26.427 Y529.177
X27.031 Y529.332
X27.641 Y529.463
X28.254 Y529.58
X28.868 Y529.689
X29.483 Y529.793
X30.099 Y529.895
X30.717 Y529.983
X31.337 Y530.048
X31.959 Y530.1
X32.582 Y530.144
X33.204 Y530.183
X33.827 Y530.219
X34.45 Y530.247
X35.074 Y530.263
X35.698 Y530.272
X36.322 Y530.278
X36.946 Y530.281
X38.194 Y530.284
X41.937 Y530.285
X65.023
X115.563
X166.103
X216.642
X267.182
X317.721
X343.927
X344.551 Y530.276
X345.175 Y530.257
X345.798 Y530.233
X346.421 Y530.205
X347.045 Y530.174
X347.668 Y530.143
X348.29 Y530.091
X348.909 Y530.02
X349.528 Y529.938
X350.145 Y529.849
X350.763 Y529.756
X351.379 Y529.662
X351.992 Y529.543
X352.601 Y529.407
X353.207 Y529.26
X353.812 Y529.107
X354.416 Y528.95
X355.019 Y528.791
X355.616 Y528.608
X356.206 Y528.407
X356.794 Y528.196
X357.379 Y527.98
X357.963 Y527.761
X358.547 Y527.54
X359.119 Y527.292
X359.685 Y527.03
X360.247 Y526.758
X360.807 Y526.482
X361.365 Y526.203
X361.921 Y525.92
X362.464 Y525.612
X362.999 Y525.291
X363.529 Y524.962
X364.056 Y524.628
X364.582 Y524.292
X365.104 Y523.95
X365.611 Y523.587
X366.109 Y523.211
X366.601 Y522.828
X367.091 Y522.441
X367.578 Y522.051
X368.06 Y521.655
X368.525 Y521.24
X368.981 Y520.813
X369.43 Y520.38
X369.876 Y519.944
X370.32 Y519.505
X370.756 Y519.059
X371.174 Y518.596
X371.582 Y518.124
X371.984 Y517.646
X372.381 Y517.165
X372.777 Y516.683
X373.162 Y516.192
X373.528 Y515.687
X373.884 Y515.174
X374.233 Y514.657
X374.578 Y514.137
X374.921 Y513.616
X375.25 Y513.086
X375.561 Y512.545
X375.86 Y511.997
X376.152 Y511.446
X376.441 Y510.893
X376.727 Y510.338
X376.997 Y509.776
X377.248 Y509.205
X377.488 Y508.628
X377.72 Y508.05
X377.949 Y507.469
X378.176 Y506.888
X378.384 Y506.299
X378.572 Y505.705
X378.749 Y505.106
X378.92 Y504.506
X379.086 Y503.905
X379.251 Y503.303
X379.393 Y502.696
X379.517 Y502.084
X379.63 Y501.47
X379.736 Y500.856
X379.839 Y500.24
X379.939 Y499.624
X380.016 Y499.005
X380.073 Y498.384
X380.121 Y497.762
X380.162 Y497.139
X380.199 Y496.516
X380.235 Y495.893
X380.256 Y495.27
X380.268 Y494.646
X380.275 Y494.022
X380.279 Y493.398
X380.283 Y492.15
X380.285 Y489.654
Y476.552
Y426.012
Y375.472
Y324.933
Y274.393
Y223.854
Y173.314
Y122.774
Y72.235
Y36.046
X380.276 Y35.422
X380.256 Y34.799
X380.232 Y34.175
X380.203 Y33.552
X380.173 Y32.929
X380.142 Y32.305
X380.089 Y31.684
X380.017 Y31.064
X379.934 Y30.446
X379.845 Y29.828
X379.752 Y29.211
X379.658 Y28.594
X379.538 Y27.982
X379.401 Y27.373
X379.254 Y26.767
X379.1 Y26.162
X378.943 Y25.558
X378.785 Y24.955
X378.599 Y24.359
X378.398 Y23.768
X378.187 Y23.181
X377.971 Y22.596
X377.752 Y22.012
X377.529 Y21.429
X377.281 Y20.856
X377.018 Y20.29
X376.746 Y19.729
X376.47 Y19.169
X376.191 Y18.612
X375.906 Y18.056
X375.598 Y17.513
X375.277 Y16.979
X374.948 Y16.449
X374.614 Y15.921
X374.278 Y15.396
X373.935 Y14.874
X373.571 Y14.368
X373.195 Y13.87
X372.811 Y13.378
X372.424 Y12.888
X372.034 Y12.401
X371.637 Y11.92
X371.221 Y11.455
X370.794 Y11
X370.361 Y10.551
X369.925 Y10.105
X369.486 Y9.661
X369.039 Y9.226
X368.576 Y8.808
X368.103 Y8.401
X367.625 Y7.999
X367.144 Y7.602
X366.662 Y7.206
X366.17 Y6.822
X365.665 Y6.456
X365.152 Y6.101
X364.634 Y5.753
X364.114 Y5.408
X363.593 Y5.065
X363.063 Y4.736
X362.521 Y4.426
X361.973 Y4.128
X361.422 Y3.835
X360.869 Y3.547
X360.314 Y3.261
X359.751 Y2.991
X359.18 Y2.741
X358.604 Y2.502
X358.025 Y2.27
X357.444 Y2.041
X356.863 Y1.814
X356.274 Y1.608
X355.679 Y1.42
X355.081 Y1.243
X354.48 Y1.073
X353.879 Y0.906
X353.277 Y0.742
X352.669 Y0.601
X352.058 Y0.477
X351.444 Y0.365
X350.829 Y0.259
X350.214 Y0.156
X349.598 Y0.056
X348.978 Y-0.019
X348.357 Y-0.076
X347.735 Y-0.123
X347.112 Y-0.164
X346.489 Y-0.201
X345.866 Y-0.236
X345.243 Y-0.257
X344.619 Y-0.269
X343.995 Y-0.276
X343.371 Y-0.28
X342.123 Y-0.283
X339.628 Y-0.285
X336.508
X285.968
X235.429
X184.889
X134.35
X83.81
X36.39
X35.766 Y-0.283
X35.142 Y-0.268
X34.519 Y-0.246
X33.895 Y-0.219
X33.272 Y-0.19
X32.649 Y-0.159
X32.026 Y-0.122
X31.405 Y-0.059
X30.786 Y0.019
X30.168 Y0.105
X29.551 Y0.196
X28.934 Y0.29
X28.319 Y0.394
X27.708 Y0.522
X27.101 Y0.664
X26.495 Y0.815
X25.891 Y0.97
X25.287 Y1.128
X24.687 Y1.298
X24.094 Y1.491
X23.505 Y1.696
X22.918 Y1.91
X22.333 Y2.127
X21.75 Y2.348
X21.171 Y2.582
X20.602 Y2.837
X20.038 Y3.104
X19.477 Y3.378
X18.919 Y3.656
X18.361 Y3.936
X17.812 Y4.231
X17.273 Y4.546
X16.74 Y4.871
X16.212 Y5.202
X15.685 Y5.537
X15.16 Y5.874
X14.646 Y6.228
X14.144 Y6.598
X13.648 Y6.977
X13.158 Y7.363
X12.669 Y7.751
X12.182 Y8.141
X11.709 Y8.548
X11.25 Y8.97
X10.797 Y9.4
X10.35 Y9.835
X9.905 Y10.272
X9.462 Y10.711
X9.036 Y11.167
X8.624 Y11.636
X8.219 Y12.111
X7.82 Y12.59
X7.424 Y13.072
X7.029 Y13.555
X6.655 Y14.055
X6.295 Y14.564
X5.944 Y15.08
X5.597 Y15.599
X5.253 Y16.12
X4.911 Y16.642
X4.594 Y17.179
X4.29 Y17.724
X3.995 Y18.274
X3.705 Y18.826
X3.418 Y19.38
X3.135 Y19.936
X2.876 Y20.504
X2.632 Y21.078
X2.397 Y21.656
X2.166 Y22.236
X1.939 Y22.817
X1.718 Y23.4
X1.523 Y23.993
X1.482 Y24.615
X1.507 Y25.239
X1.544 Y25.862
X1.566 Y26.485
X1.565 Y27.109
X1.539 Y27.732
X1.492 Y28.355
X1.428 Y28.975
X1.28 Y30.214
X1.213 Y30.835
X1.155 Y31.456
X1.105 Y32.078
X1.06 Y32.7
X1.02 Y33.323
X0.988 Y33.946
X0.964 Y34.57
X0.947 Y35.193
X0.936 Y35.817
X0.928 Y36.441
X0.924 Y37.065
X0.92 Y37.689
X0.917 Y38.937
X0.915 Y41.432
Y82.613
Y133.152
Y183.692
Y234.232
Y284.771
Y335.311
Y385.85
Y436.39
Y486.93
Y492.545
X0.916 Y493.169
X0.92 Y493.793
X0.932 Y494.417
X0.949 Y495.04
X0.971 Y495.664
X0.997 Y496.287
X1.027 Y496.911
X1.069 Y497.533
X1.125 Y498.155
X1.194 Y498.775
X1.272 Y499.394
X1.356 Y500.012
X1.449 Y500.629
X1.558 Y501.243
X1.681 Y501.855
X1.816 Y502.464
X1.959 Y503.071
X2.11 Y503.677
X2.271 Y504.28
X2.447 Y504.878
X2.637 Y505.473
X2.838 Y506.064
X3.046 Y506.652
X3.261 Y507.237
X3.489 Y507.818
X3.73 Y508.393
X3.985 Y508.963
X4.248 Y509.529
X4.518 Y510.091
X4.796 Y510.65
X5.087 Y511.202
X5.392 Y511.746
X5.707 Y512.285
X6.03 Y512.819
X6.359 Y513.349
X6.697 Y513.873
X7.048 Y514.389
X7.411 Y514.897
X7.783 Y515.398
X8.162 Y515.893
X8.546 Y516.385
X8.94 Y516.869
X9.346 Y517.343
X9.763 Y517.807
X10.188 Y518.264
X10.618 Y518.716
X11.054 Y519.162
X11.499 Y519.599
X11.956 Y520.024
X12.422 Y520.44
X12.893 Y520.848
X13.37 Y521.251
X13.852 Y521.647
X14.344 Y522.031
X14.845 Y522.403
X15.353 Y522.765
X15.866 Y523.12
X16.383 Y523.469
X16.906 Y523.809
X17.438 Y524.135
X17.977 Y524.45
X18.522 Y524.754
X19.07 Y525.052
X19.622 Y525.343
X20.18 Y525.622
X20.744 Y525.887
X21.315 Y526.14
X21.889 Y526.384
X22.467 Y526.621
X23.047 Y526.85
X23.633 Y527.065
X24.223 Y527.265
X24.818 Y527.454
X25.416 Y527.634
X26.015 Y527.807
X26.617 Y527.97
X27.224 Y528.118
X27.833 Y528.252
X28.445 Y528.374
X29.058 Y528.489
X29.673 Y528.596
X30.29 Y528.691
X30.908 Y528.77
X31.529 Y528.836
X32.15 Y528.892
X32.772 Y528.94
X33.395 Y528.981
X34.018 Y529.013
X34.642 Y529.037
X35.265 Y529.053
X35.889 Y529.065
X36.513 Y529.072
X37.137 Y529.077
X37.761 Y529.08
X39.009 Y529.083
X41.505 Y529.085
X74.574
X125.113
X175.653
X226.192
X276.732
X327.272
X342.87
X343.494 Y529.082
X344.118 Y529.074
X344.742 Y529.06
X345.365 Y529.04
X345.989 Y529.016
X346.612 Y528.989
X347.235 Y528.953
X347.857 Y528.903
X348.478 Y528.84
X349.098 Y528.766
X349.716 Y528.685
X350.334 Y528.597
X350.95 Y528.497
X351.563 Y528.38
X352.173 Y528.25
X352.781 Y528.11
X353.387 Y527.963
X353.992 Y527.809
X354.592 Y527.64
X355.189 Y527.456
X355.781 Y527.26
X356.37 Y527.055
X356.958 Y526.844
X357.541 Y526.623
X358.119 Y526.388
X358.691 Y526.14
X359.259 Y525.88
X359.823 Y525.613
X360.383 Y525.339
X360.939 Y525.055
X361.487 Y524.757
X362.028 Y524.446
X362.564 Y524.126
X363.096 Y523.8
X363.623 Y523.467
X364.144 Y523.123
X364.655 Y522.766
X365.159 Y522.397
X365.657 Y522.021
X366.15 Y521.639
X366.638 Y521.251
X367.117 Y520.85
X367.585 Y520.438
X368.045 Y520.017
X368.499 Y519.589
X368.949 Y519.156
X369.39 Y518.715
X369.821 Y518.263
X370.241 Y517.802
X370.653 Y517.333
X371.058 Y516.859
X371.458 Y516.38
X371.847 Y515.892
X372.225 Y515.396
X372.592 Y514.891
X372.95 Y514.38
X373.302 Y513.865
X373.647 Y513.345
X373.98 Y512.817
X374.3 Y512.281
X374.609 Y511.739
X374.909 Y511.193
X375.204 Y510.643
X375.49 Y510.088
X375.762 Y509.527
X376.02 Y508.959
X376.268 Y508.386
X376.508 Y507.81
X376.742 Y507.232
X376.964 Y506.648
X377.171 Y506.06
X377.365 Y505.467
X377.548 Y504.87
X377.725 Y504.272
X377.894 Y503.671
X378.049 Y503.067
X378.189 Y502.459
X378.317 Y501.848
X378.435 Y501.236
X378.546 Y500.622
X378.648 Y500.006
X378.735 Y499.388
X378.807 Y498.768
X378.867 Y498.147
X378.918 Y497.526
X378.963 Y496.903
X378.999 Y496.28
X379.027 Y495.657
X379.047 Y495.033
X379.06 Y494.41
X379.069 Y493.786
X379.075 Y493.162
X379.079 Y492.538
X379.083 Y491.29
X379.085 Y488.794
Y465.084
Y414.545
Y364.005
Y313.466
Y262.926
Y212.386
Y161.847
Y111.307
Y60.768
Y37.058
X379.082 Y36.434
X379.073 Y35.81
X379.058 Y35.186
X379.037 Y34.563
X379.013 Y33.939
X378.986 Y33.316
X378.949 Y32.693
X378.897 Y32.071
X378.833 Y31.45
X378.758 Y30.831
X378.675 Y30.213
X378.587 Y29.595
X378.484 Y28.98
X378.366 Y28.367
X378.234 Y27.757
X378.094 Y27.149
X377.946 Y26.543
X377.79 Y25.939
X377.619 Y25.339
X377.434 Y24.743
X377.237 Y24.151
X377.031 Y23.562
X376.819 Y22.975
X376.597 Y22.392
X376.36 Y21.815
X376.11 Y21.243
X375.849 Y20.676
X375.581 Y20.113
X375.307 Y19.552
X375.021 Y18.998
X374.722 Y18.45
X374.41 Y17.91
X374.089 Y17.375
X373.762 Y16.843
X373.429 Y16.316
X373.083 Y15.797
X372.724 Y15.286
X372.354 Y14.783
X371.977 Y14.286
X371.595 Y13.793
X371.205 Y13.306
X370.803 Y12.829
X370.389 Y12.362
X369.967 Y11.902
X369.539 Y11.449
X369.105 Y11
X368.663 Y10.56
X368.21 Y10.13
X367.748 Y9.711
X367.278 Y9.3
X366.804 Y8.896
X366.324 Y8.497
X365.835 Y8.109
X365.337 Y7.733
X364.832 Y7.367
X364.321 Y7.009
X363.805 Y6.658
X363.284 Y6.314
X362.756 Y5.983
X362.219 Y5.664
X361.677 Y5.356
X361.129 Y5.056
X360.579 Y4.762
X360.024 Y4.477
X359.461 Y4.207
X358.893 Y3.95
X358.32 Y3.704
X357.743 Y3.465
X357.164 Y3.232
X356.581 Y3.012
X355.991 Y2.807
X355.398 Y2.614
X354.801 Y2.431
X354.203 Y2.255
X353.602 Y2.088
X352.997 Y1.934
X352.389 Y1.795
X351.778 Y1.669
X351.165 Y1.552
X350.551 Y1.441
X349.935 Y1.341
X349.317 Y1.256
X348.697 Y1.185
X348.076 Y1.127
X347.454 Y1.077
X346.831 Y1.032
X346.208 Y0.997
X345.585 Y0.97
X344.961 Y0.951
X344.338 Y0.938
X343.714 Y0.93
X343.09 Y0.924
X342.466 Y0.921
X341.218 Y0.917
X338.722 Y0.915
X323.124
X272.584
X222.044
X171.505
X120.965
X70.426
X37.357
X36.733 Y0.916
X36.109 Y0.921
X35.485 Y0.934
X34.861 Y0.952
X34.238 Y0.975
X33.614 Y1.001
X32.991 Y1.032
X32.369 Y1.076
X31.748 Y1.135
X31.128 Y1.205
X30.509 Y1.284
X29.891 Y1.37
X29.274 Y1.466
X28.66 Y1.577
X28.049 Y1.702
X27.44 Y1.838
X26.833 Y1.983
X26.228 Y2.135
X25.626 Y2.299
X25.028 Y2.477
X24.434 Y2.669
X23.844 Y2.87
X23.256 Y3.079
X22.671 Y3.296
X22.091 Y3.526
X21.516 Y3.77
X20.947 Y4.026
X20.382 Y4.29
X19.82 Y4.561
X19.262 Y4.841
X18.712 Y5.134
X18.168 Y5.44
X17.63 Y5.757
X17.097 Y6.081
X16.567 Y6.411
X16.044 Y6.751
X15.53 Y7.104
X15.023 Y7.468
X14.524 Y7.842
X14.029 Y8.222
X13.538 Y8.608
X13.056 Y9.004
X12.584 Y9.412
X12.121 Y9.83
X11.665 Y10.256
X11.214 Y10.687
X10.769 Y11.124
X10.334 Y11.572
X9.91 Y12.03
X9.496 Y12.496
X9.088 Y12.969
X8.686 Y13.445
X8.292 Y13.929
X7.91 Y14.422
X7.54 Y14.925
X7.179 Y15.434
X6.825 Y15.947
X6.476 Y16.465
X6.138 Y16.989
X5.813 Y17.522
X5.501 Y18.062
X5.198 Y18.608
X4.902 Y19.157
X4.611 Y19.709
X4.334 Y20.268
X4.071 Y20.834
X3.82 Y21.405
X3.578 Y21.98
X3.343 Y22.558
X3.116 Y23.139
X2.938 Y23.737
X2.842 Y24.354
X2.801 Y24.976
X2.786 Y25.6
X2.777 Y26.224
X2.762 Y26.848
X2.735 Y27.471
X2.694 Y28.094
X2.64 Y28.715
X2.578 Y29.336
X2.513 Y29.957
X2.45 Y30.577
X2.391 Y31.199
X2.338 Y31.82
X2.29 Y32.442
X2.248 Y33.065
X2.213 Y33.688
X2.186 Y34.311
X2.165 Y34.935
X2.15 Y35.559
X2.139 Y36.182
X2.131 Y36.806
X2.126 Y37.43
X2.122 Y38.054
X2.118 Y39.302
X2.116 Y41.174
X2.115 Y47.413
Y97.953
Y148.493
Y199.032
Y249.572
Y300.111
Y350.651
Y401.19
Y451.73
Y492.286
X2.117 Y492.91
X2.123 Y493.534
X2.134 Y494.158
X2.15 Y494.782
X2.169 Y495.406
X2.194 Y496.029
X2.227 Y496.652
X2.27 Y497.275
X2.325 Y497.896
X2.39 Y498.517
X2.464 Y499.136
X2.548 Y499.754
X2.644 Y500.371
X2.754 Y500.985
X2.875 Y501.597
X3.007 Y502.207
X3.149 Y502.815
X3.303 Y503.419
X3.469 Y504.021
X3.647 Y504.619
X3.837 Y505.213
X4.037 Y505.804
X4.247 Y506.392
X4.468 Y506.975
X4.702 Y507.553
X4.948 Y508.127
X5.204 Y508.696
X5.468 Y509.261
X5.743 Y509.821
X6.03 Y510.375
X6.329 Y510.923
X6.639 Y511.465
X6.957 Y512.002
X7.284 Y512.533
X7.621 Y513.057
X7.971 Y513.575
X8.33 Y514.084
X8.699 Y514.588
X9.075 Y515.086
X9.46 Y515.576
X9.856 Y516.059
X10.263 Y516.532
X10.678 Y516.998
X11.101 Y517.457
X11.531 Y517.909
X11.97 Y518.352
X12.419 Y518.785
X12.877 Y519.209
X13.342 Y519.625
X13.814 Y520.034
X14.292 Y520.433
X14.78 Y520.823
X15.276 Y521.202
X15.779 Y521.571
X16.287 Y521.932
X16.802 Y522.285
X17.324 Y522.627
X17.853 Y522.958
X18.389 Y523.278
X18.93 Y523.588
X19.476 Y523.889
X20.028 Y524.181
X20.586 Y524.46
X21.15 Y524.728
X21.718 Y524.985
X22.291 Y525.232
X22.868 Y525.47
X23.449 Y525.696
X24.036 Y525.91
X24.626 Y526.111
X25.22 Y526.302
X25.817 Y526.483
X26.417 Y526.653
X27.021 Y526.811
X27.628 Y526.955
X28.238 Y527.089
X28.849 Y527.212
X29.463 Y527.324
X30.079 Y527.425
X30.697 Y527.512
X31.316 Y527.586
X31.937 Y527.65
X32.559 Y527.704
X33.181 Y527.75
X33.804 Y527.786
X34.427 Y527.815
X35.051 Y527.836
X35.674 Y527.851
X36.298 Y527.862
X36.922 Y527.87
X37.546 Y527.875
X38.17 Y527.878
X39.418 Y527.882
X41.29 Y527.884
X54.393 Y527.885
X91.829
X142.369
X192.908
X243.448
X293.988
X342.031
X342.655 Y527.884
X343.279 Y527.88
X343.903 Y527.871
X344.527 Y527.857
X345.151 Y527.839
X345.774 Y527.817
X346.397 Y527.788
X347.02 Y527.749
X347.642 Y527.699
X348.263 Y527.638
X348.883 Y527.567
X349.502 Y527.488
X350.119 Y527.397
X350.734 Y527.293
X351.347 Y527.176
X351.958 Y527.048
X352.566 Y526.91
X353.173 Y526.762
X353.775 Y526.601
X354.375 Y526.428
X354.97 Y526.242
X355.563 Y526.046
X356.152 Y525.841
X356.737 Y525.625
X357.318 Y525.396
X357.893 Y525.155
X358.464 Y524.903
X359.031 Y524.642
X359.593 Y524.372
X360.15 Y524.09
X360.7 Y523.795
X361.244 Y523.49
X361.783 Y523.175
X362.316 Y522.852
X362.844 Y522.519
X363.364 Y522.174
X363.877 Y521.819
X364.383 Y521.453
X364.883 Y521.08
X365.377 Y520.699
X365.862 Y520.307
X366.339 Y519.905
X366.808 Y519.493
X367.27 Y519.073
X367.724 Y518.646
X368.171 Y518.21
X368.608 Y517.765
X369.036 Y517.311
X369.455 Y516.849
X369.867 Y516.38
X370.27 Y515.904
X370.664 Y515.42
X371.047 Y514.927
X371.42 Y514.427
X371.785 Y513.921
X372.141 Y513.409
X372.488 Y512.89
X372.823 Y512.364
X373.147 Y511.831
X373.461 Y511.291
X373.766 Y510.747
X374.062 Y510.198
X374.347 Y509.643
X374.619 Y509.081
X374.88 Y508.515
X375.132 Y507.944
X375.374 Y507.369
X375.605 Y506.789
X375.823 Y506.205
X376.029 Y505.616
X376.225 Y505.023
X376.41 Y504.427
X376.585 Y503.828
X376.748 Y503.226
X376.898 Y502.62
X377.035 Y502.012
X377.163 Y501.401
X377.28 Y500.788
X377.386 Y500.173
X377.479 Y499.556
X377.558 Y498.937
X377.626 Y498.317
X377.684 Y497.696
X377.733 Y497.074
X377.773 Y496.451
X377.805 Y495.828
X377.829 Y495.205
X377.846 Y494.581
X377.858 Y493.957
X377.867 Y493.333
X377.873 Y492.709
X377.877 Y492.085
X377.882 Y490.837
X377.884 Y488.966
X377.885 Y480.23
Y445.913
Y395.374
Y344.834
Y294.295
Y243.755
Y193.215
Y142.676
Y92.136
Y41.597
Y37.853
X377.883 Y37.229
X377.878 Y36.605
X377.869 Y35.981
X377.854 Y35.358
X377.835 Y34.734
X377.812 Y34.11
X377.781 Y33.487
X377.741 Y32.865
X377.688 Y32.243
X377.625 Y31.622
X377.553 Y31.002
X377.472 Y30.384
X377.378 Y29.767
X377.272 Y29.152
X377.153 Y28.54
X377.023 Y27.929
X376.883 Y27.321
X376.733 Y26.715
X376.57 Y26.113
X376.394 Y25.515
X376.207 Y24.92
X376.009 Y24.328
X375.802 Y23.739
X375.584 Y23.155
X375.353 Y22.575
X375.109 Y22.001
X374.855 Y21.43
X374.593 Y20.864
X374.321 Y20.303
X374.036 Y19.748
X373.739 Y19.199
X373.432 Y18.656
X373.116 Y18.118
X372.791 Y17.585
X372.456 Y17.059
X372.109 Y16.54
X371.752 Y16.029
X371.385 Y15.524
X371.01 Y15.025
X370.627 Y14.533
X370.233 Y14.049
X369.829 Y13.574
X369.415 Y13.106
X368.994 Y12.646
X368.566 Y12.192
X368.128 Y11.747
X367.681 Y11.312
X367.226 Y10.886
X366.762 Y10.468
X366.292 Y10.058
X365.815 Y9.656
X365.329 Y9.264
X364.835 Y8.883
X364.334 Y8.512
X363.827 Y8.148
X363.313 Y7.794
X362.793 Y7.449
X362.266 Y7.116
X361.731 Y6.794
X361.191 Y6.482
X360.646 Y6.178
X360.096 Y5.884
X359.539 Y5.602
X358.977 Y5.331
X358.409 Y5.072
X357.837 Y4.823
X357.261 Y4.583
X356.681 Y4.354
X356.096 Y4.138
X355.506 Y3.934
X354.913 Y3.74
X354.316 Y3.557
X353.717 Y3.383
X353.114 Y3.223
X352.508 Y3.075
X351.899 Y2.94
X351.288 Y2.814
X350.674 Y2.699
X350.059 Y2.595
X349.442 Y2.505
X348.823 Y2.428
X348.202 Y2.362
X347.581 Y2.306
X346.959 Y2.258
X346.336 Y2.22
X345.713 Y2.19
X345.089 Y2.168
X344.465 Y2.151
X343.841 Y2.14
X343.218 Y2.132
X342.594 Y2.126
X341.97 Y2.122
X340.722 Y2.118
X338.85 Y2.116
X328.243 Y2.115
X302.037
X251.498
X200.958
X150.418
X99.879
X49.339
X38.108
X37.484 Y2.116
X36.86 Y2.119
X36.237 Y2.127
X35.613 Y2.139
X34.989 Y2.156
X34.365 Y2.178
X33.742 Y2.205
X33.119 Y2.241
X32.497 Y2.289
X31.876 Y2.348
X31.256 Y2.416
X30.637 Y2.494
X30.019 Y2.582
X29.403 Y2.683
X28.79 Y2.798
X28.179 Y2.923
X27.57 Y3.059
X26.963 Y3.205
X26.359 Y3.362
X25.759 Y3.533
X25.163 Y3.716
X24.57 Y3.91
X23.979 Y4.112
X23.393 Y4.326
X22.812 Y4.552
X22.235 Y4.791
X21.663 Y5.04
X21.096 Y5.299
X20.532 Y5.568
X19.975 Y5.847
X19.423 Y6.139
X18.878 Y6.442
X18.338 Y6.755
X17.803 Y7.076
X17.274 Y7.406
X16.752 Y7.748
X16.237 Y8.102
X15.73 Y8.465
X15.229 Y8.836
X14.733 Y9.216
X14.246 Y9.605
X13.767 Y10.005
X13.296 Y10.415
X12.833 Y10.833
X12.377 Y11.258
X11.928 Y11.692
X11.488 Y12.135
X11.059 Y12.587
X10.638 Y13.047
X10.224 Y13.515
X9.818 Y13.988
X9.422 Y14.47
X9.036 Y14.961
X8.661 Y15.46
X8.295 Y15.965
X7.937 Y16.476
X7.588 Y16.993
X7.25 Y17.517
X6.923 Y18.049
X6.607 Y18.587
X6.3 Y19.13
X6.002 Y19.678
X5.715 Y20.232
X5.44 Y20.792
X5.177 Y21.358
X4.923 Y21.928
X4.679 Y22.502
X4.455 Y23.085
X4.28 Y23.683
X4.162 Y24.296
X4.087 Y24.916
X4.039 Y25.538
X4.004 Y26.161
X3.971 Y26.784
X3.935 Y27.407
X3.891 Y28.029
X3.839 Y28.651
X3.781 Y29.272
X3.662 Y30.514
X3.606 Y31.136
X3.553 Y31.757
X3.506 Y32.38
X3.464 Y33.002
X3.429 Y33.625
X3.4 Y34.248
X3.378 Y34.872
X3.361 Y35.496
X3.347 Y36.119
X3.338 Y36.743
X3.331 Y37.367
X3.326 Y37.991
X3.322 Y38.615
X3.318 Y39.863
X3.316 Y41.735
X3.315 Y49.222
Y70.436
Y120.976
Y171.515
Y222.055
Y272.595
Y323.134
Y373.674
Y424.213
Y474.753
Y491.599
X3.317 Y492.223
X3.321 Y492.847
X3.328 Y493.471
X3.34 Y494.095
X3.355 Y494.719
X3.376 Y495.342
X3.404 Y495.966
X3.44 Y496.589
X3.486 Y497.211
X3.542 Y497.832
X3.607 Y498.453
X3.684 Y499.072
X3.772 Y499.69
X3.872 Y500.306
X3.984 Y500.919
X4.108 Y501.531
X4.243 Y502.14
X4.39 Y502.746
X4.549 Y503.35
X4.721 Y503.95
X4.904 Y504.546
X5.098 Y505.139
X5.303 Y505.728
X5.521 Y506.313
X5.751 Y506.893
X5.992 Y507.468
X6.244 Y508.039
X6.507 Y508.605
