(CamperBodenschiene)
(T4  D=5 CR=0 - ZMIN=-20 - flat end mill)
G90 G94
G17
G21

(2D Contour1)
T4
S5000 M3
G54
M8
G0 X113.982 Y551.068
Z15
Z5
G1 Z-4.5 F333.3
X113.987 Y551.074 Z-4.587 F1000
X114.003 Y551.09 Z-4.671
X114.029 Y551.116 Z-4.75
X114.064 Y551.151 Z-4.821
X114.108 Y551.195 Z-4.883
X114.158 Y551.246 Z-4.933
X114.214 Y551.302 Z-4.97
X114.273 Y551.362 Z-4.992
X114.334 Y551.423 Z-5
X114.686 Y551.778
G3 X114.683 Y552.485 I-0.355 J0.352
G2 X111.578 Y559.94 I7.395 J7.455
G1 Y564.524
G3 X109.859 Y568.518 I-5.5 J0
G2 X106.578 Y576.143 I7.219 J7.625
G1 Y603.94
G3 X101.078 Y609.44 I-5.5 J0
G1 X67.078
G3 X61.578 Y603.94 I0 J-5.5
G1 Y576.143
G2 X58.297 Y568.518 I-10.5 J0
G3 X56.578 Y564.524 I3.781 J-3.994
G1 Y559.94
G2 X46.078 Y549.44 I-10.5 J0
G1 X42.078
G3 X36.578 Y543.94 I0 J-5.5
G1 Y494.94
G3 X42.078 Y489.44 I5.5 J0
G1 X51.078
G2 X61.578 Y478.94 I0 J-10.5
G1 Y159.94
G2 X51.078 Y149.44 I-10.5 J0
G1 X42.078
G3 X36.578 Y143.94 I0 J-5.5
G1 Y94.94
G3 X42.078 Y89.44 I5.5 J0
G1 X46.078
G2 X56.578 Y78.94 I0 J-10.5
G1 Y74.356
G3 X58.297 Y70.362 I5.5 J0
G2 X61.578 Y62.737 I-7.219 J-7.625
G1 Y34.94
G3 X67.078 Y29.44 I5.5 J0
G1 X101.078
G3 X106.578 Y34.94 I0 J5.5
G1 Y62.737
G2 X109.859 Y70.362 I10.5 J0
G3 X111.578 Y74.356 I-3.781 J3.994
G1 Y78.94
G2 X122.078 Y89.44 I10.5 J0
G1 X126.078
G3 X131.578 Y94.94 I0 J5.5
G1 Y143.94
G3 X126.078 Y149.44 I-5.5 J0
G1 X117.078
G2 X106.578 Y159.94 I0 J10.5
G1 Y478.94
G2 X117.078 Y489.44 I10.5 J0
G1 X126.078
G3 X131.578 Y494.94 I0 J5.5
G1 Y543.94
G3 X126.078 Y549.44 I-5.5 J0
G1 X122.078
G2 X114.683 Y552.485 I0 J10.5
G3 X113.976 Y552.483 I-0.352 J-0.355
G1 X113.624 Y552.128
X113.563 Y552.066 Z-4.992
X113.504 Y552.006 Z-4.97
X113.448 Y551.95 Z-4.933
X113.398 Y551.899 Z-4.883
X113.355 Y551.856 Z-4.821
X113.319 Y551.82 Z-4.75
X113.293 Y551.794 Z-4.671
X113.277 Y551.778 Z-4.587
X113.272 Y551.773 Z-4.5
G0 Z5
X110.149 Y558.543
G1 Z0 F333.3
Z-9.5
X110.157 Z-9.587 F1000
X110.179 Y558.545 Z-9.671
X110.216 Y558.548 Z-9.75
X110.266 Y558.551 Z-9.821
X110.327 Y558.556 Z-9.883
X110.398 Y558.561 Z-9.933
X110.477 Y558.567 Z-9.97
X110.561 Y558.574 Z-9.992
X110.648 Y558.58 Z-10
X111.146 Y558.618
G3 X111.607 Y559.154 I-0.037 J0.499
G2 X111.578 Y559.94 I10.471 J0.786
G1 Y564.524
G3 X109.859 Y568.518 I-5.5 J0
G2 X106.578 Y576.143 I7.219 J7.625
G1 Y603.94
G3 X101.078 Y609.44 I-5.5 J0
G1 X67.078
G3 X61.578 Y603.94 I0 J-5.5
G1 Y576.143
G2 X58.297 Y568.518 I-10.5 J0
G3 X56.578 Y564.524 I3.781 J-3.994
G1 Y559.94
G2 X46.078 Y549.44 I-10.5 J0
G1 X42.078
G3 X36.578 Y543.94 I0 J-5.5
G1 Y494.94
G3 X42.078 Y489.44 I5.5 J0
G1 X51.078
G2 X61.578 Y478.94 I0 J-10.5
G1 Y159.94
G2 X51.078 Y149.44 I-10.5 J0
G1 X42.078
G3 X36.578 Y143.94 I0 J-5.5
G1 Y94.94
G3 X42.078 Y89.44 I5.5 J0
G1 X46.078
G2 X56.578 Y78.94 I0 J-10.5
G1 Y74.356
G3 X58.297 Y70.362 I5.5 J0
G2 X61.578 Y62.737 I-7.219 J-7.625
G1 Y34.94
G3 X67.078 Y29.44 I5.5 J0
G1 X101.078
G3 X106.578 Y34.94 I0 J5.5
G1 Y62.737
G2 X109.859 Y70.362 I10.5 J0
G3 X111.578 Y74.356 I-3.781 J3.994
G1 Y78.94
G2 X122.078 Y89.44 I10.5 J0
G1 X126.078
G3 X131.578 Y94.94 I0 J5.5
G1 Y143.94
G3 X126.078 Y149.44 I-5.5 J0
G1 X117.078
G2 X106.578 Y159.94 I0 J10.5
G1 Y478.94
G2 X117.078 Y489.44 I10.5 J0
G1 X126.078
G3 X131.578 Y494.94 I0 J5.5
G1 Y543.94
G3 X126.078 Y549.44 I-5.5 J0
G1 X122.078
G2 X111.607 Y559.154 I0 J10.5
G3 X111.071 Y559.615 I-0.499 J-0.037
G1 X110.573 Y559.577
X110.486 Y559.571 Z-9.992
X110.402 Y559.565 Z-9.97
X110.324 Y559.559 Z-9.933
X110.252 Y559.553 Z-9.883
X110.191 Y559.549 Z-9.821
X110.141 Y559.545 Z-9.75
X110.104 Y559.542 Z-9.671
X110.082 Y559.54 Z-9.587
X110.074 Z-9.5
G0 Z5
X110.149 Y558.543
G1 Z-5 F333.3
Z-14.5
X110.157 Z-14.587 F1000
X110.179 Y558.545 Z-14.671
X110.216 Y558.548 Z-14.75
X110.266 Y558.551 Z-14.821
X110.327 Y558.556 Z-14.883
X110.398 Y558.561 Z-14.933
X110.477 Y558.567 Z-14.97
X110.561 Y558.574 Z-14.992
X110.648 Y558.58 Z-15
X111.146 Y558.618
G3 X111.607 Y559.154 I-0.037 J0.499
G2 X111.578 Y559.94 I10.471 J0.786
G1 Y564.524
G3 X109.859 Y568.518 I-5.5 J0
G2 X106.578 Y576.143 I7.219 J7.625
G1 Y603.94
G3 X101.078 Y609.44 I-5.5 J0
G1 X67.078
G3 X61.578 Y603.94 I0 J-5.5
G1 Y576.143
G2 X58.297 Y568.518 I-10.5 J0
G3 X56.578 Y564.524 I3.781 J-3.994
G1 Y559.94
G2 X46.078 Y549.44 I-10.5 J0
G1 X42.078
G3 X36.578 Y543.94 I0 J-5.5
G1 Y494.94
G3 X42.078 Y489.44 I5.5 J0
G1 X51.078
G2 X61.578 Y478.94 I0 J-10.5
G1 Y159.94
G2 X51.078 Y149.44 I-10.5 J0
G1 X42.078
G3 X36.578 Y143.94 I0 J-5.5
G1 Y94.94
G3 X42.078 Y89.44 I5.5 J0
G1 X46.078
G2 X56.578 Y78.94 I0 J-10.5
G1 Y74.356
G3 X58.297 Y70.362 I5.5 J0
G2 X61.578 Y62.737 I-7.219 J-7.625
G1 Y34.94
G3 X67.078 Y29.44 I5.5 J0
G1 X101.078
G3 X106.578 Y34.94 I0 J5.5
G1 Y62.737
G2 X109.859 Y70.362 I10.5 J0
G3 X111.578 Y74.356 I-3.781 J3.994
G1 Y78.94
G2 X122.078 Y89.44 I10.5 J0
G1 X126.078
G3 X131.578 Y94.94 I0 J5.5
G1 Y143.94
G3 X126.078 Y149.44 I-5.5 J0
G1 X117.078
G2 X106.578 Y159.94 I0 J10.5
G1 Y478.94
G2 X117.078 Y489.44 I10.5 J0
G1 X126.078
G3 X131.578 Y494.94 I0 J5.5
G1 Y543.94
G3 X126.078 Y549.44 I-5.5 J0
G1 X122.078
G2 X111.607 Y559.154 I0 J10.5
G3 X111.071 Y559.615 I-0.499 J-0.037
G1 X110.573 Y559.577
X110.486 Y559.571 Z-14.992
X110.402 Y559.565 Z-14.97
X110.324 Y559.559 Z-14.933
X110.252 Y559.553 Z-14.883
X110.191 Y559.549 Z-14.821
X110.141 Y559.545 Z-14.75
X110.104 Y559.542 Z-14.671
X110.082 Y559.54 Z-14.587
X110.074 Z-14.5
G0 Z5
X110.149 Y558.543
G1 Z-10 F333.3
Z-19.5
X110.157 Z-19.587 F1000
X110.179 Y558.545 Z-19.671
X110.216 Y558.548 Z-19.75
X110.266 Y558.551 Z-19.821
X110.327 Y558.556 Z-19.883
X110.398 Y558.561 Z-19.933
X110.477 Y558.567 Z-19.97
X110.561 Y558.574 Z-19.992
X110.648 Y558.58 Z-20
X111.146 Y558.618
G3 X111.607 Y559.154 I-0.037 J0.499
G2 X111.578 Y559.94 I10.471 J0.786
G1 Y564.524
G3 X109.859 Y568.518 I-5.5 J0
G2 X106.578 Y576.143 I7.219 J7.625
G1 Y603.94
G3 X101.078 Y609.44 I-5.5 J0
G1 X67.078
G3 X61.578 Y603.94 I0 J-5.5
G1 Y576.143
G2 X58.297 Y568.518 I-10.5 J0
G3 X56.578 Y564.524 I3.781 J-3.994
G1 Y559.94
G2 X46.078 Y549.44 I-10.5 J0
G1 X42.078
G3 X36.578 Y543.94 I0 J-5.5
G1 Y494.94
G3 X42.078 Y489.44 I5.5 J0
G1 X51.078
G2 X61.578 Y478.94 I0 J-10.5
G1 Y159.94
G2 X51.078 Y149.44 I-10.5 J0
G1 X42.078
G3 X36.578 Y143.94 I0 J-5.5
G1 Y94.94
G3 X42.078 Y89.44 I5.5 J0
G1 X46.078
G2 X56.578 Y78.94 I0 J-10.5
G1 Y74.356
G3 X58.297 Y70.362 I5.5 J0
G2 X61.578 Y62.737 I-7.219 J-7.625
G1 Y34.94
G3 X67.078 Y29.44 I5.5 J0
G1 X101.078
G3 X106.578 Y34.94 I0 J5.5
G1 Y62.737
G2 X109.859 Y70.362 I10.5 J0
G3 X111.578 Y74.356 I-3.781 J3.994
G1 Y78.94
G2 X122.078 Y89.44 I10.5 J0
G1 X126.078
G3 X131.578 Y94.94 I0 J5.5
G1 Y143.94
G3 X126.078 Y149.44 I-5.5 J0
G1 X117.078
G2 X106.578 Y159.94 I0 J10.5
G1 Y478.94
G2 X117.078 Y489.44 I10.5 J0
G1 X126.078
G3 X131.578 Y494.94 I0 J5.5
G1 Y543.94
G3 X126.078 Y549.44 I-5.5 J0
G1 X122.078
G2 X111.607 Y559.154 I0 J10.5
G3 X111.071 Y559.615 I-0.499 J-0.037
G1 X110.573 Y559.577
X110.486 Y559.571 Z-19.992
X110.402 Y559.565 Z-19.97
X110.324 Y559.559 Z-19.933
X110.252 Y559.553 Z-19.883
X110.191 Y559.549 Z-19.821
X110.141 Y559.545 Z-19.75
X110.104 Y559.542 Z-19.671
X110.082 Y559.54 Z-19.587
X110.074 Z-19.5
G0 Z15
M9
M5
M30
