(CamperKuchenregaleSeitenwand)
(T4 D=5 CR=0 - ZMIN=-13 - flat end mill)
G90 G94
G17
G21
(-Attention- Property Safe Retracts is set to Clearance Height.)
(Ensure the clearance height will clear the part and or fixtures.)
(Raise the Z-axis to a safe height before starting the program.)

(Bore1)
T4
S5000 M3
G17 G90 G94
G54
M8
G0 X33.969 Y13.5
Z15
G0 Z2
G1 Z0.5 F1000
G18 G2 X34.469 Z0 I0.5 K0
G1 X34.719
G17 G3 X35.219 Y14 I0 J0.5
X32.419 Y14 Z-3.9 I-1.4 J0
X34.938 Y13.159 Z-7 I1.4 J0
X32.7 Y14.841 I-1.119 J0.841
X34.938 Y13.159 I1.119 J-0.841
X34.839 Y13.859 I-0.4 J0.3
G1 X34.639 Y14.009
X34.569 Y14.061 Z-6.992
X34.502 Y14.112 Z-6.97
X34.439 Y14.159 Z-6.933
X34.382 Y14.202 Z-6.883
X34.333 Y14.239 Z-6.821
X34.293 Y14.269 Z-6.75
X34.263 Y14.291 Z-6.671
X34.245 Y14.305 Z-6.587
X34.239 Y14.31 Z-6.5
G0 Z5
X83.969 Y13.5
Z2
G1 Z0.5 F1000
G18 G2 X84.469 Z0 I0.5 K0
G1 X84.719
G17 G3 X85.219 Y14 I0 J0.5
X82.419 Y14 Z-3.9 I-1.4 J0
X84.938 Y13.159 Z-7 I1.4 J0
X82.7 Y14.841 I-1.119 J0.841
X84.938 Y13.159 I1.119 J-0.841
X84.839 Y13.859 I-0.4 J0.3
G1 X84.639 Y14.009
X84.569 Y14.061 Z-6.992
X84.502 Y14.112 Z-6.97
X84.439 Y14.159 Z-6.933
X84.382 Y14.202 Z-6.883
X84.333 Y14.239 Z-6.821
X84.293 Y14.269 Z-6.75
X84.263 Y14.291 Z-6.671
X84.245 Y14.305 Z-6.587
X84.239 Y14.31 Z-6.5
G0 Z5
X133.969 Y13.5
Z2
G1 Z0.5 F1000
G18 G2 X134.469 Z0 I0.5 K0
G1 X134.719
G17 G3 X135.219 Y14 I0 J0.5
X132.419 Y14 Z-3.9 I-1.4 J0
X134.938 Y13.159 Z-7 I1.4 J0
X132.7 Y14.841 I-1.119 J0.841
X134.938 Y13.159 I1.119 J-0.841
X134.839 Y13.859 I-0.4 J0.3
G1 X134.639 Y14.009
X134.569 Y14.061 Z-6.992
X134.502 Y14.112 Z-6.97
X134.439 Y14.159 Z-6.933
X134.382 Y14.202 Z-6.883
X134.333 Y14.239 Z-6.821
X134.293 Y14.269 Z-6.75
X134.263 Y14.291 Z-6.671
X134.245 Y14.305 Z-6.587
X134.239 Y14.31 Z-6.5
G0 Z5
X183.969 Y13.5
Z2
G1 Z0.5 F1000
G18 G2 X184.469 Z0 I0.5 K0
G1 X184.719
G17 G3 X185.219 Y14 I0 J0.5
X182.419 Y14 Z-3.9 I-1.4 J0
X184.938 Y13.159 Z-7 I1.4 J0
X182.7 Y14.841 I-1.119 J0.841
X184.938 Y13.159 I1.119 J-0.841
X184.839 Y13.859 I-0.4 J0.3
G1 X184.639 Y14.009
X184.569 Y14.061 Z-6.992
X184.502 Y14.112 Z-6.97
X184.439 Y14.159 Z-6.933
X184.382 Y14.202 Z-6.883
X184.333 Y14.239 Z-6.821
X184.293 Y14.269 Z-6.75
X184.263 Y14.291 Z-6.671
X184.245 Y14.305 Z-6.587
X184.239 Y14.31 Z-6.5
G0 Z5
X233.969 Y13.5
Z2
G1 Z0.5 F1000
G18 G2 X234.469 Z0 I0.5 K0
G1 X234.719
G17 G3 X235.219 Y14 I0 J0.5
X232.419 Y14 Z-3.9 I-1.4 J0
X234.938 Y13.159 Z-7 I1.4 J0
X232.7 Y14.841 I-1.119 J0.841
X234.938 Y13.159 I1.119 J-0.841
X234.839 Y13.859 I-0.4 J0.3
G1 X234.639 Y14.009
X234.569 Y14.061 Z-6.992
X234.502 Y14.112 Z-6.97
X234.439 Y14.159 Z-6.933
X234.382 Y14.202 Z-6.883
X234.333 Y14.239 Z-6.821
X234.293 Y14.269 Z-6.75
X234.263 Y14.291 Z-6.671
X234.245 Y14.305 Z-6.587
X234.239 Y14.31 Z-6.5
G0 Z5
X226.15 Y355.49
Z2
G1 Z0.5 F1000
G18 G2 X226.65 Z0 I0.5 K0
G1 X226.9
G17 G3 X227.4 Y355.99 I0 J0.5
X224.6 Y355.99 Z-3.9 I-1.4 J0
X227.119 Y355.149 Z-7 I1.4 J0
X224.881 Y356.831 I-1.119 J0.841
X227.119 Y355.149 I1.119 J-0.841
X227.02 Y355.849 I-0.4 J0.3
G1 X226.82 Y356
X226.751 Y356.052 Z-6.992
X226.683 Y356.102 Z-6.97
X226.62 Y356.15 Z-6.933
X226.563 Y356.193 Z-6.883
X226.514 Y356.23 Z-6.821
X226.474 Y356.26 Z-6.75
X226.444 Y356.282 Z-6.671
X226.426 Y356.295 Z-6.587
X226.42 Y356.3 Z-6.5
G0 Z5
X176.15 Y355.49
Z2
G1 Z0.5 F1000
G18 G2 X176.65 Z0 I0.5 K0
G1 X176.9
G17 G3 X177.4 Y355.99 I0 J0.5
X174.6 Y355.99 Z-3.9 I-1.4 J0
X177.119 Y355.149 Z-7 I1.4 J0
X174.881 Y356.831 I-1.119 J0.841
X177.119 Y355.149 I1.119 J-0.841
X177.02 Y355.849 I-0.4 J0.3
G1 X176.82 Y356
X176.751 Y356.052 Z-6.992
X176.683 Y356.102 Z-6.97
X176.62 Y356.15 Z-6.933
X176.563 Y356.193 Z-6.883
X176.514 Y356.23 Z-6.821
X176.474 Y356.26 Z-6.75
X176.444 Y356.282 Z-6.671
X176.426 Y356.295 Z-6.587
X176.42 Y356.3 Z-6.5
G0 Z5
X126.15 Y355.49
Z2
G1 Z0.5 F1000
G18 G2 X126.65 Z0 I0.5 K0
G1 X126.9
G17 G3 X127.4 Y355.99 I0 J0.5
X124.6 Y355.99 Z-3.9 I-1.4 J0
X127.119 Y355.149 Z-7 I1.4 J0
X124.881 Y356.831 I-1.119 J0.841
X127.119 Y355.149 I1.119 J-0.841
X127.02 Y355.849 I-0.4 J0.3
G1 X126.82 Y356
X126.751 Y356.052 Z-6.992
X126.683 Y356.102 Z-6.97
X126.62 Y356.15 Z-6.933
X126.563 Y356.193 Z-6.883
X126.514 Y356.23 Z-6.821
X126.474 Y356.26 Z-6.75
X126.444 Y356.282 Z-6.671
X126.426 Y356.295 Z-6.587
X126.42 Y356.3 Z-6.5
G0 Z5
X76.15 Y355.49
Z2
G1 Z0.5 F1000
G18 G2 X76.65 Z0 I0.5 K0
G1 X76.9
G17 G3 X77.4 Y355.99 I0 J0.5
X74.6 Y355.99 Z-3.9 I-1.4 J0
X77.119 Y355.149 Z-7 I1.4 J0
X74.881 Y356.831 I-1.119 J0.841
X77.119 Y355.149 I1.119 J-0.841
X77.02 Y355.849 I-0.4 J0.3
G1 X76.82 Y356
X76.751 Y356.052 Z-6.992
X76.683 Y356.102 Z-6.97
X76.62 Y356.15 Z-6.933
X76.563 Y356.193 Z-6.883
X76.514 Y356.23 Z-6.821
X76.474 Y356.26 Z-6.75
X76.444 Y356.282 Z-6.671
X76.426 Y356.295 Z-6.587
X76.42 Y356.3 Z-6.5
G0 Z5
X26.15 Y355.49
Z2
G1 Z0.5 F1000
G18 G2 X26.65 Z0 I0.5 K0
G1 X26.9
G17 G3 X27.4 Y355.99 I0 J0.5
X24.6 Y355.99 Z-3.9 I-1.4 J0
X27.119 Y355.149 Z-7 I1.4 J0
X24.881 Y356.831 I-1.119 J0.841
X27.119 Y355.149 I1.119 J-0.841
X27.02 Y355.849 I-0.4 J0.3
G1 X26.82 Y356
X26.751 Y356.052 Z-6.992
X26.683 Y356.102 Z-6.97
X26.62 Y356.15 Z-6.933
X26.563 Y356.193 Z-6.883
X26.514 Y356.23 Z-6.821
X26.474 Y356.26 Z-6.75
X26.444 Y356.282 Z-6.671
X26.426 Y356.295 Z-6.587
X26.42 Y356.3 Z-6.5
G0 Z15

(2D Contour1)
G0 X35.288 Y659.32
Z15
Z5
G1 Z-5 F333.3
X35.293 Y659.319 F1000
X37.063 Y658.963
X37.068 Y658.962
X38.826 Y658.605
X38.833 Y658.604
X40.581 Y658.244
X40.587 Y658.242
X42.323 Y657.88
X42.327 Y657.879
X44.052 Y657.516
X44.058 Y657.515
X45.771 Y657.15
X45.777 Y657.149
X47.479 Y656.782
X47.487 Y656.78
X49.177 Y656.41
X49.182 Y656.409
X50.861 Y656.038
X50.868 Y656.037
X52.536 Y655.664
X52.542 Y655.662
X54.199 Y655.287
X54.207 Y655.286
X55.852 Y654.908
X55.857 Y654.906
X57.491 Y654.527
X57.498 Y654.526
X59.121 Y654.145
X59.129 Y654.143
X60.74 Y653.759
X60.747 Y653.757
X62.347 Y653.371
X62.354 Y653.37
X63.943 Y652.982
X63.952 Y652.98
X65.529 Y652.589
X65.535 Y652.587
X67.101 Y652.195
X67.11 Y652.193
X68.665 Y651.798
X68.672 Y651.796
X70.216 Y651.399
X70.225 Y651.397
X71.757 Y650.997
X71.765 Y650.995
X73.286 Y650.593
X73.294 Y650.591
X74.804 Y650.187
X74.813 Y650.185
X76.312 Y649.778
X76.319 Y649.776
X77.807 Y649.367
X77.815 Y649.364
X79.291 Y648.953
X79.3 Y648.951
X80.765 Y648.537
X80.775 Y648.534
X82.229 Y648.117
X82.237 Y648.115
X83.68 Y647.696
X83.688 Y647.693
X85.119 Y647.272
X85.129 Y647.27
X86.549 Y646.846
X86.558 Y646.843
X87.967 Y646.417
X87.977 Y646.414
X89.374 Y645.985
X89.383 Y645.982
X90.769 Y645.551
X90.78 Y645.548
X92.155 Y645.114
X92.164 Y645.111
X93.528 Y644.675
X93.538 Y644.672
X94.891 Y644.233
X94.9 Y644.23
X96.242 Y643.789
X96.252 Y643.785
X97.583 Y643.341
X97.59 Y643.339
X98.909 Y642.894
X98.922 Y642.89
X100.23 Y642.44
X100.238 Y642.438
X101.534 Y641.988
X101.545 Y641.984
X102.83 Y641.531
X102.84 Y641.527
X104.114 Y641.072
X104.124 Y641.069
X105.387 Y640.612
X105.399 Y640.607
X106.65 Y640.147
X106.658 Y640.144
X107.898 Y639.683
X107.911 Y639.679
X109.139 Y639.215
X109.149 Y639.211
X110.366 Y638.745
X110.376 Y638.741
X111.582 Y638.273
X111.593 Y638.268
X112.788 Y637.799
X112.798 Y637.795
X113.981 Y637.324
X113.993 Y637.319
X115.165 Y636.845
X115.176 Y636.84
X116.337 Y636.364
X116.347 Y636.36
X117.497 Y635.883
X117.509 Y635.878
X118.647 Y635.399
X118.658 Y635.394
X119.785 Y634.913
X119.796 Y634.909
X120.911 Y634.427
X120.922 Y634.422
X122.027 Y633.938
X122.038 Y633.933
X123.131 Y633.448
X123.143 Y633.443
X124.225 Y632.956
X124.236 Y632.951
X125.306 Y632.463
X125.317 Y632.458
X126.376 Y631.969
X126.389 Y631.963
X127.437 Y631.472
X127.446 Y631.468
X128.483 Y630.977
X128.495 Y630.971
X129.52 Y630.479
X129.529 Y630.474
X130.543 Y629.982
X130.557 Y629.976
X131.56 Y629.482
X131.569 Y629.477
X132.56 Y628.984
X132.571 Y628.978
X133.551 Y628.484
X133.561 Y628.48
X134.529 Y627.987
X134.541 Y627.98
X135.498 Y627.487
X135.507 Y627.482
X136.452 Y626.989
X136.461 Y626.984
X137.395 Y626.492
X137.405 Y626.487
X138.327 Y625.996
X138.338 Y625.99
X139.249 Y625.499
X139.258 Y625.494
X140.157 Y625.005
X140.167 Y624.999
X141.054 Y624.511
X141.063 Y624.507
X141.938 Y624.021
X141.946 Y624.016
X142.81 Y623.532
X142.821 Y623.526
X143.673 Y623.043
X143.679 Y623.039
X144.52 Y622.559
X144.529 Y622.554
X145.359 Y622.076
X145.37 Y622.07
X146.187 Y621.594
X146.194 Y621.59
X147.001 Y621.116
X147.009 Y621.111
X147.804 Y620.64
X147.812 Y620.635
X148.597 Y620.166
X148.606 Y620.161
X149.379 Y619.695
X149.388 Y619.689
X150.15 Y619.225
X150.159 Y619.22
X150.911 Y618.758
X150.917 Y618.754
X151.659 Y618.295
X151.668 Y618.29
X152.4 Y617.833
X152.41 Y617.826
X153.131 Y617.371
X153.143 Y617.364
X154.557 Y616.461
X154.574 Y616.45
X155.952 Y615.554
X155.969 Y615.542
X157.313 Y614.652
X157.333 Y614.639
X158.645 Y613.752
X158.663 Y613.74
X159.946 Y612.856
X159.966 Y612.842
X161.224 Y611.957
X161.245 Y611.942
X162.48 Y611.054
X162.502 Y611.038
X163.718 Y610.144
X163.74 Y610.128
X164.94 Y609.225
X164.962 Y609.208
X166.15 Y608.293
X166.175 Y608.273
X167.353 Y607.342
X167.375 Y607.325
X168.548 Y606.376
X168.572 Y606.356
X169.743 Y605.385
X169.767 Y605.365
X170.939 Y604.368
X170.961 Y604.349
X172.138 Y603.324
X172.161 Y603.304
X173.345 Y602.247
X173.367 Y602.227
X174.562 Y601.134
X174.576 Y601.121
X175.179 Y600.561
X175.191 Y600.55
X175.797 Y599.98
X175.808 Y599.969
X176.418 Y599.388
X176.428 Y599.379
X177.042 Y598.788
X177.051 Y598.779
X177.67 Y598.177
X177.68 Y598.167
X178.304 Y597.553
X178.312 Y597.546
X178.942 Y596.921
X178.953 Y596.91
X179.587 Y596.273
X179.594 Y596.266
X180.235 Y595.617
X180.245 Y595.606
X180.891 Y594.944
X180.899 Y594.936
X181.551 Y594.262
X181.561 Y594.252
X182.219 Y593.564
X182.225 Y593.558
X182.889 Y592.858
X182.899 Y592.848
X183.57 Y592.134
X183.577 Y592.126
X184.255 Y591.398
X184.263 Y591.39
X184.948 Y590.648
X184.954 Y590.641
X185.646 Y589.886
X185.655 Y589.876
X186.353 Y589.106
X186.359 Y589.1
X187.065 Y588.316
X187.072 Y588.307
X187.784 Y587.509
X187.792 Y587.501
X188.511 Y586.688
X188.516 Y586.683
X189.243 Y585.856
X189.25 Y585.847
X189.984 Y585.004
X189.991 Y584.996
X190.731 Y584.139
X190.737 Y584.133
X191.485 Y583.261
X191.492 Y583.252
X192.246 Y582.365
X192.251 Y582.359
X193.013 Y581.457
X193.02 Y581.449
X193.788 Y580.532
X193.793 Y580.525
X194.568 Y579.593
X194.575 Y579.586
X195.357 Y578.638
X195.362 Y578.631
X196.15 Y577.669
X196.156 Y577.662
X196.95 Y576.685
X196.956 Y576.678
X197.757 Y575.685
X197.762 Y575.678
X198.569 Y574.671
X198.575 Y574.663
X199.388 Y573.64
X199.394 Y573.633
X200.212 Y572.596
X200.217 Y572.59
X201.042 Y571.537
X201.048 Y571.529
X201.877 Y570.462
X201.882 Y570.455
X202.717 Y569.373
X202.723 Y569.366
X203.563 Y568.269
X203.568 Y568.262
X204.413 Y567.151
X204.419 Y567.143
X205.268 Y566.017
X205.274 Y566.01
X206.127 Y564.87
X206.131 Y564.864
X206.989 Y563.71
X206.995 Y563.702
X207.857 Y562.533
X207.863 Y562.525
X208.728 Y561.342
X208.734 Y561.334
X209.602 Y560.137
X209.606 Y560.131
X210.478 Y558.921
X210.485 Y558.912
X211.359 Y557.688
X211.364 Y557.68
X212.241 Y556.442
X212.246 Y556.435
X213.126 Y555.184
X213.133 Y555.175
X214.014 Y553.91
X214.018 Y553.903
X214.901 Y552.626
X214.908 Y552.616
X215.792 Y551.325
X215.797 Y551.318
X216.682 Y550.015
X216.687 Y550.007
X217.574 Y548.691
X217.581 Y548.681
X218.467 Y547.353
X218.472 Y547.345
X219.359 Y546.004
X219.364 Y545.996
X220.251 Y544.644
X220.258 Y544.634
X221.144 Y543.269
X221.15 Y543.26
X222.035 Y541.884
X222.04 Y541.876
X222.925 Y540.488
X222.931 Y540.478
X223.814 Y539.079
X223.82 Y539.07
X224.701 Y537.66
X224.707 Y537.65
X225.586 Y536.229
X225.593 Y536.219
X226.469 Y534.787
X226.474 Y534.777
X227.348 Y533.334
X227.354 Y533.324
X228.225 Y531.871
X228.231 Y531.862
X229.099 Y530.399
X229.105 Y530.388
X229.969 Y528.915
X229.976 Y528.904
X230.836 Y527.421
X230.841 Y527.411
X231.697 Y525.919
X231.705 Y525.906
X232.555 Y524.404
X232.56 Y524.394
X233.406 Y522.883
X233.412 Y522.872
X234.253 Y521.352
X234.26 Y521.34
X235.095 Y519.811
X235.101 Y519.8
X235.931 Y518.262
X235.938 Y518.25
X236.761 Y516.704
X236.767 Y516.691
X237.583 Y515.137
X237.59 Y515.125
X238.4 Y513.562
X238.406 Y513.55
X239.209 Y511.98
X239.216 Y511.967
X240.011 Y510.389
X240.017 Y510.376
X240.805 Y508.79
X240.812 Y508.776
X241.591 Y507.183
X241.597 Y507.171
X242.369 Y505.571
X242.375 Y505.557
X243.138 Y503.95
X243.145 Y503.936
X243.899 Y502.322
X243.905 Y502.31
X244.651 Y500.69
X244.658 Y500.674
X245.394 Y499.047
X245.4 Y499.033
X246.127 Y497.399
X246.134 Y497.383
X246.85 Y495.743
X246.856 Y495.73
X247.563 Y494.085
X247.569 Y494.07
X248.266 Y492.418
X248.273 Y492.403
X248.96 Y490.745
X248.966 Y490.729
X249.642 Y489.066
X249.648 Y489.05
X250.313 Y487.381
X250.319 Y487.367
X250.974 Y485.693
X250.981 Y485.676
X251.624 Y483.996
X251.63 Y483.98
X252.262 Y482.295
X252.268 Y482.279
X252.889 Y480.589
X252.895 Y480.572
X253.504 Y478.877
X253.51 Y478.86
X254.107 Y477.16
X254.112 Y477.145
X254.698 Y475.44
X254.704 Y475.423
X255.278 Y473.713
X255.284 Y473.696
X255.846 Y471.982
X255.851 Y471.965
X256.401 Y470.246
X256.406 Y470.229
X256.944 Y468.505
X256.95 Y468.486
X257.475 Y466.757
X257.48 Y466.742
X257.994 Y465.009
X257.999 Y464.99
X258.5 Y463.252
G2 X256.306 Y460.069 I-2.402 J-0.692
G1 X246.035 Y459.212
X255.703 Y343.198
G2 X253.212 Y340.49 I-2.491 J-0.208
G1 X6
G2 X-1.5 Y347.99 I0 J7.5
G1 Y662.99
G2 X1.407 Y665.457 I2.5 J0
G1 X3.382 Y665.131
X3.388 Y665.13
X5.351 Y664.801
X5.353 Y664.8
X7.305 Y664.471
X7.311 Y664.47
X9.251 Y664.138
X9.255
X11.184 Y663.805
X11.187 Y663.804
X13.105 Y663.47
X13.11 Y663.469
X15.016 Y663.133
X15.021 Y663.132
X16.916 Y662.794
X16.92 Y662.793
X18.803 Y662.454
X18.807
X20.679 Y662.114
X20.686 Y662.113
X22.547 Y661.77
X22.551 Y661.769
X24.4 Y661.425
X24.404 Y661.424
X26.242 Y661.079
X26.249 Y661.078
X28.075 Y660.73
X28.078 Y660.729
X29.893 Y660.381
X29.9 Y660.38
X31.704 Y660.029
X31.71 Y660.028
X33.502 Y659.675
X33.507 Y659.674
X35.288 Y659.32
Z-10 F333.3
X35.293 Y659.319 F1000
X37.063 Y658.963
X37.068 Y658.962
X38.826 Y658.605
X38.833 Y658.604
X40.581 Y658.244
X40.587 Y658.242
X42.323 Y657.88
X42.327 Y657.879
X44.052 Y657.516
X44.058 Y657.515
X45.771 Y657.15
X45.777 Y657.149
X47.479 Y656.782
X47.487 Y656.78
X49.177 Y656.41
X49.182 Y656.409
X50.861 Y656.038
X50.868 Y656.037
X52.536 Y655.664
X52.542 Y655.662
X54.199 Y655.287
X54.207 Y655.286
X55.852 Y654.908
X55.857 Y654.906
X57.491 Y654.527
X57.498 Y654.526
X59.121 Y654.145
X59.129 Y654.143
X60.74 Y653.759
X60.747 Y653.757
X62.347 Y653.371
X62.354 Y653.37
X63.943 Y652.982
X63.952 Y652.98
X65.529 Y652.589
X65.535 Y652.587
X67.101 Y652.195
X67.11 Y652.193
X68.665 Y651.798
X68.672 Y651.796
X70.216 Y651.399
X70.225 Y651.397
X71.757 Y650.997
X71.765 Y650.995
X73.286 Y650.593
X73.294 Y650.591
X74.804 Y650.187
X74.813 Y650.185
X76.312 Y649.778
X76.319 Y649.776
X77.807 Y649.367
X77.815 Y649.364
X79.291 Y648.953
X79.3 Y648.951
X80.765 Y648.537
X80.775 Y648.534
X82.229 Y648.117
X82.237 Y648.115
X83.68 Y647.696
X83.688 Y647.693
X85.119 Y647.272
X85.129 Y647.27
X86.549 Y646.846
X86.558 Y646.843
X87.967 Y646.417
X87.977 Y646.414
X89.374 Y645.985
X89.383 Y645.982
X90.769 Y645.551
X90.78 Y645.548
X92.155 Y645.114
X92.164 Y645.111
X93.528 Y644.675
X93.538 Y644.672
X94.891 Y644.233
X94.9 Y644.23
X96.242 Y643.789
X96.252 Y643.785
X97.583 Y643.341
X97.59 Y643.339
X98.909 Y642.894
X98.922 Y642.89
X100.23 Y642.44
X100.238 Y642.438
X101.534 Y641.988
X101.545 Y641.984
X102.83 Y641.531
X102.84 Y641.527
X104.114 Y641.072
X104.124 Y641.069
X105.387 Y640.612
X105.399 Y640.607
X106.65 Y640.147
X106.658 Y640.144
X107.898 Y639.683
X107.911 Y639.679
X109.139 Y639.215
X109.149 Y639.211
X110.366 Y638.745
X110.376 Y638.741
X111.582 Y638.273
X111.593 Y638.268
X112.788 Y637.799
X112.798 Y637.795
X113.981 Y637.324
X113.993 Y637.319
X115.165 Y636.845
X115.176 Y636.84
X116.337 Y636.364
X116.347 Y636.36
X117.497 Y635.883
X117.509 Y635.878
X118.647 Y635.399
X118.658 Y635.394
X119.785 Y634.913
X119.796 Y634.909
X120.911 Y634.427
X120.922 Y634.422
X122.027 Y633.938
X122.038 Y633.933
X123.131 Y633.448
X123.143 Y633.443
X124.225 Y632.956
X124.236 Y632.951
X125.306 Y632.463
X125.317 Y632.458
X126.376 Y631.969
X126.389 Y631.963
X127.437 Y631.472
X127.446 Y631.468
X128.483 Y630.977
X128.495 Y630.971
X129.52 Y630.479
X129.529 Y630.474
X130.543 Y629.982
X130.557 Y629.976
X131.56 Y629.482
X131.569 Y629.477
X132.56 Y628.984
X132.571 Y628.978
X133.551 Y628.484
X133.561 Y628.48
X134.529 Y627.987
X134.541 Y627.98
X135.498 Y627.487
X135.507 Y627.482
X136.452 Y626.989
X136.461 Y626.984
X137.395 Y626.492
X137.405 Y626.487
X138.327 Y625.996
X138.338 Y625.99
X139.249 Y625.499
X139.258 Y625.494
X140.157 Y625.005
X140.167 Y624.999
X141.054 Y624.511
X141.063 Y624.507
X141.938 Y624.021
X141.946 Y624.016
X142.81 Y623.532
X142.821 Y623.526
X143.673 Y623.043
X143.679 Y623.039
X144.52 Y622.559
X144.529 Y622.554
X145.359 Y622.076
X145.37 Y622.07
X146.187 Y621.594
X146.194 Y621.59
X147.001 Y621.116
X147.009 Y621.111
X147.804 Y620.64
X147.812 Y620.635
X148.597 Y620.166
X148.606 Y620.161
X149.379 Y619.695
X149.388 Y619.689
X150.15 Y619.225
X150.159 Y619.22
X150.911 Y618.758
X150.917 Y618.754
X151.659 Y618.295
X151.668 Y618.29
X152.4 Y617.833
X152.41 Y617.826
X153.131 Y617.371
X153.143 Y617.364
X154.557 Y616.461
X154.574 Y616.45
X155.952 Y615.554
X155.969 Y615.542
X157.313 Y614.652
X157.333 Y614.639
X158.645 Y613.752
X158.663 Y613.74
X159.946 Y612.856
X159.966 Y612.842
X161.224 Y611.957
X161.245 Y611.942
X162.48 Y611.054
X162.502 Y611.038
X163.718 Y610.144
X163.74 Y610.128
X164.94 Y609.225
X164.962 Y609.208
X166.15 Y608.293
X166.175 Y608.273
X167.353 Y607.342
X167.375 Y607.325
X168.548 Y606.376
X168.572 Y606.356
X169.743 Y605.385
X169.767 Y605.365
X170.939 Y604.368
X170.961 Y604.349
X172.138 Y603.324
X172.161 Y603.304
X173.345 Y602.247
X173.367 Y602.227
X174.562 Y601.134
X174.576 Y601.121
X175.179 Y600.561
X175.191 Y600.55
X175.797 Y599.98
X175.808 Y599.969
X176.418 Y599.388
X176.428 Y599.379
X177.042 Y598.788
X177.051 Y598.779
X177.67 Y598.177
X177.68 Y598.167
X178.304 Y597.553
X178.312 Y597.546
X178.942 Y596.921
X178.953 Y596.91
X179.587 Y596.273
X179.594 Y596.266
X180.235 Y595.617
X180.245 Y595.606
X180.891 Y594.944
X180.899 Y594.936
X181.551 Y594.262
X181.561 Y594.252
X182.219 Y593.564
X182.225 Y593.558
X182.889 Y592.858
X182.899 Y592.848
X183.57 Y592.134
X183.577 Y592.126
X184.255 Y591.398
X184.263 Y591.39
X184.948 Y590.648
X184.954 Y590.641
X185.646 Y589.886
X185.655 Y589.876
X186.353 Y589.106
X186.359 Y589.1
X187.065 Y588.316
X187.072 Y588.307
X187.784 Y587.509
X187.792 Y587.501
X188.511 Y586.688
X188.516 Y586.683
X189.243 Y585.856
X189.25 Y585.847
X189.984 Y585.004
X189.991 Y584.996
X190.731 Y584.139
X190.737 Y584.133
X191.485 Y583.261
X191.492 Y583.252
X192.246 Y582.365
X192.251 Y582.359
X193.013 Y581.457
X193.02 Y581.449
X193.788 Y580.532
X193.793 Y580.525
X194.568 Y579.593
X194.575 Y579.586
X195.357 Y578.638
X195.362 Y578.631
X196.15 Y577.669
X196.156 Y577.662
X196.95 Y576.685
X196.956 Y576.678
X197.757 Y575.685
X197.762 Y575.678
X198.569 Y574.671
X198.575 Y574.663
X199.388 Y573.64
X199.394 Y573.633
X200.212 Y572.596
X200.217 Y572.59
X201.042 Y571.537
X201.048 Y571.529
X201.877 Y570.462
X201.882 Y570.455
X202.717 Y569.373
X202.723 Y569.366
X203.563 Y568.269
X203.568 Y568.262
X204.413 Y567.151
X204.419 Y567.143
X205.268 Y566.017
X205.274 Y566.01
X206.127 Y564.87
X206.131 Y564.864
X206.989 Y563.71
X206.995 Y563.702
X207.857 Y562.533
X207.863 Y562.525
X208.728 Y561.342
X208.734 Y561.334
X209.602 Y560.137
X209.606 Y560.131
X210.478 Y558.921
X210.485 Y558.912
X211.359 Y557.688
X211.364 Y557.68
X212.241 Y556.442
X212.246 Y556.435
X213.126 Y555.184
X213.133 Y555.175
X214.014 Y553.91
X214.018 Y553.903
X214.901 Y552.626
X214.908 Y552.616
X215.792 Y551.325
X215.797 Y551.318
X216.682 Y550.015
X216.687 Y550.007
X217.574 Y548.691
X217.581 Y548.681
X218.467 Y547.353
X218.472 Y547.345
X219.359 Y546.004
X219.364 Y545.996
X220.251 Y544.644
X220.258 Y544.634
X221.144 Y543.269
X221.15 Y543.26
X222.035 Y541.884
X222.04 Y541.876
X222.925 Y540.488
X222.931 Y540.478
X223.814 Y539.079
X223.82 Y539.07
X224.701 Y537.66
X224.707 Y537.65
X225.586 Y536.229
X225.593 Y536.219
X226.469 Y534.787
X226.474 Y534.777
X227.348 Y533.334
X227.354 Y533.324
X228.225 Y531.871
X228.231 Y531.862
X229.099 Y530.399
X229.105 Y530.388
X229.969 Y528.915
X229.976 Y528.904
X230.836 Y527.421
X230.841 Y527.411
X231.697 Y525.919
X231.705 Y525.906
X232.555 Y524.404
X232.56 Y524.394
X233.406 Y522.883
X233.412 Y522.872
X234.253 Y521.352
X234.26 Y521.34
X235.095 Y519.811
X235.101 Y519.8
X235.931 Y518.262
X235.938 Y518.25
X236.761 Y516.704
X236.767 Y516.691
X237.583 Y515.137
X237.59 Y515.125
X238.4 Y513.562
X238.406 Y513.55
X239.209 Y511.98
X239.216 Y511.967
X240.011 Y510.389
X240.017 Y510.376
X240.805 Y508.79
X240.812 Y508.776
X241.591 Y507.183
X241.597 Y507.171
X242.369 Y505.571
X242.375 Y505.557
X243.138 Y503.95
X243.145 Y503.936
X243.899 Y502.322
X243.905 Y502.31
X244.651 Y500.69
X244.658 Y500.674
X245.394 Y499.047
X245.4 Y499.033
X246.127 Y497.399
X246.134 Y497.383
X246.85 Y495.743
X246.856 Y495.73
X247.563 Y494.085
X247.569 Y494.07
X248.266 Y492.418
X248.273 Y492.403
X248.96 Y490.745
X248.966 Y490.729
X249.642 Y489.066
X249.648 Y489.05
X250.313 Y487.381
X250.319 Y487.367
X250.974 Y485.693
X250.981 Y485.676
X251.624 Y483.996
X251.63 Y483.98
X252.262 Y482.295
X252.268 Y482.279
X252.889 Y480.589
X252.895 Y480.572
X253.504 Y478.877
X253.51 Y478.86
X254.107 Y477.16
X254.112 Y477.145
X254.698 Y475.44
X254.704 Y475.423
X255.278 Y473.713
X255.284 Y473.696
X255.846 Y471.982
X255.851 Y471.965
X256.401 Y470.246
X256.406 Y470.229
X256.944 Y468.505
X256.95 Y468.486
X257.475 Y466.757
X257.48 Y466.742
X257.994 Y465.009
X257.999 Y464.99
X258.5 Y463.252
G2 X256.306 Y460.069 I-2.402 J-0.692
G1 X246.035 Y459.212
X255.703 Y343.198
G2 X253.212 Y340.49 I-2.491 J-0.208
G1 X6
G2 X-1.5 Y347.99 I0 J7.5
G1 Y662.99
G2 X1.407 Y665.457 I2.5 J0
G1 X3.382 Y665.131
X3.388 Y665.13
X5.351 Y664.801
X5.353 Y664.8
X7.305 Y664.471
X7.311 Y664.47
X9.251 Y664.138
X9.255
X11.184 Y663.805
X11.187 Y663.804
X13.105 Y663.47
X13.11 Y663.469
X15.016 Y663.133
X15.021 Y663.132
X16.916 Y662.794
X16.92 Y662.793
X18.803 Y662.454
X18.807
X20.679 Y662.114
X20.686 Y662.113
X22.547 Y661.77
X22.551 Y661.769
X24.4 Y661.425
X24.404 Y661.424
X26.242 Y661.079
X26.249 Y661.078
X28.075 Y660.73
X28.078 Y660.729
X29.893 Y660.381
X29.9 Y660.38
X31.704 Y660.029
X31.71 Y660.028
X33.502 Y659.675
X33.507 Y659.674
X35.288 Y659.32
Z-13 F333.3
X35.293 Y659.319 F1000
X37.063 Y658.963
X37.068 Y658.962
X38.826 Y658.605
X38.833 Y658.604
X40.581 Y658.244
X40.587 Y658.242
X42.323 Y657.88
X42.327 Y657.879
X44.052 Y657.516
X44.058 Y657.515
X45.771 Y657.15
X45.777 Y657.149
X47.479 Y656.782
X47.487 Y656.78
X49.177 Y656.41
X49.182 Y656.409
X50.861 Y656.038
X50.868 Y656.037
X52.536 Y655.664
X52.542 Y655.662
X54.199 Y655.287
X54.207 Y655.286
X55.852 Y654.908
X55.857 Y654.906
X57.491 Y654.527
X57.498 Y654.526
X59.121 Y654.145
X59.129 Y654.143
X60.74 Y653.759
X60.747 Y653.757
X62.347 Y653.371
X62.354 Y653.37
X63.943 Y652.982
X63.952 Y652.98
X65.529 Y652.589
X65.535 Y652.587
X67.101 Y652.195
X67.11 Y652.193
X68.665 Y651.798
X68.672 Y651.796
X70.216 Y651.399
X70.225 Y651.397
X71.757 Y650.997
X71.765 Y650.995
X73.286 Y650.593
X73.294 Y650.591
X74.804 Y650.187
X74.813 Y650.185
X76.312 Y649.778
X76.319 Y649.776
X77.807 Y649.367
X77.815 Y649.364
X79.291 Y648.953
X79.3 Y648.951
X80.765 Y648.537
X80.775 Y648.534
X82.229 Y648.117
X82.237 Y648.115
X83.68 Y647.696
X83.688 Y647.693
X85.119 Y647.272
X85.129 Y647.27
X86.549 Y646.846
X86.558 Y646.843
X87.967 Y646.417
X87.977 Y646.414
X89.374 Y645.985
X89.383 Y645.982
X90.769 Y645.551
X90.78 Y645.548
X92.155 Y645.114
X92.164 Y645.111
X93.528 Y644.675
X93.538 Y644.672
X94.891 Y644.233
X94.9 Y644.23
X96.242 Y643.789
X96.252 Y643.785
X97.583 Y643.341
X97.59 Y643.339
X98.909 Y642.894
X98.922 Y642.89
X100.23 Y642.44
X100.238 Y642.438
X101.534 Y641.988
X101.545 Y641.984
X102.83 Y641.531
X102.84 Y641.527
X104.114 Y641.072
X104.124 Y641.069
X105.387 Y640.612
X105.399 Y640.607
X106.65 Y640.147
X106.658 Y640.144
X107.898 Y639.683
X107.911 Y639.679
X109.139 Y639.215
X109.149 Y639.211
X110.366 Y638.745
X110.376 Y638.741
X111.582 Y638.273
X111.593 Y638.268
X112.788 Y637.799
X112.798 Y637.795
X113.981 Y637.324
X113.993 Y637.319
X115.165 Y636.845
X115.176 Y636.84
X116.337 Y636.364
X116.347 Y636.36
X117.497 Y635.883
X117.509 Y635.878
X118.647 Y635.399
X118.658 Y635.394
X119.785 Y634.913
X119.796 Y634.909
X120.911 Y634.427
X120.922 Y634.422
X122.027 Y633.938
X122.038 Y633.933
X123.131 Y633.448
X123.143 Y633.443
X124.225 Y632.956
X124.236 Y632.951
X125.306 Y632.463
X125.317 Y632.458
X126.376 Y631.969
X126.389 Y631.963
X127.437 Y631.472
X127.446 Y631.468
X128.483 Y630.977
X128.495 Y630.971
X129.52 Y630.479
X129.529 Y630.474
X130.543 Y629.982
X130.557 Y629.976
X131.56 Y629.482
X131.569 Y629.477
X132.56 Y628.984
X132.571 Y628.978
X133.551 Y628.484
X133.561 Y628.48
X134.529 Y627.987
X134.541 Y627.98
X135.498 Y627.487
X135.507 Y627.482
X136.452 Y626.989
X136.461 Y626.984
X137.395 Y626.492
X137.405 Y626.487
X138.327 Y625.996
X138.338 Y625.99
X139.249 Y625.499
X139.258 Y625.494
X140.157 Y625.005
X140.167 Y624.999
X141.054 Y624.511
X141.063 Y624.507
X141.938 Y624.021
X141.946 Y624.016
X142.81 Y623.532
X142.821 Y623.526
X143.673 Y623.043
X143.679 Y623.039
X144.52 Y622.559
X144.529 Y622.554
X145.359 Y622.076
X145.37 Y622.07
X146.187 Y621.594
X146.194 Y621.59
X147.001 Y621.116
X147.009 Y621.111
X147.804 Y620.64
X147.812 Y620.635
X148.597 Y620.166
X148.606 Y620.161
X149.379 Y619.695
X149.388 Y619.689
X150.15 Y619.225
X150.159 Y619.22
X150.911 Y618.758
X150.917 Y618.754
X151.659 Y618.295
X151.668 Y618.29
X152.4 Y617.833
X152.41 Y617.826
X153.131 Y617.371
X153.143 Y617.364
X154.557 Y616.461
X154.574 Y616.45
X155.952 Y615.554
X155.969 Y615.542
X157.313 Y614.652
X157.333 Y614.639
X158.645 Y613.752
X158.663 Y613.74
X159.946 Y612.856
X159.966 Y612.842
X161.224 Y611.957
X161.245 Y611.942
X162.48 Y611.054
X162.502 Y611.038
X163.718 Y610.144
X163.74 Y610.128
X164.94 Y609.225
X164.962 Y609.208
X166.15 Y608.293
X166.175 Y608.273
X167.353 Y607.342
X167.375 Y607.325
X168.548 Y606.376
X168.572 Y606.356
X169.743 Y605.385
X169.767 Y605.365
X170.939 Y604.368
X170.961 Y604.349
X172.138 Y603.324
X172.161 Y603.304
X173.345 Y602.247
X173.367 Y602.227
X174.562 Y601.134
X174.576 Y601.121
X175.179 Y600.561
X175.191 Y600.55
X175.797 Y599.98
X175.808 Y599.969
X176.418 Y599.388
X176.428 Y599.379
X177.042 Y598.788
X177.051 Y598.779
X177.67 Y598.177
X177.68 Y598.167
X178.304 Y597.553
X178.312 Y597.546
X178.942 Y596.921
X178.953 Y596.91
X179.587 Y596.273
X179.594 Y596.266
X180.235 Y595.617
X180.245 Y595.606
X180.891 Y594.944
X180.899 Y594.936
X181.551 Y594.262
X181.561 Y594.252
X182.219 Y593.564
X182.225 Y593.558
X182.889 Y592.858
X182.899 Y592.848
X183.57 Y592.134
X183.577 Y592.126
X184.255 Y591.398
X184.263 Y591.39
X184.948 Y590.648
X184.954 Y590.641
X185.646 Y589.886
X185.655 Y589.876
X186.353 Y589.106
X186.359 Y589.1
X187.065 Y588.316
X187.072 Y588.307
X187.784 Y587.509
X187.792 Y587.501
X188.511 Y586.688
X188.516 Y586.683
X189.243 Y585.856
X189.25 Y585.847
X189.984 Y585.004
X189.991 Y584.996
X190.731 Y584.139
X190.737 Y584.133
X191.485 Y583.261
X191.492 Y583.252
X192.246 Y582.365
X192.251 Y582.359
X193.013 Y581.457
X193.02 Y581.449
X193.788 Y580.532
X193.793 Y580.525
X194.568 Y579.593
X194.575 Y579.586
X195.357 Y578.638
X195.362 Y578.631
X196.15 Y577.669
X196.156 Y577.662
X196.95 Y576.685
X196.956 Y576.678
X197.757 Y575.685
X197.762 Y575.678
X198.569 Y574.671
X198.575 Y574.663
X199.388 Y573.64
X199.394 Y573.633
X200.212 Y572.596
X200.217 Y572.59
X201.042 Y571.537
X201.048 Y571.529
X201.877 Y570.462
X201.882 Y570.455
X202.717 Y569.373
X202.723 Y569.366
X203.563 Y568.269
X203.568 Y568.262
X204.413 Y567.151
X204.419 Y567.143
X205.268 Y566.017
X205.274 Y566.01
X206.127 Y564.87
X206.131 Y564.864
X206.989 Y563.71
X206.995 Y563.702
X207.857 Y562.533
X207.863 Y562.525
X208.728 Y561.342
X208.734 Y561.334
X209.602 Y560.137
X209.606 Y560.131
X210.478 Y558.921
X210.485 Y558.912
X211.359 Y557.688
X211.364 Y557.68
X212.241 Y556.442
X212.246 Y556.435
X213.126 Y555.184
X213.133 Y555.175
X214.014 Y553.91
X214.018 Y553.903
X214.901 Y552.626
X214.908 Y552.616
X215.792 Y551.325
X215.797 Y551.318
X216.682 Y550.015
X216.687 Y550.007
X217.574 Y548.691
X217.581 Y548.681
X218.467 Y547.353
X218.472 Y547.345
X219.359 Y546.004
X219.364 Y545.996
X220.251 Y544.644
X220.258 Y544.634
X221.144 Y543.269
X221.15 Y543.26
X222.035 Y541.884
X222.04 Y541.876
X222.925 Y540.488
X222.931 Y540.478
X223.814 Y539.079
X223.82 Y539.07
X224.701 Y537.66
X224.707 Y537.65
X225.586 Y536.229
X225.593 Y536.219
X226.469 Y534.787
X226.474 Y534.777
X227.348 Y533.334
X227.354 Y533.324
X228.225 Y531.871
X228.231 Y531.862
X229.099 Y530.399
X229.105 Y530.388
X229.969 Y528.915
X229.976 Y528.904
X230.836 Y527.421
X230.841 Y527.411
X231.697 Y525.919
X231.705 Y525.906
X232.555 Y524.404
X232.56 Y524.394
X233.406 Y522.883
X233.412 Y522.872
X234.253 Y521.352
X234.26 Y521.34
X235.095 Y519.811
X235.101 Y519.8
X235.931 Y518.262
X235.938 Y518.25
X236.761 Y516.704
X236.767 Y516.691
X237.583 Y515.137
X237.59 Y515.125
X238.4 Y513.562
X238.406 Y513.55
X239.209 Y511.98
X239.216 Y511.967
X240.011 Y510.389
X240.017 Y510.376
X240.805 Y508.79
X240.812 Y508.776
X241.591 Y507.183
X241.597 Y507.171
X242.369 Y505.571
X242.375 Y505.557
X243.138 Y503.95
X243.145 Y503.936
X243.899 Y502.322
X243.905 Y502.31
X244.651 Y500.69
X244.658 Y500.674
X245.394 Y499.047
X245.4 Y499.033
X246.127 Y497.399
X246.134 Y497.383
X246.85 Y495.743
X246.856 Y495.73
X247.563 Y494.085
X247.569 Y494.07
X248.266 Y492.418
X248.273 Y492.403
X248.96 Y490.745
X248.966 Y490.729
X249.642 Y489.066
X249.648 Y489.05
X250.313 Y487.381
X250.319 Y487.367
X250.974 Y485.693
X250.981 Y485.676
X251.624 Y483.996
X251.63 Y483.98
X252.262 Y482.295
X252.268 Y482.279
X252.889 Y480.589
X252.895 Y480.572
X253.504 Y478.877
X253.51 Y478.86
X254.107 Y477.16
X254.112 Y477.145
X254.698 Y475.44
X254.704 Y475.423
X255.278 Y473.713
X255.284 Y473.696
X255.846 Y471.982
X255.851 Y471.965
X256.401 Y470.246
X256.406 Y470.229
X256.944 Y468.505
X256.95 Y468.486
X257.475 Y466.757
X257.48 Y466.742
X257.994 Y465.009
X257.999 Y464.99
X258.5 Y463.252
G2 X256.306 Y460.069 I-2.402 J-0.692
G1 X246.035 Y459.212
X255.703 Y343.198
G2 X253.212 Y340.49 I-2.491 J-0.208
G1 X6
G2 X-1.5 Y347.99 I0 J7.5
G1 Y662.99
G2 X1.407 Y665.457 I2.5 J0
G1 X3.382 Y665.131
X3.388 Y665.13
X5.351 Y664.801
X5.353 Y664.8
X7.305 Y664.471
X7.311 Y664.47
X9.251 Y664.138
X9.255
X11.184 Y663.805
X11.187 Y663.804
X13.105 Y663.47
X13.11 Y663.469
X15.016 Y663.133
X15.021 Y663.132
X16.916 Y662.794
X16.92 Y662.793
X18.803 Y662.454
X18.807
X20.679 Y662.114
X20.686 Y662.113
X22.547 Y661.77
X22.551 Y661.769
X24.4 Y661.425
X24.404 Y661.424
X26.242 Y661.079
X26.249 Y661.078
X28.075 Y660.73
X28.078 Y660.729
X29.893 Y660.381
X29.9 Y660.38
X31.704 Y660.029
X31.71 Y660.028
X33.502 Y659.675
X33.507 Y659.674
X35.288 Y659.32
G0 Z5
X6.319 Y10.156
G1 Z-5 F333.3
Y321 F1000
G2 X9.227 Y323.466 I2.5 J0
G1 X11.202 Y323.139
X11.205
X13.168 Y322.811
X13.173 Y322.81
X15.125 Y322.48
X15.129 Y322.479
X17.069 Y322.148
X17.074
X19.003 Y321.815
X19.008 Y321.814
X20.925 Y321.479
X20.929 Y321.478
X22.835 Y321.142
X22.839 Y321.141
X24.734 Y320.804
X24.739 Y320.803
X26.622 Y320.464
X26.627
X28.5 Y320.123
X28.503 Y320.122
X30.364 Y319.78
X30.369 Y319.779
X32.219 Y319.435
X32.224 Y319.434
X34.062 Y319.088
X34.066 Y319.087
X35.893 Y318.74
X35.898 Y318.739
X37.713 Y318.39
X37.719 Y318.389
X39.523 Y318.038
X39.527 Y318.037
X41.32 Y317.685
X41.325 Y317.684
X43.107 Y317.33
X43.112 Y317.329
X44.882 Y316.973
X44.888 Y316.972
X46.647 Y316.614
X46.651 Y316.613
X48.398 Y316.254
X48.405 Y316.252
X50.141 Y315.89
X50.146 Y315.889
X51.871 Y315.526
X51.878 Y315.525
X53.591 Y315.159
X53.596 Y315.158
X55.298 Y314.791
X55.304 Y314.789
X56.995 Y314.421
X57.001 Y314.419
X58.68 Y314.048
X58.687 Y314.047
X60.355 Y313.674
X60.362 Y313.672
X62.019 Y313.296
X62.024 Y313.295
X63.67 Y312.918
X63.676 Y312.916
X65.31 Y312.537
X65.318 Y312.535
X66.941 Y312.153
X66.948 Y312.152
X68.559 Y311.768
X68.566 Y311.766
X70.166 Y311.38
X70.173 Y311.379
X71.762 Y310.991
X71.769 Y310.989
X73.347 Y310.599
X73.355 Y310.597
X74.922 Y310.204
X74.927 Y310.202
X76.482 Y309.808
X76.492 Y309.806
X78.036 Y309.408
X78.042 Y309.406
X79.575 Y309.007
X79.584 Y309.005
X81.105 Y308.603
X81.112 Y308.601
X82.623 Y308.197
X82.632 Y308.195
X84.13 Y307.788
X84.138 Y307.786
X85.626 Y307.377
X85.635 Y307.374
X87.111 Y306.962
X87.119 Y306.96
X88.584 Y306.546
X88.592 Y306.544
X90.046 Y306.128
X90.056 Y306.125
X91.498 Y305.706
X91.506 Y305.703
X92.938 Y305.282
X92.948 Y305.28
X94.368 Y304.856
X94.378 Y304.853
X95.787 Y304.426
X95.794 Y304.423
X97.192 Y303.995
X97.203 Y303.992
X98.59 Y303.56
X98.598 Y303.557
X99.974 Y303.123
X99.983 Y303.12
X101.346 Y302.684
X101.355 Y302.681
X102.708 Y302.243
X102.72 Y302.24
X104.062 Y301.798
X104.07 Y301.795
X105.4 Y301.352
X105.411 Y301.348
X106.73 Y300.902
X106.739 Y300.899
X108.047 Y300.451
X108.059 Y300.447
X109.355 Y299.996
X109.363 Y299.993
X110.648 Y299.541
X110.66 Y299.537
X111.934 Y299.081
X111.943 Y299.078
X113.205 Y298.621
X113.215 Y298.617
X114.467 Y298.158
X114.479 Y298.153
X115.718 Y297.691
X115.728 Y297.688
X116.957 Y297.224
X116.966 Y297.22
X118.183 Y296.755
X118.195 Y296.751
X119.401 Y296.283
X119.412 Y296.279
X120.607 Y295.809
X120.618 Y295.804
X121.801 Y295.332
X121.812 Y295.328
X122.984 Y294.854
X122.994 Y294.85
X124.155 Y294.375
X124.166 Y294.37
X125.316 Y293.893
X125.328 Y293.888
X126.466 Y293.409
X126.477 Y293.404
X127.604 Y292.923
X127.615 Y292.919
X128.73 Y292.437
X128.741 Y292.432
X129.846 Y291.948
X129.859 Y291.942
X130.952 Y291.456
X130.96 Y291.453
X132.042 Y290.967
X132.057 Y290.96
X133.127 Y290.471
X133.136 Y290.467
X134.195 Y289.978
X134.206 Y289.973
X135.254 Y289.483
X135.265 Y289.478
X136.302 Y288.987
X136.314 Y288.981
X137.339 Y288.489
X137.35 Y288.483
X138.364 Y287.99
X138.374 Y287.986
X139.377 Y287.493
X139.389 Y287.486
X140.38 Y286.992
X140.389 Y286.988
X141.368 Y286.495
X141.381 Y286.489
X142.349 Y285.995
X142.358 Y285.99
X143.315 Y285.497
X143.326 Y285.492
X144.271 Y284.999
X144.28 Y284.994
X145.214 Y284.502
X145.226 Y284.496
X146.148 Y284.004
X146.155 Y284
X147.066 Y283.51
X147.078 Y283.504
X147.976 Y283.015
X147.984 Y283.01
X148.872 Y282.522
X148.882 Y282.517
X149.757 Y282.031
X149.767 Y282.025
X150.631 Y281.54
X150.638 Y281.536
X151.49 Y281.054
X151.5 Y281.048
X152.341 Y280.567
X152.349 Y280.563
X153.178 Y280.085
X153.186 Y280.08
X154.004 Y279.604
X154.011 Y279.6
X154.818 Y279.127
X154.83 Y279.12
X155.625 Y278.648
X155.632 Y278.643
X156.416 Y278.174
X156.423 Y278.171
X157.196 Y277.705
X157.207 Y277.698
X157.969 Y277.234
X157.976 Y277.23
X158.728 Y276.769
X158.738 Y276.763
X159.48 Y276.303
X159.486 Y276.299
X160.217 Y275.843
X160.227 Y275.837
X160.949 Y275.382
X160.962 Y275.374
X162.376 Y274.471
X162.393 Y274.46
X163.771 Y273.564
X163.789 Y273.552
X165.133 Y272.661
X165.151 Y272.649
X166.463 Y271.763
X166.484 Y271.749
X167.767 Y270.864
X167.785 Y270.851
X169.043 Y269.966
X169.064 Y269.951
X170.299 Y269.063
X170.321 Y269.047
X171.537 Y268.153
X171.559 Y268.137
X172.759 Y267.234
X172.781 Y267.217
X173.969 Y266.302
X173.993 Y266.283
X175.171 Y265.353
X175.194 Y265.335
X176.367 Y264.386
X176.392 Y264.366
X177.563 Y263.394
X177.585 Y263.375
X178.757 Y262.379
X178.78 Y262.359
X179.957 Y261.334
X179.981 Y261.313
X181.165 Y260.255
X181.185 Y260.237
X182.38 Y259.145
X182.395 Y259.131
X182.998 Y258.571
X183.011 Y258.559
X183.617 Y257.988
X183.626 Y257.98
X184.236 Y257.4
X184.247 Y257.389
X184.861 Y256.798
X184.871 Y256.788
X185.49 Y256.185
X185.498 Y256.177
X186.122 Y255.564
X186.132 Y255.554
X186.761 Y254.929
X186.77 Y254.921
X187.405 Y254.284
X187.414 Y254.274
X188.054 Y253.625
X188.062 Y253.617
X188.709 Y252.955
X188.719 Y252.945
X189.371 Y252.27
X189.378 Y252.262
X190.036 Y251.575
X190.045 Y251.567
X190.71 Y250.866
X190.718 Y250.857
X191.389 Y250.143
X191.396 Y250.135
X192.074 Y249.407
X192.081 Y249.4
X192.766 Y248.659
X192.775 Y248.649
X193.466 Y247.893
X193.471 Y247.888
X194.17 Y247.119
X194.179 Y247.109
X194.884 Y246.325
X194.889 Y246.319
X195.602 Y245.521
X195.611 Y245.511
X196.33 Y244.698
X196.336 Y244.691
X197.063 Y243.863
X197.07 Y243.855
X197.803 Y243.014
X197.808 Y243.007
X198.549 Y242.15
X198.556 Y242.143
X199.304 Y241.271
X199.311 Y241.262
X200.065 Y240.375
X200.071 Y240.368
X200.833 Y239.465
X200.839 Y239.458
X201.607 Y238.541
X201.612 Y238.534
X202.387 Y237.602
X202.393 Y237.596
X203.175 Y236.649
X203.181 Y236.641
X203.969 Y235.679
X203.976 Y235.671
X204.77 Y234.693
X204.774 Y234.688
X205.575 Y233.696
X205.582 Y233.687
X206.389 Y232.679
X206.393 Y232.673
X207.206 Y231.651
X207.214 Y231.642
X208.032 Y230.604
X208.036 Y230.599
X208.86 Y229.547
X208.865 Y229.54
X209.695 Y228.473
X209.701 Y228.465
X210.536 Y227.383
X210.542 Y227.376
X211.382 Y226.279
X211.388 Y226.271
X212.232 Y225.16
X212.236 Y225.154
X213.086 Y224.028
X213.093 Y224.02
X213.946 Y222.88
X213.951 Y222.873
X214.809 Y221.718
X214.814 Y221.711
X215.676 Y220.542
X215.681 Y220.534
X216.546 Y219.352
X216.553 Y219.344
X217.421 Y218.147
X217.426 Y218.14
X218.298 Y216.929
X218.304 Y216.921
X219.178 Y215.697
X219.183 Y215.689
X220.06 Y214.451
X220.065 Y214.444
X220.945 Y213.193
X220.951 Y213.185
X221.832 Y211.921
X221.838 Y211.912
X222.721 Y210.634
X222.726 Y210.626
X223.61 Y209.336
X223.616 Y209.328
X224.501 Y208.025
X224.507 Y208.016
X225.393 Y206.7
X225.398 Y206.692
X226.285 Y205.363
X226.291 Y205.355
X227.178 Y204.015
X227.184 Y204.006
X228.071 Y202.653
X228.077 Y202.644
X228.963 Y201.28
X228.969 Y201.27
X229.854 Y199.894
X229.86 Y199.885
X230.744 Y198.497
X230.749 Y198.488
X231.632 Y197.089
X231.637 Y197.081
X232.519 Y195.671
X232.527 Y195.66
X233.406 Y194.238
X233.412 Y194.228
X234.288 Y192.796
X234.293 Y192.787
X235.167 Y191.345
X235.173 Y191.334
X236.044 Y189.881
X236.05 Y189.872
X236.918 Y188.409
X236.924 Y188.398
X237.788 Y186.925
X237.795 Y186.914
X238.655 Y185.431
X238.661 Y185.419
X239.516 Y183.926
X239.522 Y183.916
X240.373 Y182.414
X240.379 Y182.403
X241.225 Y180.892
X241.231 Y180.881
X242.072 Y179.361
X242.079 Y179.349
X242.914 Y177.82
X242.921 Y177.808
X243.75 Y176.27
X243.755 Y176.26
X244.579 Y174.714
X244.586 Y174.7
X245.402 Y173.146
X245.408 Y173.135
X246.218 Y171.573
X246.225 Y171.56
X247.028 Y169.989
X247.035 Y169.976
X247.83 Y168.398
X247.836 Y168.386
X248.624 Y166.801
X248.631 Y166.786
X249.41 Y165.193
X249.416 Y165.181
X250.188 Y163.581
X250.194 Y163.567
X250.957 Y161.96
X250.964 Y161.946
X251.718 Y160.332
X251.724 Y160.319
X252.47 Y158.698
X252.477 Y158.683
X253.213 Y157.056
X253.219 Y157.042
X253.945 Y155.409
X253.952 Y155.394
X254.669 Y153.754
X254.675 Y153.74
X255.382 Y152.094
X255.388 Y152.079
X256.085 Y150.427
X256.091 Y150.412
X256.778 Y148.755
X256.785 Y148.739
X257.461 Y147.076
X257.467 Y147.06
X258.132 Y145.391
X258.139 Y145.375
X258.793 Y143.7
X258.798 Y143.686
X259.442 Y142.007
X259.449 Y141.99
X260.081 Y140.305
X260.087 Y140.288
X260.707 Y138.598
X260.712 Y138.584
X261.322 Y136.889
X261.329 Y136.87
X261.926 Y135.17
X261.931 Y135.155
X262.517 Y133.45
X262.523 Y133.433
X263.097 Y131.723
X263.103 Y131.706
X263.665 Y129.991
X263.67 Y129.974
X264.22 Y128.255
X264.226 Y128.236
X264.763 Y126.512
X264.768 Y126.497
X265.294 Y124.769
X265.299 Y124.752
X265.813 Y123.018
X265.818 Y122.999
X266.319 Y121.261
G2 X264.125 Y118.078 I-2.402 J-0.692
G1 X253.854 Y117.222
X263.522 Y1.208
G2 X261.031 Y-1.5 I-2.491 J-0.208
G1 X13.819
G2 X6.319 Y6 I0 J7.5
G1 Y10.156
Z-10 F333.3
Y321 F1000
G2 X9.227 Y323.466 I2.5 J0
G1 X11.202 Y323.139
X11.205
X13.168 Y322.811
X13.173 Y322.81
X15.125 Y322.48
X15.129 Y322.479
X17.069 Y322.148
X17.074
X19.003 Y321.815
X19.008 Y321.814
X20.925 Y321.479
X20.929 Y321.478
X22.835 Y321.142
X22.839 Y321.141
X24.734 Y320.804
X24.739 Y320.803
X26.622 Y320.464
X26.627
X28.5 Y320.123
X28.503 Y320.122
X30.364 Y319.78
X30.369 Y319.779
X32.219 Y319.435
X32.224 Y319.434
X34.062 Y319.088
X34.066 Y319.087
X35.893 Y318.74
X35.898 Y318.739
X37.713 Y318.39
X37.719 Y318.389
X39.523 Y318.038
X39.527 Y318.037
X41.32 Y317.685
X41.325 Y317.684
X43.107 Y317.33
X43.112 Y317.329
X44.882 Y316.973
X44.888 Y316.972
X46.647 Y316.614
X46.651 Y316.613
X48.398 Y316.254
X48.405 Y316.252
X50.141 Y315.89
X50.146 Y315.889
X51.871 Y315.526
X51.878 Y315.525
X53.591 Y315.159
X53.596 Y315.158
X55.298 Y314.791
X55.304 Y314.789
X56.995 Y314.421
X57.001 Y314.419
X58.68 Y314.048
X58.687 Y314.047
X60.355 Y313.674
X60.362 Y313.672
X62.019 Y313.296
X62.024 Y313.295
X63.67 Y312.918
X63.676 Y312.916
X65.31 Y312.537
X65.318 Y312.535
X66.941 Y312.153
X66.948 Y312.152
X68.559 Y311.768
X68.566 Y311.766
X70.166 Y311.38
X70.173 Y311.379
X71.762 Y310.991
X71.769 Y310.989
X73.347 Y310.599
X73.355 Y310.597
X74.922 Y310.204
X74.927 Y310.202
X76.482 Y309.808
X76.492 Y309.806
X78.036 Y309.408
X78.042 Y309.406
X79.575 Y309.007
X79.584 Y309.005
X81.105 Y308.603
X81.112 Y308.601
X82.623 Y308.197
X82.632 Y308.195
X84.13 Y307.788
X84.138 Y307.786
X85.626 Y307.377
X85.635 Y307.374
X87.111 Y306.962
X87.119 Y306.96
X88.584 Y306.546
X88.592 Y306.544
X90.046 Y306.128
X90.056 Y306.125
X91.498 Y305.706
X91.506 Y305.703
X92.938 Y305.282
X92.948 Y305.28
X94.368 Y304.856
X94.378 Y304.853
X95.787 Y304.426
X95.794 Y304.423
X97.192 Y303.995
X97.203 Y303.992
X98.59 Y303.56
X98.598 Y303.557
X99.974 Y303.123
X99.983 Y303.12
X101.346 Y302.684
X101.355 Y302.681
X102.708 Y302.243
X102.72 Y302.24
X104.062 Y301.798
X104.07 Y301.795
X105.4 Y301.352
X105.411 Y301.348
X106.73 Y300.902
X106.739 Y300.899
X108.047 Y300.451
X108.059 Y300.447
X109.355 Y299.996
X109.363 Y299.993
X110.648 Y299.541
X110.66 Y299.537
X111.934 Y299.081
X111.943 Y299.078
X113.205 Y298.621
X113.215 Y298.617
X114.467 Y298.158
X114.479 Y298.153
X115.718 Y297.691
X115.728 Y297.688
X116.957 Y297.224
X116.966 Y297.22
X118.183 Y296.755
X118.195 Y296.751
X119.401 Y296.283
X119.412 Y296.279
X120.607 Y295.809
X120.618 Y295.804
X121.801 Y295.332
X121.812 Y295.328
X122.984 Y294.854
X122.994 Y294.85
X124.155 Y294.375
X124.166 Y294.37
X125.316 Y293.893
X125.328 Y293.888
X126.466 Y293.409
X126.477 Y293.404
X127.604 Y292.923
X127.615 Y292.919
X128.73 Y292.437
X128.741 Y292.432
X129.846 Y291.948
X129.859 Y291.942
X130.952 Y291.456
X130.96 Y291.453
X132.042 Y290.967
X132.057 Y290.96
X133.127 Y290.471
X133.136 Y290.467
X134.195 Y289.978
X134.206 Y289.973
X135.254 Y289.483
X135.265 Y289.478
X136.302 Y288.987
X136.314 Y288.981
X137.339 Y288.489
X137.35 Y288.483
X138.364 Y287.99
X138.374 Y287.986
X139.377 Y287.493
X139.389 Y287.486
X140.38 Y286.992
X140.389 Y286.988
X141.368 Y286.495
X141.381 Y286.489
X142.349 Y285.995
X142.358 Y285.99
X143.315 Y285.497
X143.326 Y285.492
X144.271 Y284.999
X144.28 Y284.994
X145.214 Y284.502
X145.226 Y284.496
X146.148 Y284.004
X146.155 Y284
X147.066 Y283.51
X147.078 Y283.504
X147.976 Y283.015
X147.984 Y283.01
X148.872 Y282.522
X148.882 Y282.517
X149.757 Y282.031
X149.767 Y282.025
X150.631 Y281.54
X150.638 Y281.536
X151.49 Y281.054
X151.5 Y281.048
X152.341 Y280.567
X152.349 Y280.563
X153.178 Y280.085
X153.186 Y280.08
X154.004 Y279.604
X154.011 Y279.6
X154.818 Y279.127
X154.83 Y279.12
X155.625 Y278.648
X155.632 Y278.643
X156.416 Y278.174
X156.423 Y278.171
X157.196 Y277.705
X157.207 Y277.698
X157.969 Y277.234
X157.976 Y277.23
X158.728 Y276.769
X158.738 Y276.763
X159.48 Y276.303
X159.486 Y276.299
X160.217 Y275.843
X160.227 Y275.837
X160.949 Y275.382
X160.962 Y275.374
X162.376 Y274.471
X162.393 Y274.46
X163.771 Y273.564
X163.789 Y273.552
X165.133 Y272.661
X165.151 Y272.649
X166.463 Y271.763
X166.484 Y271.749
X167.767 Y270.864
X167.785 Y270.851
X169.043 Y269.966
X169.064 Y269.951
X170.299 Y269.063
X170.321 Y269.047
X171.537 Y268.153
X171.559 Y268.137
X172.759 Y267.234
X172.781 Y267.217
X173.969 Y266.302
X173.993 Y266.283
X175.171 Y265.353
X175.194 Y265.335
X176.367 Y264.386
X176.392 Y264.366
X177.563 Y263.394
X177.585 Y263.375
X178.757 Y262.379
X178.78 Y262.359
X179.957 Y261.334
X179.981 Y261.313
X181.165 Y260.255
X181.185 Y260.237
X182.38 Y259.145
X182.395 Y259.131
X182.998 Y258.571
X183.011 Y258.559
X183.617 Y257.988
X183.626 Y257.98
X184.236 Y257.4
X184.247 Y257.389
X184.861 Y256.798
X184.871 Y256.788
X185.49 Y256.185
X185.498 Y256.177
X186.122 Y255.564
X186.132 Y255.554
X186.761 Y254.929
X186.77 Y254.921
X187.405 Y254.284
X187.414 Y254.274
X188.054 Y253.625
X188.062 Y253.617
X188.709 Y252.955
X188.719 Y252.945
X189.371 Y252.27
X189.378 Y252.262
X190.036 Y251.575
X190.045 Y251.567
X190.71 Y250.866
X190.718 Y250.857
X191.389 Y250.143
X191.396 Y250.135
X192.074 Y249.407
X192.081 Y249.4
X192.766 Y248.659
X192.775 Y248.649
X193.466 Y247.893
X193.471 Y247.888
X194.17 Y247.119
X194.179 Y247.109
X194.884 Y246.325
X194.889 Y246.319
X195.602 Y245.521
X195.611 Y245.511
X196.33 Y244.698
X196.336 Y244.691
X197.063 Y243.863
X197.07 Y243.855
X197.803 Y243.014
X197.808 Y243.007
X198.549 Y242.15
X198.556 Y242.143
X199.304 Y241.271
X199.311 Y241.262
X200.065 Y240.375
X200.071 Y240.368
X200.833 Y239.465
X200.839 Y239.458
X201.607 Y238.541
X201.612 Y238.534
X202.387 Y237.602
X202.393 Y237.596
X203.175 Y236.649
X203.181 Y236.641
X203.969 Y235.679
X203.976 Y235.671
X204.77 Y234.693
X204.774 Y234.688
X205.575 Y233.696
X205.582 Y233.687
X206.389 Y232.679
X206.393 Y232.673
X207.206 Y231.651
X207.214 Y231.642
X208.032 Y230.604
X208.036 Y230.599
X208.86 Y229.547
X208.865 Y229.54
X209.695 Y228.473
X209.701 Y228.465
X210.536 Y227.383
X210.542 Y227.376
X211.382 Y226.279
X211.388 Y226.271
X212.232 Y225.16
X212.236 Y225.154
X213.086 Y224.028
X213.093 Y224.02
X213.946 Y222.88
X213.951 Y222.873
X214.809 Y221.718
X214.814 Y221.711
X215.676 Y220.542
X215.681 Y220.534
X216.546 Y219.352
X216.553 Y219.344
X217.421 Y218.147
X217.426 Y218.14
X218.298 Y216.929
X218.304 Y216.921
X219.178 Y215.697
X219.183 Y215.689
X220.06 Y214.451
X220.065 Y214.444
X220.945 Y213.193
X220.951 Y213.185
X221.832 Y211.921
X221.838 Y211.912
X222.721 Y210.634
X222.726 Y210.626
X223.61 Y209.336
X223.616 Y209.328
X224.501 Y208.025
X224.507 Y208.016
X225.393 Y206.7
X225.398 Y206.692
X226.285 Y205.363
X226.291 Y205.355
X227.178 Y204.015
X227.184 Y204.006
X228.071 Y202.653
X228.077 Y202.644
X228.963 Y201.28
X228.969 Y201.27
X229.854 Y199.894
X229.86 Y199.885
X230.744 Y198.497
X230.749 Y198.488
X231.632 Y197.089
X231.637 Y197.081
X232.519 Y195.671
X232.527 Y195.66
X233.406 Y194.238
X233.412 Y194.228
X234.288 Y192.796
X234.293 Y192.787
X235.167 Y191.345
X235.173 Y191.334
X236.044 Y189.881
X236.05 Y189.872
X236.918 Y188.409
X236.924 Y188.398
X237.788 Y186.925
X237.795 Y186.914
X238.655 Y185.431
X238.661 Y185.419
X239.516 Y183.926
X239.522 Y183.916
X240.373 Y182.414
X240.379 Y182.403
X241.225 Y180.892
X241.231 Y180.881
X242.072 Y179.361
X242.079 Y179.349
X242.914 Y177.82
X242.921 Y177.808
X243.75 Y176.27
X243.755 Y176.26
X244.579 Y174.714
X244.586 Y174.7
X245.402 Y173.146
X245.408 Y173.135
X246.218 Y171.573
X246.225 Y171.56
X247.028 Y169.989
X247.035 Y169.976
X247.83 Y168.398
X247.836 Y168.386
X248.624 Y166.801
X248.631 Y166.786
X249.41 Y165.193
X249.416 Y165.181
X250.188 Y163.581
X250.194 Y163.567
X250.957 Y161.96
X250.964 Y161.946
X251.718 Y160.332
X251.724 Y160.319
X252.47 Y158.698
X252.477 Y158.683
X253.213 Y157.056
X253.219 Y157.042
X253.945 Y155.409
X253.952 Y155.394
X254.669 Y153.754
X254.675 Y153.74
X255.382 Y152.094
X255.388 Y152.079
X256.085 Y150.427
X256.091 Y150.412
X256.778 Y148.755
X256.785 Y148.739
X257.461 Y147.076
X257.467 Y147.06
X258.132 Y145.391
X258.139 Y145.375
X258.793 Y143.7
X258.798 Y143.686
X259.442 Y142.007
X259.449 Y141.99
X260.081 Y140.305
X260.087 Y140.288
X260.707 Y138.598
X260.712 Y138.584
X261.322 Y136.889
X261.329 Y136.87
X261.926 Y135.17
X261.931 Y135.155
X262.517 Y133.45
X262.523 Y133.433
X263.097 Y131.723
X263.103 Y131.706
X263.665 Y129.991
X263.67 Y129.974
X264.22 Y128.255
X264.226 Y128.236
X264.763 Y126.512
X264.768 Y126.497
X265.294 Y124.769
X265.299 Y124.752
X265.813 Y123.018
X265.818 Y122.999
X266.319 Y121.261
G2 X264.125 Y118.078 I-2.402 J-0.692
G1 X253.854 Y117.222
X263.522 Y1.208
G2 X261.031 Y-1.5 I-2.491 J-0.208
G1 X13.819
G2 X6.319 Y6 I0 J7.5
G1 Y10.156
Z-13 F333.3
Y321 F1000
G2 X9.227 Y323.466 I2.5 J0
G1 X11.202 Y323.139
X11.205
X13.168 Y322.811
X13.173 Y322.81
X15.125 Y322.48
X15.129 Y322.479
X17.069 Y322.148
X17.074
X19.003 Y321.815
X19.008 Y321.814
X20.925 Y321.479
X20.929 Y321.478
X22.835 Y321.142
X22.839 Y321.141
X24.734 Y320.804
X24.739 Y320.803
X26.622 Y320.464
X26.627
X28.5 Y320.123
X28.503 Y320.122
X30.364 Y319.78
X30.369 Y319.779
X32.219 Y319.435
X32.224 Y319.434
X34.062 Y319.088
X34.066 Y319.087
X35.893 Y318.74
X35.898 Y318.739
X37.713 Y318.39
X37.719 Y318.389
X39.523 Y318.038
X39.527 Y318.037
X41.32 Y317.685
X41.325 Y317.684
X43.107 Y317.33
X43.112 Y317.329
X44.882 Y316.973
X44.888 Y316.972
X46.647 Y316.614
X46.651 Y316.613
X48.398 Y316.254
X48.405 Y316.252
X50.141 Y315.89
X50.146 Y315.889
X51.871 Y315.526
X51.878 Y315.525
X53.591 Y315.159
X53.596 Y315.158
X55.298 Y314.791
X55.304 Y314.789
X56.995 Y314.421
X57.001 Y314.419
X58.68 Y314.048
X58.687 Y314.047
X60.355 Y313.674
X60.362 Y313.672
X62.019 Y313.296
X62.024 Y313.295
X63.67 Y312.918
X63.676 Y312.916
X65.31 Y312.537
X65.318 Y312.535
X66.941 Y312.153
X66.948 Y312.152
X68.559 Y311.768
X68.566 Y311.766
X70.166 Y311.38
X70.173 Y311.379
X71.762 Y310.991
X71.769 Y310.989
X73.347 Y310.599
X73.355 Y310.597
X74.922 Y310.204
X74.927 Y310.202
X76.482 Y309.808
X76.492 Y309.806
X78.036 Y309.408
X78.042 Y309.406
X79.575 Y309.007
X79.584 Y309.005
X81.105 Y308.603
X81.112 Y308.601
X82.623 Y308.197
X82.632 Y308.195
X84.13 Y307.788
X84.138 Y307.786
X85.626 Y307.377
X85.635 Y307.374
X87.111 Y306.962
X87.119 Y306.96
X88.584 Y306.546
X88.592 Y306.544
X90.046 Y306.128
X90.056 Y306.125
X91.498 Y305.706
X91.506 Y305.703
X92.938 Y305.282
X92.948 Y305.28
X94.368 Y304.856
X94.378 Y304.853
X95.787 Y304.426
X95.794 Y304.423
X97.192 Y303.995
X97.203 Y303.992
X98.59 Y303.56
X98.598 Y303.557
X99.974 Y303.123
X99.983 Y303.12
X101.346 Y302.684
X101.355 Y302.681
X102.708 Y302.243
X102.72 Y302.24
X104.062 Y301.798
X104.07 Y301.795
X105.4 Y301.352
X105.411 Y301.348
X106.73 Y300.902
X106.739 Y300.899
X108.047 Y300.451
X108.059 Y300.447
X109.355 Y299.996
X109.363 Y299.993
X110.648 Y299.541
X110.66 Y299.537
X111.934 Y299.081
X111.943 Y299.078
X113.205 Y298.621
X113.215 Y298.617
X114.467 Y298.158
X114.479 Y298.153
X115.718 Y297.691
X115.728 Y297.688
X116.957 Y297.224
X116.966 Y297.22
X118.183 Y296.755
X118.195 Y296.751
X119.401 Y296.283
X119.412 Y296.279
X120.607 Y295.809
X120.618 Y295.804
X121.801 Y295.332
X121.812 Y295.328
X122.984 Y294.854
X122.994 Y294.85
X124.155 Y294.375
X124.166 Y294.37
X125.316 Y293.893
X125.328 Y293.888
X126.466 Y293.409
X126.477 Y293.404
X127.604 Y292.923
X127.615 Y292.919
X128.73 Y292.437
X128.741 Y292.432
X129.846 Y291.948
X129.859 Y291.942
X130.952 Y291.456
X130.96 Y291.453
X132.042 Y290.967
X132.057 Y290.96
X133.127 Y290.471
X133.136 Y290.467
X134.195 Y289.978
X134.206 Y289.973
X135.254 Y289.483
X135.265 Y289.478
X136.302 Y288.987
X136.314 Y288.981
X137.339 Y288.489
X137.35 Y288.483
X138.364 Y287.99
X138.374 Y287.986
X139.377 Y287.493
X139.389 Y287.486
X140.38 Y286.992
X140.389 Y286.988
X141.368 Y286.495
X141.381 Y286.489
X142.349 Y285.995
X142.358 Y285.99
X143.315 Y285.497
X143.326 Y285.492
X144.271 Y284.999
X144.28 Y284.994
X145.214 Y284.502
X145.226 Y284.496
X146.148 Y284.004
X146.155 Y284
X147.066 Y283.51
X147.078 Y283.504
X147.976 Y283.015
X147.984 Y283.01
X148.872 Y282.522
X148.882 Y282.517
X149.757 Y282.031
X149.767 Y282.025
X150.631 Y281.54
X150.638 Y281.536
X151.49 Y281.054
X151.5 Y281.048
X152.341 Y280.567
X152.349 Y280.563
X153.178 Y280.085
X153.186 Y280.08
X154.004 Y279.604
X154.011 Y279.6
X154.818 Y279.127
X154.83 Y279.12
X155.625 Y278.648
X155.632 Y278.643
X156.416 Y278.174
X156.423 Y278.171
X157.196 Y277.705
X157.207 Y277.698
X157.969 Y277.234
X157.976 Y277.23
X158.728 Y276.769
X158.738 Y276.763
X159.48 Y276.303
X159.486 Y276.299
X160.217 Y275.843
X160.227 Y275.837
X160.949 Y275.382
X160.962 Y275.374
X162.376 Y274.471
X162.393 Y274.46
X163.771 Y273.564
X163.789 Y273.552
X165.133 Y272.661
X165.151 Y272.649
X166.463 Y271.763
X166.484 Y271.749
X167.767 Y270.864
X167.785 Y270.851
X169.043 Y269.966
X169.064 Y269.951
X170.299 Y269.063
X170.321 Y269.047
X171.537 Y268.153
X171.559 Y268.137
X172.759 Y267.234
X172.781 Y267.217
X173.969 Y266.302
X173.993 Y266.283
X175.171 Y265.353
X175.194 Y265.335
X176.367 Y264.386
X176.392 Y264.366
X177.563 Y263.394
X177.585 Y263.375
X178.757 Y262.379
X178.78 Y262.359
X179.957 Y261.334
X179.981 Y261.313
X181.165 Y260.255
X181.185 Y260.237
X182.38 Y259.145
X182.395 Y259.131
X182.998 Y258.571
X183.011 Y258.559
X183.617 Y257.988
X183.626 Y257.98
X184.236 Y257.4
X184.247 Y257.389
X184.861 Y256.798
X184.871 Y256.788
X185.49 Y256.185
X185.498 Y256.177
X186.122 Y255.564
X186.132 Y255.554
X186.761 Y254.929
X186.77 Y254.921
X187.405 Y254.284
X187.414 Y254.274
X188.054 Y253.625
X188.062 Y253.617
X188.709 Y252.955
X188.719 Y252.945
X189.371 Y252.27
X189.378 Y252.262
X190.036 Y251.575
X190.045 Y251.567
X190.71 Y250.866
X190.718 Y250.857
X191.389 Y250.143
X191.396 Y250.135
X192.074 Y249.407
X192.081 Y249.4
X192.766 Y248.659
X192.775 Y248.649
X193.466 Y247.893
X193.471 Y247.888
X194.17 Y247.119
X194.179 Y247.109
X194.884 Y246.325
X194.889 Y246.319
X195.602 Y245.521
X195.611 Y245.511
X196.33 Y244.698
X196.336 Y244.691
X197.063 Y243.863
X197.07 Y243.855
X197.803 Y243.014
X197.808 Y243.007
X198.549 Y242.15
X198.556 Y242.143
X199.304 Y241.271
X199.311 Y241.262
X200.065 Y240.375
X200.071 Y240.368
X200.833 Y239.465
X200.839 Y239.458
X201.607 Y238.541
X201.612 Y238.534
X202.387 Y237.602
X202.393 Y237.596
X203.175 Y236.649
X203.181 Y236.641
X203.969 Y235.679
X203.976 Y235.671
X204.77 Y234.693
X204.774 Y234.688
X205.575 Y233.696
X205.582 Y233.687
X206.389 Y232.679
X206.393 Y232.673
X207.206 Y231.651
X207.214 Y231.642
X208.032 Y230.604
X208.036 Y230.599
X208.86 Y229.547
X208.865 Y229.54
X209.695 Y228.473
X209.701 Y228.465
X210.536 Y227.383
X210.542 Y227.376
X211.382 Y226.279
X211.388 Y226.271
X212.232 Y225.16
X212.236 Y225.154
X213.086 Y224.028
X213.093 Y224.02
X213.946 Y222.88
X213.951 Y222.873
X214.809 Y221.718
X214.814 Y221.711
X215.676 Y220.542
X215.681 Y220.534
X216.546 Y219.352
X216.553 Y219.344
X217.421 Y218.147
X217.426 Y218.14
X218.298 Y216.929
X218.304 Y216.921
X219.178 Y215.697
X219.183 Y215.689
X220.06 Y214.451
X220.065 Y214.444
X220.945 Y213.193
X220.951 Y213.185
X221.832 Y211.921
X221.838 Y211.912
X222.721 Y210.634
X222.726 Y210.626
X223.61 Y209.336
X223.616 Y209.328
X224.501 Y208.025
X224.507 Y208.016
X225.393 Y206.7
X225.398 Y206.692
X226.285 Y205.363
X226.291 Y205.355
X227.178 Y204.015
X227.184 Y204.006
X228.071 Y202.653
X228.077 Y202.644
X228.963 Y201.28
X228.969 Y201.27
X229.854 Y199.894
X229.86 Y199.885
X230.744 Y198.497
X230.749 Y198.488
X231.632 Y197.089
X231.637 Y197.081
X232.519 Y195.671
X232.527 Y195.66
X233.406 Y194.238
X233.412 Y194.228
X234.288 Y192.796
X234.293 Y192.787
X235.167 Y191.345
X235.173 Y191.334
X236.044 Y189.881
X236.05 Y189.872
X236.918 Y188.409
X236.924 Y188.398
X237.788 Y186.925
X237.795 Y186.914
X238.655 Y185.431
X238.661 Y185.419
X239.516 Y183.926
X239.522 Y183.916
X240.373 Y182.414
X240.379 Y182.403
X241.225 Y180.892
X241.231 Y180.881
X242.072 Y179.361
X242.079 Y179.349
X242.914 Y177.82
X242.921 Y177.808
X243.75 Y176.27
X243.755 Y176.26
X244.579 Y174.714
X244.586 Y174.7
X245.402 Y173.146
X245.408 Y173.135
X246.218 Y171.573
X246.225 Y171.56
X247.028 Y169.989
X247.035 Y169.976
X247.83 Y168.398
X247.836 Y168.386
X248.624 Y166.801
X248.631 Y166.786
X249.41 Y165.193
X249.416 Y165.181
X250.188 Y163.581
X250.194 Y163.567
X250.957 Y161.96
X250.964 Y161.946
X251.718 Y160.332
X251.724 Y160.319
X252.47 Y158.698
X252.477 Y158.683
X253.213 Y157.056
X253.219 Y157.042
X253.945 Y155.409
X253.952 Y155.394
X254.669 Y153.754
X254.675 Y153.74
X255.382 Y152.094
X255.388 Y152.079
X256.085 Y150.427
X256.091 Y150.412
X256.778 Y148.755
X256.785 Y148.739
X257.461 Y147.076
X257.467 Y147.06
X258.132 Y145.391
X258.139 Y145.375
X258.793 Y143.7
X258.798 Y143.686
X259.442 Y142.007
X259.449 Y141.99
X260.081 Y140.305
X260.087 Y140.288
X260.707 Y138.598
X260.712 Y138.584
X261.322 Y136.889
X261.329 Y136.87
X261.926 Y135.17
X261.931 Y135.155
X262.517 Y133.45
X262.523 Y133.433
X263.097 Y131.723
X263.103 Y131.706
X263.665 Y129.991
X263.67 Y129.974
X264.22 Y128.255
X264.226 Y128.236
X264.763 Y126.512
X264.768 Y126.497
X265.294 Y124.769
X265.299 Y124.752
X265.813 Y123.018
X265.818 Y122.999
X266.319 Y121.261
G2 X264.125 Y118.078 I-2.402 J-0.692
G1 X253.854 Y117.222
X263.522 Y1.208
G2 X261.031 Y-1.5 I-2.491 J-0.208
G1 X13.819
G2 X6.319 Y6 I0 J7.5
G1 Y10.156
G0 Z15
M9
M5
M30
