(CamperKuchenregaleSeitenwand)
(T4 D=5 CR=0 - ZMIN=-13 - flat end mill)
G90 G94
G17
G21
(-Attention- Property Safe Retracts is set to Clearance Height.)
(Ensure the clearance height will clear the part and or fixtures.)
(Raise the Z-axis to a safe height before starting the program.)

(2D Contour1)
T4
S5000 M3
G17 G90 G94
G54
M8
G0 X47.115 Y314.655
Z15
G0 Z5
G1 Z4 F333.3
Z-3
X51.13 Y313.788 F1000
X51.145 Y313.784
X56.569 Y312.577
X56.582 Y312.575
X59.287 Y311.959
X59.295 Y311.957
X61.995 Y311.332
X62.004 Y311.33
X64.699 Y310.696
X64.709 Y310.693
X67.398 Y310.049
X67.409 Y310.047
X70.094 Y309.392
X70.103 Y309.389
X72.782 Y308.724
X72.794 Y308.721
X75.467 Y308.045
X75.479 Y308.042
X78.147 Y307.353
X78.159 Y307.349
X80.821 Y306.647
X80.834 Y306.644
X83.489 Y305.929
X83.503 Y305.925
X86.153 Y305.195
X86.168 Y305.191
X88.811 Y304.445
X88.825 Y304.441
X91.462 Y303.68
X91.478 Y303.675
X94.108 Y302.896
X94.125 Y302.891
X96.747 Y302.093
X96.765 Y302.087
X99.38 Y301.27
X99.399 Y301.264
X102.006 Y300.426
X102.026 Y300.42
X104.624 Y299.561
X104.645 Y299.553
X107.236 Y298.67
X107.259 Y298.663
X109.84 Y297.756
X109.863 Y297.747
X112.436 Y296.814
X112.461 Y296.805
X115.024 Y295.845
X115.049 Y295.836
X117.603 Y294.848
X117.63 Y294.837
X120.174 Y293.819
X120.202 Y293.808
X122.735 Y292.759
X122.763 Y292.747
X125.285 Y291.666
X125.315 Y291.653
X127.826 Y290.537
X127.856 Y290.523
X130.356 Y289.373
X130.387 Y289.359
X132.875 Y288.173
X132.899 Y288.161
X134.138 Y287.554
X134.155 Y287.546
X135.391 Y286.929
X135.406 Y286.921
X136.639 Y286.295
X136.655 Y286.287
X137.885 Y285.651
X137.902 Y285.642
X139.128 Y284.996
X139.145 Y284.987
X140.368 Y284.331
X140.384 Y284.322
X141.604 Y283.656
X141.622 Y283.646
X142.838 Y282.969
X142.855 Y282.96
X144.067 Y282.273
X144.083 Y282.264
X145.292 Y281.567
X145.309 Y281.557
X146.515 Y280.849
X146.533 Y280.838
X147.734 Y280.119
X147.751 Y280.109
X148.949 Y279.379
X148.965 Y279.369
X150.16 Y278.628
X150.179 Y278.616
X151.369 Y277.864
X151.386 Y277.853
X152.572 Y277.09
X152.588 Y277.08
X153.771 Y276.306
X153.79 Y276.294
X154.968 Y275.508
X154.983 Y275.497
X156.158 Y274.7
X156.176 Y274.688
X157.346 Y273.88
X157.363 Y273.868
X158.529 Y273.048
X158.545 Y273.036
X159.707 Y272.206
X159.725 Y272.193
X160.882 Y271.35
X160.898 Y271.338
X162.052 Y270.483
X162.07 Y270.47
X163.218 Y269.604
X163.233 Y269.592
X164.378 Y268.714
X164.395 Y268.701
X165.534 Y267.812
X165.55 Y267.8
X166.686 Y266.899
X166.703 Y266.885
X167.833 Y265.972
X167.848 Y265.96
X168.974 Y265.036
X168.99 Y265.022
X170.111 Y264.086
X170.128 Y264.072
X171.244 Y263.124
X171.258 Y263.112
X172.37 Y262.153
X172.385 Y262.14
X173.491 Y261.17
X173.505 Y261.157
X174.607 Y260.176
X174.624 Y260.162
X175.72 Y259.169
X175.734 Y259.156
X176.825 Y258.152
X176.839 Y258.138
X177.925 Y257.123
X177.94 Y257.109
X179.021 Y256.082
X179.033 Y256.071
X180.109 Y255.035
X180.124 Y255.02
X181.194 Y253.972
X181.207 Y253.96
X182.272 Y252.902
X182.285 Y252.888
X183.345 Y251.819
X183.358 Y251.807
X184.412 Y250.729
X184.425 Y250.715
X185.473 Y249.626
X185.485 Y249.613
X186.528 Y248.514
X186.54 Y248.501
X187.577 Y247.393
X187.59 Y247.38
X188.621 Y246.262
X188.632 Y246.249
X189.658 Y245.121
X189.669 Y245.109
X190.689 Y243.973
X190.701 Y243.96
X191.715 Y242.815
X191.726 Y242.803
X192.734 Y241.649
X192.745 Y241.636
X193.747 Y240.473
X193.757 Y240.462
X194.753 Y239.292
X194.769 Y239.272
X196.742 Y236.908
X196.761 Y236.884
X198.71 Y234.489
X198.729 Y234.466
X200.652 Y232.044
X200.67 Y232.021
X202.568 Y229.573
X202.585 Y229.55
X204.457 Y227.078
X204.474 Y227.056
X206.319 Y224.563
X206.334 Y224.542
X208.152 Y222.031
X208.167 Y222.011
X209.959 Y219.483
X209.974 Y219.461
X211.737 Y216.918
X211.75 Y216.899
X213.486 Y214.345
X213.499 Y214.326
X215.206 Y211.763
X215.218 Y211.744
X216.896 Y209.174
X216.908 Y209.156
X218.558 Y206.582
X218.57 Y206.564
X220.19 Y203.987
X220.2 Y203.969
X221.79 Y201.393
X221.8 Y201.377
X223.361 Y198.804
X223.372 Y198.787
X224.902 Y196.219
X224.911 Y196.203
X226.411 Y193.643
X226.42 Y193.627
X227.889 Y191.076
X227.898 Y191.06
X229.336 Y188.521
X229.345 Y188.505
X230.751 Y185.98
X230.759 Y185.966
X232.134 Y183.458
X232.143 Y183.442
X233.486 Y180.951
X233.493 Y180.937
X234.805 Y178.466
X234.813 Y178.451
X236.092 Y176.002
X236.097 Y175.992
X236.725 Y174.776
X236.73 Y174.768
X237.349 Y173.558
X237.352 Y173.551
X237.963 Y172.348
X237.966 Y172.342
X238.57 Y171.145
X238.574 Y171.136
X239.169 Y169.945
X239.173 Y169.938
X239.76 Y168.754
X239.763 Y168.748
X240.342 Y167.572
X240.346 Y167.564
X240.917 Y166.394
X240.921 Y166.386
X241.483 Y165.223
X241.485 Y165.218
X242.04 Y164.063
X242.045 Y164.054
X242.591 Y162.906
X242.594 Y162.899
X243.132 Y161.759
X243.135 Y161.752
X243.665 Y160.62
X243.67 Y160.611
X244.191 Y159.486
X244.193 Y159.48
X244.707 Y158.363
X244.711 Y158.355
X245.216 Y157.247
X245.22 Y157.239
X245.717 Y156.138
X245.72 Y156.131
X246.209 Y155.039
X246.212 Y155.031
X246.693 Y153.947
X246.696 Y153.94
X247.169 Y152.865
X247.174 Y152.855
X247.638 Y151.788
X247.641 Y151.78
X248.097 Y150.721
X248.1 Y150.713
X248.548 Y149.663
X248.552 Y149.655
X248.992 Y148.614
X248.996 Y148.604
X249.427 Y147.571
X249.43 Y147.564
X249.854 Y146.54
X249.858 Y146.53
X250.273 Y145.515
X250.277 Y145.507
X250.684 Y144.501
X250.687 Y144.491
X251.086 Y143.493
X251.09 Y143.485
X251.481 Y142.497
X251.485 Y142.485
X251.867 Y141.505
X251.87 Y141.498
X252.245 Y140.528
X252.25 Y140.516
X252.616 Y139.554
X252.619 Y139.544
X252.977 Y138.591
X252.981 Y138.582
X253.331 Y137.639
X253.335 Y137.628
X253.677 Y136.693
X253.68 Y136.683
X254.014 Y135.758
X254.019 Y135.744
X254.344 Y134.827
X254.347 Y134.819
X254.665 Y133.912
X254.67 Y133.898
X254.979 Y133
X254.983 Y132.989
X255.284 Y132.1
X255.287 Y132.09
X255.581 Y131.21
X255.586 Y131.195
X255.871 Y130.324
X255.875 Y130.312
X256.152 Y129.45
X256.156 Y129.438
X256.425 Y128.586
X256.429 Y128.572
X256.69 Y127.728
X256.695 Y127.712
X256.947 Y126.878
X256.951 Y126.867
X257.196 Y126.042
X257.2 Y126.027
X257.437 Y125.21
X257.442 Y125.193
X257.67 Y124.386
X257.673 Y124.373
X257.894 Y123.575
X257.899 Y123.557
X258.111 Y122.769
X258.115 Y122.755
X258.32 Y121.975
X258.325 Y121.956
X258.521 Y121.185
G2 X256.306 Y118.078 I-2.423 J-0.616
G1 X246.035 Y117.222
X255.703 Y1.208
G2 X253.212 Y-1.5 I-2.491 J-0.208
G1 X1
G2 X-1.5 Y1 I0 J2.5
G1 Y321
G2 X1.431 Y323.462 I2.5 J0
G1 X7.009 Y322.486
X7.02 Y322.484
X12.582 Y321.484
X12.593 Y321.482
X18.138 Y320.458
X18.149 Y320.456
X23.678 Y319.409
X23.689 Y319.407
X29.201 Y318.337
X29.213 Y318.335
X34.709 Y317.24
X34.721 Y317.237
X40.199 Y316.117
X40.213 Y316.115
X45.674 Y314.967
X45.687 Y314.964
X47.115 Y314.655
Z-6 F333.3
X51.13 Y313.788 F1000
X51.145 Y313.784
X56.569 Y312.577
X56.582 Y312.575
X59.287 Y311.959
X59.295 Y311.957
X61.995 Y311.332
X62.004 Y311.33
X64.699 Y310.696
X64.709 Y310.693
X67.398 Y310.049
X67.409 Y310.047
X70.094 Y309.392
X70.103 Y309.389
X72.782 Y308.724
X72.794 Y308.721
X75.467 Y308.045
X75.479 Y308.042
X78.147 Y307.353
X78.159 Y307.349
X80.821 Y306.647
X80.834 Y306.644
X83.489 Y305.929
X83.503 Y305.925
X86.153 Y305.195
X86.168 Y305.191
X88.811 Y304.445
X88.825 Y304.441
X91.462 Y303.68
X91.478 Y303.675
X94.108 Y302.896
X94.125 Y302.891
X96.747 Y302.093
X96.765 Y302.087
X99.38 Y301.27
X99.399 Y301.264
X102.006 Y300.426
X102.026 Y300.42
X104.624 Y299.561
X104.645 Y299.553
X107.236 Y298.67
X107.259 Y298.663
X109.84 Y297.756
X109.863 Y297.747
X112.436 Y296.814
X112.461 Y296.805
X115.024 Y295.845
X115.049 Y295.836
X117.603 Y294.848
X117.63 Y294.837
X120.174 Y293.819
X120.202 Y293.808
X122.735 Y292.759
X122.763 Y292.747
X125.285 Y291.666
X125.315 Y291.653
X127.826 Y290.537
X127.856 Y290.523
X130.356 Y289.373
X130.387 Y289.359
X132.875 Y288.173
X132.899 Y288.161
X134.138 Y287.554
X134.155 Y287.546
X135.391 Y286.929
X135.406 Y286.921
X136.639 Y286.295
X136.655 Y286.287
X137.885 Y285.651
X137.902 Y285.642
X139.128 Y284.996
X139.145 Y284.987
X140.368 Y284.331
X140.384 Y284.322
X141.604 Y283.656
X141.622 Y283.646
X142.838 Y282.969
X142.855 Y282.96
X144.067 Y282.273
X144.083 Y282.264
X145.292 Y281.567
X145.309 Y281.557
X146.515 Y280.849
X146.533 Y280.838
X147.734 Y280.119
X147.751 Y280.109
X148.949 Y279.379
X148.965 Y279.369
X150.16 Y278.628
X150.179 Y278.616
X151.369 Y277.864
X151.386 Y277.853
X152.572 Y277.09
X152.588 Y277.08
X153.771 Y276.306
X153.79 Y276.294
X154.968 Y275.508
X154.983 Y275.497
X156.158 Y274.7
X156.176 Y274.688
X157.346 Y273.88
X157.363 Y273.868
X158.529 Y273.048
X158.545 Y273.036
X159.707 Y272.206
X159.725 Y272.193
X160.882 Y271.35
X160.898 Y271.338
X162.052 Y270.483
X162.07 Y270.47
X163.218 Y269.604
X163.233 Y269.592
X164.378 Y268.714
X164.395 Y268.701
X165.534 Y267.812
X165.55 Y267.8
X166.686 Y266.899
X166.703 Y266.885
X167.833 Y265.972
X167.848 Y265.96
X168.974 Y265.036
X168.99 Y265.022
X170.111 Y264.086
X170.128 Y264.072
X171.244 Y263.124
X171.258 Y263.112
X172.37 Y262.153
X172.385 Y262.14
X173.491 Y261.17
X173.505 Y261.157
X174.607 Y260.176
X174.624 Y260.162
X175.72 Y259.169
X175.734 Y259.156
X176.825 Y258.152
X176.839 Y258.138
X177.925 Y257.123
X177.94 Y257.109
X179.021 Y256.082
X179.033 Y256.071
X180.109 Y255.035
X180.124 Y255.02
X181.194 Y253.972
X181.207 Y253.96
X182.272 Y252.902
X182.285 Y252.888
X183.345 Y251.819
X183.358 Y251.807
X184.412 Y250.729
X184.425 Y250.715
X185.473 Y249.626
X185.485 Y249.613
X186.528 Y248.514
X186.54 Y248.501
X187.577 Y247.393
X187.59 Y247.38
X188.621 Y246.262
X188.632 Y246.249
X189.658 Y245.121
X189.669 Y245.109
X190.689 Y243.973
X190.701 Y243.96
X191.715 Y242.815
X191.726 Y242.803
X192.734 Y241.649
X192.745 Y241.636
X193.747 Y240.473
X193.757 Y240.462
X194.753 Y239.292
X194.769 Y239.272
X196.742 Y236.908
X196.761 Y236.884
X198.71 Y234.489
X198.729 Y234.466
X200.652 Y232.044
X200.67 Y232.021
X202.568 Y229.573
X202.585 Y229.55
X204.457 Y227.078
X204.474 Y227.056
X206.319 Y224.563
X206.334 Y224.542
X208.152 Y222.031
X208.167 Y222.011
X209.959 Y219.483
X209.974 Y219.461
X211.737 Y216.918
X211.75 Y216.899
X213.486 Y214.345
X213.499 Y214.326
X215.206 Y211.763
X215.218 Y211.744
X216.896 Y209.174
X216.908 Y209.156
X218.558 Y206.582
X218.57 Y206.564
X220.19 Y203.987
X220.2 Y203.969
X221.79 Y201.393
X221.8 Y201.377
X223.361 Y198.804
X223.372 Y198.787
X224.902 Y196.219
X224.911 Y196.203
X226.411 Y193.643
X226.42 Y193.627
X227.889 Y191.076
X227.898 Y191.06
X229.336 Y188.521
X229.345 Y188.505
X230.751 Y185.98
X230.759 Y185.966
X232.134 Y183.458
X232.143 Y183.442
X233.486 Y180.951
X233.493 Y180.937
X234.805 Y178.466
X234.813 Y178.451
X236.092 Y176.002
X236.097 Y175.992
X236.725 Y174.776
X236.73 Y174.768
X237.349 Y173.558
X237.352 Y173.551
X237.963 Y172.348
X237.966 Y172.342
X238.57 Y171.145
X238.574 Y171.136
X239.169 Y169.945
X239.173 Y169.938
X239.76 Y168.754
X239.763 Y168.748
X240.342 Y167.572
X240.346 Y167.564
X240.917 Y166.394
X240.921 Y166.386
X241.483 Y165.223
X241.485 Y165.218
X242.04 Y164.063
X242.045 Y164.054
X242.591 Y162.906
X242.594 Y162.899
X243.132 Y161.759
X243.135 Y161.752
X243.665 Y160.62
X243.67 Y160.611
X244.191 Y159.486
X244.193 Y159.48
X244.707 Y158.363
X244.711 Y158.355
X245.216 Y157.247
X245.22 Y157.239
X245.717 Y156.138
X245.72 Y156.131
X246.209 Y155.039
X246.212 Y155.031
X246.693 Y153.947
X246.696 Y153.94
X247.169 Y152.865
X247.174 Y152.855
X247.638 Y151.788
X247.641 Y151.78
X248.097 Y150.721
X248.1 Y150.713
X248.548 Y149.663
X248.552 Y149.655
X248.992 Y148.614
X248.996 Y148.604
X249.427 Y147.571
X249.43 Y147.564
X249.854 Y146.54
X249.858 Y146.53
X250.273 Y145.515
X250.277 Y145.507
X250.684 Y144.501
X250.687 Y144.491
X251.086 Y143.493
X251.09 Y143.485
X251.481 Y142.497
X251.485 Y142.485
X251.867 Y141.505
X251.87 Y141.498
X252.245 Y140.528
X252.25 Y140.516
X252.616 Y139.554
X252.619 Y139.544
X252.977 Y138.591
X252.981 Y138.582
X253.331 Y137.639
X253.335 Y137.628
X253.677 Y136.693
X253.68 Y136.683
X254.014 Y135.758
X254.019 Y135.744
X254.344 Y134.827
X254.347 Y134.819
X254.665 Y133.912
X254.67 Y133.898
X254.979 Y133
X254.983 Y132.989
X255.284 Y132.1
X255.287 Y132.09
X255.581 Y131.21
X255.586 Y131.195
X255.871 Y130.324
X255.875 Y130.312
X256.152 Y129.45
X256.156 Y129.438
X256.425 Y128.586
X256.429 Y128.572
X256.69 Y127.728
X256.695 Y127.712
X256.947 Y126.878
X256.951 Y126.867
X257.196 Y126.042
X257.2 Y126.027
X257.437 Y125.21
X257.442 Y125.193
X257.67 Y124.386
X257.673 Y124.373
X257.894 Y123.575
X257.899 Y123.557
X258.111 Y122.769
X258.115 Y122.755
X258.32 Y121.975
X258.325 Y121.956
X258.521 Y121.185
G2 X256.306 Y118.078 I-2.423 J-0.616
G1 X246.035 Y117.222
X255.703 Y1.208
G2 X253.212 Y-1.5 I-2.491 J-0.208
G1 X1
G2 X-1.5 Y1 I0 J2.5
G1 Y321
G2 X1.431 Y323.462 I2.5 J0
G1 X7.009 Y322.486
X7.02 Y322.484
X12.582 Y321.484
X12.593 Y321.482
X18.138 Y320.458
X18.149 Y320.456
X23.678 Y319.409
X23.689 Y319.407
X29.201 Y318.337
X29.213 Y318.335
X34.709 Y317.24
X34.721 Y317.237
X40.199 Y316.117
X40.213 Y316.115
X45.674 Y314.967
X45.687 Y314.964
X47.115 Y314.655
Z-9 F333.3
X51.13 Y313.788 F1000
X51.145 Y313.784
X56.569 Y312.577
X56.582 Y312.575
X59.287 Y311.959
X59.295 Y311.957
X61.995 Y311.332
X62.004 Y311.33
X64.699 Y310.696
X64.709 Y310.693
X67.398 Y310.049
X67.409 Y310.047
X70.094 Y309.392
X70.103 Y309.389
X72.782 Y308.724
X72.794 Y308.721
X75.467 Y308.045
X75.479 Y308.042
X78.147 Y307.353
X78.159 Y307.349
X80.821 Y306.647
X80.834 Y306.644
X83.489 Y305.929
X83.503 Y305.925
X86.153 Y305.195
X86.168 Y305.191
X88.811 Y304.445
X88.825 Y304.441
X91.462 Y303.68
X91.478 Y303.675
X94.108 Y302.896
X94.125 Y302.891
X96.747 Y302.093
X96.765 Y302.087
X99.38 Y301.27
X99.399 Y301.264
X102.006 Y300.426
X102.026 Y300.42
X104.624 Y299.561
X104.645 Y299.553
X107.236 Y298.67
X107.259 Y298.663
X109.84 Y297.756
X109.863 Y297.747
X112.436 Y296.814
X112.461 Y296.805
X115.024 Y295.845
X115.049 Y295.836
X117.603 Y294.848
X117.63 Y294.837
X120.174 Y293.819
X120.202 Y293.808
X122.735 Y292.759
X122.763 Y292.747
X125.285 Y291.666
X125.315 Y291.653
X127.826 Y290.537
X127.856 Y290.523
X130.356 Y289.373
X130.387 Y289.359
X132.875 Y288.173
X132.899 Y288.161
X134.138 Y287.554
X134.155 Y287.546
X135.391 Y286.929
X135.406 Y286.921
X136.639 Y286.295
X136.655 Y286.287
X137.885 Y285.651
X137.902 Y285.642
X139.128 Y284.996
X139.145 Y284.987
X140.368 Y284.331
X140.384 Y284.322
X141.604 Y283.656
X141.622 Y283.646
X142.838 Y282.969
X142.855 Y282.96
X144.067 Y282.273
X144.083 Y282.264
X145.292 Y281.567
X145.309 Y281.557
X146.515 Y280.849
X146.533 Y280.838
X147.734 Y280.119
X147.751 Y280.109
X148.949 Y279.379
X148.965 Y279.369
X150.16 Y278.628
X150.179 Y278.616
X151.369 Y277.864
X151.386 Y277.853
X152.572 Y277.09
X152.588 Y277.08
X153.771 Y276.306
X153.79 Y276.294
X154.968 Y275.508
X154.983 Y275.497
X156.158 Y274.7
X156.176 Y274.688
X157.346 Y273.88
X157.363 Y273.868
X158.529 Y273.048
X158.545 Y273.036
X159.707 Y272.206
X159.725 Y272.193
X160.882 Y271.35
X160.898 Y271.338
X162.052 Y270.483
X162.07 Y270.47
X163.218 Y269.604
X163.233 Y269.592
X164.378 Y268.714
X164.395 Y268.701
X165.534 Y267.812
X165.55 Y267.8
X166.686 Y266.899
X166.703 Y266.885
X167.833 Y265.972
X167.848 Y265.96
X168.974 Y265.036
X168.99 Y265.022
X170.111 Y264.086
X170.128 Y264.072
X171.244 Y263.124
X171.258 Y263.112
X172.37 Y262.153
X172.385 Y262.14
X173.491 Y261.17
X173.505 Y261.157
X174.607 Y260.176
X174.624 Y260.162
X175.72 Y259.169
X175.734 Y259.156
X176.825 Y258.152
X176.839 Y258.138
X177.925 Y257.123
X177.94 Y257.109
X179.021 Y256.082
X179.033 Y256.071
X180.109 Y255.035
X180.124 Y255.02
X181.194 Y253.972
X181.207 Y253.96
X182.272 Y252.902
X182.285 Y252.888
X183.345 Y251.819
X183.358 Y251.807
X184.412 Y250.729
X184.425 Y250.715
X185.473 Y249.626
X185.485 Y249.613
X186.528 Y248.514
X186.54 Y248.501
X187.577 Y247.393
X187.59 Y247.38
X188.621 Y246.262
X188.632 Y246.249
X189.658 Y245.121
X189.669 Y245.109
X190.689 Y243.973
X190.701 Y243.96
X191.715 Y242.815
X191.726 Y242.803
X192.734 Y241.649
X192.745 Y241.636
X193.747 Y240.473
X193.757 Y240.462
X194.753 Y239.292
X194.769 Y239.272
X196.742 Y236.908
X196.761 Y236.884
X198.71 Y234.489
X198.729 Y234.466
X200.652 Y232.044
X200.67 Y232.021
X202.568 Y229.573
X202.585 Y229.55
X204.457 Y227.078
X204.474 Y227.056
X206.319 Y224.563
X206.334 Y224.542
X208.152 Y222.031
X208.167 Y222.011
X209.959 Y219.483
X209.974 Y219.461
X211.737 Y216.918
X211.75 Y216.899
X213.486 Y214.345
X213.499 Y214.326
X215.206 Y211.763
X215.218 Y211.744
X216.896 Y209.174
X216.908 Y209.156
X218.558 Y206.582
X218.57 Y206.564
X220.19 Y203.987
X220.2 Y203.969
X221.79 Y201.393
X221.8 Y201.377
X223.361 Y198.804
X223.372 Y198.787
X224.902 Y196.219
X224.911 Y196.203
X226.411 Y193.643
X226.42 Y193.627
X227.889 Y191.076
X227.898 Y191.06
X229.336 Y188.521
X229.345 Y188.505
X230.751 Y185.98
X230.759 Y185.966
X232.134 Y183.458
X232.143 Y183.442
X233.486 Y180.951
X233.493 Y180.937
X234.805 Y178.466
X234.813 Y178.451
X236.092 Y176.002
X236.097 Y175.992
X236.725 Y174.776
X236.73 Y174.768
X237.349 Y173.558
X237.352 Y173.551
X237.963 Y172.348
X237.966 Y172.342
X238.57 Y171.145
X238.574 Y171.136
X239.169 Y169.945
X239.173 Y169.938
X239.76 Y168.754
X239.763 Y168.748
X240.342 Y167.572
X240.346 Y167.564
X240.917 Y166.394
X240.921 Y166.386
X241.483 Y165.223
X241.485 Y165.218
X242.04 Y164.063
X242.045 Y164.054
X242.591 Y162.906
X242.594 Y162.899
X243.132 Y161.759
X243.135 Y161.752
X243.665 Y160.62
X243.67 Y160.611
X244.191 Y159.486
X244.193 Y159.48
X244.707 Y158.363
X244.711 Y158.355
X245.216 Y157.247
X245.22 Y157.239
X245.717 Y156.138
X245.72 Y156.131
X246.209 Y155.039
X246.212 Y155.031
X246.693 Y153.947
X246.696 Y153.94
X247.169 Y152.865
X247.174 Y152.855
X247.638 Y151.788
X247.641 Y151.78
X248.097 Y150.721
X248.1 Y150.713
X248.548 Y149.663
X248.552 Y149.655
X248.992 Y148.614
X248.996 Y148.604
X249.427 Y147.571
X249.43 Y147.564
X249.854 Y146.54
X249.858 Y146.53
X250.273 Y145.515
X250.277 Y145.507
X250.684 Y144.501
X250.687 Y144.491
X251.086 Y143.493
X251.09 Y143.485
X251.481 Y142.497
X251.485 Y142.485
X251.867 Y141.505
X251.87 Y141.498
X252.245 Y140.528
X252.25 Y140.516
X252.616 Y139.554
X252.619 Y139.544
X252.977 Y138.591
X252.981 Y138.582
X253.331 Y137.639
X253.335 Y137.628
X253.677 Y136.693
X253.68 Y136.683
X254.014 Y135.758
X254.019 Y135.744
X254.344 Y134.827
X254.347 Y134.819
X254.665 Y133.912
X254.67 Y133.898
X254.979 Y133
X254.983 Y132.989
X255.284 Y132.1
X255.287 Y132.09
X255.581 Y131.21
X255.586 Y131.195
X255.871 Y130.324
X255.875 Y130.312
X256.152 Y129.45
X256.156 Y129.438
X256.425 Y128.586
X256.429 Y128.572
X256.69 Y127.728
X256.695 Y127.712
X256.947 Y126.878
X256.951 Y126.867
X257.196 Y126.042
X257.2 Y126.027
X257.437 Y125.21
X257.442 Y125.193
X257.67 Y124.386
X257.673 Y124.373
X257.894 Y123.575
X257.899 Y123.557
X258.111 Y122.769
X258.115 Y122.755
X258.32 Y121.975
X258.325 Y121.956
X258.521 Y121.185
G2 X256.306 Y118.078 I-2.423 J-0.616
G1 X246.035 Y117.222
X255.703 Y1.208
G2 X253.212 Y-1.5 I-2.491 J-0.208
G1 X1
G2 X-1.5 Y1 I0 J2.5
G1 Y321
G2 X1.431 Y323.462 I2.5 J0
G1 X7.009 Y322.486
X7.02 Y322.484
X12.582 Y321.484
X12.593 Y321.482
X18.138 Y320.458
X18.149 Y320.456
X23.678 Y319.409
X23.689 Y319.407
X29.201 Y318.337
X29.213 Y318.335
X34.709 Y317.24
X34.721 Y317.237
X40.199 Y316.117
X40.213 Y316.115
X45.674 Y314.967
X45.687 Y314.964
X47.115 Y314.655
Z-12 F333.3
X51.13 Y313.788 F1000
X51.145 Y313.784
X56.569 Y312.577
X56.582 Y312.575
X59.287 Y311.959
X59.295 Y311.957
X61.995 Y311.332
X62.004 Y311.33
X64.699 Y310.696
X64.709 Y310.693
X67.398 Y310.049
X67.409 Y310.047
X70.094 Y309.392
X70.103 Y309.389
X72.782 Y308.724
X72.794 Y308.721
X75.467 Y308.045
X75.479 Y308.042
X78.147 Y307.353
X78.159 Y307.349
X80.821 Y306.647
X80.834 Y306.644
X83.489 Y305.929
X83.503 Y305.925
X86.153 Y305.195
X86.168 Y305.191
X88.811 Y304.445
X88.825 Y304.441
X91.462 Y303.68
X91.478 Y303.675
X94.108 Y302.896
X94.125 Y302.891
X96.747 Y302.093
X96.765 Y302.087
X99.38 Y301.27
X99.399 Y301.264
X102.006 Y300.426
X102.026 Y300.42
X104.624 Y299.561
X104.645 Y299.553
X107.236 Y298.67
X107.259 Y298.663
X109.84 Y297.756
X109.863 Y297.747
X112.436 Y296.814
X112.461 Y296.805
X115.024 Y295.845
X115.049 Y295.836
X117.603 Y294.848
X117.63 Y294.837
X120.174 Y293.819
X120.202 Y293.808
X122.735 Y292.759
X122.763 Y292.747
X125.285 Y291.666
X125.315 Y291.653
X127.826 Y290.537
X127.856 Y290.523
X130.356 Y289.373
X130.387 Y289.359
X132.875 Y288.173
X132.899 Y288.161
X134.138 Y287.554
X134.155 Y287.546
X135.391 Y286.929
X135.406 Y286.921
X136.639 Y286.295
X136.655 Y286.287
X137.885 Y285.651
X137.902 Y285.642
X139.128 Y284.996
X139.145 Y284.987
X140.368 Y284.331
X140.384 Y284.322
X141.604 Y283.656
X141.622 Y283.646
X142.838 Y282.969
X142.855 Y282.96
X144.067 Y282.273
X144.083 Y282.264
X145.292 Y281.567
X145.309 Y281.557
X146.515 Y280.849
X146.533 Y280.838
X147.734 Y280.119
X147.751 Y280.109
X148.949 Y279.379
X148.965 Y279.369
X150.16 Y278.628
X150.179 Y278.616
X151.369 Y277.864
X151.386 Y277.853
X152.572 Y277.09
X152.588 Y277.08
X153.771 Y276.306
X153.79 Y276.294
X154.968 Y275.508
X154.983 Y275.497
X156.158 Y274.7
X156.176 Y274.688
X157.346 Y273.88
X157.363 Y273.868
X158.529 Y273.048
X158.545 Y273.036
X159.707 Y272.206
X159.725 Y272.193
X160.882 Y271.35
X160.898 Y271.338
X162.052 Y270.483
X162.07 Y270.47
X163.218 Y269.604
X163.233 Y269.592
X164.378 Y268.714
X164.395 Y268.701
X165.534 Y267.812
X165.55 Y267.8
X166.686 Y266.899
X166.703 Y266.885
X167.833 Y265.972
X167.848 Y265.96
X168.974 Y265.036
X168.99 Y265.022
X170.111 Y264.086
X170.128 Y264.072
X171.244 Y263.124
X171.258 Y263.112
X172.37 Y262.153
X172.385 Y262.14
X173.491 Y261.17
X173.505 Y261.157
X174.607 Y260.176
X174.624 Y260.162
X175.72 Y259.169
X175.734 Y259.156
X176.825 Y258.152
X176.839 Y258.138
X177.925 Y257.123
X177.94 Y257.109
X179.021 Y256.082
X179.033 Y256.071
X180.109 Y255.035
X180.124 Y255.02
X181.194 Y253.972
X181.207 Y253.96
X182.272 Y252.902
X182.285 Y252.888
X183.345 Y251.819
X183.358 Y251.807
X184.412 Y250.729
X184.425 Y250.715
X185.473 Y249.626
X185.485 Y249.613
X186.528 Y248.514
X186.54 Y248.501
X187.577 Y247.393
X187.59 Y247.38
X188.621 Y246.262
X188.632 Y246.249
X189.658 Y245.121
X189.669 Y245.109
X190.689 Y243.973
X190.701 Y243.96
X191.715 Y242.815
X191.726 Y242.803
X192.734 Y241.649
X192.745 Y241.636
X193.747 Y240.473
X193.757 Y240.462
X194.753 Y239.292
X194.769 Y239.272
X196.742 Y236.908
X196.761 Y236.884
X198.71 Y234.489
X198.729 Y234.466
X200.652 Y232.044
X200.67 Y232.021
X202.568 Y229.573
X202.585 Y229.55
X204.457 Y227.078
X204.474 Y227.056
X206.319 Y224.563
X206.334 Y224.542
X208.152 Y222.031
X208.167 Y222.011
X209.959 Y219.483
X209.974 Y219.461
X211.737 Y216.918
X211.75 Y216.899
X213.486 Y214.345
X213.499 Y214.326
X215.206 Y211.763
X215.218 Y211.744
X216.896 Y209.174
X216.908 Y209.156
X218.558 Y206.582
X218.57 Y206.564
X220.19 Y203.987
X220.2 Y203.969
X221.79 Y201.393
X221.8 Y201.377
X223.361 Y198.804
X223.372 Y198.787
X224.902 Y196.219
X224.911 Y196.203
X226.411 Y193.643
X226.42 Y193.627
X227.889 Y191.076
X227.898 Y191.06
X229.336 Y188.521
X229.345 Y188.505
X230.751 Y185.98
X230.759 Y185.966
X232.134 Y183.458
X232.143 Y183.442
X233.486 Y180.951
X233.493 Y180.937
X234.805 Y178.466
X234.813 Y178.451
X236.092 Y176.002
X236.097 Y175.992
X236.725 Y174.776
X236.73 Y174.768
X237.349 Y173.558
X237.352 Y173.551
X237.963 Y172.348
X237.966 Y172.342
X238.57 Y171.145
X238.574 Y171.136
X239.169 Y169.945
X239.173 Y169.938
X239.76 Y168.754
X239.763 Y168.748
X240.342 Y167.572
X240.346 Y167.564
X240.917 Y166.394
X240.921 Y166.386
X241.483 Y165.223
X241.485 Y165.218
X242.04 Y164.063
X242.045 Y164.054
X242.591 Y162.906
X242.594 Y162.899
X243.132 Y161.759
X243.135 Y161.752
X243.665 Y160.62
X243.67 Y160.611
X244.191 Y159.486
X244.193 Y159.48
X244.707 Y158.363
X244.711 Y158.355
X245.216 Y157.247
X245.22 Y157.239
X245.717 Y156.138
X245.72 Y156.131
X246.209 Y155.039
X246.212 Y155.031
X246.693 Y153.947
X246.696 Y153.94
X247.169 Y152.865
X247.174 Y152.855
X247.638 Y151.788
X247.641 Y151.78
X248.097 Y150.721
X248.1 Y150.713
X248.548 Y149.663
X248.552 Y149.655
X248.992 Y148.614
X248.996 Y148.604
X249.427 Y147.571
X249.43 Y147.564
X249.854 Y146.54
X249.858 Y146.53
X250.273 Y145.515
X250.277 Y145.507
X250.684 Y144.501
X250.687 Y144.491
X251.086 Y143.493
X251.09 Y143.485
X251.481 Y142.497
X251.485 Y142.485
X251.867 Y141.505
X251.87 Y141.498
X252.245 Y140.528
X252.25 Y140.516
X252.616 Y139.554
X252.619 Y139.544
X252.977 Y138.591
X252.981 Y138.582
X253.331 Y137.639
X253.335 Y137.628
X253.677 Y136.693
X253.68 Y136.683
X254.014 Y135.758
X254.019 Y135.744
X254.344 Y134.827
X254.347 Y134.819
X254.665 Y133.912
X254.67 Y133.898
X254.979 Y133
X254.983 Y132.989
X255.284 Y132.1
X255.287 Y132.09
X255.581 Y131.21
X255.586 Y131.195
X255.871 Y130.324
X255.875 Y130.312
X256.152 Y129.45
X256.156 Y129.438
X256.425 Y128.586
X256.429 Y128.572
X256.69 Y127.728
X256.695 Y127.712
X256.947 Y126.878
X256.951 Y126.867
X257.196 Y126.042
X257.2 Y126.027
X257.437 Y125.21
X257.442 Y125.193
X257.67 Y124.386
X257.673 Y124.373
X257.894 Y123.575
X257.899 Y123.557
X258.111 Y122.769
X258.115 Y122.755
X258.32 Y121.975
X258.325 Y121.956
X258.521 Y121.185
G2 X256.306 Y118.078 I-2.423 J-0.616
G1 X246.035 Y117.222
X255.703 Y1.208
G2 X253.212 Y-1.5 I-2.491 J-0.208
G1 X1
G2 X-1.5 Y1 I0 J2.5
G1 Y321
G2 X1.431 Y323.462 I2.5 J0
G1 X7.009 Y322.486
X7.02 Y322.484
X12.582 Y321.484
X12.593 Y321.482
X18.138 Y320.458
X18.149 Y320.456
X23.678 Y319.409
X23.689 Y319.407
X29.201 Y318.337
X29.213 Y318.335
X34.709 Y317.24
X34.721 Y317.237
X40.199 Y316.117
X40.213 Y316.115
X45.674 Y314.967
X45.687 Y314.964
X47.115 Y314.655
Z-13 F333.3
X51.13 Y313.788 F1000
X51.145 Y313.784
X56.569 Y312.577
X56.582 Y312.575
X59.287 Y311.959
X59.295 Y311.957
X61.995 Y311.332
X62.004 Y311.33
X64.699 Y310.696
X64.709 Y310.693
X67.398 Y310.049
X67.409 Y310.047
X70.094 Y309.392
X70.103 Y309.389
X72.782 Y308.724
X72.794 Y308.721
X75.467 Y308.045
X75.479 Y308.042
X78.147 Y307.353
X78.159 Y307.349
X80.821 Y306.647
X80.834 Y306.644
X83.489 Y305.929
X83.503 Y305.925
X86.153 Y305.195
X86.168 Y305.191
X88.811 Y304.445
X88.825 Y304.441
X91.462 Y303.68
X91.478 Y303.675
X94.108 Y302.896
X94.125 Y302.891
X96.747 Y302.093
X96.765 Y302.087
X99.38 Y301.27
X99.399 Y301.264
X102.006 Y300.426
X102.026 Y300.42
X104.624 Y299.561
X104.645 Y299.553
X107.236 Y298.67
X107.259 Y298.663
X109.84 Y297.756
X109.863 Y297.747
X112.436 Y296.814
X112.461 Y296.805
X115.024 Y295.845
X115.049 Y295.836
X117.603 Y294.848
X117.63 Y294.837
X120.174 Y293.819
X120.202 Y293.808
X122.735 Y292.759
X122.763 Y292.747
X125.285 Y291.666
X125.315 Y291.653
X127.826 Y290.537
X127.856 Y290.523
X130.356 Y289.373
X130.387 Y289.359
X132.875 Y288.173
X132.899 Y288.161
X134.138 Y287.554
X134.155 Y287.546
X135.391 Y286.929
X135.406 Y286.921
X136.639 Y286.295
X136.655 Y286.287
X137.885 Y285.651
X137.902 Y285.642
X139.128 Y284.996
X139.145 Y284.987
X140.368 Y284.331
X140.384 Y284.322
X141.604 Y283.656
X141.622 Y283.646
X142.838 Y282.969
X142.855 Y282.96
X144.067 Y282.273
X144.083 Y282.264
X145.292 Y281.567
X145.309 Y281.557
X146.515 Y280.849
X146.533 Y280.838
X147.734 Y280.119
X147.751 Y280.109
X148.949 Y279.379
X148.965 Y279.369
X150.16 Y278.628
X150.179 Y278.616
X151.369 Y277.864
X151.386 Y277.853
X152.572 Y277.09
X152.588 Y277.08
X153.771 Y276.306
X153.79 Y276.294
X154.968 Y275.508
X154.983 Y275.497
X156.158 Y274.7
X156.176 Y274.688
X157.346 Y273.88
X157.363 Y273.868
X158.529 Y273.048
X158.545 Y273.036
X159.707 Y272.206
X159.725 Y272.193
X160.882 Y271.35
X160.898 Y271.338
X162.052 Y270.483
X162.07 Y270.47
X163.218 Y269.604
X163.233 Y269.592
X164.378 Y268.714
X164.395 Y268.701
X165.534 Y267.812
X165.55 Y267.8
X166.686 Y266.899
X166.703 Y266.885
X167.833 Y265.972
X167.848 Y265.96
X168.974 Y265.036
X168.99 Y265.022
X170.111 Y264.086
X170.128 Y264.072
X171.244 Y263.124
X171.258 Y263.112
X172.37 Y262.153
X172.385 Y262.14
X173.491 Y261.17
X173.505 Y261.157
X174.607 Y260.176
X174.624 Y260.162
X175.72 Y259.169
X175.734 Y259.156
X176.825 Y258.152
X176.839 Y258.138
X177.925 Y257.123
X177.94 Y257.109
X179.021 Y256.082
X179.033 Y256.071
X180.109 Y255.035
X180.124 Y255.02
X181.194 Y253.972
X181.207 Y253.96
X182.272 Y252.902
X182.285 Y252.888
X183.345 Y251.819
X183.358 Y251.807
X184.412 Y250.729
X184.425 Y250.715
X185.473 Y249.626
X185.485 Y249.613
X186.528 Y248.514
X186.54 Y248.501
X187.577 Y247.393
X187.59 Y247.38
X188.621 Y246.262
X188.632 Y246.249
X189.658 Y245.121
X189.669 Y245.109
X190.689 Y243.973
X190.701 Y243.96
X191.715 Y242.815
X191.726 Y242.803
X192.734 Y241.649
X192.745 Y241.636
X193.747 Y240.473
X193.757 Y240.462
X194.753 Y239.292
X194.769 Y239.272
X196.742 Y236.908
X196.761 Y236.884
X198.71 Y234.489
X198.729 Y234.466
X200.652 Y232.044
X200.67 Y232.021
X202.568 Y229.573
X202.585 Y229.55
X204.457 Y227.078
X204.474 Y227.056
X206.319 Y224.563
X206.334 Y224.542
X208.152 Y222.031
X208.167 Y222.011
X209.959 Y219.483
X209.974 Y219.461
X211.737 Y216.918
X211.75 Y216.899
X213.486 Y214.345
X213.499 Y214.326
X215.206 Y211.763
X215.218 Y211.744
X216.896 Y209.174
X216.908 Y209.156
X218.558 Y206.582
X218.57 Y206.564
X220.19 Y203.987
X220.2 Y203.969
X221.79 Y201.393
X221.8 Y201.377
X223.361 Y198.804
X223.372 Y198.787
X224.902 Y196.219
X224.911 Y196.203
X226.411 Y193.643
X226.42 Y193.627
X227.889 Y191.076
X227.898 Y191.06
X229.336 Y188.521
X229.345 Y188.505
X230.751 Y185.98
X230.759 Y185.966
X232.134 Y183.458
X232.143 Y183.442
X233.486 Y180.951
X233.493 Y180.937
X234.805 Y178.466
X234.813 Y178.451
X236.092 Y176.002
X236.097 Y175.992
X236.725 Y174.776
X236.73 Y174.768
X237.349 Y173.558
X237.352 Y173.551
X237.963 Y172.348
X237.966 Y172.342
X238.57 Y171.145
X238.574 Y171.136
X239.169 Y169.945
X239.173 Y169.938
X239.76 Y168.754
X239.763 Y168.748
X240.342 Y167.572
X240.346 Y167.564
X240.917 Y166.394
X240.921 Y166.386
X241.483 Y165.223
X241.485 Y165.218
X242.04 Y164.063
X242.045 Y164.054
X242.591 Y162.906
X242.594 Y162.899
X243.132 Y161.759
X243.135 Y161.752
X243.665 Y160.62
X243.67 Y160.611
X244.191 Y159.486
X244.193 Y159.48
X244.707 Y158.363
X244.711 Y158.355
X245.216 Y157.247
X245.22 Y157.239
X245.717 Y156.138
X245.72 Y156.131
X246.209 Y155.039
X246.212 Y155.031
X246.693 Y153.947
X246.696 Y153.94
X247.169 Y152.865
X247.174 Y152.855
X247.638 Y151.788
X247.641 Y151.78
X248.097 Y150.721
X248.1 Y150.713
X248.548 Y149.663
X248.552 Y149.655
X248.992 Y148.614
X248.996 Y148.604
X249.427 Y147.571
X249.43 Y147.564
X249.854 Y146.54
X249.858 Y146.53
X250.273 Y145.515
X250.277 Y145.507
X250.684 Y144.501
X250.687 Y144.491
X251.086 Y143.493
X251.09 Y143.485
X251.481 Y142.497
X251.485 Y142.485
X251.867 Y141.505
X251.87 Y141.498
X252.245 Y140.528
X252.25 Y140.516
X252.616 Y139.554
X252.619 Y139.544
X252.977 Y138.591
X252.981 Y138.582
X253.331 Y137.639
X253.335 Y137.628
X253.677 Y136.693
X253.68 Y136.683
X254.014 Y135.758
X254.019 Y135.744
X254.344 Y134.827
X254.347 Y134.819
X254.665 Y133.912
X254.67 Y133.898
X254.979 Y133
X254.983 Y132.989
X255.284 Y132.1
X255.287 Y132.09
X255.581 Y131.21
X255.586 Y131.195
X255.871 Y130.324
X255.875 Y130.312
X256.152 Y129.45
X256.156 Y129.438
X256.425 Y128.586
X256.429 Y128.572
X256.69 Y127.728
X256.695 Y127.712
X256.947 Y126.878
X256.951 Y126.867
X257.196 Y126.042
X257.2 Y126.027
X257.437 Y125.21
X257.442 Y125.193
X257.67 Y124.386
X257.673 Y124.373
X257.894 Y123.575
X257.899 Y123.557
X258.111 Y122.769
X258.115 Y122.755
X258.32 Y121.975
X258.325 Y121.956
X258.521 Y121.185
G2 X256.306 Y118.078 I-2.423 J-0.616
G1 X246.035 Y117.222
X255.703 Y1.208
G2 X253.212 Y-1.5 I-2.491 J-0.208
G1 X1
G2 X-1.5 Y1 I0 J2.5
G1 Y321
G2 X1.431 Y323.462 I2.5 J0
G1 X7.009 Y322.486
X7.02 Y322.484
X12.582 Y321.484
X12.593 Y321.482
X18.138 Y320.458
X18.149 Y320.456
X23.678 Y319.409
X23.689 Y319.407
X29.201 Y318.337
X29.213 Y318.335
X34.709 Y317.24
X34.721 Y317.237
X40.199 Y316.117
X40.213 Y316.115
X45.674 Y314.967
X45.687 Y314.964
X47.115 Y314.655
G0 Z15
M9
M5
M30
