(CamperGaskastenMuelleimerPin)
(T4  D=5 CR=0 - ZMIN=-9 - flat end mill)
G90 G94
G17
G21

(2D Contour15)
T4
S5000 M3
G54
M8
G0 X7 Y19
Z15
Z5
G1 Z-4.5 F333.3
G19 G2 Y18.5 Z-5 J-0.5 K0 F1000
G1 Y18
G17 G3 X7.5 Y17.5 I0.5 J0
G2 X7.5 Y-2.5 I0 J-10
X7.5 Y17.5 I0 J10
G3 X8 Y18 I0 J0.5
G1 Y18.5
G19 G3 Y19 Z-4.5 J0 K0.5
G1 X7
Z-8.5 F333.3
G2 Y18.5 Z-9 J-0.5 K0 F1000
G1 Y18
G17 G3 X7.5 Y17.5 I0.5 J0
G2 X7.5 Y-2.5 I0 J-10
X7.5 Y17.5 I0 J10
G3 X8 Y18 I0 J0.5
G1 Y18.5
G19 G3 Y19 Z-8.5 J0 K0.5
G0 Z15
G17
M9
M5
M30
