(CamperGaskastenRuecken)
(T3  D=3 CR=0 - ZMIN=-10 - flat end mill)
G90 G94
G17
G21

(2D Contour3 2)
T3
S5000 M3
G54
M8
G0 X-1.841 Y2.2
Z15
Z5
G1 Z3 F333.3
Z-1.7
G18 G2 X-1.541 Z-2 I0.3 K0 F1000
G1 X-1.241
G17 G3 X-0.941 Y2.5 I0 J0.3
G1 Y517.5
G2 X70.559 Y589 I71.5 J0
G1 X309.441
G2 X380.941 Y517.5 I0 J-71.5
G1 Y2.5
G2 X379.441 Y1 I-1.5 J0
G1 X0.559
G2 X-0.941 Y2.5 I0 J1.5
G3 X-1.241 Y2.8 I-0.3 J0
G1 X-1.541
G18 G3 X-1.841 Z-1.7 I0 K0.3
G1 Y2.2
Z-3.7 F333.3
G2 X-1.541 Z-4 I0.3 K0 F1000
G1 X-1.241
G17 G3 X-0.941 Y2.5 I0 J0.3
G1 Y517.5
G2 X70.559 Y589 I71.5 J0
G1 X309.441
G2 X380.941 Y517.5 I0 J-71.5
G1 Y2.5
G2 X379.441 Y1 I-1.5 J0
G1 X0.559
G2 X-0.941 Y2.5 I0 J1.5
G3 X-1.241 Y2.8 I-0.3 J0
G1 X-1.541
G18 G3 X-1.841 Z-3.7 I0 K0.3
G1 Y2.2
Z-5.7 F333.3
G2 X-1.541 Z-6 I0.3 K0 F1000
G1 X-1.241
G17 G3 X-0.941 Y2.5 I0 J0.3
G1 Y517.5
G2 X70.559 Y589 I71.5 J0
G1 X309.441
G2 X380.941 Y517.5 I0 J-71.5
G1 Y2.5
G2 X379.441 Y1 I-1.5 J0
G1 X0.559
G2 X-0.941 Y2.5 I0 J1.5
G3 X-1.241 Y2.8 I-0.3 J0
G1 X-1.541
G18 G3 X-1.841 Z-5.7 I0 K0.3
G1 Y2.2
Z-7.7 F333.3
G2 X-1.541 Z-8 I0.3 K0 F1000
G1 X-1.241
G17 G3 X-0.941 Y2.5 I0 J0.3
G1 Y517.5
G2 X70.559 Y589 I71.5 J0
G1 X309.441
G2 X380.941 Y517.5 I0 J-71.5
G1 Y2.5
G2 X379.441 Y1 I-1.5 J0
G1 X0.559
G2 X-0.941 Y2.5 I0 J1.5
G3 X-1.241 Y2.8 I-0.3 J0
G1 X-1.541
G18 G3 X-1.841 Z-7.7 I0 K0.3
G1 Y2.2
Z-9.7 F333.3
G2 X-1.541 Z-10 I0.3 K0 F1000
G1 X-1.241
G17 G3 X-0.941 Y2.5 I0 J0.3
G1 Y517.5
G2 X70.559 Y589 I71.5 J0
G1 X309.441
G2 X380.941 Y517.5 I0 J-71.5
G1 Y2.5
G2 X379.441 Y1 I-1.5 J0
G1 X0.559
G2 X-0.941 Y2.5 I0 J1.5
G3 X-1.241 Y2.8 I-0.3 J0
G1 X-1.541
G18 G3 X-1.841 Z-9.7 I0 K0.3
G0 Z15
G17
M9
M5
M30
