(CamperSitzbankSeitenwand)
(T4 D=5 CR=0 - ZMIN=-21 - flat end mill)
G90 G94
G17
G21
(-Attention- Property Safe Retracts is set to Clearance Height.)
(Ensure the clearance height will clear the part and or fixtures.)
(Raise the Z-axis to a safe height before starting the program.)

(2D Contour2)
T4
S5000 M3
G17 G90 G94
G54
M8
G0 X101.181 Y238.133
Z15
G0 Z5
G1 Z4 F333.3
Z-3
X101.182 Y238.25 F1000
X101.173 Y239.581
X101.146 Y240.926
X101.101 Y242.298
X101.071 Y242.994
X101.036 Y243.703
X100.996 Y244.427
X100.951 Y245.166
X100.9 Y245.921
X100.843 Y246.697
X100.779 Y247.496
X100.71 Y248.321
X100.634 Y249.171
X100.55 Y250.053
X100.458 Y250.97
X100.409 Y251.441
X100.357 Y251.924
X100.304 Y252.419
X100.248 Y252.922
X100.19 Y253.435
X100.129 Y253.964
X100.065 Y254.506
X99.999 Y255.06
X99.93 Y255.629
X99.857 Y256.214
X99.782 Y256.816
X99.703 Y257.433
X99.621 Y258.07
X99.536 Y258.723
X99.445 Y259.398
X99.352 Y260.095
X99.253 Y260.814
X99.151 Y261.558
X99.043 Y262.326
X98.931 Y263.122
X98.812 Y263.948
X98.69 Y264.805
X98.56 Y265.691
X98.424 Y266.615
X98.281 Y267.579
X98.207 Y268.074
X98.132 Y268.579
X98.054 Y269.095
X97.974 Y269.623
X97.893 Y270.161
X97.808 Y270.711
X97.807 Y270.715
X97.722 Y271.278
X97.633 Y271.854
X97.542 Y272.444
X97.453 Y273.02
X97.332 Y273.702
X97.187 Y274.351
X97.013 Y274.992
X96.811 Y275.625
X96.582 Y276.247
X96.325 Y276.859
X96.04 Y277.462
X95.729 Y278.05
X95.393 Y278.623
X95.032 Y279.18
X94.647 Y279.721
X94.238 Y280.244
X93.806 Y280.749
X93.352 Y281.235
X92.877 Y281.7
X92.381 Y282.144
X91.867 Y282.565
X91.337 Y282.961
X90.789 Y283.334
X90.225 Y283.682
X89.645 Y284.005
X89.051 Y284.304
X88.445 Y284.575
X87.827 Y284.819
X87.198 Y285.035
X86.561 Y285.224
X85.918 Y285.383
X85.267 Y285.515
X84.613 Y285.617
X83.954 Y285.69
X83.291 Y285.735
X82.599 Y285.75
X77.719
X77.303 Y285.745
X76.904 Y285.728
X76.503 Y285.702
X76.106 Y285.665
X75.71 Y285.617
X75.316 Y285.559
X74.921 Y285.489
X74.528 Y285.41
X74.14 Y285.32
X73.752 Y285.22
X73.367 Y285.11
X72.987 Y284.989
X72.609 Y284.858
X72.234 Y284.717
X71.864 Y284.566
X71.496 Y284.405
X71.136 Y284.236
X70.78 Y284.056
X70.427 Y283.867
X70.078 Y283.667
X69.736 Y283.46
X69.402 Y283.244
X69.072 Y283.018
X68.749 Y282.785
X68.432 Y282.541
X68.122 Y282.291
X67.819 Y282.033
X67.522 Y281.766
X67.234 Y281.493
X66.951 Y281.209
X66.677 Y280.919
X66.411 Y280.623
X66.151 Y280.318
X65.9 Y280.006
X65.658 Y279.689
X65.424 Y279.365
X65.199 Y279.034
X64.983 Y278.698
X64.775 Y278.357
X64.578 Y278.011
X64.389 Y277.659
X64.21 Y277.303
X64.041 Y276.943
X63.882 Y276.578
X63.732 Y276.208
X63.591 Y275.835
X63.461 Y275.457
X63.341 Y275.076
X63.231 Y274.691
X63.13 Y274.304
X63.041 Y273.914
X62.962 Y273.522
X62.893 Y273.129
X62.835 Y272.734
X62.788 Y272.338
X62.751 Y271.941
X62.724 Y271.543
X62.709 Y271.146
X62.703 Y270.747
X62.709 Y270.348
X62.725 Y269.95
X62.751 Y269.551
X62.789 Y269.153
X62.839 Y268.738
X62.959 Y267.839
Y267.836
X63.076 Y266.954
Y266.952
X63.188 Y266.102
Y266.099
X63.295 Y265.279
X63.296 Y265.276
X63.398 Y264.483
Y264.48
X63.496 Y263.713
X63.497 Y263.71
X63.591 Y262.969
Y262.966
X63.681 Y262.247
Y262.244
X63.768 Y261.548
Y261.544
X63.851 Y260.868
Y260.865
X63.931 Y260.21
Y260.206
X64.007 Y259.569
X64.008 Y259.566
X64.081 Y258.946
X64.082 Y258.942
X64.152 Y258.339
Y258.335
X64.22 Y257.749
Y257.745
X64.285 Y257.173
X64.286 Y257.169
X64.348 Y256.612
X64.349 Y256.608
X64.409 Y256.064
Y256.06
X64.467 Y255.529
Y255.525
X64.523 Y255.007
Y255.002
X64.577 Y254.495
Y254.491
X64.628 Y253.995
X64.629 Y253.99
X64.678 Y253.505
Y253.501
X64.726 Y253.026
Y253.019
X64.816 Y252.097
X64.817 Y252.088
X64.899 Y251.202
X64.9 Y251.191
X64.976 Y250.335
X64.977 Y250.325
X65.047 Y249.499
Y249.488
X65.112 Y248.687
Y248.676
X65.171 Y247.899
X65.172 Y247.887
X65.226 Y247.13
X65.227 Y247.119
X65.276 Y246.382
Y246.369
X65.32 Y245.65
X65.321 Y245.638
X65.361 Y244.933
X65.362 Y244.921
X65.397 Y244.23
X65.398 Y244.216
X65.429 Y243.537
X65.43 Y243.518
X65.481 Y242.19
X65.482 Y242.163
X65.518 Y240.865
Y240.838
X65.54 Y239.56
Y239.532
X65.547 Y238.264
Y238.236
X65.54 Y236.968
Y236.94
X65.518 Y235.662
Y235.635
X65.482 Y234.337
X65.481 Y234.31
X65.43 Y232.982
X65.429 Y232.963
X65.398 Y232.284
X65.397 Y232.27
X65.362 Y231.579
X65.361 Y231.567
X65.321 Y230.862
X65.32 Y230.85
X65.276 Y230.131
Y230.118
X65.227 Y229.381
X65.226 Y229.37
X65.172 Y228.613
X65.171 Y228.601
X65.112 Y227.824
Y227.813
X65.047 Y227.012
Y227.001
X64.977 Y226.175
X64.976 Y226.165
X64.9 Y225.309
X64.899 Y225.298
X64.817 Y224.412
X64.816 Y224.403
X64.726 Y223.481
Y223.474
X64.678 Y222.999
Y222.995
X64.629 Y222.51
X64.628 Y222.505
X64.577 Y222.009
Y222.005
X64.523 Y221.498
Y221.493
X64.467 Y220.975
Y220.971
X64.409 Y220.44
Y220.436
X64.349 Y219.892
X64.348 Y219.888
X64.286 Y219.331
X64.285 Y219.327
X64.22 Y218.755
Y218.751
X64.152 Y218.165
Y218.161
X64.082 Y217.558
X64.081 Y217.554
X64.008 Y216.934
X64.007 Y216.931
X63.931 Y216.294
Y216.29
X63.851 Y215.635
Y215.632
X63.768 Y214.956
Y214.952
X63.681 Y214.256
Y214.253
X63.591 Y213.534
Y213.531
X63.497 Y212.79
X63.496 Y212.787
X63.398 Y212.02
Y212.017
X63.296 Y211.224
X63.295 Y211.221
X63.188 Y210.401
Y210.398
X63.076 Y209.548
Y209.546
X62.959 Y208.664
Y208.661
X62.839 Y207.762
X62.789 Y207.347
X62.751 Y206.949
X62.725 Y206.55
X62.709 Y206.15
X62.703 Y205.751
X62.709 Y205.351
X62.725 Y204.952
X62.751 Y204.554
X62.788 Y204.155
X62.836 Y203.758
X62.895 Y203.362
X62.964 Y202.968
X63.043 Y202.576
X63.133 Y202.186
X63.233 Y201.8
X63.343 Y201.416
X63.464 Y201.035
X63.595 Y200.657
X63.735 Y200.283
X63.886 Y199.912
X64.047 Y199.545
X64.217 Y199.184
X64.397 Y198.826
X64.586 Y198.475
X64.784 Y198.13
X64.991 Y197.787
X65.207 Y197.453
X65.432 Y197.123
X65.665 Y196.801
X65.907 Y196.485
X66.158 Y196.174
X66.417 Y195.87
X66.684 Y195.573
X66.96 Y195.282
X67.242 Y195
X67.532 Y194.725
X67.829 Y194.459
X68.135 Y194.198
X68.446 Y193.947
X68.761 Y193.707
X69.084 Y193.474
X69.414 Y193.249
X69.749 Y193.033
X70.09 Y192.826
X70.436 Y192.628
X70.787 Y192.44
X71.146 Y192.26
X71.508 Y192.089
X71.873 Y191.93
X72.244 Y191.779
X72.617 Y191.638
X72.994 Y191.508
X73.375 Y191.388
X73.76 Y191.278
X74.147 Y191.178
X74.533 Y191.089
X74.924 Y191.01
X75.318 Y190.941
X75.713 Y190.883
X76.108 Y190.835
X76.504 Y190.798
X76.904 Y190.772
X77.303 Y190.755
X77.719 Y190.75
X82.599
X83.291 Y190.765
X83.955 Y190.81
X84.615 Y190.883
X85.27 Y190.985
X85.922 Y191.117
X86.565 Y191.277
X87.203 Y191.466
X87.834 Y191.683
X88.451 Y191.927
X89.056 Y192.199
X89.651 Y192.498
X90.23 Y192.821
X90.794 Y193.17
X91.345 Y193.545
X91.877 Y193.943
X92.391 Y194.365
X92.886 Y194.809
X93.359 Y195.272
X93.811 Y195.756
X94.242 Y196.261
X94.65 Y196.784
X95.035 Y197.325
X95.397 Y197.883
X95.733 Y198.457
X96.043 Y199.045
X96.327 Y199.645
X96.583 Y200.256
X96.812 Y200.878
X97.013 Y201.51
X97.187 Y202.15
X97.332 Y202.798
X97.453 Y203.48
X97.542 Y204.056
X97.633 Y204.646
X97.722 Y205.222
X97.807 Y205.785
X97.808 Y205.789
X97.893 Y206.339
X97.974 Y206.877
X98.054 Y207.405
X98.132 Y207.921
X98.207 Y208.426
X98.281 Y208.921
X98.424 Y209.885
X98.56 Y210.809
X98.69 Y211.695
X98.812 Y212.551
X98.931 Y213.378
X99.043 Y214.174
X99.151 Y214.942
X99.253 Y215.686
X99.352 Y216.405
X99.445 Y217.102
X99.536 Y217.777
X99.621 Y218.43
X99.703 Y219.067
X99.782 Y219.684
X99.857 Y220.286
X99.93 Y220.871
X99.999 Y221.44
X100.065 Y221.994
X100.129 Y222.536
X100.19 Y223.065
X100.248 Y223.578
X100.304 Y224.081
X100.357 Y224.576
X100.409 Y225.059
X100.458 Y225.53
X100.55 Y226.447
X100.634 Y227.329
X100.71 Y228.179
X100.779 Y229.004
X100.843 Y229.803
X100.9 Y230.579
X100.951 Y231.334
X100.996 Y232.073
X101.036 Y232.797
X101.071 Y233.506
X101.101 Y234.202
X101.146 Y235.574
X101.173 Y236.919
X101.181 Y238.133
Z-6 F333.3
X101.182 Y238.25 F1000
X101.173 Y239.581
X101.146 Y240.926
X101.101 Y242.298
X101.071 Y242.994
X101.036 Y243.703
X100.996 Y244.427
X100.951 Y245.166
X100.9 Y245.921
X100.843 Y246.697
X100.779 Y247.496
X100.71 Y248.321
X100.634 Y249.171
X100.55 Y250.053
X100.458 Y250.97
X100.409 Y251.441
X100.357 Y251.924
X100.304 Y252.419
X100.248 Y252.922
X100.19 Y253.435
X100.129 Y253.964
X100.065 Y254.506
X99.999 Y255.06
X99.93 Y255.629
X99.857 Y256.214
X99.782 Y256.816
X99.703 Y257.433
X99.621 Y258.07
X99.536 Y258.723
X99.445 Y259.398
X99.352 Y260.095
X99.253 Y260.814
X99.151 Y261.558
X99.043 Y262.326
X98.931 Y263.122
X98.812 Y263.948
X98.69 Y264.805
X98.56 Y265.691
X98.424 Y266.615
X98.281 Y267.579
X98.207 Y268.074
X98.132 Y268.579
X98.054 Y269.095
X97.974 Y269.623
X97.893 Y270.161
X97.808 Y270.711
X97.807 Y270.715
X97.722 Y271.278
X97.633 Y271.854
X97.542 Y272.444
X97.453 Y273.02
X97.332 Y273.702
X97.187 Y274.351
X97.013 Y274.992
X96.811 Y275.625
X96.582 Y276.247
X96.325 Y276.859
X96.04 Y277.462
X95.729 Y278.05
X95.393 Y278.623
X95.032 Y279.18
X94.647 Y279.721
X94.238 Y280.244
X93.806 Y280.749
X93.352 Y281.235
X92.877 Y281.7
X92.381 Y282.144
X91.867 Y282.565
X91.337 Y282.961
X90.789 Y283.334
X90.225 Y283.682
X89.645 Y284.005
X89.051 Y284.304
X88.445 Y284.575
X87.827 Y284.819
X87.198 Y285.035
X86.561 Y285.224
X85.918 Y285.383
X85.267 Y285.515
X84.613 Y285.617
X83.954 Y285.69
X83.291 Y285.735
X82.599 Y285.75
X77.719
X77.303 Y285.745
X76.904 Y285.728
X76.503 Y285.702
X76.106 Y285.665
X75.71 Y285.617
X75.316 Y285.559
X74.921 Y285.489
X74.528 Y285.41
X74.14 Y285.32
X73.752 Y285.22
X73.367 Y285.11
X72.987 Y284.989
X72.609 Y284.858
X72.234 Y284.717
X71.864 Y284.566
X71.496 Y284.405
X71.136 Y284.236
X70.78 Y284.056
X70.427 Y283.867
X70.078 Y283.667
X69.736 Y283.46
X69.402 Y283.244
X69.072 Y283.018
X68.749 Y282.785
X68.432 Y282.541
X68.122 Y282.291
X67.819 Y282.033
X67.522 Y281.766
X67.234 Y281.493
X66.951 Y281.209
X66.677 Y280.919
X66.411 Y280.623
X66.151 Y280.318
X65.9 Y280.006
X65.658 Y279.689
X65.424 Y279.365
X65.199 Y279.034
X64.983 Y278.698
X64.775 Y278.357
X64.578 Y278.011
X64.389 Y277.659
X64.21 Y277.303
X64.041 Y276.943
X63.882 Y276.578
X63.732 Y276.208
X63.591 Y275.835
X63.461 Y275.457
X63.341 Y275.076
X63.231 Y274.691
X63.13 Y274.304
X63.041 Y273.914
X62.962 Y273.522
X62.893 Y273.129
X62.835 Y272.734
X62.788 Y272.338
X62.751 Y271.941
X62.724 Y271.543
X62.709 Y271.146
X62.703 Y270.747
X62.709 Y270.348
X62.725 Y269.95
X62.751 Y269.551
X62.789 Y269.153
X62.839 Y268.738
X62.959 Y267.839
Y267.836
X63.076 Y266.954
Y266.952
X63.188 Y266.102
Y266.099
X63.295 Y265.279
X63.296 Y265.276
X63.398 Y264.483
Y264.48
X63.496 Y263.713
X63.497 Y263.71
X63.591 Y262.969
Y262.966
X63.681 Y262.247
Y262.244
X63.768 Y261.548
Y261.544
X63.851 Y260.868
Y260.865
X63.931 Y260.21
Y260.206
X64.007 Y259.569
X64.008 Y259.566
X64.081 Y258.946
X64.082 Y258.942
X64.152 Y258.339
Y258.335
X64.22 Y257.749
Y257.745
X64.285 Y257.173
X64.286 Y257.169
X64.348 Y256.612
X64.349 Y256.608
X64.409 Y256.064
Y256.06
X64.467 Y255.529
Y255.525
X64.523 Y255.007
Y255.002
X64.577 Y254.495
Y254.491
X64.628 Y253.995
X64.629 Y253.99
X64.678 Y253.505
Y253.501
X64.726 Y253.026
Y253.019
X64.816 Y252.097
X64.817 Y252.088
X64.899 Y251.202
X64.9 Y251.191
X64.976 Y250.335
X64.977 Y250.325
X65.047 Y249.499
Y249.488
X65.112 Y248.687
Y248.676
X65.171 Y247.899
X65.172 Y247.887
X65.226 Y247.13
X65.227 Y247.119
X65.276 Y246.382
Y246.369
X65.32 Y245.65
X65.321 Y245.638
X65.361 Y244.933
X65.362 Y244.921
X65.397 Y244.23
X65.398 Y244.216
X65.429 Y243.537
X65.43 Y243.518
X65.481 Y242.19
X65.482 Y242.163
X65.518 Y240.865
Y240.838
X65.54 Y239.56
Y239.532
X65.547 Y238.264
Y238.236
X65.54 Y236.968
Y236.94
X65.518 Y235.662
Y235.635
X65.482 Y234.337
X65.481 Y234.31
X65.43 Y232.982
X65.429 Y232.963
X65.398 Y232.284
X65.397 Y232.27
X65.362 Y231.579
X65.361 Y231.567
X65.321 Y230.862
X65.32 Y230.85
X65.276 Y230.131
Y230.118
X65.227 Y229.381
X65.226 Y229.37
X65.172 Y228.613
X65.171 Y228.601
X65.112 Y227.824
Y227.813
X65.047 Y227.012
Y227.001
X64.977 Y226.175
X64.976 Y226.165
X64.9 Y225.309
X64.899 Y225.298
X64.817 Y224.412
X64.816 Y224.403
X64.726 Y223.481
Y223.474
X64.678 Y222.999
Y222.995
X64.629 Y222.51
X64.628 Y222.505
X64.577 Y222.009
Y222.005
X64.523 Y221.498
Y221.493
X64.467 Y220.975
Y220.971
X64.409 Y220.44
Y220.436
X64.349 Y219.892
X64.348 Y219.888
X64.286 Y219.331
X64.285 Y219.327
X64.22 Y218.755
Y218.751
X64.152 Y218.165
Y218.161
X64.082 Y217.558
X64.081 Y217.554
X64.008 Y216.934
X64.007 Y216.931
X63.931 Y216.294
Y216.29
X63.851 Y215.635
Y215.632
X63.768 Y214.956
Y214.952
X63.681 Y214.256
Y214.253
X63.591 Y213.534
Y213.531
X63.497 Y212.79
X63.496 Y212.787
X63.398 Y212.02
Y212.017
X63.296 Y211.224
X63.295 Y211.221
X63.188 Y210.401
Y210.398
X63.076 Y209.548
Y209.546
X62.959 Y208.664
Y208.661
X62.839 Y207.762
X62.789 Y207.347
X62.751 Y206.949
X62.725 Y206.55
X62.709 Y206.15
X62.703 Y205.751
X62.709 Y205.351
X62.725 Y204.952
X62.751 Y204.554
X62.788 Y204.155
X62.836 Y203.758
X62.895 Y203.362
X62.964 Y202.968
X63.043 Y202.576
X63.133 Y202.186
X63.233 Y201.8
X63.343 Y201.416
X63.464 Y201.035
X63.595 Y200.657
X63.735 Y200.283
X63.886 Y199.912
X64.047 Y199.545
X64.217 Y199.184
X64.397 Y198.826
X64.586 Y198.475
X64.784 Y198.13
X64.991 Y197.787
X65.207 Y197.453
X65.432 Y197.123
X65.665 Y196.801
X65.907 Y196.485
X66.158 Y196.174
X66.417 Y195.87
X66.684 Y195.573
X66.96 Y195.282
X67.242 Y195
X67.532 Y194.725
X67.829 Y194.459
X68.135 Y194.198
X68.446 Y193.947
X68.761 Y193.707
X69.084 Y193.474
X69.414 Y193.249
X69.749 Y193.033
X70.09 Y192.826
X70.436 Y192.628
X70.787 Y192.44
X71.146 Y192.26
X71.508 Y192.089
X71.873 Y191.93
X72.244 Y191.779
X72.617 Y191.638
X72.994 Y191.508
X73.375 Y191.388
X73.76 Y191.278
X74.147 Y191.178
X74.533 Y191.089
X74.924 Y191.01
X75.318 Y190.941
X75.713 Y190.883
X76.108 Y190.835
X76.504 Y190.798
X76.904 Y190.772
X77.303 Y190.755
X77.719 Y190.75
X82.599
X83.291 Y190.765
X83.955 Y190.81
X84.615 Y190.883
X85.27 Y190.985
X85.922 Y191.117
X86.565 Y191.277
X87.203 Y191.466
X87.834 Y191.683
X88.451 Y191.927
X89.056 Y192.199
X89.651 Y192.498
X90.23 Y192.821
X90.794 Y193.17
X91.345 Y193.545
X91.877 Y193.943
X92.391 Y194.365
X92.886 Y194.809
X93.359 Y195.272
X93.811 Y195.756
X94.242 Y196.261
X94.65 Y196.784
X95.035 Y197.325
X95.397 Y197.883
X95.733 Y198.457
X96.043 Y199.045
X96.327 Y199.645
X96.583 Y200.256
X96.812 Y200.878
X97.013 Y201.51
X97.187 Y202.15
X97.332 Y202.798
X97.453 Y203.48
X97.542 Y204.056
X97.633 Y204.646
X97.722 Y205.222
X97.807 Y205.785
X97.808 Y205.789
X97.893 Y206.339
X97.974 Y206.877
X98.054 Y207.405
X98.132 Y207.921
X98.207 Y208.426
X98.281 Y208.921
X98.424 Y209.885
X98.56 Y210.809
X98.69 Y211.695
X98.812 Y212.551
X98.931 Y213.378
X99.043 Y214.174
X99.151 Y214.942
X99.253 Y215.686
X99.352 Y216.405
X99.445 Y217.102
X99.536 Y217.777
X99.621 Y218.43
X99.703 Y219.067
X99.782 Y219.684
X99.857 Y220.286
X99.93 Y220.871
X99.999 Y221.44
X100.065 Y221.994
X100.129 Y222.536
X100.19 Y223.065
X100.248 Y223.578
X100.304 Y224.081
X100.357 Y224.576
X100.409 Y225.059
X100.458 Y225.53
X100.55 Y226.447
X100.634 Y227.329
X100.71 Y228.179
X100.779 Y229.004
X100.843 Y229.803
X100.9 Y230.579
X100.951 Y231.334
X100.996 Y232.073
X101.036 Y232.797
X101.071 Y233.506
X101.101 Y234.202
X101.146 Y235.574
X101.173 Y236.919
X101.181 Y238.133
Z-9 F333.3
X101.182 Y238.25 F1000
X101.173 Y239.581
X101.146 Y240.926
X101.101 Y242.298
X101.071 Y242.994
X101.036 Y243.703
X100.996 Y244.427
X100.951 Y245.166
X100.9 Y245.921
X100.843 Y246.697
X100.779 Y247.496
X100.71 Y248.321
X100.634 Y249.171
X100.55 Y250.053
X100.458 Y250.97
X100.409 Y251.441
X100.357 Y251.924
X100.304 Y252.419
X100.248 Y252.922
X100.19 Y253.435
X100.129 Y253.964
X100.065 Y254.506
X99.999 Y255.06
X99.93 Y255.629
X99.857 Y256.214
X99.782 Y256.816
X99.703 Y257.433
X99.621 Y258.07
X99.536 Y258.723
X99.445 Y259.398
X99.352 Y260.095
X99.253 Y260.814
X99.151 Y261.558
X99.043 Y262.326
X98.931 Y263.122
X98.812 Y263.948
X98.69 Y264.805
X98.56 Y265.691
X98.424 Y266.615
X98.281 Y267.579
X98.207 Y268.074
X98.132 Y268.579
X98.054 Y269.095
X97.974 Y269.623
X97.893 Y270.161
X97.808 Y270.711
X97.807 Y270.715
X97.722 Y271.278
X97.633 Y271.854
X97.542 Y272.444
X97.453 Y273.02
X97.332 Y273.702
X97.187 Y274.351
X97.013 Y274.992
X96.811 Y275.625
X96.582 Y276.247
X96.325 Y276.859
X96.04 Y277.462
X95.729 Y278.05
X95.393 Y278.623
X95.032 Y279.18
X94.647 Y279.721
X94.238 Y280.244
X93.806 Y280.749
X93.352 Y281.235
X92.877 Y281.7
X92.381 Y282.144
X91.867 Y282.565
X91.337 Y282.961
X90.789 Y283.334
X90.225 Y283.682
X89.645 Y284.005
X89.051 Y284.304
X88.445 Y284.575
X87.827 Y284.819
X87.198 Y285.035
X86.561 Y285.224
X85.918 Y285.383
X85.267 Y285.515
X84.613 Y285.617
X83.954 Y285.69
X83.291 Y285.735
X82.599 Y285.75
X77.719
X77.303 Y285.745
X76.904 Y285.728
X76.503 Y285.702
X76.106 Y285.665
X75.71 Y285.617
X75.316 Y285.559
X74.921 Y285.489
X74.528 Y285.41
X74.14 Y285.32
X73.752 Y285.22
X73.367 Y285.11
X72.987 Y284.989
X72.609 Y284.858
X72.234 Y284.717
X71.864 Y284.566
X71.496 Y284.405
X71.136 Y284.236
X70.78 Y284.056
X70.427 Y283.867
X70.078 Y283.667
X69.736 Y283.46
X69.402 Y283.244
X69.072 Y283.018
X68.749 Y282.785
X68.432 Y282.541
X68.122 Y282.291
X67.819 Y282.033
X67.522 Y281.766
X67.234 Y281.493
X66.951 Y281.209
X66.677 Y280.919
X66.411 Y280.623
X66.151 Y280.318
X65.9 Y280.006
X65.658 Y279.689
X65.424 Y279.365
X65.199 Y279.034
X64.983 Y278.698
X64.775 Y278.357
X64.578 Y278.011
X64.389 Y277.659
X64.21 Y277.303
X64.041 Y276.943
X63.882 Y276.578
X63.732 Y276.208
X63.591 Y275.835
X63.461 Y275.457
X63.341 Y275.076
X63.231 Y274.691
X63.13 Y274.304
X63.041 Y273.914
X62.962 Y273.522
X62.893 Y273.129
X62.835 Y272.734
X62.788 Y272.338
X62.751 Y271.941
X62.724 Y271.543
X62.709 Y271.146
X62.703 Y270.747
X62.709 Y270.348
X62.725 Y269.95
X62.751 Y269.551
X62.789 Y269.153
X62.839 Y268.738
X62.959 Y267.839
Y267.836
X63.076 Y266.954
Y266.952
X63.188 Y266.102
Y266.099
X63.295 Y265.279
X63.296 Y265.276
X63.398 Y264.483
Y264.48
X63.496 Y263.713
X63.497 Y263.71
X63.591 Y262.969
Y262.966
X63.681 Y262.247
Y262.244
X63.768 Y261.548
Y261.544
X63.851 Y260.868
Y260.865
X63.931 Y260.21
Y260.206
X64.007 Y259.569
X64.008 Y259.566
X64.081 Y258.946
X64.082 Y258.942
X64.152 Y258.339
Y258.335
X64.22 Y257.749
Y257.745
X64.285 Y257.173
X64.286 Y257.169
X64.348 Y256.612
X64.349 Y256.608
X64.409 Y256.064
Y256.06
X64.467 Y255.529
Y255.525
X64.523 Y255.007
Y255.002
X64.577 Y254.495
Y254.491
X64.628 Y253.995
X64.629 Y253.99
X64.678 Y253.505
Y253.501
X64.726 Y253.026
Y253.019
X64.816 Y252.097
X64.817 Y252.088
X64.899 Y251.202
X64.9 Y251.191
X64.976 Y250.335
X64.977 Y250.325
X65.047 Y249.499
Y249.488
X65.112 Y248.687
Y248.676
X65.171 Y247.899
X65.172 Y247.887
X65.226 Y247.13
X65.227 Y247.119
X65.276 Y246.382
Y246.369
X65.32 Y245.65
X65.321 Y245.638
X65.361 Y244.933
X65.362 Y244.921
X65.397 Y244.23
X65.398 Y244.216
X65.429 Y243.537
X65.43 Y243.518
X65.481 Y242.19
X65.482 Y242.163
X65.518 Y240.865
Y240.838
X65.54 Y239.56
Y239.532
X65.547 Y238.264
Y238.236
X65.54 Y236.968
Y236.94
X65.518 Y235.662
Y235.635
X65.482 Y234.337
X65.481 Y234.31
X65.43 Y232.982
X65.429 Y232.963
X65.398 Y232.284
X65.397 Y232.27
X65.362 Y231.579
X65.361 Y231.567
X65.321 Y230.862
X65.32 Y230.85
X65.276 Y230.131
Y230.118
X65.227 Y229.381
X65.226 Y229.37
X65.172 Y228.613
X65.171 Y228.601
X65.112 Y227.824
Y227.813
X65.047 Y227.012
Y227.001
X64.977 Y226.175
X64.976 Y226.165
X64.9 Y225.309
X64.899 Y225.298
X64.817 Y224.412
X64.816 Y224.403
X64.726 Y223.481
Y223.474
X64.678 Y222.999
Y222.995
X64.629 Y222.51
X64.628 Y222.505
X64.577 Y222.009
Y222.005
X64.523 Y221.498
Y221.493
X64.467 Y220.975
Y220.971
X64.409 Y220.44
Y220.436
X64.349 Y219.892
X64.348 Y219.888
X64.286 Y219.331
X64.285 Y219.327
X64.22 Y218.755
Y218.751
X64.152 Y218.165
Y218.161
X64.082 Y217.558
X64.081 Y217.554
X64.008 Y216.934
X64.007 Y216.931
X63.931 Y216.294
Y216.29
X63.851 Y215.635
Y215.632
X63.768 Y214.956
Y214.952
X63.681 Y214.256
Y214.253
X63.591 Y213.534
Y213.531
X63.497 Y212.79
X63.496 Y212.787
X63.398 Y212.02
Y212.017
X63.296 Y211.224
X63.295 Y211.221
X63.188 Y210.401
Y210.398
X63.076 Y209.548
Y209.546
X62.959 Y208.664
Y208.661
X62.839 Y207.762
X62.789 Y207.347
X62.751 Y206.949
X62.725 Y206.55
X62.709 Y206.15
X62.703 Y205.751
X62.709 Y205.351
X62.725 Y204.952
X62.751 Y204.554
X62.788 Y204.155
X62.836 Y203.758
X62.895 Y203.362
X62.964 Y202.968
X63.043 Y202.576
X63.133 Y202.186
X63.233 Y201.8
X63.343 Y201.416
X63.464 Y201.035
X63.595 Y200.657
X63.735 Y200.283
X63.886 Y199.912
X64.047 Y199.545
X64.217 Y199.184
X64.397 Y198.826
X64.586 Y198.475
X64.784 Y198.13
X64.991 Y197.787
X65.207 Y197.453
X65.432 Y197.123
X65.665 Y196.801
X65.907 Y196.485
X66.158 Y196.174
X66.417 Y195.87
X66.684 Y195.573
X66.96 Y195.282
X67.242 Y195
X67.532 Y194.725
X67.829 Y194.459
X68.135 Y194.198
X68.446 Y193.947
X68.761 Y193.707
X69.084 Y193.474
X69.414 Y193.249
X69.749 Y193.033
X70.09 Y192.826
X70.436 Y192.628
X70.787 Y192.44
X71.146 Y192.26
X71.508 Y192.089
X71.873 Y191.93
X72.244 Y191.779
X72.617 Y191.638
X72.994 Y191.508
X73.375 Y191.388
X73.76 Y191.278
X74.147 Y191.178
X74.533 Y191.089
X74.924 Y191.01
X75.318 Y190.941
X75.713 Y190.883
X76.108 Y190.835
X76.504 Y190.798
X76.904 Y190.772
X77.303 Y190.755
X77.719 Y190.75
X82.599
X83.291 Y190.765
X83.955 Y190.81
X84.615 Y190.883
X85.27 Y190.985
X85.922 Y191.117
X86.565 Y191.277
X87.203 Y191.466
X87.834 Y191.683
X88.451 Y191.927
X89.056 Y192.199
X89.651 Y192.498
X90.23 Y192.821
X90.794 Y193.17
X91.345 Y193.545
X91.877 Y193.943
X92.391 Y194.365
X92.886 Y194.809
X93.359 Y195.272
X93.811 Y195.756
X94.242 Y196.261
X94.65 Y196.784
X95.035 Y197.325
X95.397 Y197.883
X95.733 Y198.457
X96.043 Y199.045
X96.327 Y199.645
X96.583 Y200.256
X96.812 Y200.878
X97.013 Y201.51
X97.187 Y202.15
X97.332 Y202.798
X97.453 Y203.48
X97.542 Y204.056
X97.633 Y204.646
X97.722 Y205.222
X97.807 Y205.785
X97.808 Y205.789
X97.893 Y206.339
X97.974 Y206.877
X98.054 Y207.405
X98.132 Y207.921
X98.207 Y208.426
X98.281 Y208.921
X98.424 Y209.885
X98.56 Y210.809
X98.69 Y211.695
X98.812 Y212.551
X98.931 Y213.378
X99.043 Y214.174
X99.151 Y214.942
X99.253 Y215.686
X99.352 Y216.405
X99.445 Y217.102
X99.536 Y217.777
X99.621 Y218.43
X99.703 Y219.067
X99.782 Y219.684
X99.857 Y220.286
X99.93 Y220.871
X99.999 Y221.44
X100.065 Y221.994
X100.129 Y222.536
X100.19 Y223.065
X100.248 Y223.578
X100.304 Y224.081
X100.357 Y224.576
X100.409 Y225.059
X100.458 Y225.53
X100.55 Y226.447
X100.634 Y227.329
X100.71 Y228.179
X100.779 Y229.004
X100.843 Y229.803
X100.9 Y230.579
X100.951 Y231.334
X100.996 Y232.073
X101.036 Y232.797
X101.071 Y233.506
X101.101 Y234.202
X101.146 Y235.574
X101.173 Y236.919
X101.181 Y238.133
Z-12 F333.3
X101.182 Y238.25 F1000
X101.173 Y239.581
X101.146 Y240.926
X101.101 Y242.298
X101.071 Y242.994
X101.036 Y243.703
X100.996 Y244.427
X100.951 Y245.166
X100.9 Y245.921
X100.843 Y246.697
X100.779 Y247.496
X100.71 Y248.321
X100.634 Y249.171
X100.55 Y250.053
X100.458 Y250.97
X100.409 Y251.441
X100.357 Y251.924
X100.304 Y252.419
X100.248 Y252.922
X100.19 Y253.435
X100.129 Y253.964
X100.065 Y254.506
X99.999 Y255.06
X99.93 Y255.629
X99.857 Y256.214
X99.782 Y256.816
X99.703 Y257.433
X99.621 Y258.07
X99.536 Y258.723
X99.445 Y259.398
X99.352 Y260.095
X99.253 Y260.814
X99.151 Y261.558
X99.043 Y262.326
X98.931 Y263.122
X98.812 Y263.948
X98.69 Y264.805
X98.56 Y265.691
X98.424 Y266.615
X98.281 Y267.579
X98.207 Y268.074
X98.132 Y268.579
X98.054 Y269.095
X97.974 Y269.623
X97.893 Y270.161
X97.808 Y270.711
X97.807 Y270.715
X97.722 Y271.278
X97.633 Y271.854
X97.542 Y272.444
X97.453 Y273.02
X97.332 Y273.702
X97.187 Y274.351
X97.013 Y274.992
X96.811 Y275.625
X96.582 Y276.247
X96.325 Y276.859
X96.04 Y277.462
X95.729 Y278.05
X95.393 Y278.623
X95.032 Y279.18
X94.647 Y279.721
X94.238 Y280.244
X93.806 Y280.749
X93.352 Y281.235
X92.877 Y281.7
X92.381 Y282.144
X91.867 Y282.565
X91.337 Y282.961
X90.789 Y283.334
X90.225 Y283.682
X89.645 Y284.005
X89.051 Y284.304
X88.445 Y284.575
X87.827 Y284.819
X87.198 Y285.035
X86.561 Y285.224
X85.918 Y285.383
X85.267 Y285.515
X84.613 Y285.617
X83.954 Y285.69
X83.291 Y285.735
X82.599 Y285.75
X77.719
X77.303 Y285.745
X76.904 Y285.728
X76.503 Y285.702
X76.106 Y285.665
X75.71 Y285.617
X75.316 Y285.559
X74.921 Y285.489
X74.528 Y285.41
X74.14 Y285.32
X73.752 Y285.22
X73.367 Y285.11
X72.987 Y284.989
X72.609 Y284.858
X72.234 Y284.717
X71.864 Y284.566
X71.496 Y284.405
X71.136 Y284.236
X70.78 Y284.056
X70.427 Y283.867
X70.078 Y283.667
X69.736 Y283.46
X69.402 Y283.244
X69.072 Y283.018
X68.749 Y282.785
X68.432 Y282.541
X68.122 Y282.291
X67.819 Y282.033
X67.522 Y281.766
X67.234 Y281.493
X66.951 Y281.209
X66.677 Y280.919
X66.411 Y280.623
X66.151 Y280.318
X65.9 Y280.006
X65.658 Y279.689
X65.424 Y279.365
X65.199 Y279.034
X64.983 Y278.698
X64.775 Y278.357
X64.578 Y278.011
X64.389 Y277.659
X64.21 Y277.303
X64.041 Y276.943
X63.882 Y276.578
X63.732 Y276.208
X63.591 Y275.835
X63.461 Y275.457
X63.341 Y275.076
X63.231 Y274.691
X63.13 Y274.304
X63.041 Y273.914
X62.962 Y273.522
X62.893 Y273.129
X62.835 Y272.734
X62.788 Y272.338
X62.751 Y271.941
X62.724 Y271.543
X62.709 Y271.146
X62.703 Y270.747
X62.709 Y270.348
X62.725 Y269.95
X62.751 Y269.551
X62.789 Y269.153
X62.839 Y268.738
X62.959 Y267.839
Y267.836
X63.076 Y266.954
Y266.952
X63.188 Y266.102
Y266.099
X63.295 Y265.279
X63.296 Y265.276
X63.398 Y264.483
Y264.48
X63.496 Y263.713
X63.497 Y263.71
X63.591 Y262.969
Y262.966
X63.681 Y262.247
Y262.244
X63.768 Y261.548
Y261.544
X63.851 Y260.868
Y260.865
X63.931 Y260.21
Y260.206
X64.007 Y259.569
X64.008 Y259.566
X64.081 Y258.946
X64.082 Y258.942
X64.152 Y258.339
Y258.335
X64.22 Y257.749
Y257.745
X64.285 Y257.173
X64.286 Y257.169
X64.348 Y256.612
X64.349 Y256.608
X64.409 Y256.064
Y256.06
X64.467 Y255.529
Y255.525
X64.523 Y255.007
Y255.002
X64.577 Y254.495
Y254.491
X64.628 Y253.995
X64.629 Y253.99
X64.678 Y253.505
Y253.501
X64.726 Y253.026
Y253.019
X64.816 Y252.097
X64.817 Y252.088
X64.899 Y251.202
X64.9 Y251.191
X64.976 Y250.335
X64.977 Y250.325
X65.047 Y249.499
Y249.488
X65.112 Y248.687
Y248.676
X65.171 Y247.899
X65.172 Y247.887
X65.226 Y247.13
X65.227 Y247.119
X65.276 Y246.382
Y246.369
X65.32 Y245.65
X65.321 Y245.638
X65.361 Y244.933
X65.362 Y244.921
X65.397 Y244.23
X65.398 Y244.216
X65.429 Y243.537
X65.43 Y243.518
X65.481 Y242.19
X65.482 Y242.163
X65.518 Y240.865
Y240.838
X65.54 Y239.56
Y239.532
X65.547 Y238.264
Y238.236
X65.54 Y236.968
Y236.94
X65.518 Y235.662
Y235.635
X65.482 Y234.337
X65.481 Y234.31
X65.43 Y232.982
X65.429 Y232.963
X65.398 Y232.284
X65.397 Y232.27
X65.362 Y231.579
X65.361 Y231.567
X65.321 Y230.862
X65.32 Y230.85
X65.276 Y230.131
Y230.118
X65.227 Y229.381
X65.226 Y229.37
X65.172 Y228.613
X65.171 Y228.601
X65.112 Y227.824
Y227.813
X65.047 Y227.012
Y227.001
X64.977 Y226.175
X64.976 Y226.165
X64.9 Y225.309
X64.899 Y225.298
X64.817 Y224.412
X64.816 Y224.403
X64.726 Y223.481
Y223.474
X64.678 Y222.999
Y222.995
X64.629 Y222.51
X64.628 Y222.505
X64.577 Y222.009
Y222.005
X64.523 Y221.498
Y221.493
X64.467 Y220.975
Y220.971
X64.409 Y220.44
Y220.436
X64.349 Y219.892
X64.348 Y219.888
X64.286 Y219.331
X64.285 Y219.327
X64.22 Y218.755
Y218.751
X64.152 Y218.165
Y218.161
X64.082 Y217.558
X64.081 Y217.554
X64.008 Y216.934
X64.007 Y216.931
X63.931 Y216.294
Y216.29
X63.851 Y215.635
Y215.632
X63.768 Y214.956
Y214.952
X63.681 Y214.256
Y214.253
X63.591 Y213.534
Y213.531
X63.497 Y212.79
X63.496 Y212.787
X63.398 Y212.02
Y212.017
X63.296 Y211.224
X63.295 Y211.221
X63.188 Y210.401
Y210.398
X63.076 Y209.548
Y209.546
X62.959 Y208.664
Y208.661
X62.839 Y207.762
X62.789 Y207.347
X62.751 Y206.949
X62.725 Y206.55
X62.709 Y206.15
X62.703 Y205.751
X62.709 Y205.351
X62.725 Y204.952
X62.751 Y204.554
X62.788 Y204.155
X62.836 Y203.758
X62.895 Y203.362
X62.964 Y202.968
X63.043 Y202.576
X63.133 Y202.186
X63.233 Y201.8
X63.343 Y201.416
X63.464 Y201.035
X63.595 Y200.657
X63.735 Y200.283
X63.886 Y199.912
X64.047 Y199.545
X64.217 Y199.184
X64.397 Y198.826
X64.586 Y198.475
X64.784 Y198.13
X64.991 Y197.787
X65.207 Y197.453
X65.432 Y197.123
X65.665 Y196.801
X65.907 Y196.485
X66.158 Y196.174
X66.417 Y195.87
X66.684 Y195.573
X66.96 Y195.282
X67.242 Y195
X67.532 Y194.725
X67.829 Y194.459
X68.135 Y194.198
X68.446 Y193.947
X68.761 Y193.707
X69.084 Y193.474
X69.414 Y193.249
X69.749 Y193.033
X70.09 Y192.826
X70.436 Y192.628
X70.787 Y192.44
X71.146 Y192.26
X71.508 Y192.089
X71.873 Y191.93
X72.244 Y191.779
X72.617 Y191.638
X72.994 Y191.508
X73.375 Y191.388
X73.76 Y191.278
X74.147 Y191.178
X74.533 Y191.089
X74.924 Y191.01
X75.318 Y190.941
X75.713 Y190.883
X76.108 Y190.835
X76.504 Y190.798
X76.904 Y190.772
X77.303 Y190.755
X77.719 Y190.75
X82.599
X83.291 Y190.765
X83.955 Y190.81
X84.615 Y190.883
X85.27 Y190.985
X85.922 Y191.117
X86.565 Y191.277
X87.203 Y191.466
X87.834 Y191.683
X88.451 Y191.927
X89.056 Y192.199
X89.651 Y192.498
X90.23 Y192.821
X90.794 Y193.17
X91.345 Y193.545
X91.877 Y193.943
X92.391 Y194.365
X92.886 Y194.809
X93.359 Y195.272
X93.811 Y195.756
X94.242 Y196.261
X94.65 Y196.784
X95.035 Y197.325
X95.397 Y197.883
X95.733 Y198.457
X96.043 Y199.045
X96.327 Y199.645
X96.583 Y200.256
X96.812 Y200.878
X97.013 Y201.51
X97.187 Y202.15
X97.332 Y202.798
X97.453 Y203.48
X97.542 Y204.056
X97.633 Y204.646
X97.722 Y205.222
X97.807 Y205.785
X97.808 Y205.789
X97.893 Y206.339
X97.974 Y206.877
X98.054 Y207.405
X98.132 Y207.921
X98.207 Y208.426
X98.281 Y208.921
X98.424 Y209.885
X98.56 Y210.809
X98.69 Y211.695
X98.812 Y212.551
X98.931 Y213.378
X99.043 Y214.174
X99.151 Y214.942
X99.253 Y215.686
X99.352 Y216.405
X99.445 Y217.102
X99.536 Y217.777
X99.621 Y218.43
X99.703 Y219.067
X99.782 Y219.684
X99.857 Y220.286
X99.93 Y220.871
X99.999 Y221.44
X100.065 Y221.994
X100.129 Y222.536
X100.19 Y223.065
X100.248 Y223.578
X100.304 Y224.081
X100.357 Y224.576
X100.409 Y225.059
X100.458 Y225.53
X100.55 Y226.447
X100.634 Y227.329
X100.71 Y228.179
X100.779 Y229.004
X100.843 Y229.803
X100.9 Y230.579
X100.951 Y231.334
X100.996 Y232.073
X101.036 Y232.797
X101.071 Y233.506
X101.101 Y234.202
X101.146 Y235.574
X101.173 Y236.919
X101.181 Y238.133
Z-15 F333.3
X101.182 Y238.25 F1000
X101.173 Y239.581
X101.146 Y240.926
X101.101 Y242.298
X101.071 Y242.994
X101.036 Y243.703
X100.996 Y244.427
X100.951 Y245.166
X100.9 Y245.921
X100.843 Y246.697
X100.779 Y247.496
X100.71 Y248.321
X100.634 Y249.171
X100.55 Y250.053
X100.458 Y250.97
X100.409 Y251.441
X100.357 Y251.924
X100.304 Y252.419
X100.248 Y252.922
X100.19 Y253.435
X100.129 Y253.964
X100.065 Y254.506
X99.999 Y255.06
X99.93 Y255.629
X99.857 Y256.214
X99.782 Y256.816
X99.703 Y257.433
X99.621 Y258.07
X99.536 Y258.723
X99.445 Y259.398
X99.352 Y260.095
X99.253 Y260.814
X99.151 Y261.558
X99.043 Y262.326
X98.931 Y263.122
X98.812 Y263.948
X98.69 Y264.805
X98.56 Y265.691
X98.424 Y266.615
X98.281 Y267.579
X98.207 Y268.074
X98.132 Y268.579
X98.054 Y269.095
X97.974 Y269.623
X97.893 Y270.161
X97.808 Y270.711
X97.807 Y270.715
X97.722 Y271.278
X97.633 Y271.854
X97.542 Y272.444
X97.453 Y273.02
X97.332 Y273.702
X97.187 Y274.351
X97.013 Y274.992
X96.811 Y275.625
X96.582 Y276.247
X96.325 Y276.859
X96.04 Y277.462
X95.729 Y278.05
X95.393 Y278.623
X95.032 Y279.18
X94.647 Y279.721
X94.238 Y280.244
X93.806 Y280.749
X93.352 Y281.235
X92.877 Y281.7
X92.381 Y282.144
X91.867 Y282.565
X91.337 Y282.961
X90.789 Y283.334
X90.225 Y283.682
X89.645 Y284.005
X89.051 Y284.304
X88.445 Y284.575
X87.827 Y284.819
X87.198 Y285.035
X86.561 Y285.224
X85.918 Y285.383
X85.267 Y285.515
X84.613 Y285.617
X83.954 Y285.69
X83.291 Y285.735
X82.599 Y285.75
X77.719
X77.303 Y285.745
X76.904 Y285.728
X76.503 Y285.702
X76.106 Y285.665
X75.71 Y285.617
X75.316 Y285.559
X74.921 Y285.489
X74.528 Y285.41
X74.14 Y285.32
X73.752 Y285.22
X73.367 Y285.11
X72.987 Y284.989
X72.609 Y284.858
X72.234 Y284.717
X71.864 Y284.566
X71.496 Y284.405
X71.136 Y284.236
X70.78 Y284.056
X70.427 Y283.867
X70.078 Y283.667
X69.736 Y283.46
X69.402 Y283.244
X69.072 Y283.018
X68.749 Y282.785
X68.432 Y282.541
X68.122 Y282.291
X67.819 Y282.033
X67.522 Y281.766
X67.234 Y281.493
X66.951 Y281.209
X66.677 Y280.919
X66.411 Y280.623
X66.151 Y280.318
X65.9 Y280.006
X65.658 Y279.689
X65.424 Y279.365
X65.199 Y279.034
X64.983 Y278.698
X64.775 Y278.357
X64.578 Y278.011
X64.389 Y277.659
X64.21 Y277.303
X64.041 Y276.943
X63.882 Y276.578
X63.732 Y276.208
X63.591 Y275.835
X63.461 Y275.457
X63.341 Y275.076
X63.231 Y274.691
X63.13 Y274.304
X63.041 Y273.914
X62.962 Y273.522
X62.893 Y273.129
X62.835 Y272.734
X62.788 Y272.338
X62.751 Y271.941
X62.724 Y271.543
X62.709 Y271.146
X62.703 Y270.747
X62.709 Y270.348
X62.725 Y269.95
X62.751 Y269.551
X62.789 Y269.153
X62.839 Y268.738
X62.959 Y267.839
Y267.836
X63.076 Y266.954
Y266.952
X63.188 Y266.102
Y266.099
X63.295 Y265.279
X63.296 Y265.276
X63.398 Y264.483
Y264.48
X63.496 Y263.713
X63.497 Y263.71
X63.591 Y262.969
Y262.966
X63.681 Y262.247
Y262.244
X63.768 Y261.548
Y261.544
X63.851 Y260.868
Y260.865
X63.931 Y260.21
Y260.206
X64.007 Y259.569
X64.008 Y259.566
X64.081 Y258.946
X64.082 Y258.942
X64.152 Y258.339
Y258.335
X64.22 Y257.749
Y257.745
X64.285 Y257.173
X64.286 Y257.169
X64.348 Y256.612
X64.349 Y256.608
X64.409 Y256.064
Y256.06
X64.467 Y255.529
Y255.525
X64.523 Y255.007
Y255.002
X64.577 Y254.495
Y254.491
X64.628 Y253.995
X64.629 Y253.99
X64.678 Y253.505
Y253.501
X64.726 Y253.026
Y253.019
X64.816 Y252.097
X64.817 Y252.088
X64.899 Y251.202
X64.9 Y251.191
X64.976 Y250.335
X64.977 Y250.325
X65.047 Y249.499
Y249.488
X65.112 Y248.687
Y248.676
X65.171 Y247.899
X65.172 Y247.887
X65.226 Y247.13
X65.227 Y247.119
X65.276 Y246.382
Y246.369
X65.32 Y245.65
X65.321 Y245.638
X65.361 Y244.933
X65.362 Y244.921
X65.397 Y244.23
X65.398 Y244.216
X65.429 Y243.537
X65.43 Y243.518
X65.481 Y242.19
X65.482 Y242.163
X65.518 Y240.865
Y240.838
X65.54 Y239.56
Y239.532
X65.547 Y238.264
Y238.236
X65.54 Y236.968
Y236.94
X65.518 Y235.662
Y235.635
X65.482 Y234.337
X65.481 Y234.31
X65.43 Y232.982
X65.429 Y232.963
X65.398 Y232.284
X65.397 Y232.27
X65.362 Y231.579
X65.361 Y231.567
X65.321 Y230.862
X65.32 Y230.85
X65.276 Y230.131
Y230.118
X65.227 Y229.381
X65.226 Y229.37
X65.172 Y228.613
X65.171 Y228.601
X65.112 Y227.824
Y227.813
X65.047 Y227.012
Y227.001
X64.977 Y226.175
X64.976 Y226.165
X64.9 Y225.309
X64.899 Y225.298
X64.817 Y224.412
X64.816 Y224.403
X64.726 Y223.481
Y223.474
X64.678 Y222.999
Y222.995
X64.629 Y222.51
X64.628 Y222.505
X64.577 Y222.009
Y222.005
X64.523 Y221.498
Y221.493
X64.467 Y220.975
Y220.971
X64.409 Y220.44
Y220.436
X64.349 Y219.892
X64.348 Y219.888
X64.286 Y219.331
X64.285 Y219.327
X64.22 Y218.755
Y218.751
X64.152 Y218.165
Y218.161
X64.082 Y217.558
X64.081 Y217.554
X64.008 Y216.934
X64.007 Y216.931
X63.931 Y216.294
Y216.29
X63.851 Y215.635
Y215.632
X63.768 Y214.956
Y214.952
X63.681 Y214.256
Y214.253
X63.591 Y213.534
Y213.531
X63.497 Y212.79
X63.496 Y212.787
X63.398 Y212.02
Y212.017
X63.296 Y211.224
X63.295 Y211.221
X63.188 Y210.401
Y210.398
X63.076 Y209.548
Y209.546
X62.959 Y208.664
Y208.661
X62.839 Y207.762
X62.789 Y207.347
X62.751 Y206.949
X62.725 Y206.55
X62.709 Y206.15
X62.703 Y205.751
X62.709 Y205.351
X62.725 Y204.952
X62.751 Y204.554
X62.788 Y204.155
X62.836 Y203.758
X62.895 Y203.362
X62.964 Y202.968
X63.043 Y202.576
X63.133 Y202.186
X63.233 Y201.8
X63.343 Y201.416
X63.464 Y201.035
X63.595 Y200.657
X63.735 Y200.283
X63.886 Y199.912
X64.047 Y199.545
X64.217 Y199.184
X64.397 Y198.826
X64.586 Y198.475
X64.784 Y198.13
X64.991 Y197.787
X65.207 Y197.453
X65.432 Y197.123
X65.665 Y196.801
X65.907 Y196.485
X66.158 Y196.174
X66.417 Y195.87
X66.684 Y195.573
X66.96 Y195.282
X67.242 Y195
X67.532 Y194.725
X67.829 Y194.459
X68.135 Y194.198
X68.446 Y193.947
X68.761 Y193.707
X69.084 Y193.474
X69.414 Y193.249
X69.749 Y193.033
X70.09 Y192.826
X70.436 Y192.628
X70.787 Y192.44
X71.146 Y192.26
X71.508 Y192.089
X71.873 Y191.93
X72.244 Y191.779
X72.617 Y191.638
X72.994 Y191.508
X73.375 Y191.388
X73.76 Y191.278
X74.147 Y191.178
X74.533 Y191.089
X74.924 Y191.01
X75.318 Y190.941
X75.713 Y190.883
X76.108 Y190.835
X76.504 Y190.798
X76.904 Y190.772
X77.303 Y190.755
X77.719 Y190.75
X82.599
X83.291 Y190.765
X83.955 Y190.81
X84.615 Y190.883
X85.27 Y190.985
X85.922 Y191.117
X86.565 Y191.277
X87.203 Y191.466
X87.834 Y191.683
X88.451 Y191.927
X89.056 Y192.199
X89.651 Y192.498
X90.23 Y192.821
X90.794 Y193.17
X91.345 Y193.545
X91.877 Y193.943
X92.391 Y194.365
X92.886 Y194.809
X93.359 Y195.272
X93.811 Y195.756
X94.242 Y196.261
X94.65 Y196.784
X95.035 Y197.325
X95.397 Y197.883
X95.733 Y198.457
X96.043 Y199.045
X96.327 Y199.645
X96.583 Y200.256
X96.812 Y200.878
X97.013 Y201.51
X97.187 Y202.15
X97.332 Y202.798
X97.453 Y203.48
X97.542 Y204.056
X97.633 Y204.646
X97.722 Y205.222
X97.807 Y205.785
X97.808 Y205.789
X97.893 Y206.339
X97.974 Y206.877
X98.054 Y207.405
X98.132 Y207.921
X98.207 Y208.426
X98.281 Y208.921
X98.424 Y209.885
X98.56 Y210.809
X98.69 Y211.695
X98.812 Y212.551
X98.931 Y213.378
X99.043 Y214.174
X99.151 Y214.942
X99.253 Y215.686
X99.352 Y216.405
X99.445 Y217.102
X99.536 Y217.777
X99.621 Y218.43
X99.703 Y219.067
X99.782 Y219.684
X99.857 Y220.286
X99.93 Y220.871
X99.999 Y221.44
X100.065 Y221.994
X100.129 Y222.536
X100.19 Y223.065
X100.248 Y223.578
X100.304 Y224.081
X100.357 Y224.576
X100.409 Y225.059
X100.458 Y225.53
X100.55 Y226.447
X100.634 Y227.329
X100.71 Y228.179
X100.779 Y229.004
X100.843 Y229.803
X100.9 Y230.579
X100.951 Y231.334
X100.996 Y232.073
X101.036 Y232.797
X101.071 Y233.506
X101.101 Y234.202
X101.146 Y235.574
X101.173 Y236.919
X101.181 Y238.133
Z-18 F333.3
X101.182 Y238.25 F1000
X101.173 Y239.581
X101.146 Y240.926
X101.101 Y242.298
X101.071 Y242.994
X101.036 Y243.703
X100.996 Y244.427
X100.951 Y245.166
X100.9 Y245.921
X100.843 Y246.697
X100.779 Y247.496
X100.71 Y248.321
X100.634 Y249.171
X100.55 Y250.053
X100.458 Y250.97
X100.409 Y251.441
X100.357 Y251.924
X100.304 Y252.419
X100.248 Y252.922
X100.19 Y253.435
X100.129 Y253.964
X100.065 Y254.506
X99.999 Y255.06
X99.93 Y255.629
X99.857 Y256.214
X99.782 Y256.816
X99.703 Y257.433
X99.621 Y258.07
X99.536 Y258.723
X99.445 Y259.398
X99.352 Y260.095
X99.253 Y260.814
X99.151 Y261.558
X99.043 Y262.326
X98.931 Y263.122
X98.812 Y263.948
X98.69 Y264.805
X98.56 Y265.691
X98.424 Y266.615
X98.281 Y267.579
X98.207 Y268.074
X98.132 Y268.579
X98.054 Y269.095
X97.974 Y269.623
X97.893 Y270.161
X97.808 Y270.711
X97.807 Y270.715
X97.722 Y271.278
X97.633 Y271.854
X97.542 Y272.444
X97.453 Y273.02
X97.332 Y273.702
X97.187 Y274.351
X97.013 Y274.992
X96.811 Y275.625
X96.582 Y276.247
X96.325 Y276.859
X96.04 Y277.462
X95.729 Y278.05
X95.393 Y278.623
X95.032 Y279.18
X94.647 Y279.721
X94.238 Y280.244
X93.806 Y280.749
X93.352 Y281.235
X92.877 Y281.7
X92.381 Y282.144
X91.867 Y282.565
X91.337 Y282.961
X90.789 Y283.334
X90.225 Y283.682
X89.645 Y284.005
X89.051 Y284.304
X88.445 Y284.575
X87.827 Y284.819
X87.198 Y285.035
X86.561 Y285.224
X85.918 Y285.383
X85.267 Y285.515
X84.613 Y285.617
X83.954 Y285.69
X83.291 Y285.735
X82.599 Y285.75
X77.719
X77.303 Y285.745
X76.904 Y285.728
X76.503 Y285.702
X76.106 Y285.665
X75.71 Y285.617
X75.316 Y285.559
X74.921 Y285.489
X74.528 Y285.41
X74.14 Y285.32
X73.752 Y285.22
X73.367 Y285.11
X72.987 Y284.989
X72.609 Y284.858
X72.234 Y284.717
X71.864 Y284.566
X71.496 Y284.405
X71.136 Y284.236
X70.78 Y284.056
X70.427 Y283.867
X70.078 Y283.667
X69.736 Y283.46
X69.402 Y283.244
X69.072 Y283.018
X68.749 Y282.785
X68.432 Y282.541
X68.122 Y282.291
X67.819 Y282.033
X67.522 Y281.766
X67.234 Y281.493
X66.951 Y281.209
X66.677 Y280.919
X66.411 Y280.623
X66.151 Y280.318
X65.9 Y280.006
X65.658 Y279.689
X65.424 Y279.365
X65.199 Y279.034
X64.983 Y278.698
X64.775 Y278.357
X64.578 Y278.011
X64.389 Y277.659
X64.21 Y277.303
X64.041 Y276.943
X63.882 Y276.578
X63.732 Y276.208
X63.591 Y275.835
X63.461 Y275.457
X63.341 Y275.076
X63.231 Y274.691
X63.13 Y274.304
X63.041 Y273.914
X62.962 Y273.522
X62.893 Y273.129
X62.835 Y272.734
X62.788 Y272.338
X62.751 Y271.941
X62.724 Y271.543
X62.709 Y271.146
X62.703 Y270.747
X62.709 Y270.348
X62.725 Y269.95
X62.751 Y269.551
X62.789 Y269.153
X62.839 Y268.738
X62.959 Y267.839
Y267.836
X63.076 Y266.954
Y266.952
X63.188 Y266.102
Y266.099
X63.295 Y265.279
X63.296 Y265.276
X63.398 Y264.483
Y264.48
X63.496 Y263.713
X63.497 Y263.71
X63.591 Y262.969
Y262.966
X63.681 Y262.247
Y262.244
X63.768 Y261.548
Y261.544
X63.851 Y260.868
Y260.865
X63.931 Y260.21
Y260.206
X64.007 Y259.569
X64.008 Y259.566
X64.081 Y258.946
X64.082 Y258.942
X64.152 Y258.339
Y258.335
X64.22 Y257.749
Y257.745
X64.285 Y257.173
X64.286 Y257.169
X64.348 Y256.612
X64.349 Y256.608
X64.409 Y256.064
Y256.06
X64.467 Y255.529
Y255.525
X64.523 Y255.007
Y255.002
X64.577 Y254.495
Y254.491
X64.628 Y253.995
X64.629 Y253.99
X64.678 Y253.505
Y253.501
X64.726 Y253.026
Y253.019
X64.816 Y252.097
X64.817 Y252.088
X64.899 Y251.202
X64.9 Y251.191
X64.976 Y250.335
X64.977 Y250.325
X65.047 Y249.499
Y249.488
X65.112 Y248.687
Y248.676
X65.171 Y247.899
X65.172 Y247.887
X65.226 Y247.13
X65.227 Y247.119
X65.276 Y246.382
Y246.369
X65.32 Y245.65
X65.321 Y245.638
X65.361 Y244.933
X65.362 Y244.921
X65.397 Y244.23
X65.398 Y244.216
X65.429 Y243.537
X65.43 Y243.518
X65.481 Y242.19
X65.482 Y242.163
X65.518 Y240.865
Y240.838
X65.54 Y239.56
Y239.532
X65.547 Y238.264
Y238.236
X65.54 Y236.968
Y236.94
X65.518 Y235.662
Y235.635
X65.482 Y234.337
X65.481 Y234.31
X65.43 Y232.982
X65.429 Y232.963
X65.398 Y232.284
X65.397 Y232.27
X65.362 Y231.579
X65.361 Y231.567
X65.321 Y230.862
X65.32 Y230.85
X65.276 Y230.131
Y230.118
X65.227 Y229.381
X65.226 Y229.37
X65.172 Y228.613
X65.171 Y228.601
X65.112 Y227.824
Y227.813
X65.047 Y227.012
Y227.001
X64.977 Y226.175
X64.976 Y226.165
X64.9 Y225.309
X64.899 Y225.298
X64.817 Y224.412
X64.816 Y224.403
X64.726 Y223.481
Y223.474
X64.678 Y222.999
Y222.995
X64.629 Y222.51
X64.628 Y222.505
X64.577 Y222.009
Y222.005
X64.523 Y221.498
Y221.493
X64.467 Y220.975
Y220.971
X64.409 Y220.44
Y220.436
X64.349 Y219.892
X64.348 Y219.888
X64.286 Y219.331
X64.285 Y219.327
X64.22 Y218.755
Y218.751
X64.152 Y218.165
Y218.161
X64.082 Y217.558
X64.081 Y217.554
X64.008 Y216.934
X64.007 Y216.931
X63.931 Y216.294
Y216.29
X63.851 Y215.635
Y215.632
X63.768 Y214.956
Y214.952
X63.681 Y214.256
Y214.253
X63.591 Y213.534
Y213.531
X63.497 Y212.79
X63.496 Y212.787
X63.398 Y212.02
Y212.017
X63.296 Y211.224
X63.295 Y211.221
X63.188 Y210.401
Y210.398
X63.076 Y209.548
Y209.546
X62.959 Y208.664
Y208.661
X62.839 Y207.762
X62.789 Y207.347
X62.751 Y206.949
X62.725 Y206.55
X62.709 Y206.15
X62.703 Y205.751
X62.709 Y205.351
X62.725 Y204.952
X62.751 Y204.554
X62.788 Y204.155
X62.836 Y203.758
X62.895 Y203.362
X62.964 Y202.968
X63.043 Y202.576
X63.133 Y202.186
X63.233 Y201.8
X63.343 Y201.416
X63.464 Y201.035
X63.595 Y200.657
X63.735 Y200.283
X63.886 Y199.912
X64.047 Y199.545
X64.217 Y199.184
X64.397 Y198.826
X64.586 Y198.475
X64.784 Y198.13
X64.991 Y197.787
X65.207 Y197.453
X65.432 Y197.123
X65.665 Y196.801
X65.907 Y196.485
X66.158 Y196.174
X66.417 Y195.87
X66.684 Y195.573
X66.96 Y195.282
X67.242 Y195
X67.532 Y194.725
X67.829 Y194.459
X68.135 Y194.198
X68.446 Y193.947
X68.761 Y193.707
X69.084 Y193.474
X69.414 Y193.249
X69.749 Y193.033
X70.09 Y192.826
X70.436 Y192.628
X70.787 Y192.44
X71.146 Y192.26
X71.508 Y192.089
X71.873 Y191.93
X72.244 Y191.779
X72.617 Y191.638
X72.994 Y191.508
X73.375 Y191.388
X73.76 Y191.278
X74.147 Y191.178
X74.533 Y191.089
X74.924 Y191.01
X75.318 Y190.941
X75.713 Y190.883
X76.108 Y190.835
X76.504 Y190.798
X76.904 Y190.772
X77.303 Y190.755
X77.719 Y190.75
X82.599
X83.291 Y190.765
X83.955 Y190.81
X84.615 Y190.883
X85.27 Y190.985
X85.922 Y191.117
X86.565 Y191.277
X87.203 Y191.466
X87.834 Y191.683
X88.451 Y191.927
X89.056 Y192.199
X89.651 Y192.498
X90.23 Y192.821
X90.794 Y193.17
X91.345 Y193.545
X91.877 Y193.943
X92.391 Y194.365
X92.886 Y194.809
X93.359 Y195.272
X93.811 Y195.756
X94.242 Y196.261
X94.65 Y196.784
X95.035 Y197.325
X95.397 Y197.883
X95.733 Y198.457
X96.043 Y199.045
X96.327 Y199.645
X96.583 Y200.256
X96.812 Y200.878
X97.013 Y201.51
X97.187 Y202.15
X97.332 Y202.798
X97.453 Y203.48
X97.542 Y204.056
X97.633 Y204.646
X97.722 Y205.222
X97.807 Y205.785
X97.808 Y205.789
X97.893 Y206.339
X97.974 Y206.877
X98.054 Y207.405
X98.132 Y207.921
X98.207 Y208.426
X98.281 Y208.921
X98.424 Y209.885
X98.56 Y210.809
X98.69 Y211.695
X98.812 Y212.551
X98.931 Y213.378
X99.043 Y214.174
X99.151 Y214.942
X99.253 Y215.686
X99.352 Y216.405
X99.445 Y217.102
X99.536 Y217.777
X99.621 Y218.43
X99.703 Y219.067
X99.782 Y219.684
X99.857 Y220.286
X99.93 Y220.871
X99.999 Y221.44
X100.065 Y221.994
X100.129 Y222.536
X100.19 Y223.065
X100.248 Y223.578
X100.304 Y224.081
X100.357 Y224.576
X100.409 Y225.059
X100.458 Y225.53
X100.55 Y226.447
X100.634 Y227.329
X100.71 Y228.179
X100.779 Y229.004
X100.843 Y229.803
X100.9 Y230.579
X100.951 Y231.334
X100.996 Y232.073
X101.036 Y232.797
X101.071 Y233.506
X101.101 Y234.202
X101.146 Y235.574
X101.173 Y236.919
X101.181 Y238.133
Z-21 F333.3
X101.182 Y238.25 F1000
X101.173 Y239.581
X101.146 Y240.926
X101.101 Y242.298
X101.071 Y242.994
X101.036 Y243.703
X100.996 Y244.427
X100.951 Y245.166
X100.9 Y245.921
X100.843 Y246.697
X100.779 Y247.496
X100.71 Y248.321
X100.634 Y249.171
X100.55 Y250.053
X100.458 Y250.97
X100.409 Y251.441
X100.357 Y251.924
X100.304 Y252.419
X100.248 Y252.922
X100.19 Y253.435
X100.129 Y253.964
X100.065 Y254.506
X99.999 Y255.06
X99.93 Y255.629
X99.857 Y256.214
X99.782 Y256.816
X99.703 Y257.433
X99.621 Y258.07
X99.536 Y258.723
X99.445 Y259.398
X99.352 Y260.095
X99.253 Y260.814
X99.151 Y261.558
X99.043 Y262.326
X98.931 Y263.122
X98.812 Y263.948
X98.69 Y264.805
X98.56 Y265.691
X98.424 Y266.615
X98.281 Y267.579
X98.207 Y268.074
X98.132 Y268.579
X98.054 Y269.095
X97.974 Y269.623
X97.893 Y270.161
X97.808 Y270.711
X97.807 Y270.715
X97.722 Y271.278
X97.633 Y271.854
X97.542 Y272.444
X97.453 Y273.02
X97.332 Y273.702
X97.187 Y274.351
X97.013 Y274.992
X96.811 Y275.625
X96.582 Y276.247
X96.325 Y276.859
X96.04 Y277.462
X95.729 Y278.05
X95.393 Y278.623
X95.032 Y279.18
X94.647 Y279.721
X94.238 Y280.244
X93.806 Y280.749
X93.352 Y281.235
X92.877 Y281.7
X92.381 Y282.144
X91.867 Y282.565
X91.337 Y282.961
X90.789 Y283.334
X90.225 Y283.682
X89.645 Y284.005
X89.051 Y284.304
X88.445 Y284.575
X87.827 Y284.819
X87.198 Y285.035
X86.561 Y285.224
X85.918 Y285.383
X85.267 Y285.515
X84.613 Y285.617
X83.954 Y285.69
X83.291 Y285.735
X82.599 Y285.75
X77.719
X77.303 Y285.745
X76.904 Y285.728
X76.503 Y285.702
X76.106 Y285.665
X75.71 Y285.617
X75.316 Y285.559
X74.921 Y285.489
X74.528 Y285.41
X74.14 Y285.32
X73.752 Y285.22
X73.367 Y285.11
X72.987 Y284.989
X72.609 Y284.858
X72.234 Y284.717
X71.864 Y284.566
X71.496 Y284.405
X71.136 Y284.236
X70.78 Y284.056
X70.427 Y283.867
X70.078 Y283.667
X69.736 Y283.46
X69.402 Y283.244
X69.072 Y283.018
X68.749 Y282.785
X68.432 Y282.541
X68.122 Y282.291
X67.819 Y282.033
X67.522 Y281.766
X67.234 Y281.493
X66.951 Y281.209
X66.677 Y280.919
X66.411 Y280.623
X66.151 Y280.318
X65.9 Y280.006
X65.658 Y279.689
X65.424 Y279.365
X65.199 Y279.034
X64.983 Y278.698
X64.775 Y278.357
X64.578 Y278.011
X64.389 Y277.659
X64.21 Y277.303
X64.041 Y276.943
X63.882 Y276.578
X63.732 Y276.208
X63.591 Y275.835
X63.461 Y275.457
X63.341 Y275.076
X63.231 Y274.691
X63.13 Y274.304
X63.041 Y273.914
X62.962 Y273.522
X62.893 Y273.129
X62.835 Y272.734
X62.788 Y272.338
X62.751 Y271.941
X62.724 Y271.543
X62.709 Y271.146
X62.703 Y270.747
X62.709 Y270.348
X62.725 Y269.95
X62.751 Y269.551
X62.789 Y269.153
X62.839 Y268.738
X62.959 Y267.839
Y267.836
X63.076 Y266.954
Y266.952
X63.188 Y266.102
Y266.099
X63.295 Y265.279
X63.296 Y265.276
X63.398 Y264.483
Y264.48
X63.496 Y263.713
X63.497 Y263.71
X63.591 Y262.969
Y262.966
X63.681 Y262.247
Y262.244
X63.768 Y261.548
Y261.544
X63.851 Y260.868
Y260.865
X63.931 Y260.21
Y260.206
X64.007 Y259.569
X64.008 Y259.566
X64.081 Y258.946
X64.082 Y258.942
X64.152 Y258.339
Y258.335
X64.22 Y257.749
Y257.745
X64.285 Y257.173
X64.286 Y257.169
X64.348 Y256.612
X64.349 Y256.608
X64.409 Y256.064
Y256.06
X64.467 Y255.529
Y255.525
X64.523 Y255.007
Y255.002
X64.577 Y254.495
Y254.491
X64.628 Y253.995
X64.629 Y253.99
X64.678 Y253.505
Y253.501
X64.726 Y253.026
Y253.019
X64.816 Y252.097
X64.817 Y252.088
X64.899 Y251.202
X64.9 Y251.191
X64.976 Y250.335
X64.977 Y250.325
X65.047 Y249.499
Y249.488
X65.112 Y248.687
Y248.676
X65.171 Y247.899
X65.172 Y247.887
X65.226 Y247.13
X65.227 Y247.119
X65.276 Y246.382
Y246.369
X65.32 Y245.65
X65.321 Y245.638
X65.361 Y244.933
X65.362 Y244.921
X65.397 Y244.23
X65.398 Y244.216
X65.429 Y243.537
X65.43 Y243.518
X65.481 Y242.19
X65.482 Y242.163
X65.518 Y240.865
Y240.838
X65.54 Y239.56
Y239.532
X65.547 Y238.264
Y238.236
X65.54 Y236.968
Y236.94
X65.518 Y235.662
Y235.635
X65.482 Y234.337
X65.481 Y234.31
X65.43 Y232.982
X65.429 Y232.963
X65.398 Y232.284
X65.397 Y232.27
X65.362 Y231.579
X65.361 Y231.567
X65.321 Y230.862
X65.32 Y230.85
X65.276 Y230.131
Y230.118
X65.227 Y229.381
X65.226 Y229.37
X65.172 Y228.613
X65.171 Y228.601
X65.112 Y227.824
Y227.813
X65.047 Y227.012
Y227.001
X64.977 Y226.175
X64.976 Y226.165
X64.9 Y225.309
X64.899 Y225.298
X64.817 Y224.412
X64.816 Y224.403
X64.726 Y223.481
Y223.474
X64.678 Y222.999
Y222.995
X64.629 Y222.51
X64.628 Y222.505
X64.577 Y222.009
Y222.005
X64.523 Y221.498
Y221.493
X64.467 Y220.975
Y220.971
X64.409 Y220.44
Y220.436
X64.349 Y219.892
X64.348 Y219.888
X64.286 Y219.331
X64.285 Y219.327
X64.22 Y218.755
Y218.751
X64.152 Y218.165
Y218.161
X64.082 Y217.558
X64.081 Y217.554
X64.008 Y216.934
X64.007 Y216.931
X63.931 Y216.294
Y216.29
X63.851 Y215.635
Y215.632
X63.768 Y214.956
Y214.952
X63.681 Y214.256
Y214.253
X63.591 Y213.534
Y213.531
X63.497 Y212.79
X63.496 Y212.787
X63.398 Y212.02
Y212.017
X63.296 Y211.224
X63.295 Y211.221
X63.188 Y210.401
Y210.398
X63.076 Y209.548
Y209.546
X62.959 Y208.664
Y208.661
X62.839 Y207.762
X62.789 Y207.347
X62.751 Y206.949
X62.725 Y206.55
X62.709 Y206.15
X62.703 Y205.751
X62.709 Y205.351
X62.725 Y204.952
X62.751 Y204.554
X62.788 Y204.155
X62.836 Y203.758
X62.895 Y203.362
X62.964 Y202.968
X63.043 Y202.576
X63.133 Y202.186
X63.233 Y201.8
X63.343 Y201.416
X63.464 Y201.035
X63.595 Y200.657
X63.735 Y200.283
X63.886 Y199.912
X64.047 Y199.545
X64.217 Y199.184
X64.397 Y198.826
X64.586 Y198.475
X64.784 Y198.13
X64.991 Y197.787
X65.207 Y197.453
X65.432 Y197.123
X65.665 Y196.801
X65.907 Y196.485
X66.158 Y196.174
X66.417 Y195.87
X66.684 Y195.573
X66.96 Y195.282
X67.242 Y195
X67.532 Y194.725
X67.829 Y194.459
X68.135 Y194.198
X68.446 Y193.947
X68.761 Y193.707
X69.084 Y193.474
X69.414 Y193.249
X69.749 Y193.033
X70.09 Y192.826
X70.436 Y192.628
X70.787 Y192.44
X71.146 Y192.26
X71.508 Y192.089
X71.873 Y191.93
X72.244 Y191.779
X72.617 Y191.638
X72.994 Y191.508
X73.375 Y191.388
X73.76 Y191.278
X74.147 Y191.178
X74.533 Y191.089
X74.924 Y191.01
X75.318 Y190.941
X75.713 Y190.883
X76.108 Y190.835
X76.504 Y190.798
X76.904 Y190.772
X77.303 Y190.755
X77.719 Y190.75
X82.599
X83.291 Y190.765
X83.955 Y190.81
X84.615 Y190.883
X85.27 Y190.985
X85.922 Y191.117
X86.565 Y191.277
X87.203 Y191.466
X87.834 Y191.683
X88.451 Y191.927
X89.056 Y192.199
X89.651 Y192.498
X90.23 Y192.821
X90.794 Y193.17
X91.345 Y193.545
X91.877 Y193.943
X92.391 Y194.365
X92.886 Y194.809
X93.359 Y195.272
X93.811 Y195.756
X94.242 Y196.261
X94.65 Y196.784
X95.035 Y197.325
X95.397 Y197.883
X95.733 Y198.457
X96.043 Y199.045
X96.327 Y199.645
X96.583 Y200.256
X96.812 Y200.878
X97.013 Y201.51
X97.187 Y202.15
X97.332 Y202.798
X97.453 Y203.48
X97.542 Y204.056
X97.633 Y204.646
X97.722 Y205.222
X97.807 Y205.785
X97.808 Y205.789
X97.893 Y206.339
X97.974 Y206.877
X98.054 Y207.405
X98.132 Y207.921
X98.207 Y208.426
X98.281 Y208.921
X98.424 Y209.885
X98.56 Y210.809
X98.69 Y211.695
X98.812 Y212.551
X98.931 Y213.378
X99.043 Y214.174
X99.151 Y214.942
X99.253 Y215.686
X99.352 Y216.405
X99.445 Y217.102
X99.536 Y217.777
X99.621 Y218.43
X99.703 Y219.067
X99.782 Y219.684
X99.857 Y220.286
X99.93 Y220.871
X99.999 Y221.44
X100.065 Y221.994
X100.129 Y222.536
X100.19 Y223.065
X100.248 Y223.578
X100.304 Y224.081
X100.357 Y224.576
X100.409 Y225.059
X100.458 Y225.53
X100.55 Y226.447
X100.634 Y227.329
X100.71 Y228.179
X100.779 Y229.004
X100.843 Y229.803
X100.9 Y230.579
X100.951 Y231.334
X100.996 Y232.073
X101.036 Y232.797
X101.071 Y233.506
X101.101 Y234.202
X101.146 Y235.574
X101.173 Y236.919
X101.181 Y238.133
G0 Z15

(2D Contour3)
G0 X-113.5 Y125.228
Z15
Z5
G1 Z4 F333.3
Z-2.5
G18 G2 X-113 Z-3 I0.5 K0 F1000
G1 X-112.5
G17 G3 X-112 Y125.728 I0 J0.5
G1 Y712.337
G2 X-46.992 Y774.787 I62.5 J0
G1 X72.008 Y770.008
G2 X132 Y707.558 I-2.508 J-62.45
G1 Y123.442
G2 X72.008 Y60.992 I-62.5 J0
G1 X-46.992 Y56.213
G2 X-112 Y118.663 I-2.508 J62.45
G1 Y125.728
X-113.5 Y125.228
Z-5.5 F333.3
G18 G2 X-113 Z-6 I0.5 K0 F1000
G1 X-112.5
G17 G3 X-112 Y125.728 I0 J0.5
G1 Y712.337
G2 X-46.992 Y774.787 I62.5 J0
G1 X72.008 Y770.008
G2 X132 Y707.558 I-2.508 J-62.45
G1 Y123.442
G2 X72.008 Y60.992 I-62.5 J0
G1 X-46.992 Y56.213
G2 X-112 Y118.663 I-2.508 J62.45
G1 Y125.728
X-113.5 Y125.228
Z-8.5 F333.3
G18 G2 X-113 Z-9 I0.5 K0 F1000
G1 X-112.5
G17 G3 X-112 Y125.728 I0 J0.5
G1 Y712.337
G2 X-46.992 Y774.787 I62.5 J0
G1 X72.008 Y770.008
G2 X132 Y707.558 I-2.508 J-62.45
G1 Y123.442
G2 X72.008 Y60.992 I-62.5 J0
G1 X-46.992 Y56.213
G2 X-112 Y118.663 I-2.508 J62.45
G1 Y125.728
X-113.5 Y125.228
Z-11.5 F333.3
G18 G2 X-113 Z-12 I0.5 K0 F1000
G1 X-112.5
G17 G3 X-112 Y125.728 I0 J0.5
G1 Y712.337
G2 X-46.992 Y774.787 I62.5 J0
G1 X72.008 Y770.008
G2 X132 Y707.558 I-2.508 J-62.45
G1 Y123.442
G2 X72.008 Y60.992 I-62.5 J0
G1 X-46.992 Y56.213
G2 X-112 Y118.663 I-2.508 J62.45
G1 Y125.728
X-113.5 Y125.228
Z-14.5 F333.3
G18 G2 X-113 Z-15 I0.5 K0 F1000
G1 X-112.5
G17 G3 X-112 Y125.728 I0 J0.5
G1 Y712.337
G2 X-46.992 Y774.787 I62.5 J0
G1 X72.008 Y770.008
G2 X132 Y707.558 I-2.508 J-62.45
G1 Y123.442
G2 X72.008 Y60.992 I-62.5 J0
G1 X-46.992 Y56.213
G2 X-112 Y118.663 I-2.508 J62.45
G1 Y125.728
X-113.5 Y125.228
Z-17.5 F333.3
G18 G2 X-113 Z-18 I0.5 K0 F1000
G1 X-112.5
G17 G3 X-112 Y125.728 I0 J0.5
G1 Y712.337
G2 X-46.992 Y774.787 I62.5 J0
G1 X72.008 Y770.008
G2 X132 Y707.558 I-2.508 J-62.45
G1 Y123.442
G2 X72.008 Y60.992 I-62.5 J0
G1 X-46.992 Y56.213
G2 X-112 Y118.663 I-2.508 J62.45
G1 Y125.728
X-113.5 Y125.228
Z-20.5 F333.3
G18 G2 X-113 Z-21 I0.5 K0 F1000
G1 X-112.5
G17 G3 X-112 Y125.728 I0 J0.5
G1 Y712.337
G2 X-46.992 Y774.787 I62.5 J0
G1 X72.008 Y770.008
G2 X132 Y707.558 I-2.508 J-62.45
G1 Y123.442
G2 X72.008 Y60.992 I-62.5 J0
G1 X-46.992 Y56.213
G2 X-112 Y118.663 I-2.508 J62.45
G1 Y125.728
G0 Z15
M9
M5
M30
