(CamperFuhrungsschieneAbdeckung)
(T4 D=5 CR=0 - ZMIN=-9 - flat end mill)
G90 G94
G17
G21
(-Attention- Property Safe Retracts is set to Clearance Height.)
(Ensure the clearance height will clear the part and or fixtures.)
(Raise the Z-axis to a safe height before starting the program.)

(2D Contour1)
T4
S5000 M3
G17 G90 G94
G54
M8
G0 X241.268 Y237.637
Z15
G0 Z5
G1 Z1 F333.3
Z-4
Y275.171 F1000
G3 X206.268 Y310.171 I-35 J0
G1 X131.201
G3 X96.201 Y275.171 I0 J-35
G1 Y101.059
G3 X131.201 Y66.059 I35 J0
G1 X206.268
G3 X241.268 Y101.059 I0 J35
G1 Y237.637
Z-8 F333.3
Y275.171 F1000
G3 X206.268 Y310.171 I-35 J0
G1 X131.201
G3 X96.201 Y275.171 I0 J-35
G1 Y101.059
G3 X131.201 Y66.059 I35 J0
G1 X206.268
G3 X241.268 Y101.059 I0 J35
G1 Y237.637
Z-9 F333.3
Y275.171 F1000
G3 X206.268 Y310.171 I-35 J0
G1 X131.201
G3 X96.201 Y275.171 I0 J-35
G1 Y101.059
G3 X131.201 Y66.059 I35 J0
G1 X206.268
G3 X241.268 Y101.059 I0 J35
G1 Y237.637
G0 Z15

(2D Contour2)
G0 X137.749 Y435.778
Z15
Z5
G1 Z1 F333.3
Z-4
X139.738 Y435.611 F1000
X139.741
X142.032 Y435.417
X142.034
X144.306 Y435.223
X144.309
X146.561 Y435.028
X146.563 Y435.027
X148.794 Y434.833
X148.797 Y434.832
X151.006 Y434.636
X151.008
X153.193 Y434.44
X153.197
X155.358 Y434.243
X155.362 Y434.242
X157.497 Y434.044
X157.501
X159.61 Y433.845
X159.615 Y433.844
X161.696 Y433.643
X161.7
X163.753 Y433.442
X163.76 Y433.441
X165.785 Y433.237
X165.79
X167.785 Y433.032
X167.791 Y433.031
X169.756 Y432.824
X169.764 Y432.823
X171.7 Y432.613
X171.708 Y432.612
X173.612 Y432.4
X173.62 Y432.399
X175.494 Y432.183
X175.504 Y432.181
X177.348 Y431.961
X177.359 Y431.96
X179.171 Y431.736
X179.181 Y431.735
X180.962 Y431.507
X180.976 Y431.505
X182.727 Y431.271
X182.74 Y431.269
X184.461 Y431.03
X184.476 Y431.028
X186.166 Y430.783
X186.182 Y430.781
X187.843 Y430.529
X187.862 Y430.526
X189.493 Y430.266
X189.51 Y430.263
X191.113 Y429.996
X191.134 Y429.992
X192.709 Y429.716
X192.73 Y429.713
X194.277 Y429.428
X194.3 Y429.423
X195.82 Y429.128
X195.844 Y429.123
X197.338 Y428.818
X197.365 Y428.813
X198.834 Y428.496
X198.861 Y428.49
X200.305 Y428.162
X200.333 Y428.155
X201.754 Y427.815
X201.786 Y427.807
X203.184 Y427.454
X203.215 Y427.445
X204.59 Y427.078
X204.623 Y427.069
X205.978 Y426.687
X206.011 Y426.678
X207.345 Y426.282
X207.381 Y426.271
X208.696 Y425.859
X208.732 Y425.847
X210.029 Y425.419
X210.068 Y425.406
X211.347 Y424.961
X211.382 Y424.948
X212.645 Y424.487
X212.687 Y424.472
X213.933 Y423.992
X213.969 Y423.977
X215.201 Y423.48
X215.242 Y423.464
X216.459 Y422.948
X216.497 Y422.931
X217.702 Y422.396
X217.744 Y422.377
X218.935 Y421.822
X218.973 Y421.804
X220.153 Y421.23
X220.191 Y421.211
X221.361 Y420.617
X221.401 Y420.596
X222.559 Y419.981
X222.598 Y419.96
X223.746 Y419.324
X223.782 Y419.303
X224.921 Y418.647
X224.959 Y418.625
X226.088 Y417.948
X226.123 Y417.926
X227.244 Y417.228
X227.28 Y417.205
X228.392 Y416.486
X228.427 Y416.464
X229.531 Y415.724
X229.565 Y415.7
X230.662 Y414.938
X230.694 Y414.916
X231.783 Y414.134
X231.816 Y414.11
X232.897 Y413.307
X232.929 Y413.283
X234.002 Y412.459
X234.032 Y412.435
X235.098 Y411.59
X235.125 Y411.568
X236.184 Y410.704
X236.214 Y410.679
X237.265 Y409.794
X237.293 Y409.77
X238.336 Y408.865
X238.364 Y408.841
X239.399 Y407.916
X239.424 Y407.893
X240.451 Y406.95
X240.477 Y406.926
X241.496 Y405.963
X241.521 Y405.939
X242.532 Y404.957
X242.555 Y404.934
X243.557 Y403.935
X243.581 Y403.912
X244.575 Y402.894
X244.599 Y402.869
X245.583 Y401.833
X245.604 Y401.81
X246.579 Y400.758
X246.602 Y400.733
X247.567 Y399.663
X247.587 Y399.64
X248.543 Y398.553
X248.563 Y398.53
X249.509 Y397.428
X249.53 Y397.403
X250.465 Y396.284
X250.485 Y396.26
X251.41 Y395.125
X251.428 Y395.102
X252.342 Y393.953
X252.362 Y393.929
X253.265 Y392.764
X253.284 Y392.739
X254.174 Y391.56
X254.192 Y391.537
X255.073 Y390.343
X255.091 Y390.318
X255.96 Y389.109
X255.977 Y389.085
X256.834 Y387.863
X256.851 Y387.839
X257.696 Y386.603
X257.712 Y386.58
X258.546 Y385.33
X258.561 Y385.306
X259.383 Y384.043
X259.4 Y384.017
X260.209 Y382.74
X260.222 Y382.718
X261.021 Y381.428
X261.037 Y381.403
X261.823 Y380.1
X261.837 Y380.076
X262.611 Y378.759
X262.625 Y378.736
X263.388 Y377.406
X263.401 Y377.383
X264.153 Y376.039
X264.165 Y376.016
X264.906 Y374.659
X264.919 Y374.635
X265.648 Y373.265
X265.659 Y373.244
X266.378 Y371.86
X266.39 Y371.837
X267.098 Y370.439
X267.109 Y370.417
X267.807 Y369.007
X267.818 Y368.983
X268.505 Y367.557
X268.514 Y367.538
X269.193 Y366.098
X269.203 Y366.077
X269.872 Y364.623
X269.881 Y364.603
X270.541 Y363.134
X270.55 Y363.114
X271.201 Y361.631
X271.21 Y361.612
X271.853 Y360.113
X271.86 Y360.094
X272.495 Y358.58
X272.503 Y358.562
X273.131 Y357.032
X273.138 Y357.015
X273.759 Y355.469
X273.766 Y355.452
X274.38 Y353.89
X274.386 Y353.874
X274.994 Y352.296
X274.999 Y352.281
X275.602 Y350.686
X275.608 Y350.67
X276.205 Y349.058
X276.211 Y349.044
X276.803 Y347.415
X276.808 Y347.4
X277.395 Y345.753
X277.399 Y345.742
X277.983 Y344.078
X277.988 Y344.065
X278.568 Y342.382
X278.571 Y342.371
X279.149 Y340.669
X279.153 Y340.656
X279.727 Y338.936
X279.731 Y338.927
X280.304 Y337.187
X280.307 Y337.176
X280.877 Y335.417
X280.88 Y335.409
X281.45 Y333.63
X281.453 Y333.62
X282.021 Y331.821
X282.023 Y331.813
X282.591 Y329.994
X282.594 Y329.986
X283.162 Y328.146
X283.164 Y328.139
X283.732 Y326.279
X283.734 Y326.272
X284.303 Y324.391
X284.305 Y324.384
X284.875 Y322.481
X284.877 Y322.475
X285.448 Y320.55
X285.449 Y320.545
X286.022 Y318.599
X286.024 Y318.594
X286.599 Y316.625
X286.6 Y316.621
X287.178 Y314.631
X287.179 Y314.626
X287.759 Y312.612
X287.76 Y312.61
X288.344 Y310.575
X288.346 Y310.569
X288.932 Y308.51
Y308.508
X289.522 Y306.426
X289.523 Y306.423
X290.117 Y304.318
X290.118 Y304.315
X290.716 Y302.187
Y302.186
X291.319 Y300.035
X291.32 Y300.032
X291.927 Y297.857
X291.928 Y297.854
X292.539 Y295.655
X293.156 Y293.433
X293.157 Y293.43
X293.778 Y291.183
X294.405 Y288.914
X294.406 Y288.911
X295.038 Y286.616
X295.677 Y284.297
X295.678 Y284.296
X296.322 Y281.953
X296.972 Y279.584
X297.628 Y277.191
X298.291 Y274.774
X298.96 Y272.333
X299.636 Y269.867
X300.319 Y267.377
Y267.376
X301.008 Y264.861
X301.704 Y262.321
X302.407 Y259.756
X303.117 Y257.166
X303.835 Y254.552
X304.559 Y251.912
X305.291 Y249.248
X306.031 Y246.558
X306.777 Y243.844
X307.531 Y241.105
X308.293 Y238.341
X309.063 Y235.551
X309.84 Y232.737
X310.625 Y229.897
X311.417 Y227.033
X312.217 Y224.143
X313.025 Y221.228
X313.841 Y218.289
X314.665 Y215.325
X315.497 Y212.334
X316.335 Y209.32
X317.183 Y206.281
X318.038 Y203.215
X318.902 Y200.126
X319.773 Y197.01
X320.651 Y193.871
X321.538 Y190.707
X322.433 Y187.517
X323.336 Y184.302
X324.247 Y181.063
X325.164 Y177.798
X326.091 Y174.509
X327.026 Y171.195
X327.968 Y167.855
X328.404 Y166.311
X337.607
G2 X340.023 Y164.453 I0 J-2.5
G1 X350.691 Y124.308
X350.729 Y124.144
X363.668 Y57.743
X363.693 Y57.589
X371.049 Y1.324
G2 X368.57 Y-1.5 I-2.479 J-0.324
G1 X1
G2 X-1.5 Y1 I0 J2.5
G1 Y437.266
G2 X0.691 Y439.747 I2.5 J0
G1 X1.873 Y439.894
X1.891 Y439.896
X3.089 Y440.036
X3.103 Y440.038
X4.317 Y440.173
X4.331 Y440.174
X5.562 Y440.304
X5.578 Y440.306
X6.826 Y440.43
X6.841 Y440.431
X8.106 Y440.549
X8.121 Y440.551
X9.404 Y440.663
X9.416 Y440.664
X10.717 Y440.771
X10.731 Y440.772
X12.051 Y440.873
X12.067 Y440.874
X13.405 Y440.968
X13.416 Y440.969
X14.774 Y441.058
X14.787
X16.165 Y441.141
X16.177 Y441.142
X17.575 Y441.219
X17.588 Y441.22
X19.007 Y441.291
X19.021 Y441.292
X20.461 Y441.356
X20.471
X21.934 Y441.415
X21.947
X23.432 Y441.467
X23.445 Y441.468
X24.953 Y441.513
X24.964
X26.497 Y441.552
X26.507
X28.064 Y441.585
X28.076 Y441.586
X29.658 Y441.612
X29.668
X31.275 Y441.632
X31.286
X32.919 Y441.645
X32.93
X34.59 Y441.651
X34.6
X36.287 Y441.65
X36.296
X38.01 Y441.643
X38.02
X39.761 Y441.629
X39.771
X41.541 Y441.608
X41.549
X43.347 Y441.581
X43.357
X45.183 Y441.546
X45.191 Y441.545
X47.046 Y441.504
X47.054
X48.938 Y441.456
X48.945
X50.857 Y441.402
X50.865
X52.807 Y441.341
X52.814
X54.784 Y441.273
X54.79 Y441.272
X56.788 Y441.198
X56.794
X58.82 Y441.118
X58.827
X60.88 Y441.031
X60.886
X62.966 Y440.938
X62.971 Y440.937
X65.078 Y440.838
X65.082
X67.214 Y440.734
X67.221
X69.378 Y440.623
X69.382 Y440.622
X71.563 Y440.506
X71.567
X73.771 Y440.385
X73.776
X76.002 Y440.258
X76.005
X78.253 Y440.127
X78.258 Y440.126
X80.525 Y439.989
X80.528
X82.814 Y439.848
X82.817
X85.121 Y439.703
X85.125
X87.445 Y439.553
X87.447
X89.782 Y439.4
X89.786 Y439.399
X92.134 Y439.242
X92.138
X94.498 Y439.081
X94.501
X96.873 Y438.917
X96.877
X101.648 Y438.579
X101.652 Y438.578
X106.448 Y438.23
X106.452
X111.261 Y437.873
X111.265
X116.076 Y437.508
X116.08
X120.88 Y437.137
X120.883 Y437.136
X125.659 Y436.76
X125.661
X128.036 Y436.571
X128.039
X130.404 Y436.38
X130.405
X132.758 Y436.189
X132.76
X135.1 Y435.997
X135.102
X137.427 Y435.805
X137.429 Y435.804
X137.749 Y435.778
Z-8 F333.3
X139.738 Y435.611 F1000
X139.741
X142.032 Y435.417
X142.034
X144.306 Y435.223
X144.309
X146.561 Y435.028
X146.563 Y435.027
X148.794 Y434.833
X148.797 Y434.832
X151.006 Y434.636
X151.008
X153.193 Y434.44
X153.197
X155.358 Y434.243
X155.362 Y434.242
X157.497 Y434.044
X157.501
X159.61 Y433.845
X159.615 Y433.844
X161.696 Y433.643
X161.7
X163.753 Y433.442
X163.76 Y433.441
X165.785 Y433.237
X165.79
X167.785 Y433.032
X167.791 Y433.031
X169.756 Y432.824
X169.764 Y432.823
X171.7 Y432.613
X171.708 Y432.612
X173.612 Y432.4
X173.62 Y432.399
X175.494 Y432.183
X175.504 Y432.181
X177.348 Y431.961
X177.359 Y431.96
X179.171 Y431.736
X179.181 Y431.735
X180.962 Y431.507
X180.976 Y431.505
X182.727 Y431.271
X182.74 Y431.269
X184.461 Y431.03
X184.476 Y431.028
X186.166 Y430.783
X186.182 Y430.781
X187.843 Y430.529
X187.862 Y430.526
X189.493 Y430.266
X189.51 Y430.263
X191.113 Y429.996
X191.134 Y429.992
X192.709 Y429.716
X192.73 Y429.713
X194.277 Y429.428
X194.3 Y429.423
X195.82 Y429.128
X195.844 Y429.123
X197.338 Y428.818
X197.365 Y428.813
X198.834 Y428.496
X198.861 Y428.49
X200.305 Y428.162
X200.333 Y428.155
X201.754 Y427.815
X201.786 Y427.807
X203.184 Y427.454
X203.215 Y427.445
X204.59 Y427.078
X204.623 Y427.069
X205.978 Y426.687
X206.011 Y426.678
X207.345 Y426.282
X207.381 Y426.271
X208.696 Y425.859
X208.732 Y425.847
X210.029 Y425.419
X210.068 Y425.406
X211.347 Y424.961
X211.382 Y424.948
X212.645 Y424.487
X212.687 Y424.472
X213.933 Y423.992
X213.969 Y423.977
X215.201 Y423.48
X215.242 Y423.464
X216.459 Y422.948
X216.497 Y422.931
X217.702 Y422.396
X217.744 Y422.377
X218.935 Y421.822
X218.973 Y421.804
X220.153 Y421.23
X220.191 Y421.211
X221.361 Y420.617
X221.401 Y420.596
X222.559 Y419.981
X222.598 Y419.96
X223.746 Y419.324
X223.782 Y419.303
X224.921 Y418.647
X224.959 Y418.625
X226.088 Y417.948
X226.123 Y417.926
X227.244 Y417.228
X227.28 Y417.205
X228.392 Y416.486
X228.427 Y416.464
X229.531 Y415.724
X229.565 Y415.7
X230.662 Y414.938
X230.694 Y414.916
X231.783 Y414.134
X231.816 Y414.11
X232.897 Y413.307
X232.929 Y413.283
X234.002 Y412.459
X234.032 Y412.435
X235.098 Y411.59
X235.125 Y411.568
X236.184 Y410.704
X236.214 Y410.679
X237.265 Y409.794
X237.293 Y409.77
X238.336 Y408.865
X238.364 Y408.841
X239.399 Y407.916
X239.424 Y407.893
X240.451 Y406.95
X240.477 Y406.926
X241.496 Y405.963
X241.521 Y405.939
X242.532 Y404.957
X242.555 Y404.934
X243.557 Y403.935
X243.581 Y403.912
X244.575 Y402.894
X244.599 Y402.869
X245.583 Y401.833
X245.604 Y401.81
X246.579 Y400.758
X246.602 Y400.733
X247.567 Y399.663
X247.587 Y399.64
X248.543 Y398.553
X248.563 Y398.53
X249.509 Y397.428
X249.53 Y397.403
X250.465 Y396.284
X250.485 Y396.26
X251.41 Y395.125
X251.428 Y395.102
X252.342 Y393.953
X252.362 Y393.929
X253.265 Y392.764
X253.284 Y392.739
X254.174 Y391.56
X254.192 Y391.537
X255.073 Y390.343
X255.091 Y390.318
X255.96 Y389.109
X255.977 Y389.085
X256.834 Y387.863
X256.851 Y387.839
X257.696 Y386.603
X257.712 Y386.58
X258.546 Y385.33
X258.561 Y385.306
X259.383 Y384.043
X259.4 Y384.017
X260.209 Y382.74
X260.222 Y382.718
X261.021 Y381.428
X261.037 Y381.403
X261.823 Y380.1
X261.837 Y380.076
X262.611 Y378.759
X262.625 Y378.736
X263.388 Y377.406
X263.401 Y377.383
X264.153 Y376.039
X264.165 Y376.016
X264.906 Y374.659
X264.919 Y374.635
X265.648 Y373.265
X265.659 Y373.244
X266.378 Y371.86
X266.39 Y371.837
X267.098 Y370.439
X267.109 Y370.417
X267.807 Y369.007
X267.818 Y368.983
X268.505 Y367.557
X268.514 Y367.538
X269.193 Y366.098
X269.203 Y366.077
X269.872 Y364.623
X269.881 Y364.603
X270.541 Y363.134
X270.55 Y363.114
X271.201 Y361.631
X271.21 Y361.612
X271.853 Y360.113
X271.86 Y360.094
X272.495 Y358.58
X272.503 Y358.562
X273.131 Y357.032
X273.138 Y357.015
X273.759 Y355.469
X273.766 Y355.452
X274.38 Y353.89
X274.386 Y353.874
X274.994 Y352.296
X274.999 Y352.281
X275.602 Y350.686
X275.608 Y350.67
X276.205 Y349.058
X276.211 Y349.044
X276.803 Y347.415
X276.808 Y347.4
X277.395 Y345.753
X277.399 Y345.742
X277.983 Y344.078
X277.988 Y344.065
X278.568 Y342.382
X278.571 Y342.371
X279.149 Y340.669
X279.153 Y340.656
X279.727 Y338.936
X279.731 Y338.927
X280.304 Y337.187
X280.307 Y337.176
X280.877 Y335.417
X280.88 Y335.409
X281.45 Y333.63
X281.453 Y333.62
X282.021 Y331.821
X282.023 Y331.813
X282.591 Y329.994
X282.594 Y329.986
X283.162 Y328.146
X283.164 Y328.139
X283.732 Y326.279
X283.734 Y326.272
X284.303 Y324.391
X284.305 Y324.384
X284.875 Y322.481
X284.877 Y322.475
X285.448 Y320.55
X285.449 Y320.545
X286.022 Y318.599
X286.024 Y318.594
X286.599 Y316.625
X286.6 Y316.621
X287.178 Y314.631
X287.179 Y314.626
X287.759 Y312.612
X287.76 Y312.61
X288.344 Y310.575
X288.346 Y310.569
X288.932 Y308.51
Y308.508
X289.522 Y306.426
X289.523 Y306.423
X290.117 Y304.318
X290.118 Y304.315
X290.716 Y302.187
Y302.186
X291.319 Y300.035
X291.32 Y300.032
X291.927 Y297.857
X291.928 Y297.854
X292.539 Y295.655
X293.156 Y293.433
X293.157 Y293.43
X293.778 Y291.183
X294.405 Y288.914
X294.406 Y288.911
X295.038 Y286.616
X295.677 Y284.297
X295.678 Y284.296
X296.322 Y281.953
X296.972 Y279.584
X297.628 Y277.191
X298.291 Y274.774
X298.96 Y272.333
X299.636 Y269.867
X300.319 Y267.377
Y267.376
X301.008 Y264.861
X301.704 Y262.321
X302.407 Y259.756
X303.117 Y257.166
X303.835 Y254.552
X304.559 Y251.912
X305.291 Y249.248
X306.031 Y246.558
X306.777 Y243.844
X307.531 Y241.105
X308.293 Y238.341
X309.063 Y235.551
X309.84 Y232.737
X310.625 Y229.897
X311.417 Y227.033
X312.217 Y224.143
X313.025 Y221.228
X313.841 Y218.289
X314.665 Y215.325
X315.497 Y212.334
X316.335 Y209.32
X317.183 Y206.281
X318.038 Y203.215
X318.902 Y200.126
X319.773 Y197.01
X320.651 Y193.871
X321.538 Y190.707
X322.433 Y187.517
X323.336 Y184.302
X324.247 Y181.063
X325.164 Y177.798
X326.091 Y174.509
X327.026 Y171.195
X327.968 Y167.855
X328.404 Y166.311
X337.607
G2 X340.023 Y164.453 I0 J-2.5
G1 X350.691 Y124.308
X350.729 Y124.144
X363.668 Y57.743
X363.693 Y57.589
X371.049 Y1.324
G2 X368.57 Y-1.5 I-2.479 J-0.324
G1 X1
G2 X-1.5 Y1 I0 J2.5
G1 Y437.266
G2 X0.691 Y439.747 I2.5 J0
G1 X1.873 Y439.894
X1.891 Y439.896
X3.089 Y440.036
X3.103 Y440.038
X4.317 Y440.173
X4.331 Y440.174
X5.562 Y440.304
X5.578 Y440.306
X6.826 Y440.43
X6.841 Y440.431
X8.106 Y440.549
X8.121 Y440.551
X9.404 Y440.663
X9.416 Y440.664
X10.717 Y440.771
X10.731 Y440.772
X12.051 Y440.873
X12.067 Y440.874
X13.405 Y440.968
X13.416 Y440.969
X14.774 Y441.058
X14.787
X16.165 Y441.141
X16.177 Y441.142
X17.575 Y441.219
X17.588 Y441.22
X19.007 Y441.291
X19.021 Y441.292
X20.461 Y441.356
X20.471
X21.934 Y441.415
X21.947
X23.432 Y441.467
X23.445 Y441.468
X24.953 Y441.513
X24.964
X26.497 Y441.552
X26.507
X28.064 Y441.585
X28.076 Y441.586
X29.658 Y441.612
X29.668
X31.275 Y441.632
X31.286
X32.919 Y441.645
X32.93
X34.59 Y441.651
X34.6
X36.287 Y441.65
X36.296
X38.01 Y441.643
X38.02
X39.761 Y441.629
X39.771
X41.541 Y441.608
X41.549
X43.347 Y441.581
X43.357
X45.183 Y441.546
X45.191 Y441.545
X47.046 Y441.504
X47.054
X48.938 Y441.456
X48.945
X50.857 Y441.402
X50.865
X52.807 Y441.341
X52.814
X54.784 Y441.273
X54.79 Y441.272
X56.788 Y441.198
X56.794
X58.82 Y441.118
X58.827
X60.88 Y441.031
X60.886
X62.966 Y440.938
X62.971 Y440.937
X65.078 Y440.838
X65.082
X67.214 Y440.734
X67.221
X69.378 Y440.623
X69.382 Y440.622
X71.563 Y440.506
X71.567
X73.771 Y440.385
X73.776
X76.002 Y440.258
X76.005
X78.253 Y440.127
X78.258 Y440.126
X80.525 Y439.989
X80.528
X82.814 Y439.848
X82.817
X85.121 Y439.703
X85.125
X87.445 Y439.553
X87.447
X89.782 Y439.4
X89.786 Y439.399
X92.134 Y439.242
X92.138
X94.498 Y439.081
X94.501
X96.873 Y438.917
X96.877
X101.648 Y438.579
X101.652 Y438.578
X106.448 Y438.23
X106.452
X111.261 Y437.873
X111.265
X116.076 Y437.508
X116.08
X120.88 Y437.137
X120.883 Y437.136
X125.659 Y436.76
X125.661
X128.036 Y436.571
X128.039
X130.404 Y436.38
X130.405
X132.758 Y436.189
X132.76
X135.1 Y435.997
X135.102
X137.427 Y435.805
X137.429 Y435.804
X137.749 Y435.778
Z-9 F333.3
X139.738 Y435.611 F1000
X139.741
X142.032 Y435.417
X142.034
X144.306 Y435.223
X144.309
X146.561 Y435.028
X146.563 Y435.027
X148.794 Y434.833
X148.797 Y434.832
X151.006 Y434.636
X151.008
X153.193 Y434.44
X153.197
X155.358 Y434.243
X155.362 Y434.242
X157.497 Y434.044
X157.501
X159.61 Y433.845
X159.615 Y433.844
X161.696 Y433.643
X161.7
X163.753 Y433.442
X163.76 Y433.441
X165.785 Y433.237
X165.79
X167.785 Y433.032
X167.791 Y433.031
X169.756 Y432.824
X169.764 Y432.823
X171.7 Y432.613
X171.708 Y432.612
X173.612 Y432.4
X173.62 Y432.399
X175.494 Y432.183
X175.504 Y432.181
X177.348 Y431.961
X177.359 Y431.96
X179.171 Y431.736
X179.181 Y431.735
X180.962 Y431.507
X180.976 Y431.505
X182.727 Y431.271
X182.74 Y431.269
X184.461 Y431.03
X184.476 Y431.028
X186.166 Y430.783
X186.182 Y430.781
X187.843 Y430.529
X187.862 Y430.526
X189.493 Y430.266
X189.51 Y430.263
X191.113 Y429.996
X191.134 Y429.992
X192.709 Y429.716
X192.73 Y429.713
X194.277 Y429.428
X194.3 Y429.423
X195.82 Y429.128
X195.844 Y429.123
X197.338 Y428.818
X197.365 Y428.813
X198.834 Y428.496
X198.861 Y428.49
X200.305 Y428.162
X200.333 Y428.155
X201.754 Y427.815
X201.786 Y427.807
X203.184 Y427.454
X203.215 Y427.445
X204.59 Y427.078
X204.623 Y427.069
X205.978 Y426.687
X206.011 Y426.678
X207.345 Y426.282
X207.381 Y426.271
X208.696 Y425.859
X208.732 Y425.847
X210.029 Y425.419
X210.068 Y425.406
X211.347 Y424.961
X211.382 Y424.948
X212.645 Y424.487
X212.687 Y424.472
X213.933 Y423.992
X213.969 Y423.977
X215.201 Y423.48
X215.242 Y423.464
X216.459 Y422.948
X216.497 Y422.931
X217.702 Y422.396
X217.744 Y422.377
X218.935 Y421.822
X218.973 Y421.804
X220.153 Y421.23
X220.191 Y421.211
X221.361 Y420.617
X221.401 Y420.596
X222.559 Y419.981
X222.598 Y419.96
X223.746 Y419.324
X223.782 Y419.303
X224.921 Y418.647
X224.959 Y418.625
X226.088 Y417.948
X226.123 Y417.926
X227.244 Y417.228
X227.28 Y417.205
X228.392 Y416.486
X228.427 Y416.464
X229.531 Y415.724
X229.565 Y415.7
X230.662 Y414.938
X230.694 Y414.916
X231.783 Y414.134
X231.816 Y414.11
X232.897 Y413.307
X232.929 Y413.283
X234.002 Y412.459
X234.032 Y412.435
X235.098 Y411.59
X235.125 Y411.568
X236.184 Y410.704
X236.214 Y410.679
X237.265 Y409.794
X237.293 Y409.77
X238.336 Y408.865
X238.364 Y408.841
X239.399 Y407.916
X239.424 Y407.893
X240.451 Y406.95
X240.477 Y406.926
X241.496 Y405.963
X241.521 Y405.939
X242.532 Y404.957
X242.555 Y404.934
X243.557 Y403.935
X243.581 Y403.912
X244.575 Y402.894
X244.599 Y402.869
X245.583 Y401.833
X245.604 Y401.81
X246.579 Y400.758
X246.602 Y400.733
X247.567 Y399.663
X247.587 Y399.64
X248.543 Y398.553
X248.563 Y398.53
X249.509 Y397.428
X249.53 Y397.403
X250.465 Y396.284
X250.485 Y396.26
X251.41 Y395.125
X251.428 Y395.102
X252.342 Y393.953
X252.362 Y393.929
X253.265 Y392.764
X253.284 Y392.739
X254.174 Y391.56
X254.192 Y391.537
X255.073 Y390.343
X255.091 Y390.318
X255.96 Y389.109
X255.977 Y389.085
X256.834 Y387.863
X256.851 Y387.839
X257.696 Y386.603
X257.712 Y386.58
X258.546 Y385.33
X258.561 Y385.306
X259.383 Y384.043
X259.4 Y384.017
X260.209 Y382.74
X260.222 Y382.718
X261.021 Y381.428
X261.037 Y381.403
X261.823 Y380.1
X261.837 Y380.076
X262.611 Y378.759
X262.625 Y378.736
X263.388 Y377.406
X263.401 Y377.383
X264.153 Y376.039
X264.165 Y376.016
X264.906 Y374.659
X264.919 Y374.635
X265.648 Y373.265
X265.659 Y373.244
X266.378 Y371.86
X266.39 Y371.837
X267.098 Y370.439
X267.109 Y370.417
X267.807 Y369.007
X267.818 Y368.983
X268.505 Y367.557
X268.514 Y367.538
X269.193 Y366.098
X269.203 Y366.077
X269.872 Y364.623
X269.881 Y364.603
X270.541 Y363.134
X270.55 Y363.114
X271.201 Y361.631
X271.21 Y361.612
X271.853 Y360.113
X271.86 Y360.094
X272.495 Y358.58
X272.503 Y358.562
X273.131 Y357.032
X273.138 Y357.015
X273.759 Y355.469
X273.766 Y355.452
X274.38 Y353.89
X274.386 Y353.874
X274.994 Y352.296
X274.999 Y352.281
X275.602 Y350.686
X275.608 Y350.67
X276.205 Y349.058
X276.211 Y349.044
X276.803 Y347.415
X276.808 Y347.4
X277.395 Y345.753
X277.399 Y345.742
X277.983 Y344.078
X277.988 Y344.065
X278.568 Y342.382
X278.571 Y342.371
X279.149 Y340.669
X279.153 Y340.656
X279.727 Y338.936
X279.731 Y338.927
X280.304 Y337.187
X280.307 Y337.176
X280.877 Y335.417
X280.88 Y335.409
X281.45 Y333.63
X281.453 Y333.62
X282.021 Y331.821
X282.023 Y331.813
X282.591 Y329.994
X282.594 Y329.986
X283.162 Y328.146
X283.164 Y328.139
X283.732 Y326.279
X283.734 Y326.272
X284.303 Y324.391
X284.305 Y324.384
X284.875 Y322.481
X284.877 Y322.475
X285.448 Y320.55
X285.449 Y320.545
X286.022 Y318.599
X286.024 Y318.594
X286.599 Y316.625
X286.6 Y316.621
X287.178 Y314.631
X287.179 Y314.626
X287.759 Y312.612
X287.76 Y312.61
X288.344 Y310.575
X288.346 Y310.569
X288.932 Y308.51
Y308.508
X289.522 Y306.426
X289.523 Y306.423
X290.117 Y304.318
X290.118 Y304.315
X290.716 Y302.187
Y302.186
X291.319 Y300.035
X291.32 Y300.032
X291.927 Y297.857
X291.928 Y297.854
X292.539 Y295.655
X293.156 Y293.433
X293.157 Y293.43
X293.778 Y291.183
X294.405 Y288.914
X294.406 Y288.911
X295.038 Y286.616
X295.677 Y284.297
X295.678 Y284.296
X296.322 Y281.953
X296.972 Y279.584
X297.628 Y277.191
X298.291 Y274.774
X298.96 Y272.333
X299.636 Y269.867
X300.319 Y267.377
Y267.376
X301.008 Y264.861
X301.704 Y262.321
X302.407 Y259.756
X303.117 Y257.166
X303.835 Y254.552
X304.559 Y251.912
X305.291 Y249.248
X306.031 Y246.558
X306.777 Y243.844
X307.531 Y241.105
X308.293 Y238.341
X309.063 Y235.551
X309.84 Y232.737
X310.625 Y229.897
X311.417 Y227.033
X312.217 Y224.143
X313.025 Y221.228
X313.841 Y218.289
X314.665 Y215.325
X315.497 Y212.334
X316.335 Y209.32
X317.183 Y206.281
X318.038 Y203.215
X318.902 Y200.126
X319.773 Y197.01
X320.651 Y193.871
X321.538 Y190.707
X322.433 Y187.517
X323.336 Y184.302
X324.247 Y181.063
X325.164 Y177.798
X326.091 Y174.509
X327.026 Y171.195
X327.968 Y167.855
X328.404 Y166.311
X337.607
G2 X340.023 Y164.453 I0 J-2.5
G1 X350.691 Y124.308
X350.729 Y124.144
X363.668 Y57.743
X363.693 Y57.589
X371.049 Y1.324
G2 X368.57 Y-1.5 I-2.479 J-0.324
G1 X1
G2 X-1.5 Y1 I0 J2.5
G1 Y437.266
G2 X0.691 Y439.747 I2.5 J0
G1 X1.873 Y439.894
X1.891 Y439.896
X3.089 Y440.036
X3.103 Y440.038
X4.317 Y440.173
X4.331 Y440.174
X5.562 Y440.304
X5.578 Y440.306
X6.826 Y440.43
X6.841 Y440.431
X8.106 Y440.549
X8.121 Y440.551
X9.404 Y440.663
X9.416 Y440.664
X10.717 Y440.771
X10.731 Y440.772
X12.051 Y440.873
X12.067 Y440.874
X13.405 Y440.968
X13.416 Y440.969
X14.774 Y441.058
X14.787
X16.165 Y441.141
X16.177 Y441.142
X17.575 Y441.219
X17.588 Y441.22
X19.007 Y441.291
X19.021 Y441.292
X20.461 Y441.356
X20.471
X21.934 Y441.415
X21.947
X23.432 Y441.467
X23.445 Y441.468
X24.953 Y441.513
X24.964
X26.497 Y441.552
X26.507
X28.064 Y441.585
X28.076 Y441.586
X29.658 Y441.612
X29.668
X31.275 Y441.632
X31.286
X32.919 Y441.645
X32.93
X34.59 Y441.651
X34.6
X36.287 Y441.65
X36.296
X38.01 Y441.643
X38.02
X39.761 Y441.629
X39.771
X41.541 Y441.608
X41.549
X43.347 Y441.581
X43.357
X45.183 Y441.546
X45.191 Y441.545
X47.046 Y441.504
X47.054
X48.938 Y441.456
X48.945
X50.857 Y441.402
X50.865
X52.807 Y441.341
X52.814
X54.784 Y441.273
X54.79 Y441.272
X56.788 Y441.198
X56.794
X58.82 Y441.118
X58.827
X60.88 Y441.031
X60.886
X62.966 Y440.938
X62.971 Y440.937
X65.078 Y440.838
X65.082
X67.214 Y440.734
X67.221
X69.378 Y440.623
X69.382 Y440.622
X71.563 Y440.506
X71.567
X73.771 Y440.385
X73.776
X76.002 Y440.258
X76.005
X78.253 Y440.127
X78.258 Y440.126
X80.525 Y439.989
X80.528
X82.814 Y439.848
X82.817
X85.121 Y439.703
X85.125
X87.445 Y439.553
X87.447
X89.782 Y439.4
X89.786 Y439.399
X92.134 Y439.242
X92.138
X94.498 Y439.081
X94.501
X96.873 Y438.917
X96.877
X101.648 Y438.579
X101.652 Y438.578
X106.448 Y438.23
X106.452
X111.261 Y437.873
X111.265
X116.076 Y437.508
X116.08
X120.88 Y437.137
X120.883 Y437.136
X125.659 Y436.76
X125.661
X128.036 Y436.571
X128.039
X130.404 Y436.38
X130.405
X132.758 Y436.189
X132.76
X135.1 Y435.997
X135.102
X137.427 Y435.805
X137.429 Y435.804
X137.749 Y435.778
G0 Z15
M9
M5
M30
