(CamperSitzgruppeSchiene)
(T4  D=5 CR=0 - ZMIN=-19 - flat end mill)
G90 G94
G17
G21

(2D Contour1)
T4
S5000 M3
G54
M8
G0 X-88.306 Y-232.333
Z15
Z5
G1 Z-4.5 F333.3
X-88.301 Y-232.338 Z-4.587 F1000
X-88.285 Y-232.354 Z-4.671
X-88.259 Y-232.38 Z-4.75
X-88.223 Y-232.416 Z-4.821
X-88.18 Y-232.459 Z-4.883
X-88.13 Y-232.51 Z-4.933
X-88.074 Y-232.566 Z-4.97
X-88.015 Y-232.626 Z-4.992
X-87.954 Y-232.688 Z-5
X-87.602 Y-233.043
G3 X-86.895 Y-233.045 I0.355 J0.352
G2 X-79.5 Y-230 I7.395 J-7.455
G1 X-75.5
G3 X-70 Y-224.5 I0 J5.5
G1 Y-175.5
G3 X-75.5 Y-170 I-5.5 J0
G1 X-84.5
G2 X-95 Y-159.5 I0 J10.5
G1 Y159.5
G2 X-84.5 Y170 I10.5 J0
G1 X-75.5
G3 X-70 Y175.5 I0 J5.5
G1 Y224.5
G3 X-75.5 Y230 I-5.5 J0
G1 X-79.5
G2 X-90 Y240.5 I0 J10.5
G1 Y265.084
G3 X-91.719 Y269.078 I-5.5 J0
G2 X-95 Y276.703 I7.219 J7.625
G1 Y284.5
G3 X-100.5 Y290 I-5.5 J0
G1 X-134.5
G3 X-140 Y284.5 I0 J-5.5
G1 Y276.703
G2 X-143.281 Y269.078 I-10.5 J-0.001
G3 X-145 Y265.084 I3.781 J-3.994
G1 Y240.5
G2 X-155.5 Y230 I-10.5 J0
G1 X-159.5
G3 X-165 Y224.5 I0 J-5.5
G1 Y175.5
G3 X-159.5 Y170 I5.5 J0
G1 X-150.5
G2 X-140 Y159.5 I0 J-10.5
G1 Y-159.5
G2 X-150.5 Y-170 I-10.5 J0
G1 X-159.5
G3 X-165 Y-175.5 I0 J-5.5
G1 Y-224.5
G3 X-159.5 Y-230 I5.5 J0
G1 X-155.5
G2 X-145 Y-240.5 I0 J-10.5
G1 Y-265.084
G3 X-143.281 Y-269.078 I5.5 J0
G2 X-140 Y-276.703 I-7.219 J-7.625
G1 Y-284.5
G3 X-134.5 Y-290 I5.5 J0
G1 X-100.5
G3 X-95 Y-284.5 I0 J5.5
G1 Y-276.703
G2 X-91.719 Y-269.078 I10.5 J0.001
G3 X-90 Y-265.084 I-3.781 J3.994
G1 Y-240.5
G2 X-86.895 Y-233.045 I10.5 J0
G3 X-86.892 Y-232.338 I-0.352 J0.355
G1 X-87.244 Y-231.983
X-87.305 Y-231.922 Z-4.992
X-87.364 Y-231.862 Z-4.97
X-87.42 Y-231.806 Z-4.933
X-87.47 Y-231.755 Z-4.883
X-87.514 Y-231.711 Z-4.821
X-87.549 Y-231.676 Z-4.75
X-87.575 Y-231.65 Z-4.671
X-87.591 Y-231.634 Z-4.587
X-87.596 Y-231.628 Z-4.5
G0 Z5
X-88.306 Y-232.333
G1 Z0 F333.3
Z-9.5
X-88.301 Y-232.338 Z-9.587 F1000
X-88.285 Y-232.354 Z-9.671
X-88.259 Y-232.38 Z-9.75
X-88.223 Y-232.416 Z-9.821
X-88.18 Y-232.459 Z-9.883
X-88.13 Y-232.51 Z-9.933
X-88.074 Y-232.566 Z-9.97
X-88.015 Y-232.626 Z-9.992
X-87.954 Y-232.688 Z-10
X-87.602 Y-233.043
G3 X-86.895 Y-233.045 I0.355 J0.352
G2 X-79.5 Y-230 I7.395 J-7.455
G1 X-75.5
G3 X-70 Y-224.5 I0 J5.5
G1 Y-175.5
G3 X-75.5 Y-170 I-5.5 J0
G1 X-84.5
G2 X-95 Y-159.5 I0 J10.5
G1 Y159.5
G2 X-84.5 Y170 I10.5 J0
G1 X-75.5
G3 X-70 Y175.5 I0 J5.5
G1 Y224.5
G3 X-75.5 Y230 I-5.5 J0
G1 X-79.5
G2 X-90 Y240.5 I0 J10.5
G1 Y265.084
G3 X-91.719 Y269.078 I-5.5 J0
G2 X-95 Y276.703 I7.219 J7.625
G1 Y284.5
G3 X-100.5 Y290 I-5.5 J0
G1 X-134.5
G3 X-140 Y284.5 I0 J-5.5
G1 Y276.703
G2 X-143.281 Y269.078 I-10.5 J-0.001
G3 X-145 Y265.084 I3.781 J-3.994
G1 Y240.5
G2 X-155.5 Y230 I-10.5 J0
G1 X-159.5
G3 X-165 Y224.5 I0 J-5.5
G1 Y175.5
G3 X-159.5 Y170 I5.5 J0
G1 X-150.5
G2 X-140 Y159.5 I0 J-10.5
G1 Y-159.5
G2 X-150.5 Y-170 I-10.5 J0
G1 X-159.5
G3 X-165 Y-175.5 I0 J-5.5
G1 Y-224.5
G3 X-159.5 Y-230 I5.5 J0
G1 X-155.5
G2 X-145 Y-240.5 I0 J-10.5
G1 Y-265.084
G3 X-143.281 Y-269.078 I5.5 J0
G2 X-140 Y-276.703 I-7.219 J-7.625
G1 Y-284.5
G3 X-134.5 Y-290 I5.5 J0
G1 X-100.5
G3 X-95 Y-284.5 I0 J5.5
G1 Y-276.703
G2 X-91.719 Y-269.078 I10.5 J0.001
G3 X-90 Y-265.084 I-3.781 J3.994
G1 Y-240.5
G2 X-86.895 Y-233.045 I10.5 J0
G3 X-86.892 Y-232.338 I-0.352 J0.355
G1 X-87.244 Y-231.983
X-87.305 Y-231.922 Z-9.992
X-87.364 Y-231.862 Z-9.97
X-87.42 Y-231.806 Z-9.933
X-87.47 Y-231.755 Z-9.883
X-87.514 Y-231.711 Z-9.821
X-87.549 Y-231.676 Z-9.75
X-87.575 Y-231.65 Z-9.671
X-87.591 Y-231.634 Z-9.587
X-87.596 Y-231.628 Z-9.5
G0 Z5
X-88.306 Y-232.333
G1 Z-5 F333.3
Z-14.5
X-88.301 Y-232.338 Z-14.587 F1000
X-88.285 Y-232.354 Z-14.671
X-88.259 Y-232.38 Z-14.75
X-88.223 Y-232.416 Z-14.821
X-88.18 Y-232.459 Z-14.883
X-88.13 Y-232.51 Z-14.933
X-88.074 Y-232.566 Z-14.97
X-88.015 Y-232.626 Z-14.992
X-87.954 Y-232.688 Z-15
X-87.602 Y-233.043
G3 X-86.895 Y-233.045 I0.355 J0.352
G2 X-79.5 Y-230 I7.395 J-7.455
G1 X-75.5
G3 X-70 Y-224.5 I0 J5.5
G1 Y-175.5
G3 X-75.5 Y-170 I-5.5 J0
G1 X-84.5
G2 X-95 Y-159.5 I0 J10.5
G1 Y159.5
G2 X-84.5 Y170 I10.5 J0
G1 X-75.5
G3 X-70 Y175.5 I0 J5.5
G1 Y224.5
G3 X-75.5 Y230 I-5.5 J0
G1 X-79.5
G2 X-90 Y240.5 I0 J10.5
G1 Y265.084
G3 X-91.719 Y269.078 I-5.5 J0
G2 X-95 Y276.703 I7.219 J7.625
G1 Y284.5
G3 X-100.5 Y290 I-5.5 J0
G1 X-134.5
G3 X-140 Y284.5 I0 J-5.5
G1 Y276.703
G2 X-143.281 Y269.078 I-10.5 J-0.001
G3 X-145 Y265.084 I3.781 J-3.994
G1 Y240.5
G2 X-155.5 Y230 I-10.5 J0
G1 X-159.5
G3 X-165 Y224.5 I0 J-5.5
G1 Y175.5
G3 X-159.5 Y170 I5.5 J0
G1 X-150.5
G2 X-140 Y159.5 I0 J-10.5
G1 Y-159.5
G2 X-150.5 Y-170 I-10.5 J0
G1 X-159.5
G3 X-165 Y-175.5 I0 J-5.5
G1 Y-224.5
G3 X-159.5 Y-230 I5.5 J0
G1 X-155.5
G2 X-145 Y-240.5 I0 J-10.5
G1 Y-265.084
G3 X-143.281 Y-269.078 I5.5 J0
G2 X-140 Y-276.703 I-7.219 J-7.625
G1 Y-284.5
G3 X-134.5 Y-290 I5.5 J0
G1 X-100.5
G3 X-95 Y-284.5 I0 J5.5
G1 Y-276.703
G2 X-91.719 Y-269.078 I10.5 J0.001
G3 X-90 Y-265.084 I-3.781 J3.994
G1 Y-240.5
G2 X-86.895 Y-233.045 I10.5 J0
G3 X-86.892 Y-232.338 I-0.352 J0.355
G1 X-87.244 Y-231.983
X-87.305 Y-231.922 Z-14.992
X-87.364 Y-231.862 Z-14.97
X-87.42 Y-231.806 Z-14.933
X-87.47 Y-231.755 Z-14.883
X-87.514 Y-231.711 Z-14.821
X-87.549 Y-231.676 Z-14.75
X-87.575 Y-231.65 Z-14.671
X-87.591 Y-231.634 Z-14.587
X-87.596 Y-231.628 Z-14.5
G0 Z5
X-88.306 Y-232.333
G1 Z-10 F333.3
Z-18.5
X-88.301 Y-232.338 Z-18.587 F1000
X-88.285 Y-232.354 Z-18.671
X-88.259 Y-232.38 Z-18.75
X-88.223 Y-232.416 Z-18.821
X-88.18 Y-232.459 Z-18.883
X-88.13 Y-232.51 Z-18.933
X-88.074 Y-232.566 Z-18.97
X-88.015 Y-232.626 Z-18.992
X-87.954 Y-232.688 Z-19
X-87.602 Y-233.043
G3 X-86.895 Y-233.045 I0.355 J0.352
G2 X-79.5 Y-230 I7.395 J-7.455
G1 X-75.5
G3 X-70 Y-224.5 I0 J5.5
G1 Y-175.5
G3 X-75.5 Y-170 I-5.5 J0
G1 X-84.5
G2 X-95 Y-159.5 I0 J10.5
G1 Y159.5
G2 X-84.5 Y170 I10.5 J0
G1 X-75.5
G3 X-70 Y175.5 I0 J5.5
G1 Y224.5
G3 X-75.5 Y230 I-5.5 J0
G1 X-79.5
G2 X-90 Y240.5 I0 J10.5
G1 Y265.084
G3 X-91.719 Y269.078 I-5.5 J0
G2 X-95 Y276.703 I7.219 J7.625
G1 Y284.5
G3 X-100.5 Y290 I-5.5 J0
G1 X-134.5
G3 X-140 Y284.5 I0 J-5.5
G1 Y276.703
G2 X-143.281 Y269.078 I-10.5 J-0.001
G3 X-145 Y265.084 I3.781 J-3.994
G1 Y240.5
G2 X-155.5 Y230 I-10.5 J0
G1 X-159.5
G3 X-165 Y224.5 I0 J-5.5
G1 Y175.5
G3 X-159.5 Y170 I5.5 J0
G1 X-150.5
G2 X-140 Y159.5 I0 J-10.5
G1 Y-159.5
G2 X-150.5 Y-170 I-10.5 J0
G1 X-159.5
G3 X-165 Y-175.5 I0 J-5.5
G1 Y-224.5
G3 X-159.5 Y-230 I5.5 J0
G1 X-155.5
G2 X-145 Y-240.5 I0 J-10.5
G1 Y-265.084
G3 X-143.281 Y-269.078 I5.5 J0
G2 X-140 Y-276.703 I-7.219 J-7.625
G1 Y-284.5
G3 X-134.5 Y-290 I5.5 J0
G1 X-100.5
G3 X-95 Y-284.5 I0 J5.5
G1 Y-276.703
G2 X-91.719 Y-269.078 I10.5 J0.001
G3 X-90 Y-265.084 I-3.781 J3.994
G1 Y-240.5
G2 X-86.895 Y-233.045 I10.5 J0
G3 X-86.892 Y-232.338 I-0.352 J0.355
G1 X-87.244 Y-231.983
X-87.305 Y-231.922 Z-18.992
X-87.364 Y-231.862 Z-18.97
X-87.42 Y-231.806 Z-18.933
X-87.47 Y-231.755 Z-18.883
X-87.514 Y-231.711 Z-18.821
X-87.549 Y-231.676 Z-18.75
X-87.575 Y-231.65 Z-18.671
X-87.591 Y-231.634 Z-18.587
X-87.596 Y-231.628 Z-18.5
G0 Z5
X146.694 Y-232.333
G1 Z-4.5 F333.3
X146.699 Y-232.338 Z-4.587 F1000
X146.715 Y-232.354 Z-4.671
X146.741 Y-232.38 Z-4.75
X146.777 Y-232.416 Z-4.821
X146.82 Y-232.459 Z-4.883
X146.87 Y-232.51 Z-4.933
X146.926 Y-232.566 Z-4.97
X146.985 Y-232.626 Z-4.992
X147.046 Y-232.688 Z-5
X147.398 Y-233.043
G3 X148.105 Y-233.045 I0.355 J0.352
G2 X155.5 Y-230 I7.395 J-7.455
G1 X159.5
G3 X165 Y-224.5 I0 J5.5
G1 Y-175.5
G3 X159.5 Y-170 I-5.5 J0
G1 X150.5
G2 X140 Y-159.5 I0 J10.5
G1 Y159.5
G2 X150.5 Y170 I10.5 J0
G1 X159.5
G3 X165 Y175.5 I0 J5.5
G1 Y224.5
G3 X159.5 Y230 I-5.5 J0
G1 X155.5
G2 X145 Y240.5 I0 J10.5
G1 Y265.084
G3 X143.281 Y269.078 I-5.5 J0
G2 X140 Y276.703 I7.219 J7.625
G1 Y284.5
G3 X134.5 Y290 I-5.5 J0
G1 X100.5
G3 X95 Y284.5 I0 J-5.5
G1 Y276.703
G2 X91.719 Y269.078 I-10.5 J-0.001
G3 X90 Y265.084 I3.781 J-3.994
G1 Y240.5
G2 X79.5 Y230 I-10.5 J0
G1 X75.5
G3 X70 Y224.5 I0 J-5.5
G1 Y175.5
G3 X75.5 Y170 I5.5 J0
G1 X84.5
G2 X95 Y159.5 I0 J-10.5
G1 Y-159.5
G2 X84.5 Y-170 I-10.5 J0
G1 X75.5
G3 X70 Y-175.5 I0 J-5.5
G1 Y-224.5
G3 X75.5 Y-230 I5.5 J0
G1 X79.5
G2 X90 Y-240.5 I0 J-10.5
G1 Y-265.084
G3 X91.719 Y-269.078 I5.5 J0
G2 X95 Y-276.703 I-7.219 J-7.625
G1 Y-284.5
G3 X100.5 Y-290 I5.5 J0
G1 X134.5
G3 X140 Y-284.5 I0 J5.5
G1 Y-276.703
G2 X143.281 Y-269.078 I10.5 J0.001
G3 X145 Y-265.084 I-3.781 J3.994
G1 Y-240.5
G2 X148.105 Y-233.045 I10.5 J0
G3 X148.108 Y-232.338 I-0.352 J0.355
G1 X147.756 Y-231.983
X147.695 Y-231.922 Z-4.992
X147.636 Y-231.862 Z-4.97
X147.58 Y-231.806 Z-4.933
X147.53 Y-231.755 Z-4.883
X147.486 Y-231.711 Z-4.821
X147.451 Y-231.676 Z-4.75
X147.425 Y-231.65 Z-4.671
X147.409 Y-231.634 Z-4.587
X147.404 Y-231.628 Z-4.5
G0 Z5
X146.694 Y-232.333
G1 Z0 F333.3
Z-9.5
X146.699 Y-232.338 Z-9.587 F1000
X146.715 Y-232.354 Z-9.671
X146.741 Y-232.38 Z-9.75
X146.777 Y-232.416 Z-9.821
X146.82 Y-232.459 Z-9.883
X146.87 Y-232.51 Z-9.933
X146.926 Y-232.566 Z-9.97
X146.985 Y-232.626 Z-9.992
X147.046 Y-232.688 Z-10
X147.398 Y-233.043
G3 X148.105 Y-233.045 I0.355 J0.352
G2 X155.5 Y-230 I7.395 J-7.455
G1 X159.5
G3 X165 Y-224.5 I0 J5.5
G1 Y-175.5
G3 X159.5 Y-170 I-5.5 J0
G1 X150.5
G2 X140 Y-159.5 I0 J10.5
G1 Y159.5
G2 X150.5 Y170 I10.5 J0
G1 X159.5
G3 X165 Y175.5 I0 J5.5
G1 Y224.5
G3 X159.5 Y230 I-5.5 J0
G1 X155.5
G2 X145 Y240.5 I0 J10.5
G1 Y265.084
G3 X143.281 Y269.078 I-5.5 J0
G2 X140 Y276.703 I7.219 J7.625
G1 Y284.5
G3 X134.5 Y290 I-5.5 J0
G1 X100.5
G3 X95 Y284.5 I0 J-5.5
G1 Y276.703
G2 X91.719 Y269.078 I-10.5 J-0.001
G3 X90 Y265.084 I3.781 J-3.994
G1 Y240.5
G2 X79.5 Y230 I-10.5 J0
G1 X75.5
G3 X70 Y224.5 I0 J-5.5
G1 Y175.5
G3 X75.5 Y170 I5.5 J0
G1 X84.5
G2 X95 Y159.5 I0 J-10.5
G1 Y-159.5
G2 X84.5 Y-170 I-10.5 J0
G1 X75.5
G3 X70 Y-175.5 I0 J-5.5
G1 Y-224.5
G3 X75.5 Y-230 I5.5 J0
G1 X79.5
G2 X90 Y-240.5 I0 J-10.5
G1 Y-265.084
G3 X91.719 Y-269.078 I5.5 J0
G2 X95 Y-276.703 I-7.219 J-7.625
G1 Y-284.5
G3 X100.5 Y-290 I5.5 J0
G1 X134.5
G3 X140 Y-284.5 I0 J5.5
G1 Y-276.703
G2 X143.281 Y-269.078 I10.5 J0.001
G3 X145 Y-265.084 I-3.781 J3.994
G1 Y-240.5
G2 X148.105 Y-233.045 I10.5 J0
G3 X148.108 Y-232.338 I-0.352 J0.355
G1 X147.756 Y-231.983
X147.695 Y-231.922 Z-9.992
X147.636 Y-231.862 Z-9.97
X147.58 Y-231.806 Z-9.933
X147.53 Y-231.755 Z-9.883
X147.486 Y-231.711 Z-9.821
X147.451 Y-231.676 Z-9.75
X147.425 Y-231.65 Z-9.671
X147.409 Y-231.634 Z-9.587
X147.404 Y-231.628 Z-9.5
G0 Z5
X146.694 Y-232.333
G1 Z-5 F333.3
Z-14.5
X146.699 Y-232.338 Z-14.587 F1000
X146.715 Y-232.354 Z-14.671
X146.741 Y-232.38 Z-14.75
X146.777 Y-232.416 Z-14.821
X146.82 Y-232.459 Z-14.883
X146.87 Y-232.51 Z-14.933
X146.926 Y-232.566 Z-14.97
X146.985 Y-232.626 Z-14.992
X147.046 Y-232.688 Z-15
X147.398 Y-233.043
G3 X148.105 Y-233.045 I0.355 J0.352
G2 X155.5 Y-230 I7.395 J-7.455
G1 X159.5
G3 X165 Y-224.5 I0 J5.5
G1 Y-175.5
G3 X159.5 Y-170 I-5.5 J0
G1 X150.5
G2 X140 Y-159.5 I0 J10.5
G1 Y159.5
G2 X150.5 Y170 I10.5 J0
G1 X159.5
G3 X165 Y175.5 I0 J5.5
G1 Y224.5
G3 X159.5 Y230 I-5.5 J0
G1 X155.5
G2 X145 Y240.5 I0 J10.5
G1 Y265.084
G3 X143.281 Y269.078 I-5.5 J0
G2 X140 Y276.703 I7.219 J7.625
G1 Y284.5
G3 X134.5 Y290 I-5.5 J0
G1 X100.5
G3 X95 Y284.5 I0 J-5.5
G1 Y276.703
G2 X91.719 Y269.078 I-10.5 J-0.001
G3 X90 Y265.084 I3.781 J-3.994
G1 Y240.5
G2 X79.5 Y230 I-10.5 J0
G1 X75.5
G3 X70 Y224.5 I0 J-5.5
G1 Y175.5
G3 X75.5 Y170 I5.5 J0
G1 X84.5
G2 X95 Y159.5 I0 J-10.5
G1 Y-159.5
G2 X84.5 Y-170 I-10.5 J0
G1 X75.5
G3 X70 Y-175.5 I0 J-5.5
G1 Y-224.5
G3 X75.5 Y-230 I5.5 J0
G1 X79.5
G2 X90 Y-240.5 I0 J-10.5
G1 Y-265.084
G3 X91.719 Y-269.078 I5.5 J0
G2 X95 Y-276.703 I-7.219 J-7.625
G1 Y-284.5
G3 X100.5 Y-290 I5.5 J0
G1 X134.5
G3 X140 Y-284.5 I0 J5.5
G1 Y-276.703
G2 X143.281 Y-269.078 I10.5 J0.001
G3 X145 Y-265.084 I-3.781 J3.994
G1 Y-240.5
G2 X148.105 Y-233.045 I10.5 J0
G3 X148.108 Y-232.338 I-0.352 J0.355
G1 X147.756 Y-231.983
X147.695 Y-231.922 Z-14.992
X147.636 Y-231.862 Z-14.97
X147.58 Y-231.806 Z-14.933
X147.53 Y-231.755 Z-14.883
X147.486 Y-231.711 Z-14.821
X147.451 Y-231.676 Z-14.75
X147.425 Y-231.65 Z-14.671
X147.409 Y-231.634 Z-14.587
X147.404 Y-231.628 Z-14.5
G0 Z5
X146.694 Y-232.333
G1 Z-10 F333.3
Z-18.5
X146.699 Y-232.338 Z-18.587 F1000
X146.715 Y-232.354 Z-18.671
X146.741 Y-232.38 Z-18.75
X146.777 Y-232.416 Z-18.821
X146.82 Y-232.459 Z-18.883
X146.87 Y-232.51 Z-18.933
X146.926 Y-232.566 Z-18.97
X146.985 Y-232.626 Z-18.992
X147.046 Y-232.688 Z-19
X147.398 Y-233.043
G3 X148.105 Y-233.045 I0.355 J0.352
G2 X155.5 Y-230 I7.395 J-7.455
G1 X159.5
G3 X165 Y-224.5 I0 J5.5
G1 Y-175.5
G3 X159.5 Y-170 I-5.5 J0
G1 X150.5
G2 X140 Y-159.5 I0 J10.5
G1 Y159.5
G2 X150.5 Y170 I10.5 J0
G1 X159.5
G3 X165 Y175.5 I0 J5.5
G1 Y224.5
G3 X159.5 Y230 I-5.5 J0
G1 X155.5
G2 X145 Y240.5 I0 J10.5
G1 Y265.084
G3 X143.281 Y269.078 I-5.5 J0
G2 X140 Y276.703 I7.219 J7.625
G1 Y284.5
G3 X134.5 Y290 I-5.5 J0
G1 X100.5
G3 X95 Y284.5 I0 J-5.5
G1 Y276.703
G2 X91.719 Y269.078 I-10.5 J-0.001
G3 X90 Y265.084 I3.781 J-3.994
G1 Y240.5
G2 X79.5 Y230 I-10.5 J0
G1 X75.5
G3 X70 Y224.5 I0 J-5.5
G1 Y175.5
G3 X75.5 Y170 I5.5 J0
G1 X84.5
G2 X95 Y159.5 I0 J-10.5
G1 Y-159.5
G2 X84.5 Y-170 I-10.5 J0
G1 X75.5
G3 X70 Y-175.5 I0 J-5.5
G1 Y-224.5
G3 X75.5 Y-230 I5.5 J0
G1 X79.5
G2 X90 Y-240.5 I0 J-10.5
G1 Y-265.084
G3 X91.719 Y-269.078 I5.5 J0
G2 X95 Y-276.703 I-7.219 J-7.625
G1 Y-284.5
G3 X100.5 Y-290 I5.5 J0
G1 X134.5
G3 X140 Y-284.5 I0 J5.5
G1 Y-276.703
G2 X143.281 Y-269.078 I10.5 J0.001
G3 X145 Y-265.084 I-3.781 J3.994
G1 Y-240.5
G2 X148.105 Y-233.045 I10.5 J0
G3 X148.108 Y-232.338 I-0.352 J0.355
G1 X147.756 Y-231.983
X147.695 Y-231.922 Z-18.992
X147.636 Y-231.862 Z-18.97
X147.58 Y-231.806 Z-18.933
X147.53 Y-231.755 Z-18.883
X147.486 Y-231.711 Z-18.821
X147.451 Y-231.676 Z-18.75
X147.425 Y-231.65 Z-18.671
X147.409 Y-231.634 Z-18.587
X147.404 Y-231.628 Z-18.5
G0 Z15
M9
M5
M30
