(CamperVan_FensterrahmenHinten)
(T4 D=5 CR=0 - ZMIN=-5 - flat end mill)
G90 G94
G17
G21

(2D Contour2)
T4
S5000 M3
G54
M8
G0 X76.68 Y112.503
Z15
G0 Z5
G1 Z4 F333.3
Z-2.5
Y112.51 Z-2.587 F1000
X76.679 Y112.533 Z-2.671
X76.677 Y112.57 Z-2.75
X76.675 Y112.62 Z-2.821
X76.672 Y112.681 Z-2.883
X76.669 Y112.752 Z-2.933
X76.665 Y112.831 Z-2.97
X76.661 Y112.915 Z-2.992
X76.658 Y113.002 Z-3
X76.635 Y113.502
G3 X76.113 Y113.979 I-0.499 J-0.023
G1 X76 Y113.976
X46
G2 X43.5 Y116.476 I0 J2.5
G1 Y431.476
G2 X46 Y433.976 I2.5 J0
G1 X76
G2 X78.5 Y431.476 I0 J-2.5
G1 Y116.476
G2 X76.113 Y113.979 I-2.5 J0
G3 X75.636 Y113.456 I0.023 J-0.499
G1 X75.659 Y112.957
X75.662 Y112.87 Z-2.992
X75.666 Y112.786 Z-2.97
X75.67 Y112.707 Z-2.933
X75.673 Y112.636 Z-2.883
X75.676 Y112.574 Z-2.821
X75.678 Y112.524 Z-2.75
X75.68 Y112.488 Z-2.671
X75.681 Y112.465 Z-2.587
Y112.457 Z-2.5
G0 Z5
X76.68 Y112.503
G1 Z1 F333.3
Z-4.5
Y112.51 Z-4.587 F1000
X76.679 Y112.533 Z-4.671
X76.677 Y112.57 Z-4.75
X76.675 Y112.62 Z-4.821
X76.672 Y112.681 Z-4.883
X76.669 Y112.752 Z-4.933
X76.665 Y112.831 Z-4.97
X76.661 Y112.915 Z-4.992
X76.658 Y113.002 Z-5
X76.635 Y113.502
G3 X76.113 Y113.979 I-0.499 J-0.023
G1 X76 Y113.976
X46
G2 X43.5 Y116.476 I0 J2.5
G1 Y431.476
G2 X46 Y433.976 I2.5 J0
G1 X76
G2 X78.5 Y431.476 I0 J-2.5
G1 Y116.476
G2 X76.113 Y113.979 I-2.5 J0
G3 X75.636 Y113.456 I0.023 J-0.499
G1 X75.659 Y112.957
X75.662 Y112.87 Z-4.992
X75.666 Y112.786 Z-4.97
X75.67 Y112.707 Z-4.933
X75.673 Y112.636 Z-4.883
X75.676 Y112.574 Z-4.821
X75.678 Y112.524 Z-4.75
X75.68 Y112.488 Z-4.671
X75.681 Y112.465 Z-4.587
Y112.457 Z-4.5
G0 Z5
X96.319
G1 Z4 F333.3
Z-2.5
Y112.465 Z-2.587 F1000
X96.32 Y112.488 Z-2.671
X96.322 Y112.524 Z-2.75
X96.324 Y112.574 Z-2.821
X96.327 Y112.636 Z-2.883
X96.33 Y112.707 Z-2.933
X96.334 Y112.786 Z-2.97
X96.338 Y112.87 Z-2.992
X96.341 Y112.957 Z-3
X96.364 Y113.456
G3 X95.887 Y113.979 I-0.499 J0.023
G2 X93.5 Y116.476 I0.113 J2.497
G1 Y431.476
G2 X96 Y433.976 I2.5 J0
G1 X126
G2 X128.5 Y431.476 I0 J-2.5
G1 Y116.476
G2 X126 Y113.976 I-2.5 J0
G1 X96
X95.887 Y113.979
G3 X95.365 Y113.502 I-0.023 J-0.499
G1 X95.342 Y113.002
X95.339 Y112.915 Z-2.992
X95.335 Y112.831 Z-2.97
X95.331 Y112.752 Z-2.933
X95.328 Y112.681 Z-2.883
X95.325 Y112.62 Z-2.821
X95.323 Y112.57 Z-2.75
X95.321 Y112.533 Z-2.671
X95.32 Y112.51 Z-2.587
Y112.503 Z-2.5
G0 Z5
X96.319 Y112.457
G1 Z1 F333.3
Z-4.5
Y112.465 Z-4.587 F1000
X96.32 Y112.488 Z-4.671
X96.322 Y112.524 Z-4.75
X96.324 Y112.574 Z-4.821
X96.327 Y112.636 Z-4.883
X96.33 Y112.707 Z-4.933
X96.334 Y112.786 Z-4.97
X96.338 Y112.87 Z-4.992
X96.341 Y112.957 Z-5
X96.364 Y113.456
G3 X95.887 Y113.979 I-0.499 J0.023
G2 X93.5 Y116.476 I0.113 J2.497
G1 Y431.476
G2 X96 Y433.976 I2.5 J0
G1 X126
G2 X128.5 Y431.476 I0 J-2.5
G1 Y116.476
G2 X126 Y113.976 I-2.5 J0
G1 X96
X95.887 Y113.979
G3 X95.365 Y113.502 I-0.023 J-0.499
G1 X95.342 Y113.002
X95.339 Y112.915 Z-4.992
X95.335 Y112.831 Z-4.97
X95.331 Y112.752 Z-4.933
X95.328 Y112.681 Z-4.883
X95.325 Y112.62 Z-4.821
X95.323 Y112.57 Z-4.75
X95.321 Y112.533 Z-4.671
X95.32 Y112.51 Z-4.587
Y112.503 Z-4.5
G0 Z15

(2D Contour3)
G0 X134.979 Y554.5
Z15
Z5
G1 Z4 F333.3
Z-2.5
G18 G3 X134.479 Z-3 I-0.5 K0 F1000
G1 X133.979
G17 G3 X133.479 Y554 I0 J-0.5
G1 Y524
G2 X130.979 Y521.5 I-2.5 J0
G1 X103
G3 X33.5 Y452 I0 J-69.5
G1 Y103
G3 X103 Y33.5 I69.5 J0
G1 X130.979
G2 X133.479 Y31 I0 J-2.5
G1 Y1
G2 X130.979 Y-1.5 I-2.5 J0
G1 X103
G2 X-1.5 Y103 I0 J104.5
G1 Y452
G2 X103 Y556.5 I104.5 J0
G1 X130.979
G2 X133.479 Y554 I0 J-2.5
G3 X133.979 Y553.5 I0.5 J0
G1 X134.479
G18 G2 X134.979 Z-2.5 I0 K0.5
G0 Z5
Y554.5
G1 Z1 F333.3
Z-4.5
G3 X134.479 Z-5 I-0.5 K0 F1000
G1 X133.979
G17 G3 X133.479 Y554 I0 J-0.5
G1 Y524
G2 X130.979 Y521.5 I-2.5 J0
G1 X103
G3 X33.5 Y452 I0 J-69.5
G1 Y103
G3 X103 Y33.5 I69.5 J0
G1 X130.979
G2 X133.479 Y31 I0 J-2.5
G1 Y1
G2 X130.979 Y-1.5 I-2.5 J0
G1 X103
G2 X-1.5 Y103 I0 J104.5
G1 Y452
G2 X103 Y556.5 I104.5 J0
G1 X130.979
G2 X133.479 Y554 I0 J-2.5
G3 X133.979 Y553.5 I0.5 J0
G1 X134.479
G18 G2 X134.979 Z-4.5 I0 K0.5
G0 Z15
G17
M9
M5
M30
