(CamperSchubladeKuechenzeileWaende)
(T1  D=5 CR=0 - ZMIN=-12.5 - flat end mill)
G90 G94
G17
G21
G28 G91 Z0
G90

(2D Pocket1)
T1
S5000 M3
G54
M8
G0 X539.555 Y114.986
Z15
Z5
G1 Z1 F333.3
Z-6.25 F1000
Y114.966
Y-1.223
Y-1.242
G0 Z5
X536.655 Y116.169
G1 Z1 F333.3
Z-6.25 F1000
Y116.149
Y-2.391
Y-2.411
G0 Z5
X533.752 Y116.186
G1 Z1 F333.3
Z-6.25 F1000
X533.75 Y116.147
Y0
Y-2.395
G0 Z15
X548.105 Y274.986
Z5
G1 Z1 F333.3
Z-6.25 F1000
Y274.966
Y158.777
Y158.758
G0 Z5
X545.205 Y276.169
G1 Z1 F333.3
Z-6.25 F1000
Y276.149
Y157.609
Y157.589
G0 Z5
X542.302 Y276.186
G1 Z1 F333.3
Z-6.25 F1000
X542.3 Y276.147
Y160
Y157.605
G0 Z15
X488.105 Y649.986
Z5
G1 Z1 F333.3
Z-6.25 F1000
Y649.967
Y473.785
Y473.766
G0 Z5
X485.205 Y651.169
G1 Z1 F333.3
Z-6.25 F1000
Y651.149
Y472.606
Y472.586
G0 Z5
X482.302 Y651.186
G1 Z1 F333.3
Z-6.25 F1000
X482.3 Y651.147
Y475
Y472.605
G0 Z15
X544.555 Y449.986
Z5
G1 Z1 F333.3
Z-6.25 F1000
Y449.966
Y333.777
Y333.758
G0 Z5
X541.655 Y451.169
G1 Z1 F333.3
Z-6.25 F1000
Y451.149
Y332.609
Y332.589
G0 Z5
X538.752 Y451.186
G1 Z1 F333.3
Z-6.25 F1000
X538.75 Y451.147
Y335
Y332.605
G0 Z15
X49.395 Y473.764
Z5
G1 Z1 F333.3
Z-6.25 F1000
Y473.783
Y649.965
Y649.984
G0 Z5
X52.295 Y472.581
G1 Z1 F333.3
Z-6.25 F1000
Y472.601
Y651.144
Y651.164
G0 Z5
X55.198 Y472.564
G1 Z1 F333.3
Z-6.25 F1000
X55.2 Y472.603
Y648.75
Y651.145
G0 Z15
X2.945 Y273.764
Z5
G1 Z1 F333.3
Z-6.25 F1000
Y273.784
Y449.965
Y449.984
G0 Z5
X5.845 Y272.581
G1 Z1 F333.3
Z-6.25 F1000
Y272.601
Y451.144
Y451.164
G0 Z5
X8.748 Y272.564
G1 Z1 F333.3
Z-6.25 F1000
X8.75 Y272.603
Y448.75
Y451.145
G0 Z15
X109.395 Y158.764
Z5
G1 Z1 F333.3
Z-6.25 F1000
Y158.784
Y274.973
Y274.992
G0 Z5
X112.295 Y157.581
G1 Z1 F333.3
Z-6.25 F1000
Y157.601
Y276.142
Y276.161
G0 Z5
X115.198 Y157.564
G1 Z1 F333.3
Z-6.25 F1000
X115.2 Y157.603
Y273.75
Y276.145
G0 Z15
X-2.055 Y-1.236
Z5
G1 Z1 F333.3
Z-6.25 F1000
Y-1.217
Y174.965
Y174.984
G0 Z5
X0.845 Y-2.419
G1 Z1 F333.3
Z-6.25 F1000
Y-2.399
Y176.144
Y176.164
G0 Z5
X3.748 Y-2.436
G1 Z1 F333.3
Z-6.25 F1000
X3.75 Y-2.397
Y173.75
Y176.145
G0 Z15

(2D Contour1)
X59.509 Y272.002
Z15
Z5
G1 Z-4.5 F333.3
X59.517 Z-4.587 F1000
X59.539 Z-4.671
X59.576 Y272.003 Z-4.75
X59.626 Y272.004 Z-4.821
X59.688 Y272.005 Z-4.883
X59.759 Y272.006 Z-4.933
X59.838 Y272.007 Z-4.97
X59.922 Y272.008 Z-4.992
X60.009 Y272.009 Z-5
X60.509 Y272.017
G3 X60.002 Y272.509 I-0.5 J-0.007
G1 X59.983
X58.769 Y272.5
X58.75
X5
G2 X2.5 Y275 I0 J2.5
G1 Y448.75
G2 X5 Y451.25 I2.5 J0
G1 X542.5
G2 X545 Y448.75 I0 J-2.5
G1 Y335
G2 X542.5 Y332.5 I-2.5 J0
G1 X184.176
X182.99 Y332.491
X181.825 Y332.464
X180.67 Y332.419
X179.523 Y332.356
X178.389 Y332.275
X177.262 Y332.175
X176.144 Y332.06
X175.039 Y331.926
X173.941 Y331.773
X172.852 Y331.605
X171.773 Y331.419
X170.702 Y331.216
X169.642 Y330.996
X168.589 Y330.759
X167.545 Y330.507
X166.509 Y330.236
X165.482 Y329.951
X164.463 Y329.649
X163.45 Y329.331
X162.446 Y328.998
X161.449 Y328.649
X160.46 Y328.285
X159.478 Y327.906
X158.502 Y327.513
X157.533 Y327.105
X156.571 Y326.683
X155.616 Y326.247
X154.665 Y325.796
X153.721 Y325.333
X152.784 Y324.857
X151.853 Y324.368
X150.925 Y323.865
X150.004 Y323.351
X149.087 Y322.824
X148.176 Y322.286
X147.27 Y321.736
X146.368 Y321.175
X145.47 Y320.603
X144.578 Y320.02
X143.688 Y319.428
X142.803 Y318.825
X141.925 Y318.217
X140.168 Y316.964
X138.428 Y315.679
X136.699 Y314.364
X134.979 Y313.02
X133.268 Y311.653
X131.563 Y310.264
X129.864 Y308.855
X128.167 Y307.432
X126.474 Y305.997
X123.082 Y303.099
X119.687 Y300.198
X119.679 Y300.192
X117.977 Y298.75
X117.968 Y298.742
X116.261 Y297.31
X116.249 Y297.3
X114.536 Y295.88
X114.52 Y295.867
X112.798 Y294.464
X112.78 Y294.449
X111.048 Y293.065
X111.026 Y293.048
X109.283 Y291.686
X109.258 Y291.666
X107.502 Y290.33
X107.473 Y290.308
X105.702 Y289.001
X105.669 Y288.978
X103.882 Y287.703
X103.854 Y287.684
X102.954 Y287.06
X102.937 Y287.047
X102.032 Y286.431
X102.011 Y286.417
X101.101 Y285.811
X101.08 Y285.797
X100.165 Y285.201
X100.144 Y285.187
X99.224 Y284.601
X99.202 Y284.588
X98.276 Y284.012
X98.252 Y283.997
X97.321 Y283.432
X97.295 Y283.416
X96.359 Y282.863
X96.334 Y282.849
X95.391 Y282.307
X95.363 Y282.29
X94.414 Y281.762
X94.389 Y281.747
X93.434 Y281.229
X93.404 Y281.214
X92.443 Y280.709
X92.413 Y280.693
X91.445 Y280.201
X91.413 Y280.185
X90.438 Y279.707
X90.41 Y279.694
X89.428 Y279.228
X89.393 Y279.211
X88.405 Y278.76
X88.372 Y278.746
X87.376 Y278.309
X87.34 Y278.294
X86.337 Y277.872
X86.303 Y277.858
X85.292 Y277.45
X85.257 Y277.436
X84.238 Y277.043
X84.2 Y277.028
X83.174 Y276.651
X83.137 Y276.638
X82.103 Y276.276
X82.065 Y276.263
X81.022 Y275.917
X80.984 Y275.905
X79.933 Y275.575
X79.895 Y275.563
X78.836 Y275.249
X78.793 Y275.237
X77.725 Y274.941
X77.689 Y274.931
X76.613 Y274.65
X76.57 Y274.639
X75.485 Y274.376
X75.445 Y274.367
X74.351 Y274.121
X74.309 Y274.112
X73.206 Y273.884
X73.166 Y273.876
X72.055 Y273.665
X72.013 Y273.657
X70.893 Y273.464
X70.851 Y273.457
X69.721 Y273.282
X69.682 Y273.277
X68.543 Y273.119
X68.5 Y273.113
X67.352 Y272.974
X67.309 Y272.969
X66.152 Y272.849
X66.114 Y272.846
X64.947 Y272.743
X64.905 Y272.739
X63.729 Y272.655
X63.687 Y272.653
X62.502 Y272.588
X62.463 Y272.586
X61.268 Y272.539
X61.227 Y272.538
X60.022 Y272.51
X60.002 Y272.509
X59.509 Y272.002
Z-9.5 F333.3
X59.517 Z-9.587 F1000
X59.539 Z-9.671
X59.576 Y272.003 Z-9.75
X59.626 Y272.004 Z-9.821
X59.688 Y272.005 Z-9.883
X59.759 Y272.006 Z-9.933
X59.838 Y272.007 Z-9.97
X59.922 Y272.008 Z-9.992
X60.009 Y272.009 Z-10
X60.509 Y272.017
G3 X60.002 Y272.509 I-0.5 J-0.007
G1 X59.983
X58.769 Y272.5
X58.75
X5
G2 X2.5 Y275 I0 J2.5
G1 Y448.75
G2 X5 Y451.25 I2.5 J0
G1 X542.5
G2 X545 Y448.75 I0 J-2.5
G1 Y335
G2 X542.5 Y332.5 I-2.5 J0
G1 X184.176
X182.99 Y332.491
X181.825 Y332.464
X180.67 Y332.419
X179.523 Y332.356
X178.389 Y332.275
X177.262 Y332.175
X176.144 Y332.06
X175.039 Y331.926
X173.941 Y331.773
X172.852 Y331.605
X171.773 Y331.419
X170.702 Y331.216
X169.642 Y330.996
X168.589 Y330.759
X167.545 Y330.507
X166.509 Y330.236
X165.482 Y329.951
X164.463 Y329.649
X163.45 Y329.331
X162.446 Y328.998
X161.449 Y328.649
X160.46 Y328.285
X159.478 Y327.906
X158.502 Y327.513
X157.533 Y327.105
X156.571 Y326.683
X155.616 Y326.247
X154.665 Y325.796
X153.721 Y325.333
X152.784 Y324.857
X151.853 Y324.368
X150.925 Y323.865
X150.004 Y323.351
X149.087 Y322.824
X148.176 Y322.286
X147.27 Y321.736
X146.368 Y321.175
X145.47 Y320.603
X144.578 Y320.02
X143.688 Y319.428
X142.803 Y318.825
X141.925 Y318.217
X140.168 Y316.964
X138.428 Y315.679
X136.699 Y314.364
X134.979 Y313.02
X133.268 Y311.653
X131.563 Y310.264
X129.864 Y308.855
X128.167 Y307.432
X126.474 Y305.997
X123.082 Y303.099
X119.687 Y300.198
X119.679 Y300.192
X117.977 Y298.75
X117.968 Y298.742
X116.261 Y297.31
X116.249 Y297.3
X114.536 Y295.88
X114.52 Y295.867
X112.798 Y294.464
X112.78 Y294.449
X111.048 Y293.065
X111.026 Y293.048
X109.283 Y291.686
X109.258 Y291.666
X107.502 Y290.33
X107.473 Y290.308
X105.702 Y289.001
X105.669 Y288.978
X103.882 Y287.703
X103.854 Y287.684
X102.954 Y287.06
X102.937 Y287.047
X102.032 Y286.431
X102.011 Y286.417
X101.101 Y285.811
X101.08 Y285.797
X100.165 Y285.201
X100.144 Y285.187
X99.224 Y284.601
X99.202 Y284.588
X98.276 Y284.012
X98.252 Y283.997
X97.321 Y283.432
X97.295 Y283.416
X96.359 Y282.863
X96.334 Y282.849
X95.391 Y282.307
X95.363 Y282.29
X94.414 Y281.762
X94.389 Y281.747
X93.434 Y281.229
X93.404 Y281.214
X92.443 Y280.709
X92.413 Y280.693
X91.445 Y280.201
X91.413 Y280.185
X90.438 Y279.707
X90.41 Y279.694
X89.428 Y279.228
X89.393 Y279.211
X88.405 Y278.76
X88.372 Y278.746
X87.376 Y278.309
X87.34 Y278.294
X86.337 Y277.872
X86.303 Y277.858
X85.292 Y277.45
X85.257 Y277.436
X84.238 Y277.043
X84.2 Y277.028
X83.174 Y276.651
X83.137 Y276.638
X82.103 Y276.276
X82.065 Y276.263
X81.022 Y275.917
X80.984 Y275.905
X79.933 Y275.575
X79.895 Y275.563
X78.836 Y275.249
X78.793 Y275.237
X77.725 Y274.941
X77.689 Y274.931
X76.613 Y274.65
X76.57 Y274.639
X75.485 Y274.376
X75.445 Y274.367
X74.351 Y274.121
X74.309 Y274.112
X73.206 Y273.884
X73.166 Y273.876
X72.055 Y273.665
X72.013 Y273.657
X70.893 Y273.464
X70.851 Y273.457
X69.721 Y273.282
X69.682 Y273.277
X68.543 Y273.119
X68.5 Y273.113
X67.352 Y272.974
X67.309 Y272.969
X66.152 Y272.849
X66.114 Y272.846
X64.947 Y272.743
X64.905 Y272.739
X63.729 Y272.655
X63.687 Y272.653
X62.502 Y272.588
X62.463 Y272.586
X61.268 Y272.539
X61.227 Y272.538
X60.022 Y272.51
X60.002 Y272.509
X59.509 Y272.002
Z-12 F333.3
X59.517 Z-12.087 F1000
X59.539 Z-12.171
X59.576 Y272.003 Z-12.25
X59.626 Y272.004 Z-12.321
X59.688 Y272.005 Z-12.383
X59.759 Y272.006 Z-12.433
X59.838 Y272.007 Z-12.47
X59.922 Y272.008 Z-12.492
X60.009 Y272.009 Z-12.5
X60.509 Y272.017
G3 X60.002 Y272.509 I-0.5 J-0.007
G1 X59.983
X58.769 Y272.5
X58.75
X5
G2 X2.5 Y275 I0 J2.5
G1 Y448.75
G2 X5 Y451.25 I2.5 J0
G1 X542.5
G2 X545 Y448.75 I0 J-2.5
G1 Y335
G2 X542.5 Y332.5 I-2.5 J0
G1 X184.176
X182.99 Y332.491
X181.825 Y332.464
X180.67 Y332.419
X179.523 Y332.356
X178.389 Y332.275
X177.262 Y332.175
X176.144 Y332.06
X175.039 Y331.926
X173.941 Y331.773
X172.852 Y331.605
X171.773 Y331.419
X170.702 Y331.216
X169.642 Y330.996
X168.589 Y330.759
X167.545 Y330.507
X166.509 Y330.236
X165.482 Y329.951
X164.463 Y329.649
X163.45 Y329.331
X162.446 Y328.998
X161.449 Y328.649
X160.46 Y328.285
X159.478 Y327.906
X158.502 Y327.513
X157.533 Y327.105
X156.571 Y326.683
X155.616 Y326.247
X154.665 Y325.796
X153.721 Y325.333
X152.784 Y324.857
X151.853 Y324.368
X150.925 Y323.865
X150.004 Y323.351
X149.087 Y322.824
X148.176 Y322.286
X147.27 Y321.736
X146.368 Y321.175
X145.47 Y320.603
X144.578 Y320.02
X143.688 Y319.428
X142.803 Y318.825
X141.925 Y318.217
X140.168 Y316.964
X138.428 Y315.679
X136.699 Y314.364
X134.979 Y313.02
X133.268 Y311.653
X131.563 Y310.264
X129.864 Y308.855
X128.167 Y307.432
X126.474 Y305.997
X123.082 Y303.099
X119.687 Y300.198
X119.679 Y300.192
X117.977 Y298.75
X117.968 Y298.742
X116.261 Y297.31
X116.249 Y297.3
X114.536 Y295.88
X114.52 Y295.867
X112.798 Y294.464
X112.78 Y294.449
X111.048 Y293.065
X111.026 Y293.048
X109.283 Y291.686
X109.258 Y291.666
X107.502 Y290.33
X107.473 Y290.308
X105.702 Y289.001
X105.669 Y288.978
X103.882 Y287.703
X103.854 Y287.684
X102.954 Y287.06
X102.937 Y287.047
X102.032 Y286.431
X102.011 Y286.417
X101.101 Y285.811
X101.08 Y285.797
X100.165 Y285.201
X100.144 Y285.187
X99.224 Y284.601
X99.202 Y284.588
X98.276 Y284.012
X98.252 Y283.997
X97.321 Y283.432
X97.295 Y283.416
X96.359 Y282.863
X96.334 Y282.849
X95.391 Y282.307
X95.363 Y282.29
X94.414 Y281.762
X94.389 Y281.747
X93.434 Y281.229
X93.404 Y281.214
X92.443 Y280.709
X92.413 Y280.693
X91.445 Y280.201
X91.413 Y280.185
X90.438 Y279.707
X90.41 Y279.694
X89.428 Y279.228
X89.393 Y279.211
X88.405 Y278.76
X88.372 Y278.746
X87.376 Y278.309
X87.34 Y278.294
X86.337 Y277.872
X86.303 Y277.858
X85.292 Y277.45
X85.257 Y277.436
X84.238 Y277.043
X84.2 Y277.028
X83.174 Y276.651
X83.137 Y276.638
X82.103 Y276.276
X82.065 Y276.263
X81.022 Y275.917
X80.984 Y275.905
X79.933 Y275.575
X79.895 Y275.563
X78.836 Y275.249
X78.793 Y275.237
X77.725 Y274.941
X77.689 Y274.931
X76.613 Y274.65
X76.57 Y274.639
X75.485 Y274.376
X75.445 Y274.367
X74.351 Y274.121
X74.309 Y274.112
X73.206 Y273.884
X73.166 Y273.876
X72.055 Y273.665
X72.013 Y273.657
X70.893 Y273.464
X70.851 Y273.457
X69.721 Y273.282
X69.682 Y273.277
X68.543 Y273.119
X68.5 Y273.113
X67.352 Y272.974
X67.309 Y272.969
X66.152 Y272.849
X66.114 Y272.846
X64.947 Y272.743
X64.905 Y272.739
X63.729 Y272.655
X63.687 Y272.653
X62.502 Y272.588
X62.463 Y272.586
X61.268 Y272.539
X61.227 Y272.538
X60.022 Y272.51
X60.002 Y272.509
G0 Z5
X108.45 Y224.786
G1 Z-4.5 F333.3
G19 G2 Y224.286 Z-5 J-0.5 K0 F1000
G1 Y223.786
G17 G3 X108.95 Y224.286 I0 J0.5
G1 Y273.75
G2 X111.45 Y276.25 I2.5 J0
G1 X546.05
G2 X548.55 Y273.75 I0 J-2.5
G1 Y160
G2 X546.05 Y157.5 I-2.5 J0
G1 X111.45
G2 X108.95 Y160 I0 J2.5
G1 Y224.286
G0 Z5
X58.609 Y176.602
G1 Z-4.5 F333.3
X58.601 Y176.603 Z-4.587 F1000
X58.579 Y176.604 Z-4.671
X58.542 Y176.606 Z-4.75
X58.492 Y176.609 Z-4.821
X58.43 Y176.612 Z-4.883
X58.359 Y176.616 Z-4.933
X58.28 Y176.62 Z-4.97
X58.196 Y176.625 Z-4.992
X58.109 Y176.63 Z-5
X57.61 Y176.657
G3 X58.082 Y176.13 I0.499 J-0.027
G1 X58.687 Y176.097
X58.729 Y176.095
X59.905 Y176.011
X59.947 Y176.007
X61.114 Y175.904
X61.152 Y175.901
X62.309 Y175.781
X62.352 Y175.776
X63.5 Y175.637
X63.543 Y175.631
X64.682 Y175.473
X64.721 Y175.468
X65.851 Y175.293
X65.893 Y175.286
X67.013 Y175.093
X67.055 Y175.085
X68.166 Y174.874
X68.206 Y174.866
X69.309 Y174.638
X69.351 Y174.629
X70.445 Y174.383
X70.485 Y174.374
X71.57 Y174.111
X71.613 Y174.1
X72.689 Y173.819
X72.725 Y173.809
X73.793 Y173.513
X73.836 Y173.501
X74.895 Y173.187
X74.933 Y173.175
X75.984 Y172.845
X76.022 Y172.833
X77.065 Y172.487
X77.103 Y172.474
X78.137 Y172.112
X78.174 Y172.099
X79.2 Y171.722
X79.238 Y171.707
X80.257 Y171.314
X80.292 Y171.3
X81.303 Y170.892
X81.337 Y170.878
X82.34 Y170.456
X82.376 Y170.441
X83.372 Y170.004
X83.405 Y169.99
X84.393 Y169.539
X84.428 Y169.522
X85.41 Y169.056
X85.438 Y169.043
X86.413 Y168.565
X86.445 Y168.549
X87.413 Y168.057
X87.443 Y168.041
X88.404 Y167.536
X88.434 Y167.52
X89.389 Y167.002
X89.414 Y166.988
X90.363 Y166.459
X90.391 Y166.443
X91.334 Y165.901
X91.359 Y165.887
X92.295 Y165.334
X92.321 Y165.318
X93.252 Y164.753
X93.276 Y164.738
X94.202 Y164.162
X94.224 Y164.149
X95.144 Y163.563
X95.165 Y163.549
X96.08 Y162.953
X96.101 Y162.939
X97.011 Y162.333
X97.032 Y162.319
X97.936 Y161.703
X97.954 Y161.691
X98.854 Y161.067
X98.882 Y161.047
X100.669 Y159.772
X100.702 Y159.749
X102.473 Y158.442
X102.502 Y158.42
X104.258 Y157.084
X104.283 Y157.064
X106.026 Y155.702
X106.048 Y155.685
X107.78 Y154.301
X107.798 Y154.286
X109.52 Y152.883
X109.536 Y152.87
X111.249 Y151.45
X111.261 Y151.44
X112.968 Y150.008
X112.977 Y150
X114.679 Y148.558
X114.687 Y148.552
X118.082 Y145.651
X121.474 Y142.753
X123.167 Y141.318
X124.864 Y139.895
X126.563 Y138.486
X128.268 Y137.097
X129.979 Y135.73
X131.699 Y134.386
X133.428 Y133.071
X135.168 Y131.786
X136.925 Y130.533
X137.803 Y129.925
X138.688 Y129.322
X139.578 Y128.73
X140.47 Y128.147
X141.368 Y127.575
X142.27 Y127.014
X143.176 Y126.464
X144.087 Y125.926
X145.004 Y125.399
X145.925 Y124.885
X146.853 Y124.382
X147.784 Y123.893
X148.721 Y123.417
X149.665 Y122.954
X150.616 Y122.503
X151.571 Y122.067
X152.533 Y121.645
X153.502 Y121.237
X154.478 Y120.844
X155.46 Y120.465
X156.449 Y120.101
X157.446 Y119.752
X158.45 Y119.419
X159.463 Y119.101
X160.482 Y118.799
X161.509 Y118.514
X162.545 Y118.243
X163.589 Y117.991
X164.642 Y117.754
X165.702 Y117.534
X166.773 Y117.331
X167.852 Y117.145
X168.941 Y116.977
X170.039 Y116.824
X171.144 Y116.69
X172.262 Y116.575
X173.389 Y116.475
X174.523 Y116.394
X175.67 Y116.331
X176.825 Y116.286
X177.99 Y116.259
X179.176 Y116.25
X537.5
G2 X540 Y113.75 I0 J-2.5
G1 Y0
G2 X537.5 Y-2.5 I-2.5 J0
G1 X0
G2 X-2.5 Y0 I0 J2.5
G1 Y173.75
G2 X0 Y176.25 I2.5 J0
G1 X53.75
X53.769
X54.983 Y176.241
X55.022 Y176.24
X56.227 Y176.212
X56.268 Y176.211
X57.463 Y176.164
X57.502 Y176.162
X58.082 Y176.13
X58.609 Y176.602
Z-9.5 F333.3
X58.601 Y176.603 Z-9.587 F1000
X58.579 Y176.604 Z-9.671
X58.542 Y176.606 Z-9.75
X58.492 Y176.609 Z-9.821
X58.43 Y176.612 Z-9.883
X58.359 Y176.616 Z-9.933
X58.28 Y176.62 Z-9.97
X58.196 Y176.625 Z-9.992
X58.109 Y176.63 Z-10
X57.61 Y176.657
G3 X58.082 Y176.13 I0.499 J-0.027
G1 X58.687 Y176.097
X58.729 Y176.095
X59.905 Y176.011
X59.947 Y176.007
X61.114 Y175.904
X61.152 Y175.901
X62.309 Y175.781
X62.352 Y175.776
X63.5 Y175.637
X63.543 Y175.631
X64.682 Y175.473
X64.721 Y175.468
X65.851 Y175.293
X65.893 Y175.286
X67.013 Y175.093
X67.055 Y175.085
X68.166 Y174.874
X68.206 Y174.866
X69.309 Y174.638
X69.351 Y174.629
X70.445 Y174.383
X70.485 Y174.374
X71.57 Y174.111
X71.613 Y174.1
X72.689 Y173.819
X72.725 Y173.809
X73.793 Y173.513
X73.836 Y173.501
X74.895 Y173.187
X74.933 Y173.175
X75.984 Y172.845
X76.022 Y172.833
X77.065 Y172.487
X77.103 Y172.474
X78.137 Y172.112
X78.174 Y172.099
X79.2 Y171.722
X79.238 Y171.707
X80.257 Y171.314
X80.292 Y171.3
X81.303 Y170.892
X81.337 Y170.878
X82.34 Y170.456
X82.376 Y170.441
X83.372 Y170.004
X83.405 Y169.99
X84.393 Y169.539
X84.428 Y169.522
X85.41 Y169.056
X85.438 Y169.043
X86.413 Y168.565
X86.445 Y168.549
X87.413 Y168.057
X87.443 Y168.041
X88.404 Y167.536
X88.434 Y167.52
X89.389 Y167.002
X89.414 Y166.988
X90.363 Y166.459
X90.391 Y166.443
X91.334 Y165.901
X91.359 Y165.887
X92.295 Y165.334
X92.321 Y165.318
X93.252 Y164.753
X93.276 Y164.738
X94.202 Y164.162
X94.224 Y164.149
X95.144 Y163.563
X95.165 Y163.549
X96.08 Y162.953
X96.101 Y162.939
X97.011 Y162.333
X97.032 Y162.319
X97.936 Y161.703
X97.954 Y161.691
X98.854 Y161.067
X98.882 Y161.047
X100.669 Y159.772
X100.702 Y159.749
X102.473 Y158.442
X102.502 Y158.42
X104.258 Y157.084
X104.283 Y157.064
X106.026 Y155.702
X106.048 Y155.685
X107.78 Y154.301
X107.798 Y154.286
X109.52 Y152.883
X109.536 Y152.87
X111.249 Y151.45
X111.261 Y151.44
X112.968 Y150.008
X112.977 Y150
X114.679 Y148.558
X114.687 Y148.552
X118.082 Y145.651
X121.474 Y142.753
X123.167 Y141.318
X124.864 Y139.895
X126.563 Y138.486
X128.268 Y137.097
X129.979 Y135.73
X131.699 Y134.386
X133.428 Y133.071
X135.168 Y131.786
X136.925 Y130.533
X137.803 Y129.925
X138.688 Y129.322
X139.578 Y128.73
X140.47 Y128.147
X141.368 Y127.575
X142.27 Y127.014
X143.176 Y126.464
X144.087 Y125.926
X145.004 Y125.399
X145.925 Y124.885
X146.853 Y124.382
X147.784 Y123.893
X148.721 Y123.417
X149.665 Y122.954
X150.616 Y122.503
X151.571 Y122.067
X152.533 Y121.645
X153.502 Y121.237
X154.478 Y120.844
X155.46 Y120.465
X156.449 Y120.101
X157.446 Y119.752
X158.45 Y119.419
X159.463 Y119.101
X160.482 Y118.799
X161.509 Y118.514
X162.545 Y118.243
X163.589 Y117.991
X164.642 Y117.754
X165.702 Y117.534
X166.773 Y117.331
X167.852 Y117.145
X168.941 Y116.977
X170.039 Y116.824
X171.144 Y116.69
X172.262 Y116.575
X173.389 Y116.475
X174.523 Y116.394
X175.67 Y116.331
X176.825 Y116.286
X177.99 Y116.259
X179.176 Y116.25
X537.5
G2 X540 Y113.75 I0 J-2.5
G1 Y0
G2 X537.5 Y-2.5 I-2.5 J0
G1 X0
G2 X-2.5 Y0 I0 J2.5
G1 Y173.75
G2 X0 Y176.25 I2.5 J0
G1 X53.75
X53.769
X54.983 Y176.241
X55.022 Y176.24
X56.227 Y176.212
X56.268 Y176.211
X57.463 Y176.164
X57.502 Y176.162
X58.082 Y176.13
G0 Z5
X108.45 Y224.786
G1 Z0 F333.3
Z-9.5
G19 G2 Y224.286 Z-10 J-0.5 K0 F1000
G1 Y223.786
G17 G3 X108.95 Y224.286 I0 J0.5
G1 Y273.75
G2 X111.45 Y276.25 I2.5 J0
G1 X546.05
G2 X548.55 Y273.75 I0 J-2.5
G1 Y160
G2 X546.05 Y157.5 I-2.5 J0
G1 X111.45
G2 X108.95 Y160 I0 J2.5
G1 Y224.286
X108.45 Y224.786
Z-12 F333.3
G19 G2 Y224.286 Z-12.5 J-0.5 K0 F1000
G1 Y223.786
G17 G3 X108.95 Y224.286 I0 J0.5
G1 Y273.75
G2 X111.45 Y276.25 I2.5 J0
G1 X546.05
G2 X548.55 Y273.75 I0 J-2.5
G1 Y160
G2 X546.05 Y157.5 I-2.5 J0
G1 X111.45
G2 X108.95 Y160 I0 J2.5
G1 Y224.286
G0 Z5
X58.609 Y176.602
G1 Z-5 F333.3
Z-12
X58.601 Y176.603 Z-12.087 F1000
X58.579 Y176.604 Z-12.171
X58.542 Y176.606 Z-12.25
X58.492 Y176.609 Z-12.321
X58.43 Y176.612 Z-12.383
X58.359 Y176.616 Z-12.433
X58.28 Y176.62 Z-12.47
X58.196 Y176.625 Z-12.492
X58.109 Y176.63 Z-12.5
X57.61 Y176.657
G3 X58.082 Y176.13 I0.499 J-0.027
G1 X58.687 Y176.097
X58.729 Y176.095
X59.905 Y176.011
X59.947 Y176.007
X61.114 Y175.904
X61.152 Y175.901
X62.309 Y175.781
X62.352 Y175.776
X63.5 Y175.637
X63.543 Y175.631
X64.682 Y175.473
X64.721 Y175.468
X65.851 Y175.293
X65.893 Y175.286
X67.013 Y175.093
X67.055 Y175.085
X68.166 Y174.874
X68.206 Y174.866
X69.309 Y174.638
X69.351 Y174.629
X70.445 Y174.383
X70.485 Y174.374
X71.57 Y174.111
X71.613 Y174.1
X72.689 Y173.819
X72.725 Y173.809
X73.793 Y173.513
X73.836 Y173.501
X74.895 Y173.187
X74.933 Y173.175
X75.984 Y172.845
X76.022 Y172.833
X77.065 Y172.487
X77.103 Y172.474
X78.137 Y172.112
X78.174 Y172.099
X79.2 Y171.722
X79.238 Y171.707
X80.257 Y171.314
X80.292 Y171.3
X81.303 Y170.892
X81.337 Y170.878
X82.34 Y170.456
X82.376 Y170.441
X83.372 Y170.004
X83.405 Y169.99
X84.393 Y169.539
X84.428 Y169.522
X85.41 Y169.056
X85.438 Y169.043
X86.413 Y168.565
X86.445 Y168.549
X87.413 Y168.057
X87.443 Y168.041
X88.404 Y167.536
X88.434 Y167.52
X89.389 Y167.002
X89.414 Y166.988
X90.363 Y166.459
X90.391 Y166.443
X91.334 Y165.901
X91.359 Y165.887
X92.295 Y165.334
X92.321 Y165.318
X93.252 Y164.753
X93.276 Y164.738
X94.202 Y164.162
X94.224 Y164.149
X95.144 Y163.563
X95.165 Y163.549
X96.08 Y162.953
X96.101 Y162.939
X97.011 Y162.333
X97.032 Y162.319
X97.936 Y161.703
X97.954 Y161.691
X98.854 Y161.067
X98.882 Y161.047
X100.669 Y159.772
X100.702 Y159.749
X102.473 Y158.442
X102.502 Y158.42
X104.258 Y157.084
X104.283 Y157.064
X106.026 Y155.702
X106.048 Y155.685
X107.78 Y154.301
X107.798 Y154.286
X109.52 Y152.883
X109.536 Y152.87
X111.249 Y151.45
X111.261 Y151.44
X112.968 Y150.008
X112.977 Y150
X114.679 Y148.558
X114.687 Y148.552
X118.082 Y145.651
X121.474 Y142.753
X123.167 Y141.318
X124.864 Y139.895
X126.563 Y138.486
X128.268 Y137.097
X129.979 Y135.73
X131.699 Y134.386
X133.428 Y133.071
X135.168 Y131.786
X136.925 Y130.533
X137.803 Y129.925
X138.688 Y129.322
X139.578 Y128.73
X140.47 Y128.147
X141.368 Y127.575
X142.27 Y127.014
X143.176 Y126.464
X144.087 Y125.926
X145.004 Y125.399
X145.925 Y124.885
X146.853 Y124.382
X147.784 Y123.893
X148.721 Y123.417
X149.665 Y122.954
X150.616 Y122.503
X151.571 Y122.067
X152.533 Y121.645
X153.502 Y121.237
X154.478 Y120.844
X155.46 Y120.465
X156.449 Y120.101
X157.446 Y119.752
X158.45 Y119.419
X159.463 Y119.101
X160.482 Y118.799
X161.509 Y118.514
X162.545 Y118.243
X163.589 Y117.991
X164.642 Y117.754
X165.702 Y117.534
X166.773 Y117.331
X167.852 Y117.145
X168.941 Y116.977
X170.039 Y116.824
X171.144 Y116.69
X172.262 Y116.575
X173.389 Y116.475
X174.523 Y116.394
X175.67 Y116.331
X176.825 Y116.286
X177.99 Y116.259
X179.176 Y116.25
X537.5
G2 X540 Y113.75 I0 J-2.5
G1 Y0
G2 X537.5 Y-2.5 I-2.5 J0
G1 X0
G2 X-2.5 Y0 I0 J2.5
G1 Y173.75
G2 X0 Y176.25 I2.5 J0
G1 X53.75
X53.769
X54.983 Y176.241
X55.022 Y176.24
X56.227 Y176.212
X56.268 Y176.211
X57.463 Y176.164
X57.502 Y176.162
X58.082 Y176.13
G0 Z5
X48.45 Y475.5
G1 Z-4.5 F333.3
G19 G2 Y475 Z-5 J-0.5 K0 F1000
G1 Y474.5
G17 G3 X48.95 Y475 I0 J0.5
G1 Y648.75
G2 X51.45 Y651.25 I2.5 J0
G1 X486.05
G2 X488.55 Y648.75 I0 J-2.5
G1 Y475
G2 X486.05 Y472.5 I-2.5 J0
G1 X51.45
G2 X48.95 Y475 I0 J2.5
G1 X48.45 Y475.5
Z-9.5 F333.3
G19 G2 Y475 Z-10 J-0.5 K0 F1000
G1 Y474.5
G17 G3 X48.95 Y475 I0 J0.5
G1 Y648.75
G2 X51.45 Y651.25 I2.5 J0
G1 X486.05
G2 X488.55 Y648.75 I0 J-2.5
G1 Y475
G2 X486.05 Y472.5 I-2.5 J0
G1 X51.45
G2 X48.95 Y475 I0 J2.5
G1 X48.45 Y475.5
Z-12 F333.3
G19 G2 Y475 Z-12.5 J-0.5 K0 F1000
G1 Y474.5
G17 G3 X48.95 Y475 I0 J0.5
G1 Y648.75
G2 X51.45 Y651.25 I2.5 J0
G1 X486.05
G2 X488.55 Y648.75 I0 J-2.5
G1 Y475
G2 X486.05 Y472.5 I-2.5 J0
G1 X51.45
G2 X48.95 Y475 I0 J2.5
G0 Z15
M9
G28 G91 Z0
G90
G28 G91 X0 Y0
G90
M5
M30
