(CamperBodentraeger)
(T1  D=5 CR=0 - ZMIN=-9.75 - flat end mill)
G90 G94
G17
G21
G28 G91 Z0
G90

(2D Contour1)
T1
S5000 M3
G54
M8
G0 X15.05 Y15
Z15
Z5
G1 Z1 F333.3
Z-9.75
G3 X14.95 Y15 I-0.05 J0 F1000
X15.05 Y15 I0.05 J0
G0 Z15

(2D Contour1 2)
X75.05 Y15
Z15
Z5
G1 Z1 F333.3
Z-9.75
G3 X74.95 Y15 I-0.05 J0 F1000
X75.05 Y15 I0.05 J0
G0 Z5
X45.05
G1 Z1 F333.3
Z-9.75
G3 X44.95 Y15 I-0.05 J0 F1000
X45.05 Y15 I0.05 J0
G0 Z15

(2D Contour1 3)
X165.05 Y15
Z15
Z5
G1 Z1 F333.3
Z-9.75
G3 X164.95 Y15 I-0.05 J0 F1000
X165.05 Y15 I0.05 J0
G0 Z5
X195.05
G1 Z1 F333.3
Z-9.75
G3 X194.95 Y15 I-0.05 J0 F1000
X195.05 Y15 I0.05 J0
G0 Z5
X135.05
G1 Z1 F333.3
Z-9.75
G3 X134.95 Y15 I-0.05 J0 F1000
X135.05 Y15 I0.05 J0
G0 Z5
X105.05
G1 Z1 F333.3
Z-9.75
G3 X104.95 Y15 I-0.05 J0 F1000
X105.05 Y15 I0.05 J0
G0 Z15

(2D Contour1 4)
X225.05 Y15
Z15
Z5
G1 Z1 F333.3
Z-9.75
G3 X224.95 Y15 I-0.05 J0 F1000
X225.05 Y15 I0.05 J0
G0 Z5
X255.05
G1 Z1 F333.3
Z-9.75
G3 X254.95 Y15 I-0.05 J0 F1000
X255.05 Y15 I0.05 J0
G0 Z5
X195.05
G1 Z1 F333.3
Z-9.75
G3 X194.95 Y15 I-0.05 J0 F1000
X195.05 Y15 I0.05 J0
G0 Z15

(2D Contour1 5)
X315.05 Y15
Z15
Z5
G1 Z1 F333.3
Z-9.75
G3 X314.95 Y15 I-0.05 J0 F1000
X315.05 Y15 I0.05 J0
G0 Z5
X345.05
G1 Z1 F333.3
Z-9.75
G3 X344.95 Y15 I-0.05 J0 F1000
X345.05 Y15 I0.05 J0
G0 Z5
X285.05
G1 Z1 F333.3
Z-9.75
G3 X284.95 Y15 I-0.05 J0 F1000
X285.05 Y15 I0.05 J0
G0 Z15

(2D Contour1 6)
X405.05 Y15
Z15
Z5
G1 Z1 F333.3
Z-9.75
G3 X404.95 Y15 I-0.05 J0 F1000
X405.05 Y15 I0.05 J0
G0 Z5
X435.05
G1 Z1 F333.3
Z-9.75
G3 X434.95 Y15 I-0.05 J0 F1000
X435.05 Y15 I0.05 J0
G0 Z5
X375.05
G1 Z1 F333.3
Z-9.75
G3 X374.95 Y15 I-0.05 J0 F1000
X375.05 Y15 I0.05 J0
G0 Z15

(2D Contour1 7)
X495.05 Y15
Z15
Z5
G1 Z1 F333.3
Z-9.75
G3 X494.95 Y15 I-0.05 J0 F1000
X495.05 Y15 I0.05 J0
G0 Z5
X525.05
G1 Z1 F333.3
Z-9.75
G3 X524.95 Y15 I-0.05 J0 F1000
X525.05 Y15 I0.05 J0
G0 Z15

(2D Contour1 8)
X555.05 Y15
Z15
Z5
G1 Z1 F333.3
Z-9.75
G3 X554.95 Y15 I-0.05 J0 F1000
X555.05 Y15 I0.05 J0
G0 Z5
X585.05
G1 Z1 F333.3
Z-9.75
G3 X584.95 Y15 I-0.05 J0 F1000
X585.05 Y15 I0.05 J0
G0 Z15

(2D Contour1 9)
X465.05 Y15
Z15
Z5
G1 Z1 F333.3
Z-9.75
G3 X464.95 Y15 I-0.05 J0 F1000
X465.05 Y15 I0.05 J0
G0 Z15

(2D Contour2)
X600.5 Y-4
Z15
Z5
G1 Z-4.5 F333.3
G19 G3 Y-3.5 Z-5 J0.5 K0 F1000
G1 Y-3
G17 G3 X600 Y-2.5 I-0.5 J0
G1 X0
G2 X-2.5 Y0 I0 J2.5
G1 Y60
G2 X0 Y62.5 I2.5 J0
G1 X600
G2 X602.5 Y60 I0 J-2.5
G1 Y0
G2 X600 Y-2.5 I-2.5 J0
G3 X599.5 Y-3 I0 J-0.5
G1 Y-3.5
G19 G2 Y-4 Z-4.5 J0 K0.5
G0 Z5
X600.5
G1 Z0 F333.3
Z-9.25
G3 Y-3.5 Z-9.75 J0.5 K0 F1000
G1 Y-3
G17 G3 X600 Y-2.5 I-0.5 J0
G1 X0
G2 X-2.5 Y0 I0 J2.5
G1 Y60
G2 X0 Y62.5 I2.5 J0
G1 X600
G2 X602.5 Y60 I0 J-2.5
G1 Y0
G2 X600 Y-2.5 I-2.5 J0
G3 X599.5 Y-3 I0 J-0.5
G1 Y-3.5
G19 G2 Y-4 Z-9.25 J0 K0.5
G0 Z15
G17
M9
G28 G91 Z0
G90
G28 G91 X0 Y0
G90
M5
M30
