(CamperFlaschenhalterRucksitz_teil2)
(T4 D=5 CR=0 - ZMIN=-19 - flat end mill)
G90 G94
G17
G21
(-Attention- Property Safe Retracts is set to Clearance Height.)
(Ensure the clearance height will clear the part and or fixtures.)
(Raise the Z-axis to a safe height before starting the program.)

(2D Contour3)
T4
S5000 M3
G17 G90 G94
G54
M8
G0 X-121.642 Y-56.861
Z15
G0 Z5
G1 Z2.5 F333.3
X-78.142 Z1.205
Y-29.861 Z0.402
X-135.142 Z-1.295
Y-56.861 Z-2.098
X-78.142 Z-3.795
Y-29.861 Z-4.598
X-91.642 Z-5
X-135.142 F1000
Y-56.861
X-78.142
Y-29.861
X-91.642
X-135.142 Z-6.295 F333.3
Y-56.861 Z-7.098
X-78.142 Z-8.795
Y-29.861 Z-9.598
X-91.642 Z-10
X-135.142 F1000
Y-56.861
X-78.142
Y-29.861
X-91.642
X-135.142 Z-11.295 F333.3
Y-56.861 Z-12.098
X-78.142 Z-13.795
Y-29.861 Z-14.598
X-91.642 Z-15
X-135.142 F1000
Y-56.861
X-78.142
Y-29.861
X-91.642
X-135.142 Z-16.295 F333.3
Y-56.861 Z-17.098
X-78.142 Z-18.795
Y-49.961 Z-19
Y-29.861 F1000
X-135.142
Y-56.861
X-78.142
Y-49.961
G0 Z5
X74.467 Y-63.361
G1 Z2.5 F333.3
X86.967 Z2.26
Y-38.361 Z1.779
X-18.033 Z-0.24
Y-63.361 Z-0.721
X86.967 Z-2.74
Y-38.361 Z-3.221
X-5.533 Z-5
X-18.033 F1000
Y-63.361
X86.967
Y-38.361
X-5.533
X-18.033 Z-5.24 F333.3
Y-63.361 Z-5.721
X86.967 Z-7.74
Y-38.361 Z-8.221
X-5.533 Z-10
X-18.033 F1000
Y-63.361
X86.967
Y-38.361
X-5.533
X-18.033 Z-10.24 F333.3
Y-63.361 Z-10.721
X86.967 Z-12.74
Y-38.361 Z-13.221
X-5.533 Z-15
X-18.033 F1000
Y-63.361
X86.967
Y-38.361
X-5.533
X-18.033 Z-15.24 F333.3
Y-63.361 Z-15.721
X86.967 Z-17.74
Y-38.361 Z-18.221
X46.467 Z-19
X-5.533 F1000
X-18.033
Y-63.361
X86.967
Y-38.361
X46.467
G0 Z5
X-239.925 Y-67.361
G1 Z2.5 F333.3
G3 X-239.925 Y12.639 Z0 I0 J40
X-239.925 Y-67.361 Z-2.5 I0 J-40
X-239.925 Y12.639 Z-5 I0 J40
X-239.925 Y-67.361 I0 J-40 F1000
X-239.925 Y12.639 I0 J40
X-239.925 Y-67.361 Z-7.5 I0 J-40 F333.3
X-239.925 Y12.639 Z-10 I0 J40
X-239.925 Y-67.361 I0 J-40 F1000
X-239.925 Y12.639 I0 J40
X-239.925 Y-67.361 Z-12.5 I0 J-40 F333.3
X-239.925 Y12.639 Z-15 I0 J40
X-239.925 Y-67.361 I0 J-40 F1000
X-239.925 Y12.639 I0 J40
X-239.925 Y-67.361 Z-17.5 I0 J-40 F333.3
X-201.883 Y-15 Z-19 I0 J40
X-277.967 Y-39.722 I-38.042 J-12.361 F1000
X-201.883 Y-15 I38.042 J12.361
G0 Z15

(2D Adaptive1)
G0 X289.441 Y91.577
Z15
Z5
Z-4
G1 Z-4.5 F1000
X289.439 Y91.569 Z-4.587
X289.433 Y91.547 Z-4.671
X289.424 Y91.512 Z-4.75
X289.412 Y91.463 Z-4.821
X289.396 Y91.403 Z-4.883
X289.378 Y91.334 Z-4.933
X289.359 Y91.258 Z-4.97
X289.338 Y91.176 Z-4.992
X289.316 Y91.092 Z-5
G3 X288.925 Y88.37 I12.366 J-3.167
G1 Y88.149
X288.927 Y88.112
X289.018 Y87.993
X289.122 Y87.881
X289.259 Y87.756
X289.436 Y87.619
X289.663 Y87.471
X289.954 Y87.312
X290.693 Y86.984
X291.358 Y86.525
X291.842 Y85.878
X292.184 Y85.145
X292.421 Y84.373
X292.584 Y83.581
X292.695 Y82.781
X292.77 Y81.976
X292.821 Y81.169
X292.855 Y80.362
X292.878 Y79.554
X292.894 Y78.746
X292.904 Y77.937
X292.911 Y77.129
X292.916 Y76.321
X292.919 Y75.513
X292.922 Y73.896
X292.924 Y70.663
X292.925 Y39.142
Y29.443
X292.92 Y28.635
X292.906 Y27.827
X292.885 Y27.019
X292.86 Y26.211
X292.833 Y25.403
X292.803 Y24.596
X292.762 Y23.789
X292.702 Y22.983
X292.629 Y22.178
X292.547 Y21.374
X292.46 Y20.57
X292.368 Y19.767
X292.264 Y18.966
X292.14 Y18.167
X292.002 Y17.37
X291.855 Y16.576
X291.702 Y15.782
X291.545 Y14.989
X291.376 Y14.199
X291.187 Y13.413
X290.985 Y12.631
X290.773 Y11.851
X290.555 Y11.072
X290.333 Y10.295
X290.1 Y9.521
X289.847 Y8.754
X289.581 Y7.99
X289.306 Y7.23
X289.024 Y6.473
X288.739 Y5.717
X288.444 Y4.964
X288.129 Y4.22
X287.801 Y3.481
X287.464 Y2.747
X287.121 Y2.015
X286.774 Y1.285
X286.418 Y0.559
X286.044 Y-0.157
X285.656 Y-0.866
X285.26 Y-1.571
X284.857 Y-2.272
X284.452 Y-2.971
X284.038 Y-3.665
X283.605 Y-4.348
X283.161 Y-5.023
X282.708 Y-5.692
X282.25 Y-6.358
X281.787 Y-7.021
X281.318 Y-7.679
X280.832 Y-8.325
X280.333 Y-8.961
X279.826 Y-9.59
X279.315 Y-10.216
X278.799 Y-10.839
X278.278 Y-11.456
X277.74 Y-12.059
X277.191 Y-12.652
X276.634 Y-13.238
X276.072 Y-13.82
X275.508 Y-14.398
X274.937 Y-14.971
X274.352 Y-15.527
X273.756 Y-16.073
X273.152 Y-16.611
X272.545 Y-17.144
X271.934 Y-17.674
X271.319 Y-18.198
X270.69 Y-18.705
X270.051 Y-19.2
X269.406 Y-19.687
X268.756 Y-20.168
X268.104 Y-20.645
X267.448 Y-21.118
X266.779 Y-21.571
X266.102 Y-22.012
X265.419 Y-22.444
X264.732 Y-22.87
X264.042 Y-23.292
X263.35 Y-23.709
X262.646 Y-24.107
X261.935 Y-24.49
X261.219 Y-24.864
X260.499 Y-25.232
X259.777 Y-25.596
X259.053 Y-25.955
X258.319 Y-26.293
X257.578 Y-26.617
X256.834 Y-26.931
X256.086 Y-27.239
X255.337 Y-27.542
X254.586 Y-27.84
X253.827 Y-28.117
X253.062 Y-28.379
X252.294 Y-28.631
X251.524 Y-28.875
X250.752 Y-29.116
X249.979 Y-29.352
X249.199 Y-29.566
X248.416 Y-29.764
X247.63 Y-29.951
X246.842 Y-30.132
X246.053 Y-30.307
X245.263 Y-30.48
X244.469 Y-30.629
X243.672 Y-30.762
X242.873 Y-30.884
X242.073 Y-30.999
X241.272 Y-31.109
X240.471 Y-31.216
X239.667 Y-31.299
X238.862 Y-31.366
X238.055 Y-31.422
X237.248 Y-31.471
X236.441 Y-31.515
X235.634 Y-31.555
X234.826 Y-31.581
X234.018 Y-31.598
X233.21 Y-31.608
X232.402 Y-31.613
X231.594 Y-31.616
X230.785
X229.977 Y-31.612
X229.169 Y-31.606
X228.361 Y-31.598
X226.744 Y-31.579
X225.936 Y-31.567
X225.128 Y-31.553
X224.32 Y-31.537
X222.704 Y-31.502
X221.896 Y-31.483
X221.088 Y-31.462
X220.28 Y-31.439
X219.472 Y-31.414
X217.857 Y-31.361
X217.049 Y-31.333
X216.241 Y-31.302
X215.434 Y-31.269
X213.819 Y-31.2
X213.011 Y-31.164
X212.204 Y-31.125
X211.397 Y-31.084
X210.59 Y-31.041
X208.976 Y-30.953
X208.169 Y-30.906
X207.362 Y-30.856
X206.555 Y-30.805
X204.943 Y-30.698
X204.136 Y-30.643
X203.33 Y-30.584
X202.524 Y-30.523
X200.913 Y-30.398
X200.107 Y-30.333
X199.302 Y-30.264
X198.496 Y-30.194
X196.886 Y-30.049
X196.082 Y-29.974
X195.277 Y-29.896
X194.473 Y-29.815
X192.865 Y-29.651
X192.061 Y-29.563
X191.258 Y-29.472
X190.456 Y-29.378
X189.653 Y-29.282
X188.049 Y-29.087
X185.642 Y-28.79
X184.84 Y-28.687
X184.04 Y-28.578
X183.239 Y-28.465
X182.439 Y-28.35
X181.639 Y-28.233
X180.04 Y-27.997
X178.442 Y-27.759
X177.643 Y-27.633
X176.845 Y-27.503
X176.048 Y-27.37
X175.252 Y-27.234
X174.455 Y-27.096
X172.863 Y-26.819
X172.066 Y-26.68
X171.271 Y-26.537
X170.476 Y-26.389
X169.683 Y-26.237
X168.889 Y-26.082
X168.096 Y-25.925
X166.511 Y-25.608
X165.719 Y-25.449
X164.927 Y-25.288
X164.136 Y-25.12
X163.346 Y-24.949
X162.557 Y-24.775
X161.768 Y-24.599
X160.191 Y-24.245
X159.403 Y-24.066
X158.615 Y-23.885
X157.829 Y-23.698
X157.043 Y-23.508
X156.258 Y-23.316
X155.473 Y-23.122
X153.905 Y-22.732
X153.121 Y-22.536
X152.338 Y-22.335
X151.556 Y-22.13
X150.775 Y-21.922
X149.994 Y-21.713
X148.434 Y-21.292
X147.654 Y-21.08
X146.874 Y-20.866
X146.096 Y-20.647
X145.319 Y-20.426
X144.542 Y-20.204
X142.989 Y-19.756
X142.212 Y-19.531
X141.437 Y-19.304
X140.662 Y-19.074
X139.888 Y-18.842
X139.114 Y-18.608
X137.567 Y-18.139
X136.794 Y-17.903
X136.021 Y-17.666
X135.25 Y-17.425
X134.478 Y-17.183
X132.937 Y-16.696
X130.626 Y-15.962
X125.236 Y-14.243
X117.538 Y-11.779
X115.999 Y-11.287
X115.228 Y-11.043
X114.456 Y-10.803
X113.684 Y-10.565
X112.911 Y-10.329
X111.365 Y-9.858
X108.27 Y-8.923
X105.949 Y-8.223
X105.174 Y-7.991
X104.398 Y-7.765
X103.621 Y-7.543
X102.844 Y-7.322
X102.065 Y-7.104
X100.509 Y-6.669
X99.729 Y-6.455
X98.948 Y-6.246
X98.167 Y-6.04
X97.385 Y-5.836
X95.82 Y-5.431
X95.037 Y-5.23
X94.253 Y-5.033
X93.468 Y-4.842
X92.682 Y-4.653
X91.896 Y-4.466
X91.109 Y-4.28
X89.535 Y-3.911
X88.747 Y-3.733
X87.958 Y-3.559
X87.168 Y-3.389
X86.377 Y-3.221
X84.795 Y-2.888
X84.004 Y-2.722
X83.212 Y-2.562
X82.418 Y-2.408
X81.625 Y-2.256
X80.83 Y-2.107
X80.035 Y-1.96
X78.446 Y-1.668
X77.65 Y-1.526
X76.853 Y-1.39
X76.056 Y-1.258
X75.258 Y-1.128
X74.46 Y-1.001
X72.863 Y-0.748
X72.065 Y-0.623
X71.265 Y-0.505
X70.465 Y-0.391
X69.664 Y-0.281
X68.863 Y-0.172
X67.261 Y0.041
X66.46 Y0.147
X65.658 Y0.249
X64.856 Y0.346
X64.053 Y0.439
X63.25 Y0.529
X62.446 Y0.618
X60.839 Y0.792
X60.036 Y0.878
X59.232 Y0.961
X58.427 Y1.038
X57.622 Y1.112
X56.817 Y1.184
X56.012 Y1.254
X54.401 Y1.391
X53.596 Y1.459
X52.79 Y1.524
X51.984 Y1.584
X51.178 Y1.64
X50.372 Y1.695
X49.565 Y1.748
X47.952 Y1.851
X46.339 Y1.952
X45.532 Y1.996
X44.725 Y2.038
X43.917 Y2.077
X43.11 Y2.114
X41.495 Y2.187
X39.88 Y2.257
X39.072 Y2.289
X38.265 Y2.318
X37.457 Y2.344
X36.649 Y2.368
X35.033 Y2.413
X32.609 Y2.478
X31.801 Y2.496
X30.993 Y2.511
X30.185 Y2.524
X28.569 Y2.546
X26.144 Y2.575
X25.336 Y2.584
X24.528 Y2.591
X23.72 Y2.595
X22.911 Y2.597
X21.295 Y2.599
X18.062 Y2.598
X17.254 Y2.595
X16.446 Y2.589
X15.637 Y2.582
X14.021 Y2.563
X11.596 Y2.532
X2.707 Y2.409
X1.899 Y2.396
X0.282 Y2.366
X-2.142 Y2.316
X-8.606 Y2.179
X-12.646 Y2.092
X-14.263 Y2.061
X-16.687 Y2.019
X-25.576 Y1.871
X-28.001 Y1.831
X-28.809 Y1.821
X-29.617 Y1.813
X-31.234 Y1.801
X-33.658 Y1.788
X-35.275 Y1.78
X-36.083 Y1.779
X-36.891 Y1.78
X-37.699 Y1.784
X-39.316 Y1.794
X-41.74 Y1.813
X-42.549 Y1.82
X-43.357 Y1.829
X-44.165 Y1.842
X-44.973 Y1.858
X-45.781 Y1.876
X-47.397 Y1.914
X-49.821 Y1.975
X-50.629 Y1.998
X-51.437 Y2.027
X-52.244 Y2.059
X-53.052 Y2.093
X-53.859 Y2.129
X-55.474 Y2.204
X-57.089 Y2.28
X-57.896 Y2.322
X-58.703 Y2.37
X-59.509 Y2.423
X-60.315 Y2.478
X-61.122 Y2.535
X-62.734 Y2.653
X-64.346 Y2.774
X-65.151 Y2.84
X-65.956 Y2.914
X-66.761 Y2.992
X-67.565 Y3.074
X-68.369 Y3.157
X-69.976 Y3.328
X-70.78 Y3.415
X-71.583 Y3.503
X-72.385 Y3.602
X-73.186 Y3.708
X-73.987 Y3.818
X-74.787 Y3.931
X-75.587 Y4.047
X-77.187 Y4.282
X-77.986 Y4.4
X-78.784 Y4.529
X-79.58 Y4.667
X-80.376 Y4.811
X-81.17 Y4.96
X-81.964 Y5.111
X-82.758 Y5.265
X-84.344 Y5.575
X-85.136 Y5.739
X-85.925 Y5.91
X-86.714 Y6.088
X-87.501 Y6.269
X-88.287 Y6.459
X-89.071 Y6.656
X-89.854 Y6.858
X-90.635 Y7.063
X-91.414 Y7.278
X-92.192 Y7.5
X-92.967 Y7.727
X-93.742 Y7.957
X-94.514 Y8.198
X-95.283 Y8.446
X-96.05 Y8.7
X-96.816 Y8.958
X-97.578 Y9.227
X-98.338 Y9.503
X-99.095 Y9.784
X-99.851 Y10.073
X-100.601 Y10.372
X-101.349 Y10.678
X-102.096 Y10.989
X-102.837 Y11.31
X-103.575 Y11.64
X-104.309 Y11.978
X-105.042 Y12.32
X-105.768 Y12.675
X-106.489 Y13.039
X-107.208 Y13.409
X-107.922 Y13.787
X-108.63 Y14.177
X-109.333 Y14.576
X-110.033 Y14.979
X-110.727 Y15.395
X-111.414 Y15.82
X-112.096 Y16.253
X-112.775 Y16.693
X-113.444 Y17.146
X-114.107 Y17.607
X-114.766 Y18.075
X-115.418 Y18.554
X-116.061 Y19.043
X-116.698 Y19.54
X-117.331 Y20.043
X-117.953 Y20.559
X-118.567 Y21.085
X-119.175 Y21.617
X-119.776 Y22.158
X-120.366 Y22.71
X-120.949 Y23.27
X-121.526 Y23.836
X-122.092 Y24.413
X-122.649 Y24.999
X-123.198 Y25.592
X-123.741 Y26.19
X-124.271 Y26.8
X-124.792 Y27.418
X-125.307 Y28.041
X-125.812 Y28.672
X-126.305 Y29.313
X-126.79 Y29.96
X-127.269 Y30.61
X-127.736 Y31.27
X-128.191 Y31.938
X-128.639 Y32.611
X-129.082 Y33.287
X-129.51 Y33.973
X-129.927 Y34.665
X-130.338 Y35.361
X-130.743 Y36.06
X-131.133 Y36.768
X-131.514 Y37.481
X-131.888 Y38.198
X-132.255 Y38.917
X-132.609 Y39.644
X-132.954 Y40.375
X-133.291 Y41.109
X-133.624 Y41.846
X-133.942 Y42.589
X-134.251 Y43.336
X-134.554 Y44.085
X-134.853 Y44.836
X-135.138 Y45.593
X-135.413 Y46.352
X-135.682 Y47.115
X-135.947 Y47.878
X-136.201 Y48.645
X-136.446 Y49.416
X-136.683 Y50.189
X-136.915 Y50.963
X-137.142 Y51.738
X-137.357 Y52.518
X-137.564 Y53.299
X-137.765 Y54.082
X-137.963 Y54.865
X-138.152 Y55.651
X-138.332 Y56.439
X-138.505 Y57.228
X-138.674 Y58.019
X-138.841 Y58.81
X-138.995 Y59.603
X-139.143 Y60.398
X-139.285 Y61.193
X-139.424 Y61.99
X-139.559 Y62.786
X-139.684 Y63.585
X-139.802 Y64.384
X-139.916 Y65.185
X-140.027 Y65.985
X-140.135 Y66.786
X-140.233 Y67.589
X-140.324 Y68.392
X-140.412 Y69.195
X-140.496 Y69.999
X-140.579 Y70.803
X-140.653 Y71.608
X-140.72 Y72.413
X-140.783 Y73.219
X-140.843 Y74.025
X-140.901 Y74.831
X-140.954 Y75.638
X-140.999 Y76.445
X-141.04 Y77.252
X-141.078 Y78.059
X-141.114 Y78.867
X-141.148 Y79.674
X-141.174 Y80.482
X-141.195 Y81.29
X-141.212 Y82.098
X-141.227 Y82.906
X-141.237 Y83.512
X-141.177 Y83.912
X-140.992 Y84.271
X-140.484 Y84.899
X-139.815 Y85.353
X-139.073 Y85.672
X-138.295 Y85.893
X-138.135 Y85.924
X-137.879 Y86.004
X-137.648 Y86.14
X-137.455 Y86.326
X-137.309 Y86.551
X-137.218 Y86.803
X-137.187 Y87.07
G3 X-137.704 Y87.552 I-0.5 J-0.017
G1 X-137.791 Y87.549 Z-4.992
X-137.875 Y87.546 Z-4.97
X-137.954 Y87.543 Z-4.933
X-138.025 Y87.541 Z-4.883
X-138.087 Y87.539 Z-4.821
X-138.137 Y87.537 Z-4.75
X-138.174 Y87.536 Z-4.671
X-138.196 Y87.535 Z-4.587
X-138.204 Z-4.5
G0 Z5
X289.402 Y89.333
Z-4
G1 Z-4.5 F1000
X289.398 Y89.326 Z-4.587
X289.386 Y89.307 Z-4.671
X289.368 Y89.275 Z-4.75
X289.342 Y89.232 Z-4.821
X289.311 Y89.179 Z-4.883
X289.274 Y89.118 Z-4.933
X289.234 Y89.05 Z-4.97
X289.191 Y88.978 Z-4.992
X289.146 Y88.903 Z-5
G3 X288.925 Y88.149 I1.36 J-0.809
G1 Y87.452
X288.932 Y87.302
X289.036 Y87.038
X289.391 Y86.312
X289.728 Y85.577
X290.014 Y84.821
X290.242 Y84.046
X290.42 Y83.257
X290.555 Y82.46
X290.656 Y81.658
X290.731 Y80.854
X290.786 Y80.047
X290.825 Y79.24
X290.854 Y78.432
X290.875 Y77.624
X290.89 Y76.816
X290.9 Y76.008
X290.907 Y75.2
X290.913 Y74.392
X290.916 Y73.583
X290.921 Y71.967
X290.924 Y69.542
X290.925 Y62.268
Y37.213
Y31.555
X290.924 Y30.747
X290.921 Y29.939
X290.913 Y29.131
X290.9 Y28.322
X290.883 Y27.514
X290.862 Y26.706
X290.836 Y25.899
X290.801 Y25.091
X290.756 Y24.284
X290.699 Y23.478
X290.633 Y22.672
X290.559 Y21.867
X290.476 Y21.064
X290.381 Y20.261
X290.272 Y19.46
X290.152 Y18.661
X290.021 Y17.863
X289.881 Y17.067
X289.732 Y16.273
X289.57 Y15.481
X289.394 Y14.692
X289.206 Y13.906
X289.008 Y13.122
X288.801 Y12.341
X288.585 Y11.562
X288.355 Y10.787
X288.113 Y10.016
X287.859 Y9.249
X287.595 Y8.485
X287.323 Y7.724
X287.041 Y6.967
X286.746 Y6.214
X286.439 Y5.467
X286.121 Y4.724
X285.793 Y3.984
X285.458 Y3.249
X285.112 Y2.519
X284.754 Y1.794
X284.384 Y1.076
X284.004 Y0.362
X283.615 Y-0.346
X283.219 Y-1.051
X282.812 Y-1.749
X282.393 Y-2.44
X281.963 Y-3.125
X281.524 Y-3.803
X281.077 Y-4.477
X280.623 Y-5.145
X280.157 Y-5.806
X279.68 Y-6.458
X279.194 Y-7.104
X278.698 Y-7.742
X278.196 Y-8.375
X277.686 Y-9.002
X277.165 Y-9.621
X276.635 Y-10.23
X276.095 Y-10.832
X275.547 Y-11.426
X274.993 Y-12.015
X274.431 Y-12.596
X273.86 Y-13.167
X273.279 Y-13.729
X272.69 Y-14.282
X272.094 Y-14.828
X271.492 Y-15.368
X270.883 Y-15.899
X270.265 Y-16.42
X269.638 Y-16.93
X269.004 Y-17.431
X268.364 Y-17.925
X267.719 Y-18.412
X267.066 Y-18.889
X266.406 Y-19.355
X265.738 Y-19.81
X265.063 Y-20.255
X264.384 Y-20.693
X263.7 Y-21.124
X263.009 Y-21.543
X262.311 Y-21.95
X261.607 Y-22.346
X260.897 Y-22.733
X260.183 Y-23.112
X259.465 Y-23.483
X258.74 Y-23.841
X258.01 Y-24.187
X257.274 Y-24.522
X256.534 Y-24.847
X255.791 Y-25.164
X255.044 Y-25.472
X254.291 Y-25.767
X253.534 Y-26.05
X252.772 Y-26.321
X252.008 Y-26.582
X251.24 Y-26.836
X250.469 Y-27.079
X249.694 Y-27.309
X248.916 Y-27.525
X248.134 Y-27.73
X247.35 Y-27.926
X246.564 Y-28.115
X245.775 Y-28.291
X244.983 Y-28.453
X244.189 Y-28.603
X243.393 Y-28.74
X242.595 Y-28.869
X241.796 Y-28.99
X240.995 Y-29.098
X240.192 Y-29.191
X239.388 Y-29.272
X238.582 Y-29.342
X237.776 Y-29.403
X236.97 Y-29.456
X236.163 Y-29.499
X235.355 Y-29.533
X234.547 Y-29.558
X233.739 Y-29.577
X232.931 Y-29.59
X232.123 Y-29.598
X231.315 Y-29.602
X230.507
X229.698 Y-29.599
X228.89 Y-29.595
X228.082 Y-29.588
X227.274 Y-29.579
X226.466 Y-29.568
X225.658 Y-29.556
X224.849 Y-29.541
X224.041 Y-29.526
X223.233 Y-29.509
X222.425 Y-29.49
X221.617 Y-29.47
X220.809 Y-29.448
X220.001 Y-29.424
X219.194 Y-29.399
X218.386 Y-29.373
X217.578 Y-29.345
X216.77 Y-29.315
X215.963 Y-29.284
X215.155 Y-29.251
X214.348 Y-29.217
X213.54 Y-29.181
X212.733 Y-29.142
X211.926 Y-29.103
X211.118 Y-29.061
X210.311 Y-29.019
X209.504 Y-28.974
X208.697 Y-28.928
X207.891 Y-28.879
X207.084 Y-28.829
X206.277 Y-28.777
X205.471 Y-28.724
X204.665 Y-28.668
X203.858 Y-28.611
X203.052 Y-28.551
X202.246 Y-28.491
X201.441 Y-28.428
X200.635 Y-28.362
X199.83 Y-28.295
X199.024 Y-28.226
X198.219 Y-28.156
X197.414 Y-28.083
X196.609 Y-28.008
X195.805 Y-27.931
X195.001 Y-27.852
X194.196 Y-27.771
X193.393 Y-27.687
X192.589 Y-27.6
X191.786 Y-27.51
X190.983 Y-27.418
X190.18 Y-27.324
X189.377 Y-27.228
X187.773 Y-27.035
X186.97 Y-26.936
X186.169 Y-26.834
X185.367 Y-26.729
X184.566 Y-26.621
X183.766 Y-26.51
X182.965 Y-26.397
X182.165 Y-26.282
X181.365 Y-26.166
X180.566 Y-26.049
X179.766 Y-25.93
X178.968 Y-25.807
X178.169 Y-25.681
X177.371 Y-25.552
X176.574 Y-25.42
X175.777 Y-25.287
X174.98 Y-25.151
X174.183 Y-25.014
X173.387 Y-24.876
X172.591 Y-24.735
X171.796 Y-24.59
X171.002 Y-24.442
X170.208 Y-24.291
X169.414 Y-24.138
X168.621 Y-23.983
X167.828 Y-23.827
X167.035 Y-23.669
X166.243 Y-23.508
X165.452 Y-23.344
X164.661 Y-23.177
X163.871 Y-23.007
X163.081 Y-22.834
X162.292 Y-22.66
X161.503 Y-22.485
X160.714 Y-22.307
X159.926 Y-22.127
X159.139 Y-21.944
X158.353 Y-21.757
X157.567 Y-21.569
X156.782 Y-21.378
X155.997 Y-21.185
X155.212 Y-20.992
X154.428 Y-20.796
X153.644 Y-20.597
X152.862 Y-20.395
X152.08 Y-20.191
X151.298 Y-19.984
X150.517 Y-19.777
X149.736 Y-19.567
X148.956 Y-19.356
X148.177 Y-19.143
X147.398 Y-18.927
X146.62 Y-18.709
X145.842 Y-18.489
X145.065 Y-18.267
X144.288 Y-18.045
X143.511 Y-17.821
X142.735 Y-17.594
X141.96 Y-17.366
X141.185 Y-17.136
X140.411 Y-16.905
X139.637 Y-16.672
X138.863 Y-16.438
X138.09 Y-16.203
X137.317 Y-15.966
X136.545 Y-15.728
X135.773 Y-15.488
X135.002 Y-15.246
X134.231 Y-15.004
X132.689 Y-14.517
X130.378 Y-13.782
X126.528 Y-12.555
X121.139 Y-10.832
X118.06 Y-9.847
X117.29 Y-9.601
X116.519 Y-9.358
X115.748 Y-9.116
X114.976 Y-8.876
X114.204 Y-8.638
X113.431 Y-8.401
X111.885 Y-7.929
X109.565 Y-7.226
X108.017 Y-6.758
X107.243 Y-6.526
X106.469 Y-6.295
X105.693 Y-6.067
X104.917 Y-5.842
X104.14 Y-5.619
X103.363 Y-5.398
X102.585 Y-5.178
X101.807 Y-4.96
X101.027 Y-4.745
X100.247 Y-4.533
X99.467 Y-4.324
X98.686 Y-4.117
X97.904 Y-3.911
X97.122 Y-3.707
X96.339 Y-3.506
X95.556 Y-3.307
X94.771 Y-3.112
X93.986 Y-2.919
X93.201 Y-2.729
X92.415 Y-2.54
X91.629 Y-2.353
X90.842 Y-2.169
X90.054 Y-1.988
X89.266 Y-1.811
X88.476 Y-1.636
X87.687 Y-1.464
X86.897 Y-1.294
X86.106 Y-1.125
X85.315 Y-0.959
X84.523 Y-0.797
X83.731 Y-0.638
X82.938 Y-0.482
X82.144 Y-0.329
X81.35 Y-0.178
X80.556 Y-0.029
X79.761 Y0.118
X78.966 Y0.262
X78.17 Y0.402
X77.373 Y0.539
X76.576 Y0.673
X75.779 Y0.805
X74.981 Y0.935
X74.183 Y1.063
X73.385 Y1.188
X72.586 Y1.31
X71.786 Y1.429
X70.986 Y1.544
X70.186 Y1.657
X69.385 Y1.768
X68.584 Y1.877
X67.783 Y1.984
X66.982 Y2.088
X66.18 Y2.189
X65.378 Y2.287
X64.575 Y2.382
X63.772 Y2.475
X62.969 Y2.566
X62.166 Y2.655
X61.362 Y2.742
X60.558 Y2.827
X59.754 Y2.909
X58.95 Y2.987
X58.145 Y3.063
X57.34 Y3.137
X56.535 Y3.209
X55.73 Y3.28
X54.925 Y3.349
X54.119 Y3.416
X53.314 Y3.48
X52.508 Y3.541
X51.702 Y3.6
X50.895 Y3.657
X50.089 Y3.712
X49.283 Y3.765
X48.476 Y3.818
X47.67 Y3.869
X46.863 Y3.917
X46.056 Y3.962
X45.249 Y4.006
X44.441 Y4.047
X43.634 Y4.086
X42.02 Y4.162
X41.212 Y4.198
X40.405 Y4.232
X39.597 Y4.264
X38.789 Y4.294
X37.982 Y4.321
X37.174 Y4.347
X36.366 Y4.372
X34.75 Y4.419
X33.942 Y4.441
X33.134 Y4.461
X32.326 Y4.479
X31.518 Y4.495
X30.71 Y4.51
X29.902 Y4.523
X28.285 Y4.546
X26.669 Y4.567
X25.861 Y4.575
X25.053 Y4.582
X24.245 Y4.587
X23.436 Y4.591
X21.82 Y4.595
X20.203 Y4.597
X19.395
X18.587 Y4.596
X17.779 Y4.593
X16.97 Y4.588
X16.162 Y4.582
X14.546 Y4.566
X12.929 Y4.547
X9.697 Y4.506
X4.04 Y4.427
X2.423 Y4.402
X0.807 Y4.374
X-1.617 Y4.326
X-5.657 Y4.242
X-12.122 Y4.105
X-13.738 Y4.073
X-16.162 Y4.029
X-20.203 Y3.96
X-26.668 Y3.853
X-27.476 Y3.842
X-28.284 Y3.831
X-29.092 Y3.822
X-30.709 Y3.808
X-32.325 Y3.797
X-33.942 Y3.788
X-34.75 Y3.785
X-35.558 Y3.784
X-36.366 Y3.785
X-37.175 Y3.787
X-38.791 Y3.794
X-40.407 Y3.805
X-41.216 Y3.811
X-42.024 Y3.819
X-42.832 Y3.828
X-43.64 Y3.841
X-44.448 Y3.855
X-45.256 Y3.87
X-46.064 Y3.888
X-47.681 Y3.925
X-48.489 Y3.945
X-49.296 Y3.966
X-50.104 Y3.991
X-50.912 Y4.018
X-51.72 Y4.048
X-52.527 Y4.08
X-53.335 Y4.114
X-54.142 Y4.149
X-54.95 Y4.185
X-55.757 Y4.223
X-56.564 Y4.263
X-57.371 Y4.306
X-58.178 Y4.353
X-58.985 Y4.403
X-59.792 Y4.456
X-60.598 Y4.511
X-61.404 Y4.567
X-62.21 Y4.625
X-63.016 Y4.685
X-63.822 Y4.748
X-64.628 Y4.816
X-65.433 Y4.888
X-66.237 Y4.963
X-67.042 Y5.042
X-67.846 Y5.122
X-68.65 Y5.205
X-69.454 Y5.289
X-70.257 Y5.377
X-71.06 Y5.47
X-71.862 Y5.569
X-72.664 Y5.672
X-73.465 Y5.779
X-74.266 Y5.889
X-75.066 Y6.002
X-75.866 Y6.116
X-76.666 Y6.234
X-77.464 Y6.359
X-78.262 Y6.489
X-79.059 Y6.626
X-79.854 Y6.767
X-80.649 Y6.912
X-81.444 Y7.06
X-82.238 Y7.211
X-83.031 Y7.365
X-83.824 Y7.525
X-84.615 Y7.691
X-85.405 Y7.862
X-86.193 Y8.038
X-86.98 Y8.222
X-87.766 Y8.412
X-88.551 Y8.607
X-89.333 Y8.808
X-90.114 Y9.017
X-90.893 Y9.231
X-91.671 Y9.452
X-92.447 Y9.679
X-93.22 Y9.914
X-93.991 Y10.155
X-94.761 Y10.402
X-95.528 Y10.658
X-96.292 Y10.92
X-97.054 Y11.19
X-97.813 Y11.466
X-98.57 Y11.751
X-99.323 Y12.044
X-100.074 Y12.344
X-100.821 Y12.652
X-101.564 Y12.969
X-102.305 Y13.293
X-103.042 Y13.625
X-103.774 Y13.967
X-104.503 Y14.317
X-105.227 Y14.675
X-105.947 Y15.043
X-106.662 Y15.419
X-107.373 Y15.804
X-108.078 Y16.198
X-108.779 Y16.602
X-109.473 Y17.015
X-110.163 Y17.436
X-110.847 Y17.867
X-111.524 Y18.308
X-112.196 Y18.758
X-112.861 Y19.217
X-113.519 Y19.686
X-114.17 Y20.165
X-114.815 Y20.652
X-115.452 Y21.15
X-116.081 Y21.657
X-116.703 Y22.173
X-117.318 Y22.698
X-117.923 Y23.233
X-118.521 Y23.777
X-119.111 Y24.33
X-119.692 Y24.892
X-120.264 Y25.463
X-120.828 Y26.042
X-121.383 Y26.629
X-121.928 Y27.226
X-122.464 Y27.831
X-122.991 Y28.443
X-123.509 Y29.064
X-124.017 Y29.693
X-124.516 Y30.329
X-125.005 Y30.972
X-125.484 Y31.623
X-125.953 Y32.281
X-126.414 Y32.945
X-126.865 Y33.616
X-127.305 Y34.294
X-127.735 Y34.978
X-128.157 Y35.668
X-128.568 Y36.363
X-128.969 Y37.065
X-129.361 Y37.772
X-129.745 Y38.483
X-130.118 Y39.201
X-130.481 Y39.923
X-130.835 Y40.649
X-131.181 Y41.38
X-131.517 Y42.115
X-131.843 Y42.854
X-132.161 Y43.597
X-132.471 Y44.344
X-132.772 Y45.094
X-133.063 Y45.848
X-133.346 Y46.605
X-133.622 Y47.365
X-133.888 Y48.128
X-134.146 Y48.894
X-134.397 Y49.662
X-134.64 Y50.433
X-134.875 Y51.206
X-135.102 Y51.982
X-135.321 Y52.76
X-135.534 Y53.539
X-135.739 Y54.321
X-135.937 Y55.105
X-136.128 Y55.89
X-136.311 Y56.677
X-136.489 Y57.466
X-136.66 Y58.256
X-136.824 Y59.047
X-136.981 Y59.84
X-137.132 Y60.634
X-137.278 Y61.429
X-137.417 Y62.225
X-137.55 Y63.022
X-137.676 Y63.821
X-137.797 Y64.62
X-137.914 Y65.42
X-138.025 Y66.22
X-138.129 Y67.022
X-138.227 Y67.824
X-138.321 Y68.627
X-138.411 Y69.43
X-138.496 Y70.234
X-138.574 Y71.038
X-138.648 Y71.843
X-138.716 Y72.648
X-138.782 Y73.454
X-138.842 Y74.26
X-138.897 Y75.066
X-138.948 Y75.873
X-138.994 Y76.68
X-139.036 Y77.487
X-139.076 Y78.294
X-139.11 Y79.102
X-139.14 Y79.909
X-139.165 Y80.717
X-139.155 Y81.121
X-139.052 Y81.512
X-138.699 Y82.239
X-138.176 Y82.855
X-137.538 Y83.475
X-137.389 Y83.653
X-137.278 Y83.856
X-137.21 Y84.078
X-137.187 Y84.309
Y85.762
G3 X-137.704 Y86.244 I-0.5 J-0.017
G1 X-137.791 Y86.241 Z-4.992
X-137.875 Y86.238 Z-4.97
X-137.954 Y86.235 Z-4.933
X-138.025 Y86.233 Z-4.883
X-138.087 Y86.231 Z-4.821
X-138.137 Y86.229 Z-4.75
X-138.174 Y86.228 Z-4.671
X-138.196 Y86.227 Z-4.587
X-138.204 Z-4.5
G0 Z5
X289.402 Y88.635
Z-4
G1 Z-4.5 F1000
X289.398 Y88.629 Z-4.587
X289.386 Y88.609 Z-4.671
X289.368 Y88.578 Z-4.75
X289.342 Y88.535 Z-4.821
X289.311 Y88.482 Z-4.883
X289.274 Y88.42 Z-4.933
X289.234 Y88.352 Z-4.97
X289.191 Y88.28 Z-4.992
X289.146 Y88.205 Z-5
G3 X288.925 Y87.452 I1.36 J-0.809
G1 Y27.728
X288.92 Y27.361
X288.917 Y27.177
X288.911 Y26.994
X288.735 Y22.953
X288.725 Y22.77
X288.672 Y22.219
X288.116 Y17.995
X288.105 Y17.926
X288.008 Y17.444
X287.97 Y17.26
X287.187 Y13.727
X287.071 Y13.22
X287.025 Y13.036
X285.717 Y8.888
X285.692 Y8.812
X285.491 Y8.261
X283.969 Y4.588
X283.73 Y4.037
X283.698 Y3.969
X281.821 Y0.364
X281.628 Y-0.003
X281.527 Y-0.187
X281.494 Y-0.241
X279.189 Y-3.86
X279.107 Y-3.985
X278.805 Y-4.411
X278.739 Y-4.502
X276.131 Y-7.9
X275.975 Y-8.084
X275.801 Y-8.275
X273.116 Y-11.206
X273.047 Y-11.279
X272.571 Y-11.757
X269.558 Y-14.518
X269.362 Y-14.695
X269.191 Y-14.84
X268.456 Y-15.405
X265.792 Y-17.45
X265.278 Y-17.817
X265.151 Y-17.9
X261.532 Y-20.205
X261.478 Y-20.238
X261.294 Y-20.338
X260.851 Y-20.572
X257.323 Y-22.408
X257.254 Y-22.439
X256.704 Y-22.681
X253.215 Y-24.127
X253.031 Y-24.201
X252.48 Y-24.405
X248.256 Y-25.737
X248.073 Y-25.782
X247.572 Y-25.898
X244.033 Y-26.683
X243.849 Y-26.721
X243.39 Y-26.816
X243.298 Y-26.829
X239.214 Y-27.367
X239.075 Y-27.384
X238.524 Y-27.441
X234.3 Y-27.625
X233.933 Y-27.633
X233.749 Y-27.636
X233.566 Y-27.637
X228.608 Y-27.609
X228.241 Y-27.606
X227.506 Y-27.594
X223.282 Y-27.52
X222.732 Y-27.509
X217.773 Y-27.362
X217.039 Y-27.333
X212.815 Y-27.153
X212.264 Y-27.126
X208.041 Y-26.892
X207.49 Y-26.858
X206.869 Y-26.816
X203.083 Y-26.554
X202.348 Y-26.496
X198.859 Y-26.206
X198.308 Y-26.159
X197.941 Y-26.124
X194.085 Y-25.749
X193.901 Y-25.73
X189.678 Y-25.258
X185.821 Y-24.77
X185.454 Y-24.722
X184.536 Y-24.593
X181.781 Y-24.203
X181.047 Y-24.092
X177.925 Y-23.602
X177.558 Y-23.543
X177.359 Y-23.51
X173.885 Y-22.913
X173.702 Y-22.88
X172.901 Y-22.772
X171.313 Y-22.467
X169.726 Y-22.159
X168.933 Y-22.003
X168.141 Y-21.845
X167.348 Y-21.685
X166.557 Y-21.523
X165.765 Y-21.358
X164.975 Y-21.19
X164.185 Y-21.02
X163.395 Y-20.848
X162.605 Y-20.675
X161.817 Y-20.498
X161.028 Y-20.32
X160.241 Y-20.138
X159.454 Y-19.954
X158.667 Y-19.768
X157.881 Y-19.579
X157.096 Y-19.389
X156.311 Y-19.197
X155.527 Y-19.002
X154.743 Y-18.804
X153.96 Y-18.604
X153.177 Y-18.402
X152.395 Y-18.198
X151.614 Y-17.992
X150.832 Y-17.784
X150.052 Y-17.574
X149.272 Y-17.362
X148.493 Y-17.148
X147.714 Y-16.931
X146.936 Y-16.713
X146.158 Y-16.493
X145.381 Y-16.272
X144.604 Y-16.049
X143.828 Y-15.824
X143.052 Y-15.597
X142.277 Y-15.368
X141.502 Y-15.138
X140.728 Y-14.907
X139.954 Y-14.674
X139.18 Y-14.439
X138.407 Y-14.203
X137.635 Y-13.966
X136.862 Y-13.727
X136.091 Y-13.487
X134.548 Y-13.003
X133.007 Y-12.517
X130.696 Y-11.783
X127.615 Y-10.802
X125.305 Y-10.065
X119.917 Y-8.341
X119.147 Y-8.095
X118.376 Y-7.851
X117.606 Y-7.607
X116.834 Y-7.365
X116.063 Y-7.124
X115.291 Y-6.885
X114.519 Y-6.647
X112.973 Y-6.173
X111.427 Y-5.702
X109.88 Y-5.233
X109.106 Y-5
X108.332 Y-4.768
X107.557 Y-4.537
X106.782 Y-4.309
X106.006 Y-4.082
X105.23 Y-3.857
X104.453 Y-3.635
X103.675 Y-3.414
X102.897 Y-3.195
X102.118 Y-2.979
X101.339 Y-2.765
X100.559 Y-2.554
X99.778 Y-2.345
X98.997 Y-2.137
X98.215 Y-1.932
X97.433 Y-1.729
X96.65 Y-1.529
X95.866 Y-1.332
X95.082 Y-1.137
X94.297 Y-0.944
X93.511 Y-0.754
X92.725 Y-0.565
X91.939 Y-0.38
X91.151 Y-0.197
X90.363 Y-0.017
X89.575 Y0.16
X88.786 Y0.335
X87.996 Y0.508
X87.206 Y0.678
X86.415 Y0.845
X85.624 Y1.01
X84.832 Y1.172
X84.04 Y1.33
X83.247 Y1.486
X82.453 Y1.64
X81.659 Y1.791
X80.865 Y1.94
X80.07 Y2.086
X79.274 Y2.229
X78.478 Y2.369
X77.682 Y2.506
X76.885 Y2.641
X76.087 Y2.773
X75.29 Y2.904
X74.492 Y3.031
X73.693 Y3.156
X72.894 Y3.277
X72.095 Y3.396
X71.295 Y3.512
X70.494 Y3.625
X69.694 Y3.737
X68.893 Y3.846
X68.092 Y3.953
X67.29 Y4.057
X66.489 Y4.157
X65.686 Y4.256
X64.884 Y4.351
X64.081 Y4.445
X63.278 Y4.537
X62.475 Y4.626
X61.671 Y4.713
X60.867 Y4.798
X60.063 Y4.879
X59.259 Y4.959
X58.454 Y5.036
X57.65 Y5.111
X56.845 Y5.184
X56.04 Y5.255
X55.234 Y5.324
X54.429 Y5.39
X53.623 Y5.454
X52.817 Y5.516
X52.011 Y5.576
X51.205 Y5.633
X50.399 Y5.69
X49.592 Y5.744
X48.786 Y5.797
X47.979 Y5.847
X47.172 Y5.895
X46.365 Y5.941
X45.558 Y5.985
X44.751 Y6.027
X43.944 Y6.068
X43.137 Y6.107
X42.329 Y6.145
X41.522 Y6.181
X40.714 Y6.215
X39.907 Y6.247
X39.099 Y6.278
X38.291 Y6.306
X37.484 Y6.333
X36.676 Y6.359
X35.868 Y6.384
X35.06 Y6.407
X34.252 Y6.429
X33.444 Y6.449
X32.636 Y6.467
X31.828 Y6.484
X31.02 Y6.5
X30.212 Y6.514
X28.596 Y6.539
X27.787 Y6.55
X26.979 Y6.56
X26.171 Y6.568
X25.363 Y6.575
X24.555 Y6.581
X23.746 Y6.586
X22.13 Y6.592
X20.513 Y6.594
X19.705
X18.897 Y6.593
X18.089 Y6.59
X17.281 Y6.586
X16.472 Y6.58
X14.856 Y6.566
X13.24 Y6.549
X10.815 Y6.519
X6.774 Y6.465
X4.35 Y6.431
X2.733 Y6.406
X1.117 Y6.378
X-1.307 Y6.331
X-4.539 Y6.266
X-11.004 Y6.129
X-13.428 Y6.081
X-15.852 Y6.036
X-19.893 Y5.966
X-23.125 Y5.912
X-25.55 Y5.872
X-27.166 Y5.849
X-27.974 Y5.838
X-29.591 Y5.821
X-31.207 Y5.807
X-32.823 Y5.796
X-33.632 Y5.792
X-34.44 Y5.79
X-35.248 Y5.789
X-36.056
X-36.865 Y5.79
X-38.481 Y5.796
X-40.097 Y5.805
X-40.906 Y5.812
X-41.714 Y5.82
X-42.522 Y5.83
X-43.33 Y5.842
X-44.138 Y5.855
X-44.946 Y5.87
X-45.755 Y5.886
X-46.563 Y5.903
X-47.371 Y5.922
X-48.179 Y5.942
X-48.987 Y5.964
X-49.794 Y5.989
X-50.602 Y6.016
X-51.41 Y6.045
X-52.218 Y6.076
X-53.025 Y6.108
X-53.833 Y6.142
X-54.64 Y6.178
X-55.447 Y6.216
X-56.255 Y6.257
X-57.062 Y6.301
X-57.869 Y6.347
X-58.675 Y6.396
X-59.482 Y6.448
X-60.288 Y6.501
X-61.095 Y6.557
X-61.901 Y6.614
X-62.707 Y6.675
X-63.512 Y6.74
X-64.318 Y6.807
X-65.123 Y6.879
X-65.928 Y6.953
X-66.732 Y7.03
X-67.537 Y7.109
X-68.341 Y7.192
X-69.144 Y7.277
X-69.948 Y7.367
X-70.75 Y7.461
X-71.553 Y7.559
X-72.354 Y7.661
X-73.156 Y7.767
X-73.957 Y7.876
X-74.757 Y7.987
X-75.557 Y8.103
X-76.356 Y8.224
X-77.154 Y8.351
X-77.952 Y8.482
X-78.749 Y8.618
X-79.545 Y8.758
X-80.34 Y8.901
X-81.135 Y9.049
X-81.928 Y9.201
X-82.721 Y9.358
X-83.513 Y9.519
X-84.304 Y9.687
X-85.094 Y9.86
X-85.882 Y10.039
X-86.668 Y10.223
X-87.454 Y10.414
X-88.238 Y10.612
X-89.02 Y10.816
X-89.8 Y11.026
X-90.579 Y11.242
X-91.356 Y11.466
X-92.13 Y11.696
X-92.903 Y11.933
X-93.674 Y12.177
X-94.442 Y12.428
X-95.207 Y12.687
X-95.971 Y12.953
X-96.731 Y13.227
X-97.489 Y13.508
X-98.243 Y13.797
X-98.995 Y14.095
X-99.743 Y14.4
X-100.488 Y14.714
X-101.23 Y15.035
X-101.967 Y15.366
X-102.701 Y15.705
X-103.43 Y16.053
X-104.155 Y16.41
X-104.876 Y16.776
X-105.592 Y17.151
X-106.303 Y17.535
X-107.009 Y17.929
X-107.709 Y18.332
X-108.404 Y18.745
X-109.094 Y19.167
X-109.777 Y19.599
X-110.454 Y20.041
X-111.124 Y20.492
X-111.788 Y20.954
X-112.444 Y21.425
X-113.094 Y21.905
X-113.736 Y22.396
X-114.371 Y22.897
X-114.998 Y23.407
X-115.617 Y23.927
X-116.228 Y24.456
X-116.83 Y24.995
X-117.424 Y25.543
X-118.009 Y26.101
X-118.585 Y26.668
X-119.152 Y27.244
X-119.71 Y27.829
X-120.258 Y28.422
X-120.797 Y29.025
X-121.326 Y29.636
X-121.846 Y30.255
X-122.356 Y30.882
X-122.856 Y31.517
X-123.345 Y32.16
X-123.825 Y32.81
X-124.295 Y33.468
X-124.755 Y34.132
X-125.205 Y34.804
X-125.645 Y35.482
X-126.074 Y36.167
X-126.494 Y36.858
X-126.903 Y37.554
X-127.303 Y38.257
X-127.692 Y38.965
X-128.072 Y39.679
X-128.442 Y40.397
X-128.802 Y41.12
X-129.153 Y41.849
X-129.495 Y42.581
X-129.827 Y43.318
X-130.15 Y44.059
X-130.463 Y44.804
X-130.768 Y45.553
X-131.063 Y46.305
X-131.35 Y47.06
X-131.628 Y47.819
X-131.898 Y48.581
X-132.159 Y49.346
X-132.412 Y50.114
X-132.657 Y50.884
X-132.894 Y51.657
X-133.123 Y52.432
X-133.344 Y53.209
X-133.558 Y53.989
X-133.764 Y54.77
X-133.963 Y55.554
X-134.154 Y56.339
X-134.343 Y57.14
X-134.379 Y57.296
X-134.46 Y57.663
X-134.5 Y57.847
X-135.112 Y60.785
X-135.216 Y61.336
X-135.249 Y61.52
X-135.745 Y64.458
X-135.832 Y65.009
X-135.858 Y65.193
X-136.277 Y68.315
X-136.325 Y68.682
X-136.346 Y68.866
X-136.702 Y72.355
X-136.717 Y72.539
X-136.743 Y72.906
X-136.766 Y73.274
X-137.156 Y79.701
X-137.183 Y80.252
X-137.187 Y80.436
Y84.309
G3 X-137.704 Y84.791 I-0.5 J-0.017
G1 X-137.791 Y84.788 Z-4.992
X-137.875 Y84.785 Z-4.97
X-137.954 Y84.782 Z-4.933
X-138.025 Y84.78 Z-4.883
X-138.087 Y84.778 Z-4.821
X-138.137 Y84.776 Z-4.75
X-138.174 Y84.775 Z-4.671
X-138.196 Y84.774 Z-4.587
X-138.204 Z-4.5
G0 Z5
X174.778 Y-23.565
Z-4
G1 Z-4.5 F1000
X174.772 Y-23.56 Z-4.587
X174.755 Y-23.545 Z-4.671
X174.727 Y-23.521 Z-4.75
X174.69 Y-23.488 Z-4.821
X174.644 Y-23.447 Z-4.883
X174.59 Y-23.4 Z-4.933
X174.531 Y-23.348 Z-4.97
X174.467 Y-23.293 Z-4.992
X174.402 Y-23.235 Z-5
G3 X173.702 Y-22.88 I-1.044 J-1.189
G1 X170.199 Y-22.225
X170.029 Y-22.191
X169.294 Y-22.039
X163.418 Y-20.808
X162.867 Y-20.69
X162.684 Y-20.648
X156.195 Y-19.103
X156.073 Y-19.073
X149.938 Y-17.45
X149.462 Y-17.321
X149.266 Y-17.266
X143.402 Y-15.58
X143.219 Y-15.526
X142.299 Y-15.246
X137.159 Y-13.673
X136.424 Y-13.439
X117.694 Y-7.406
X113.287 Y-5.987
X112.368 Y-5.704
X107.538 Y-4.227
X107.227 Y-4.133
X106.859 Y-4.026
X101.534 Y-2.499
X101.35 Y-2.446
X100.983 Y-2.346
X95.474 Y-0.895
X94.923 Y-0.754
X89.047 Y0.637
X88.863 Y0.681
X88.629 Y0.732
X82.62 Y1.981
X82.069 Y2.089
X80.967 Y2.286
X76.009 Y3.169
X75.458 Y3.264
X75.275 Y3.295
X72.336 Y3.752
X71.969 Y3.807
X71.602 Y3.861
X68.664 Y4.274
X68.48 Y4.299
X67.929 Y4.371
X64.808 Y4.762
X64.257 Y4.827
X61.135 Y5.173
X60.584 Y5.233
X56.911 Y5.587
X56.177 Y5.65
X52.688 Y5.938
X52.504 Y5.951
X44.608 Y6.446
X44.057 Y6.478
X36.043 Y6.792
X35.426 Y6.812
X27.53 Y6.966
X26.979 Y6.974
X26.612 Y6.976
X18.899 Y7.004
X18.349 Y7.002
X10.452 Y6.935
X9.718 Y6.925
X-7.176 Y6.6
X-23.52 Y6.26
X-23.887 Y6.253
X-31.783 Y6.158
X-32.518 Y6.154
X-39.863 Y6.152
X-40.414 Y6.154
X-48.31 Y6.283
X-48.677 Y6.296
X-56.206 Y6.585
X-56.39 Y6.595
X-63.552 Y7.07
X-63.735 Y7.084
X-64.102 Y7.114
X-64.286 Y7.129
X-70.897 Y7.8
X-71.448 Y7.859
X-71.631 Y7.88
X-74.57 Y8.27
X-75.12 Y8.346
X-75.304 Y8.373
X-78.242 Y8.833
X-78.793 Y8.924
X-78.977 Y8.956
X-81.915 Y9.494
X-82.466 Y9.604
X-83.064 Y9.73
X-85.588 Y10.267
X-88.652 Y11.016
X-89.26 Y11.176
X-91.647 Y11.846
X-92.198 Y12.004
X-92.382 Y12.06
X-95.32 Y13.002
X-96.238 Y13.335
X-98.258 Y14.071
X-98.442 Y14.142
X-98.993 Y14.368
X-101.196 Y15.278
X-101.38 Y15.359
X-103.767 Y16.468
X-103.885 Y16.526
X-104.502 Y16.84
X-106.154 Y17.697
X-106.365 Y17.811
X-106.889 Y18.106
X-108.358 Y18.952
X-108.607 Y19.097
X-108.725 Y19.168
X-110.378 Y20.217
X-110.562 Y20.336
X-111.112 Y20.707
X-112.226 Y21.484
X-112.398 Y21.606
X-112.765 Y21.872
X-112.949 Y22.008
X-114.188 Y22.953
X-114.426 Y23.137
X-114.649 Y23.321
X-115.887 Y24.348
X-115.974 Y24.422
X-116.254 Y24.677
X-118.538 Y26.81
X-118.913 Y27.177
X-119.009 Y27.274
X-121.396 Y29.869
X-121.594 Y30.116
X-121.947 Y30.558
X-123.629 Y32.687
X-123.774 Y32.87
X-123.902 Y33.054
X-125.803 Y35.855
X-125.889 Y35.992
X-126.17 Y36.458
X-126.328 Y36.727
X-127.608 Y38.931
X-127.913 Y39.482
X-128.007 Y39.666
X-129.374 Y42.42
X-129.463 Y42.604
X-129.711 Y43.155
X-130.953 Y46.093
X-131.028 Y46.277
X-131.1 Y46.461
X-132.283 Y49.766
X-132.345 Y49.95
X-132.516 Y50.501
X-133.401 Y53.439
X-133.453 Y53.623
X-133.516 Y53.857
X-133.55 Y53.99
X-134.336 Y57.112
X-134.343 Y57.14
G3 X-134.489 Y57.381 I-0.483 J-0.13
G1 X-134.547 Y57.415 Z-4.995
X-134.604 Y57.45 Z-4.981
X-134.659 Y57.482 Z-4.959
X-134.72 Y57.493 Z-4.926
X-134.776 Y57.502 Z-4.886
X-134.826 Y57.511 Z-4.837
X-134.871 Y57.505 Z-4.779
X-134.907 Y57.5 Z-4.715
X-134.934 Y57.497 Z-4.646
X-134.95 Y57.495 Z-4.574
X-134.955 Y57.494 Z-4.5
G0 Z5
X289.441 Y91.577
Z-9
G1 Z-9.5 F1000
X289.439 Y91.569 Z-9.587
X289.433 Y91.547 Z-9.671
X289.424 Y91.512 Z-9.75
X289.412 Y91.463 Z-9.821
X289.396 Y91.403 Z-9.883
X289.378 Y91.334 Z-9.933
X289.359 Y91.258 Z-9.97
X289.338 Y91.176 Z-9.992
X289.316 Y91.092 Z-10
G3 X288.925 Y88.37 I12.366 J-3.167
G1 Y88.149
X288.927 Y88.112
X289.018 Y87.993
X289.122 Y87.881
X289.259 Y87.756
X289.436 Y87.619
X289.663 Y87.471
X289.954 Y87.312
X290.693 Y86.984
X291.358 Y86.525
X291.842 Y85.878
X292.184 Y85.145
X292.421 Y84.373
X292.584 Y83.581
X292.695 Y82.781
X292.77 Y81.976
X292.821 Y81.169
X292.855 Y80.362
X292.878 Y79.554
X292.894 Y78.746
X292.904 Y77.937
X292.911 Y77.129
X292.916 Y76.321
X292.919 Y75.513
X292.922 Y73.896
X292.924 Y70.663
X292.925 Y39.142
Y29.443
X292.92 Y28.635
X292.906 Y27.827
X292.885 Y27.019
X292.86 Y26.211
X292.833 Y25.403
X292.803 Y24.596
X292.762 Y23.789
X292.702 Y22.983
X292.629 Y22.178
X292.547 Y21.374
X292.46 Y20.57
X292.368 Y19.767
X292.264 Y18.966
X292.14 Y18.167
X292.002 Y17.37
X291.855 Y16.576
X291.702 Y15.782
X291.545 Y14.989
X291.376 Y14.199
X291.187 Y13.413
X290.985 Y12.631
X290.773 Y11.851
X290.555 Y11.072
X290.333 Y10.295
X290.1 Y9.521
X289.847 Y8.754
X289.581 Y7.99
X289.306 Y7.23
X289.024 Y6.473
X288.739 Y5.717
X288.444 Y4.964
X288.129 Y4.22
X287.801 Y3.481
X287.464 Y2.747
X287.121 Y2.015
X286.774 Y1.285
X286.418 Y0.559
X286.044 Y-0.157
X285.656 Y-0.866
X285.26 Y-1.571
X284.857 Y-2.272
X284.452 Y-2.971
X284.038 Y-3.665
X283.605 Y-4.348
X283.161 Y-5.023
X282.708 Y-5.692
X282.25 Y-6.358
X281.787 Y-7.021
X281.318 Y-7.679
X280.832 Y-8.325
X280.333 Y-8.961
X279.826 Y-9.59
X279.315 Y-10.216
X278.799 Y-10.839
X278.278 Y-11.456
X277.74 Y-12.059
X277.191 Y-12.652
X276.634 Y-13.238
X276.072 Y-13.82
X275.508 Y-14.398
X274.937 Y-14.971
X274.352 Y-15.527
X273.756 Y-16.073
X273.152 Y-16.611
X272.545 Y-17.144
X271.934 Y-17.674
X271.319 Y-18.198
X270.69 Y-18.705
X270.051 Y-19.2
X269.406 Y-19.687
X268.756 Y-20.168
X268.104 Y-20.645
X267.448 Y-21.118
X266.779 Y-21.571
X266.102 Y-22.012
X265.419 Y-22.444
X264.732 Y-22.87
X264.042 Y-23.292
X263.35 Y-23.709
X262.646 Y-24.107
X261.935 Y-24.49
X261.219 Y-24.864
X260.499 Y-25.232
X259.777 Y-25.596
X259.053 Y-25.955
X258.319 Y-26.293
X257.578 Y-26.617
X256.834 Y-26.931
X256.086 Y-27.239
X255.337 Y-27.542
X254.586 Y-27.84
X253.827 Y-28.117
X253.062 Y-28.379
X252.294 Y-28.631
X251.524 Y-28.875
X250.752 Y-29.116
X249.979 Y-29.352
X249.199 Y-29.566
X248.416 Y-29.764
X247.63 Y-29.951
X246.842 Y-30.132
X246.053 Y-30.307
X245.263 Y-30.48
X244.469 Y-30.629
X243.672 Y-30.762
X242.873 Y-30.884
X242.073 Y-30.999
X241.272 Y-31.109
X240.471 Y-31.216
X239.667 Y-31.299
X238.862 Y-31.366
X238.055 Y-31.422
X237.248 Y-31.471
X236.441 Y-31.515
X235.634 Y-31.555
X234.826 Y-31.581
X234.018 Y-31.598
X233.21 Y-31.608
X232.402 Y-31.613
X231.594 Y-31.616
X230.785
X229.977 Y-31.612
X229.169 Y-31.606
X228.361 Y-31.598
X226.744 Y-31.579
X225.936 Y-31.567
X225.128 Y-31.553
X224.32 Y-31.537
X222.704 Y-31.502
X221.896 Y-31.483
X221.088 Y-31.462
X220.28 Y-31.439
X219.472 Y-31.414
X217.857 Y-31.361
X217.049 Y-31.333
X216.241 Y-31.302
X215.434 Y-31.269
X213.819 Y-31.2
X213.011 Y-31.164
X212.204 Y-31.125
X211.397 Y-31.084
X210.59 Y-31.041
X208.976 Y-30.953
X208.169 Y-30.906
X207.362 Y-30.856
X206.555 Y-30.805
X204.943 Y-30.698
X204.136 Y-30.643
X203.33 Y-30.584
X202.524 Y-30.523
X200.913 Y-30.398
X200.107 Y-30.333
X199.302 Y-30.264
X198.496 Y-30.194
X196.886 Y-30.049
X196.082 Y-29.974
X195.277 Y-29.896
X194.473 Y-29.815
X192.865 Y-29.651
X192.061 Y-29.563
X191.258 Y-29.472
X190.456 Y-29.378
X189.653 Y-29.282
X188.049 Y-29.087
X185.642 Y-28.79
X184.84 Y-28.687
X184.04 Y-28.578
X183.239 Y-28.465
X182.439 Y-28.35
X181.639 Y-28.233
X180.04 Y-27.997
X178.442 Y-27.759
X177.643 Y-27.633
X176.845 Y-27.503
X176.048 Y-27.37
X175.252 Y-27.234
X174.455 Y-27.096
X172.863 Y-26.819
X172.066 Y-26.68
X171.271 Y-26.537
X170.476 Y-26.389
X169.683 Y-26.237
X168.889 Y-26.082
X168.096 Y-25.925
X166.511 Y-25.608
X165.719 Y-25.449
X164.927 Y-25.288
X164.136 Y-25.12
X163.346 Y-24.949
X162.557 Y-24.775
X161.768 Y-24.599
X160.191 Y-24.245
X159.403 Y-24.066
X158.615 Y-23.885
X157.829 Y-23.698
X157.043 Y-23.508
X156.258 Y-23.316
X155.473 Y-23.122
X153.905 Y-22.732
X153.121 Y-22.536
X152.338 Y-22.335
X151.556 Y-22.13
X150.775 Y-21.922
X149.994 Y-21.713
X148.434 Y-21.292
X147.654 Y-21.08
X146.874 Y-20.866
X146.096 Y-20.647
X145.319 Y-20.426
X144.542 Y-20.204
X142.989 Y-19.756
X142.212 Y-19.531
X141.437 Y-19.304
X140.662 Y-19.074
X139.888 Y-18.842
X139.114 Y-18.608
X137.567 Y-18.139
X136.794 Y-17.903
X136.021 Y-17.666
X135.25 Y-17.425
X134.478 Y-17.183
X132.937 Y-16.696
X130.626 Y-15.962
X125.236 Y-14.243
X117.538 Y-11.779
X115.999 Y-11.287
X115.228 Y-11.043
X114.456 Y-10.803
X113.684 Y-10.565
X112.911 Y-10.329
X111.365 Y-9.858
X108.27 Y-8.923
X105.949 Y-8.223
X105.174 Y-7.991
X104.398 Y-7.765
X103.621 Y-7.543
X102.844 Y-7.322
X102.065 Y-7.104
X100.509 Y-6.669
X99.729 Y-6.455
X98.948 Y-6.246
X98.167 Y-6.04
X97.385 Y-5.836
X95.82 Y-5.431
X95.037 Y-5.23
X94.253 Y-5.033
X93.468 Y-4.842
X92.682 Y-4.653
X91.896 Y-4.466
X91.109 Y-4.28
X89.535 Y-3.911
X88.747 Y-3.733
X87.958 Y-3.559
X87.168 Y-3.389
X86.377 Y-3.221
X84.795 Y-2.888
X84.004 Y-2.722
X83.212 Y-2.562
X82.418 Y-2.408
X81.625 Y-2.256
X80.83 Y-2.107
X80.035 Y-1.96
X78.446 Y-1.668
X77.65 Y-1.526
X76.853 Y-1.39
X76.056 Y-1.258
X75.258 Y-1.128
X74.46 Y-1.001
X72.863 Y-0.748
X72.065 Y-0.623
X71.265 Y-0.505
X70.465 Y-0.391
X69.664 Y-0.281
X68.863 Y-0.172
X67.261 Y0.041
X66.46 Y0.147
X65.658 Y0.249
X64.856 Y0.346
X64.053 Y0.439
X63.25 Y0.529
X62.446 Y0.618
X60.839 Y0.792
X60.036 Y0.878
X59.232 Y0.961
X58.427 Y1.038
X57.622 Y1.112
X56.817 Y1.184
X56.012 Y1.254
X54.401 Y1.391
X53.596 Y1.459
X52.79 Y1.524
X51.984 Y1.584
X51.178 Y1.64
X50.372 Y1.695
X49.565 Y1.748
X47.952 Y1.851
X46.339 Y1.952
X45.532 Y1.996
X44.725 Y2.038
X43.917 Y2.077
X43.11 Y2.114
X41.495 Y2.187
X39.88 Y2.257
X39.072 Y2.289
X38.265 Y2.318
X37.457 Y2.344
X36.649 Y2.368
X35.033 Y2.413
X32.609 Y2.478
X31.801 Y2.496
X30.993 Y2.511
X30.185 Y2.524
X28.569 Y2.546
X26.144 Y2.575
X25.336 Y2.584
X24.528 Y2.591
X23.72 Y2.595
X22.911 Y2.597
X21.295 Y2.599
X18.062 Y2.598
X17.254 Y2.595
X16.446 Y2.589
X15.637 Y2.582
X14.021 Y2.563
X11.596 Y2.532
X2.707 Y2.409
X1.899 Y2.396
X0.282 Y2.366
X-2.142 Y2.316
X-8.606 Y2.179
X-12.646 Y2.092
X-14.263 Y2.061
X-16.687 Y2.019
X-25.576 Y1.871
X-28.001 Y1.831
X-28.809 Y1.821
X-29.617 Y1.813
X-31.234 Y1.801
X-33.658 Y1.788
X-35.275 Y1.78
X-36.083 Y1.779
X-36.891 Y1.78
X-37.699 Y1.784
X-39.316 Y1.794
X-41.74 Y1.813
X-42.549 Y1.82
X-43.357 Y1.829
X-44.165 Y1.842
X-44.973 Y1.858
X-45.781 Y1.876
X-47.397 Y1.914
X-49.821 Y1.975
X-50.629 Y1.998
X-51.437 Y2.027
X-52.244 Y2.059
X-53.052 Y2.093
X-53.859 Y2.129
X-55.474 Y2.204
X-57.089 Y2.28
X-57.896 Y2.322
X-58.703 Y2.37
X-59.509 Y2.423
X-60.315 Y2.478
X-61.122 Y2.535
X-62.734 Y2.653
X-64.346 Y2.774
X-65.151 Y2.84
X-65.956 Y2.914
X-66.761 Y2.992
X-67.565 Y3.074
X-68.369 Y3.157
X-69.976 Y3.328
X-70.78 Y3.415
X-71.583 Y3.503
X-72.385 Y3.602
X-73.186 Y3.708
X-73.987 Y3.818
X-74.787 Y3.931
X-75.587 Y4.047
X-77.187 Y4.282
X-77.986 Y4.4
X-78.784 Y4.529
X-79.58 Y4.667
X-80.376 Y4.811
X-81.17 Y4.96
X-81.964 Y5.111
X-82.758 Y5.265
X-84.344 Y5.575
X-85.136 Y5.739
X-85.925 Y5.91
X-86.714 Y6.088
X-87.501 Y6.269
X-88.287 Y6.459
X-89.071 Y6.656
X-89.854 Y6.858
X-90.635 Y7.063
X-91.414 Y7.278
X-92.192 Y7.5
X-92.967 Y7.727
X-93.742 Y7.957
X-94.514 Y8.198
X-95.283 Y8.446
X-96.05 Y8.7
X-96.816 Y8.958
X-97.578 Y9.227
X-98.338 Y9.503
X-99.095 Y9.784
X-99.851 Y10.073
X-100.601 Y10.372
X-101.349 Y10.678
X-102.096 Y10.989
X-102.837 Y11.31
X-103.575 Y11.64
X-104.309 Y11.978
X-105.042 Y12.32
X-105.768 Y12.675
X-106.489 Y13.039
X-107.208 Y13.409
X-107.922 Y13.787
X-108.63 Y14.177
X-109.333 Y14.576
X-110.033 Y14.979
X-110.727 Y15.395
X-111.414 Y15.82
X-112.096 Y16.253
X-112.775 Y16.693
X-113.444 Y17.146
X-114.107 Y17.607
X-114.766 Y18.075
X-115.418 Y18.554
X-116.061 Y19.043
X-116.698 Y19.54
X-117.331 Y20.043
X-117.953 Y20.559
X-118.567 Y21.085
X-119.175 Y21.617
X-119.776 Y22.158
X-120.366 Y22.71
X-120.949 Y23.27
X-121.526 Y23.836
X-122.092 Y24.413
X-122.649 Y24.999
X-123.198 Y25.592
X-123.741 Y26.19
X-124.271 Y26.8
X-124.792 Y27.418
X-125.307 Y28.041
X-125.812 Y28.672
X-126.305 Y29.313
X-126.79 Y29.96
X-127.269 Y30.61
X-127.736 Y31.27
X-128.191 Y31.938
X-128.639 Y32.611
X-129.082 Y33.287
X-129.51 Y33.973
X-129.927 Y34.665
X-130.338 Y35.361
X-130.743 Y36.06
X-131.133 Y36.768
X-131.514 Y37.481
X-131.888 Y38.198
X-132.255 Y38.917
X-132.609 Y39.644
X-132.954 Y40.375
X-133.291 Y41.109
X-133.624 Y41.846
X-133.942 Y42.589
X-134.251 Y43.336
X-134.554 Y44.085
X-134.853 Y44.836
X-135.138 Y45.593
X-135.413 Y46.352
X-135.682 Y47.115
X-135.947 Y47.878
X-136.201 Y48.645
X-136.446 Y49.416
X-136.683 Y50.189
X-136.915 Y50.963
X-137.142 Y51.738
X-137.357 Y52.518
X-137.564 Y53.299
X-137.765 Y54.082
X-137.963 Y54.865
X-138.152 Y55.651
X-138.332 Y56.439
X-138.505 Y57.228
X-138.674 Y58.019
X-138.841 Y58.81
X-138.995 Y59.603
X-139.143 Y60.398
X-139.285 Y61.193
X-139.424 Y61.99
X-139.559 Y62.786
X-139.684 Y63.585
X-139.802 Y64.384
X-139.916 Y65.185
X-140.027 Y65.985
X-140.135 Y66.786
X-140.233 Y67.589
X-140.324 Y68.392
X-140.412 Y69.195
X-140.496 Y69.999
X-140.579 Y70.803
X-140.653 Y71.608
X-140.72 Y72.413
X-140.783 Y73.219
X-140.843 Y74.025
X-140.901 Y74.831
X-140.954 Y75.638
X-140.999 Y76.445
X-141.04 Y77.252
X-141.078 Y78.059
X-141.114 Y78.867
X-141.148 Y79.674
X-141.174 Y80.482
X-141.195 Y81.29
X-141.212 Y82.098
X-141.227 Y82.906
X-141.237 Y83.512
X-141.177 Y83.912
X-140.992 Y84.271
X-140.484 Y84.899
X-139.815 Y85.353
X-139.073 Y85.672
X-138.295 Y85.893
X-138.135 Y85.924
X-137.879 Y86.004
X-137.648 Y86.14
X-137.455 Y86.326
X-137.309 Y86.551
X-137.218 Y86.803
X-137.187 Y87.07
G3 X-137.704 Y87.552 I-0.5 J-0.017
G1 X-137.791 Y87.549 Z-9.992
X-137.875 Y87.546 Z-9.97
X-137.954 Y87.543 Z-9.933
X-138.025 Y87.541 Z-9.883
X-138.087 Y87.539 Z-9.821
X-138.137 Y87.537 Z-9.75
X-138.174 Y87.536 Z-9.671
X-138.196 Y87.535 Z-9.587
X-138.204 Z-9.5
G0 Z5
X289.402 Y89.333
Z-9
G1 Z-9.5 F1000
X289.398 Y89.326 Z-9.587
X289.386 Y89.307 Z-9.671
X289.368 Y89.275 Z-9.75
X289.342 Y89.232 Z-9.821
X289.311 Y89.179 Z-9.883
X289.274 Y89.118 Z-9.933
X289.234 Y89.05 Z-9.97
X289.191 Y88.978 Z-9.992
X289.146 Y88.903 Z-10
G3 X288.925 Y88.149 I1.36 J-0.809
G1 Y87.452
X288.932 Y87.302
X289.036 Y87.038
X289.391 Y86.312
X289.728 Y85.577
X290.014 Y84.821
X290.242 Y84.046
X290.42 Y83.257
X290.555 Y82.46
X290.656 Y81.658
X290.731 Y80.854
X290.786 Y80.047
X290.825 Y79.24
X290.854 Y78.432
X290.875 Y77.624
X290.89 Y76.816
X290.9 Y76.008
X290.907 Y75.2
X290.913 Y74.392
X290.916 Y73.583
X290.921 Y71.967
X290.924 Y69.542
X290.925 Y62.268
Y37.213
Y31.555
X290.924 Y30.747
X290.921 Y29.939
X290.913 Y29.131
X290.9 Y28.322
X290.883 Y27.514
X290.862 Y26.706
X290.836 Y25.899
X290.801 Y25.091
X290.756 Y24.284
X290.699 Y23.478
X290.633 Y22.672
X290.559 Y21.867
X290.476 Y21.064
X290.381 Y20.261
X290.272 Y19.46
X290.152 Y18.661
X290.021 Y17.863
X289.881 Y17.067
X289.732 Y16.273
X289.57 Y15.481
X289.394 Y14.692
X289.206 Y13.906
X289.008 Y13.122
X288.801 Y12.341
X288.585 Y11.562
X288.355 Y10.787
X288.113 Y10.016
X287.859 Y9.249
X287.595 Y8.485
X287.323 Y7.724
X287.041 Y6.967
X286.746 Y6.214
X286.439 Y5.467
X286.121 Y4.724
X285.793 Y3.984
X285.458 Y3.249
X285.112 Y2.519
X284.754 Y1.794
X284.384 Y1.076
X284.004 Y0.362
X283.615 Y-0.346
X283.219 Y-1.051
X282.812 Y-1.749
X282.393 Y-2.44
X281.963 Y-3.125
X281.524 Y-3.803
X281.077 Y-4.477
X280.623 Y-5.145
X280.157 Y-5.806
X279.68 Y-6.458
X279.194 Y-7.104
X278.698 Y-7.742
X278.196 Y-8.375
X277.686 Y-9.002
X277.165 Y-9.621
X276.635 Y-10.23
X276.095 Y-10.832
X275.547 Y-11.426
X274.993 Y-12.015
X274.431 Y-12.596
X273.86 Y-13.167
X273.279 Y-13.729
X272.69 Y-14.282
X272.094 Y-14.828
X271.492 Y-15.368
X270.883 Y-15.899
X270.265 Y-16.42
X269.638 Y-16.93
X269.004 Y-17.431
X268.364 Y-17.925
X267.719 Y-18.412
X267.066 Y-18.889
X266.406 Y-19.355
X265.738 Y-19.81
X265.063 Y-20.255
X264.384 Y-20.693
X263.7 Y-21.124
X263.009 Y-21.543
X262.311 Y-21.95
X261.607 Y-22.346
X260.897 Y-22.733
X260.183 Y-23.112
X259.465 Y-23.483
X258.74 Y-23.841
X258.01 Y-24.187
X257.274 Y-24.522
X256.534 Y-24.847
X255.791 Y-25.164
X255.044 Y-25.472
X254.291 Y-25.767
X253.534 Y-26.05
X252.772 Y-26.321
X252.008 Y-26.582
X251.24 Y-26.836
X250.469 Y-27.079
X249.694 Y-27.309
X248.916 Y-27.525
X248.134 Y-27.73
X247.35 Y-27.926
X246.564 Y-28.115
X245.775 Y-28.291
X244.983 Y-28.453
X244.189 Y-28.603
X243.393 Y-28.74
X242.595 Y-28.869
X241.796 Y-28.99
X240.995 Y-29.098
X240.192 Y-29.191
X239.388 Y-29.272
X238.582 Y-29.342
X237.776 Y-29.403
X236.97 Y-29.456
X236.163 Y-29.499
X235.355 Y-29.533
X234.547 Y-29.558
X233.739 Y-29.577
X232.931 Y-29.59
X232.123 Y-29.598
X231.315 Y-29.602
X230.507
X229.698 Y-29.599
X228.89 Y-29.595
X228.082 Y-29.588
X227.274 Y-29.579
X226.466 Y-29.568
X225.658 Y-29.556
X224.849 Y-29.541
X224.041 Y-29.526
X223.233 Y-29.509
X222.425 Y-29.49
X221.617 Y-29.47
X220.809 Y-29.448
X220.001 Y-29.424
X219.194 Y-29.399
X218.386 Y-29.373
X217.578 Y-29.345
X216.77 Y-29.315
X215.963 Y-29.284
X215.155 Y-29.251
X214.348 Y-29.217
X213.54 Y-29.181
X212.733 Y-29.142
X211.926 Y-29.103
X211.118 Y-29.061
X210.311 Y-29.019
X209.504 Y-28.974
X208.697 Y-28.928
X207.891 Y-28.879
X207.084 Y-28.829
X206.277 Y-28.777
X205.471 Y-28.724
X204.665 Y-28.668
X203.858 Y-28.611
X203.052 Y-28.551
X202.246 Y-28.491
X201.441 Y-28.428
X200.635 Y-28.362
X199.83 Y-28.295
X199.024 Y-28.226
X198.219 Y-28.156
X197.414 Y-28.083
X196.609 Y-28.008
X195.805 Y-27.931
X195.001 Y-27.852
X194.196 Y-27.771
X193.393 Y-27.687
X192.589 Y-27.6
X191.786 Y-27.51
X190.983 Y-27.418
X190.18 Y-27.324
X189.377 Y-27.228
X187.773 Y-27.035
X186.97 Y-26.936
X186.169 Y-26.834
X185.367 Y-26.729
X184.566 Y-26.621
X183.766 Y-26.51
X182.965 Y-26.397
X182.165 Y-26.282
X181.365 Y-26.166
X180.566 Y-26.049
X179.766 Y-25.93
X178.968 Y-25.807
X178.169 Y-25.681
X177.371 Y-25.552
X176.574 Y-25.42
X175.777 Y-25.287
X174.98 Y-25.151
X174.183 Y-25.014
X173.387 Y-24.876
X172.591 Y-24.735
X171.796 Y-24.59
X171.002 Y-24.442
X170.208 Y-24.291
X169.414 Y-24.138
X168.621 Y-23.983
X167.828 Y-23.827
X167.035 Y-23.669
X166.243 Y-23.508
X165.452 Y-23.344
X164.661 Y-23.177
X163.871 Y-23.007
X163.081 Y-22.834
X162.292 Y-22.66
X161.503 Y-22.485
X160.714 Y-22.307
X159.926 Y-22.127
X159.139 Y-21.944
X158.353 Y-21.757
X157.567 Y-21.569
X156.782 Y-21.378
X155.997 Y-21.185
X155.212 Y-20.992
X154.428 Y-20.796
X153.644 Y-20.597
X152.862 Y-20.395
X152.08 Y-20.191
X151.298 Y-19.984
X150.517 Y-19.777
X149.736 Y-19.567
X148.956 Y-19.356
X148.177 Y-19.143
X147.398 Y-18.927
X146.62 Y-18.709
X145.842 Y-18.489
X145.065 Y-18.267
X144.288 Y-18.045
X143.511 Y-17.821
X142.735 Y-17.594
X141.96 Y-17.366
X141.185 Y-17.136
X140.411 Y-16.905
X139.637 Y-16.672
X138.863 Y-16.438
X138.09 Y-16.203
X137.317 Y-15.966
X136.545 Y-15.728
X135.773 Y-15.488
X135.002 Y-15.246
X134.231 Y-15.004
X132.689 Y-14.517
X130.378 Y-13.782
X126.528 Y-12.555
X121.139 Y-10.832
X118.06 Y-9.847
X117.29 Y-9.601
X116.519 Y-9.358
X115.748 Y-9.116
X114.976 Y-8.876
X114.204 Y-8.638
X113.431 Y-8.401
X111.885 Y-7.929
X109.565 Y-7.226
X108.017 Y-6.758
X107.243 Y-6.526
X106.469 Y-6.295
X105.693 Y-6.067
X104.917 Y-5.842
X104.14 Y-5.619
X103.363 Y-5.398
X102.585 Y-5.178
X101.807 Y-4.96
X101.027 Y-4.745
X100.247 Y-4.533
X99.467 Y-4.324
X98.686 Y-4.117
X97.904 Y-3.911
X97.122 Y-3.707
X96.339 Y-3.506
X95.556 Y-3.307
X94.771 Y-3.112
X93.986 Y-2.919
X93.201 Y-2.729
X92.415 Y-2.54
X91.629 Y-2.353
X90.842 Y-2.169
X90.054 Y-1.988
X89.266 Y-1.811
X88.476 Y-1.636
X87.687 Y-1.464
X86.897 Y-1.294
X86.106 Y-1.125
X85.315 Y-0.959
X84.523 Y-0.797
X83.731 Y-0.638
X82.938 Y-0.482
X82.144 Y-0.329
X81.35 Y-0.178
X80.556 Y-0.029
X79.761 Y0.118
X78.966 Y0.262
X78.17 Y0.402
X77.373 Y0.539
X76.576 Y0.673
X75.779 Y0.805
X74.981 Y0.935
X74.183 Y1.063
X73.385 Y1.188
X72.586 Y1.31
X71.786 Y1.429
X70.986 Y1.544
X70.186 Y1.657
X69.385 Y1.768
X68.584 Y1.877
X67.783 Y1.984
X66.982 Y2.088
X66.18 Y2.189
X65.378 Y2.287
X64.575 Y2.382
X63.772 Y2.475
X62.969 Y2.566
X62.166 Y2.655
X61.362 Y2.742
X60.558 Y2.827
X59.754 Y2.909
X58.95 Y2.987
X58.145 Y3.063
X57.34 Y3.137
X56.535 Y3.209
X55.73 Y3.28
X54.925 Y3.349
X54.119 Y3.416
X53.314 Y3.48
X52.508 Y3.541
X51.702 Y3.6
X50.895 Y3.657
X50.089 Y3.712
X49.283 Y3.765
X48.476 Y3.818
X47.67 Y3.869
X46.863 Y3.917
X46.056 Y3.962
X45.249 Y4.006
X44.441 Y4.047
X43.634 Y4.086
X42.02 Y4.162
X41.212 Y4.198
X40.405 Y4.232
X39.597 Y4.264
X38.789 Y4.294
X37.982 Y4.321
X37.174 Y4.347
X36.366 Y4.372
X34.75 Y4.419
X33.942 Y4.441
X33.134 Y4.461
X32.326 Y4.479
X31.518 Y4.495
X30.71 Y4.51
X29.902 Y4.523
X28.285 Y4.546
X26.669 Y4.567
X25.861 Y4.575
X25.053 Y4.582
X24.245 Y4.587
X23.436 Y4.591
X21.82 Y4.595
X20.203 Y4.597
X19.395
X18.587 Y4.596
X17.779 Y4.593
X16.97 Y4.588
X16.162 Y4.582
X14.546 Y4.566
X12.929 Y4.547
X9.697 Y4.506
X4.04 Y4.427
X2.423 Y4.402
X0.807 Y4.374
X-1.617 Y4.326
X-5.657 Y4.242
X-12.122 Y4.105
X-13.738 Y4.073
X-16.162 Y4.029
X-20.203 Y3.96
X-26.668 Y3.853
X-27.476 Y3.842
X-28.284 Y3.831
X-29.092 Y3.822
X-30.709 Y3.808
X-32.325 Y3.797
X-33.942 Y3.788
X-34.75 Y3.785
X-35.558 Y3.784
X-36.366 Y3.785
X-37.175 Y3.787
X-38.791 Y3.794
X-40.407 Y3.805
X-41.216 Y3.811
X-42.024 Y3.819
X-42.832 Y3.828
X-43.64 Y3.841
X-44.448 Y3.855
X-45.256 Y3.87
X-46.064 Y3.888
X-47.681 Y3.925
X-48.489 Y3.945
X-49.296 Y3.966
X-50.104 Y3.991
X-50.912 Y4.018
X-51.72 Y4.048
X-52.527 Y4.08
X-53.335 Y4.114
X-54.142 Y4.149
X-54.95 Y4.185
X-55.757 Y4.223
X-56.564 Y4.263
X-57.371 Y4.306
X-58.178 Y4.353
X-58.985 Y4.403
X-59.792 Y4.456
X-60.598 Y4.511
X-61.404 Y4.567
X-62.21 Y4.625
X-63.016 Y4.685
X-63.822 Y4.748
X-64.628 Y4.816
X-65.433 Y4.888
X-66.237 Y4.963
X-67.042 Y5.042
X-67.846 Y5.122
X-68.65 Y5.205
X-69.454 Y5.289
X-70.257 Y5.377
X-71.06 Y5.47
X-71.862 Y5.569
X-72.664 Y5.672
X-73.465 Y5.779
X-74.266 Y5.889
X-75.066 Y6.002
X-75.866 Y6.116
X-76.666 Y6.234
X-77.464 Y6.359
X-78.262 Y6.489
X-79.059 Y6.626
X-79.854 Y6.767
X-80.649 Y6.912
X-81.444 Y7.06
X-82.238 Y7.211
X-83.031 Y7.365
X-83.824 Y7.525
X-84.615 Y7.691
X-85.405 Y7.862
X-86.193 Y8.038
X-86.98 Y8.222
X-87.766 Y8.412
X-88.551 Y8.607
X-89.333 Y8.808
X-90.114 Y9.017
X-90.893 Y9.231
X-91.671 Y9.452
X-92.447 Y9.679
X-93.22 Y9.914
X-93.991 Y10.155
X-94.761 Y10.402
X-95.528 Y10.658
X-96.292 Y10.92
X-97.054 Y11.19
X-97.813 Y11.466
X-98.57 Y11.751
X-99.323 Y12.044
X-100.074 Y12.344
X-100.821 Y12.652
X-101.564 Y12.969
X-102.305 Y13.293
X-103.042 Y13.625
X-103.774 Y13.967
X-104.503 Y14.317
X-105.227 Y14.675
X-105.947 Y15.043
X-106.662 Y15.419
X-107.373 Y15.804
X-108.078 Y16.198
X-108.779 Y16.602
X-109.473 Y17.015
X-110.163 Y17.436
X-110.847 Y17.867
X-111.524 Y18.308
X-112.196 Y18.758
X-112.861 Y19.217
X-113.519 Y19.686
X-114.17 Y20.165
X-114.815 Y20.652
X-115.452 Y21.15
X-116.081 Y21.657
X-116.703 Y22.173
X-117.318 Y22.698
X-117.923 Y23.233
X-118.521 Y23.777
X-119.111 Y24.33
X-119.692 Y24.892
X-120.264 Y25.463
X-120.828 Y26.042
X-121.383 Y26.629
X-121.928 Y27.226
X-122.464 Y27.831
X-122.991 Y28.443
X-123.509 Y29.064
X-124.017 Y29.693
X-124.516 Y30.329
X-125.005 Y30.972
X-125.484 Y31.623
X-125.953 Y32.281
X-126.414 Y32.945
X-126.865 Y33.616
X-127.305 Y34.294
X-127.735 Y34.978
X-128.157 Y35.668
X-128.568 Y36.363
X-128.969 Y37.065
X-129.361 Y37.772
X-129.745 Y38.483
X-130.118 Y39.201
X-130.481 Y39.923
X-130.835 Y40.649
X-131.181 Y41.38
X-131.517 Y42.115
X-131.843 Y42.854
X-132.161 Y43.597
X-132.471 Y44.344
X-132.772 Y45.094
X-133.063 Y45.848
X-133.346 Y46.605
X-133.622 Y47.365
X-133.888 Y48.128
X-134.146 Y48.894
X-134.397 Y49.662
X-134.64 Y50.433
X-134.875 Y51.206
X-135.102 Y51.982
X-135.321 Y52.76
X-135.534 Y53.539
X-135.739 Y54.321
X-135.937 Y55.105
X-136.128 Y55.89
X-136.311 Y56.677
X-136.489 Y57.466
X-136.66 Y58.256
X-136.824 Y59.047
X-136.981 Y59.84
X-137.132 Y60.634
X-137.278 Y61.429
X-137.417 Y62.225
X-137.55 Y63.022
X-137.676 Y63.821
X-137.797 Y64.62
X-137.914 Y65.42
X-138.025 Y66.22
X-138.129 Y67.022
X-138.227 Y67.824
X-138.321 Y68.627
X-138.411 Y69.43
X-138.496 Y70.234
X-138.574 Y71.038
X-138.648 Y71.843
X-138.716 Y72.648
X-138.782 Y73.454
X-138.842 Y74.26
X-138.897 Y75.066
X-138.948 Y75.873
X-138.994 Y76.68
X-139.036 Y77.487
X-139.076 Y78.294
X-139.11 Y79.102
X-139.14 Y79.909
X-139.165 Y80.717
X-139.155 Y81.121
X-139.052 Y81.512
X-138.699 Y82.239
X-138.176 Y82.855
X-137.538 Y83.475
X-137.389 Y83.653
X-137.278 Y83.856
X-137.21 Y84.078
X-137.187 Y84.309
Y85.762
G3 X-137.704 Y86.244 I-0.5 J-0.017
G1 X-137.791 Y86.241 Z-9.992
X-137.875 Y86.238 Z-9.97
X-137.954 Y86.235 Z-9.933
X-138.025 Y86.233 Z-9.883
X-138.087 Y86.231 Z-9.821
X-138.137 Y86.229 Z-9.75
X-138.174 Y86.228 Z-9.671
X-138.196 Y86.227 Z-9.587
X-138.204 Z-9.5
G0 Z5
X289.402 Y88.635
Z-9
G1 Z-9.5 F1000
X289.398 Y88.629 Z-9.587
X289.386 Y88.609 Z-9.671
X289.368 Y88.578 Z-9.75
X289.342 Y88.535 Z-9.821
X289.311 Y88.482 Z-9.883
X289.274 Y88.42 Z-9.933
X289.234 Y88.352 Z-9.97
X289.191 Y88.28 Z-9.992
X289.146 Y88.205 Z-10
G3 X288.925 Y87.452 I1.36 J-0.809
G1 Y27.728
X288.92 Y27.361
X288.917 Y27.177
X288.911 Y26.994
X288.735 Y22.953
X288.725 Y22.77
X288.672 Y22.219
X288.116 Y17.995
X288.105 Y17.926
X288.008 Y17.444
X287.97 Y17.26
X287.187 Y13.727
X287.071 Y13.22
X287.025 Y13.036
X285.717 Y8.888
X285.692 Y8.812
X285.491 Y8.261
X283.969 Y4.588
X283.73 Y4.037
X283.698 Y3.969
X281.821 Y0.364
X281.628 Y-0.003
X281.527 Y-0.187
X281.494 Y-0.241
X279.189 Y-3.86
X279.107 Y-3.985
X278.805 Y-4.411
X278.739 Y-4.502
X276.131 Y-7.9
X275.975 Y-8.084
X275.801 Y-8.275
X273.116 Y-11.206
X273.047 Y-11.279
X272.571 Y-11.757
X269.558 Y-14.518
X269.362 Y-14.695
X269.191 Y-14.84
X268.456 Y-15.405
X265.792 Y-17.45
X265.278 Y-17.817
X265.151 Y-17.9
X261.532 Y-20.205
X261.478 Y-20.238
X261.294 Y-20.338
X260.851 Y-20.572
X257.323 Y-22.408
X257.254 Y-22.439
X256.704 Y-22.681
X253.215 Y-24.127
X253.031 Y-24.201
X252.48 Y-24.405
X248.256 Y-25.737
X248.073 Y-25.782
X247.572 Y-25.898
X244.033 Y-26.683
X243.849 Y-26.721
X243.39 Y-26.816
X243.298 Y-26.829
X239.214 Y-27.367
X239.075 Y-27.384
X238.524 Y-27.441
X234.3 Y-27.625
X233.933 Y-27.633
X233.749 Y-27.636
X233.566 Y-27.637
X228.608 Y-27.609
X228.241 Y-27.606
X227.506 Y-27.594
X223.282 Y-27.52
X222.732 Y-27.509
X217.773 Y-27.362
X217.039 Y-27.333
X212.815 Y-27.153
X212.264 Y-27.126
X208.041 Y-26.892
X207.49 Y-26.858
X206.869 Y-26.816
X203.083 Y-26.554
X202.348 Y-26.496
X198.859 Y-26.206
X198.308 Y-26.159
X197.941 Y-26.124
X194.085 Y-25.749
X193.901 Y-25.73
X189.678 Y-25.258
X185.821 Y-24.77
X185.454 Y-24.722
X184.536 Y-24.593
X181.781 Y-24.203
X181.047 Y-24.092
X177.925 Y-23.602
X177.558 Y-23.543
X177.359 Y-23.51
X173.885 Y-22.913
X173.702 Y-22.88
X172.901 Y-22.772
X171.313 Y-22.467
X169.726 Y-22.159
X168.933 Y-22.003
X168.141 Y-21.845
X167.348 Y-21.685
X166.557 Y-21.523
X165.765 Y-21.358
X164.975 Y-21.19
X164.185 Y-21.02
X163.395 Y-20.848
X162.605 Y-20.675
X161.817 Y-20.498
X161.028 Y-20.32
X160.241 Y-20.138
X159.454 Y-19.954
X158.667 Y-19.768
X157.881 Y-19.579
X157.096 Y-19.389
X156.311 Y-19.197
X155.527 Y-19.002
X154.743 Y-18.804
X153.96 Y-18.604
X153.177 Y-18.402
X152.395 Y-18.198
X151.614 Y-17.992
X150.832 Y-17.784
X150.052 Y-17.574
X149.272 Y-17.362
X148.493 Y-17.148
X147.714 Y-16.931
X146.936 Y-16.713
X146.158 Y-16.493
X145.381 Y-16.272
X144.604 Y-16.049
X143.828 Y-15.824
X143.052 Y-15.597
X142.277 Y-15.368
X141.502 Y-15.138
X140.728 Y-14.907
X139.954 Y-14.674
X139.18 Y-14.439
X138.407 Y-14.203
X137.635 Y-13.966
X136.862 Y-13.727
X136.091 Y-13.487
X134.548 Y-13.003
X133.007 Y-12.517
X130.696 Y-11.783
X127.615 Y-10.802
X125.305 Y-10.065
X119.917 Y-8.341
X119.147 Y-8.095
X118.376 Y-7.851
X117.606 Y-7.607
X116.834 Y-7.365
X116.063 Y-7.124
X115.291 Y-6.885
X114.519 Y-6.647
X112.973 Y-6.173
X111.427 Y-5.702
X109.88 Y-5.233
X109.106 Y-5
X108.332 Y-4.768
X107.557 Y-4.537
X106.782 Y-4.309
X106.006 Y-4.082
X105.23 Y-3.857
X104.453 Y-3.635
X103.675 Y-3.414
X102.897 Y-3.195
X102.118 Y-2.979
X101.339 Y-2.765
X100.559 Y-2.554
X99.778 Y-2.345
X98.997 Y-2.137
X98.215 Y-1.932
X97.433 Y-1.729
X96.65 Y-1.529
X95.866 Y-1.332
X95.082 Y-1.137
X94.297 Y-0.944
X93.511 Y-0.754
X92.725 Y-0.565
X91.939 Y-0.38
X91.151 Y-0.197
X90.363 Y-0.017
X89.575 Y0.16
X88.786 Y0.335
X87.996 Y0.508
X87.206 Y0.678
X86.415 Y0.845
X85.624 Y1.01
X84.832 Y1.172
X84.04 Y1.33
X83.247 Y1.486
X82.453 Y1.64
X81.659 Y1.791
X80.865 Y1.94
X80.07 Y2.086
X79.274 Y2.229
X78.478 Y2.369
X77.682 Y2.506
X76.885 Y2.641
X76.087 Y2.773
X75.29 Y2.904
X74.492 Y3.031
X73.693 Y3.156
X72.894 Y3.277
X72.095 Y3.396
X71.295 Y3.512
X70.494 Y3.625
X69.694 Y3.737
X68.893 Y3.846
X68.092 Y3.953
X67.29 Y4.057
X66.489 Y4.157
X65.686 Y4.256
X64.884 Y4.351
X64.081 Y4.445
X63.278 Y4.537
X62.475 Y4.626
X61.671 Y4.713
X60.867 Y4.798
X60.063 Y4.879
X59.259 Y4.959
X58.454 Y5.036
X57.65 Y5.111
X56.845 Y5.184
X56.04 Y5.255
X55.234 Y5.324
X54.429 Y5.39
X53.623 Y5.454
X52.817 Y5.516
X52.011 Y5.576
X51.205 Y5.633
X50.399 Y5.69
X49.592 Y5.744
X48.786 Y5.797
X47.979 Y5.847
X47.172 Y5.895
X46.365 Y5.941
X45.558 Y5.985
X44.751 Y6.027
X43.944 Y6.068
X43.137 Y6.107
X42.329 Y6.145
X41.522 Y6.181
X40.714 Y6.215
X39.907 Y6.247
X39.099 Y6.278
X38.291 Y6.306
X37.484 Y6.333
X36.676 Y6.359
X35.868 Y6.384
X35.06 Y6.407
X34.252 Y6.429
X33.444 Y6.449
X32.636 Y6.467
X31.828 Y6.484
X31.02 Y6.5
X30.212 Y6.514
X28.596 Y6.539
X27.787 Y6.55
X26.979 Y6.56
X26.171 Y6.568
X25.363 Y6.575
X24.555 Y6.581
X23.746 Y6.586
X22.13 Y6.592
X20.513 Y6.594
X19.705
X18.897 Y6.593
X18.089 Y6.59
X17.281 Y6.586
X16.472 Y6.58
X14.856 Y6.566
X13.24 Y6.549
X10.815 Y6.519
X6.774 Y6.465
X4.35 Y6.431
X2.733 Y6.406
X1.117 Y6.378
X-1.307 Y6.331
X-4.539 Y6.266
X-11.004 Y6.129
X-13.428 Y6.081
X-15.852 Y6.036
X-19.893 Y5.966
X-23.125 Y5.912
X-25.55 Y5.872
X-27.166 Y5.849
X-27.974 Y5.838
X-29.591 Y5.821
X-31.207 Y5.807
X-32.823 Y5.796
X-33.632 Y5.792
X-34.44 Y5.79
X-35.248 Y5.789
X-36.056
X-36.865 Y5.79
X-38.481 Y5.796
X-40.097 Y5.805
X-40.906 Y5.812
X-41.714 Y5.82
X-42.522 Y5.83
X-43.33 Y5.842
X-44.138 Y5.855
X-44.946 Y5.87
X-45.755 Y5.886
X-46.563 Y5.903
X-47.371 Y5.922
X-48.179 Y5.942
X-48.987 Y5.964
X-49.794 Y5.989
X-50.602 Y6.016
X-51.41 Y6.045
X-52.218 Y6.076
X-53.025 Y6.108
X-53.833 Y6.142
X-54.64 Y6.178
X-55.447 Y6.216
X-56.255 Y6.257
X-57.062 Y6.301
X-57.869 Y6.347
X-58.675 Y6.396
X-59.482 Y6.448
X-60.288 Y6.501
X-61.095 Y6.557
X-61.901 Y6.614
X-62.707 Y6.675
X-63.512 Y6.74
X-64.318 Y6.807
X-65.123 Y6.879
X-65.928 Y6.953
X-66.732 Y7.03
X-67.537 Y7.109
X-68.341 Y7.192
X-69.144 Y7.277
X-69.948 Y7.367
X-70.75 Y7.461
X-71.553 Y7.559
X-72.354 Y7.661
X-73.156 Y7.767
X-73.957 Y7.876
X-74.757 Y7.987
X-75.557 Y8.103
X-76.356 Y8.224
X-77.154 Y8.351
X-77.952 Y8.482
X-78.749 Y8.618
X-79.545 Y8.758
X-80.34 Y8.901
X-81.135 Y9.049
X-81.928 Y9.201
X-82.721 Y9.358
X-83.513 Y9.519
X-84.304 Y9.687
X-85.094 Y9.86
X-85.882 Y10.039
X-86.668 Y10.223
X-87.454 Y10.414
X-88.238 Y10.612
X-89.02 Y10.816
X-89.8 Y11.026
X-90.579 Y11.242
X-91.356 Y11.466
X-92.13 Y11.696
X-92.903 Y11.933
X-93.674 Y12.177
X-94.442 Y12.428
X-95.207 Y12.687
X-95.971 Y12.953
X-96.731 Y13.227
X-97.489 Y13.508
X-98.243 Y13.797
X-98.995 Y14.095
X-99.743 Y14.4
X-100.488 Y14.714
X-101.23 Y15.035
X-101.967 Y15.366
X-102.701 Y15.705
X-103.43 Y16.053
X-104.155 Y16.41
X-104.876 Y16.776
X-105.592 Y17.151
X-106.303 Y17.535
X-107.009 Y17.929
X-107.709 Y18.332
X-108.404 Y18.745
X-109.094 Y19.167
X-109.777 Y19.599
X-110.454 Y20.041
X-111.124 Y20.492
X-111.788 Y20.954
X-112.444 Y21.425
X-113.094 Y21.905
X-113.736 Y22.396
X-114.371 Y22.897
X-114.998 Y23.407
X-115.617 Y23.927
X-116.228 Y24.456
X-116.83 Y24.995
X-117.424 Y25.543
X-118.009 Y26.101
X-118.585 Y26.668
X-119.152 Y27.244
X-119.71 Y27.829
X-120.258 Y28.422
X-120.797 Y29.025
X-121.326 Y29.636
X-121.846 Y30.255
X-122.356 Y30.882
X-122.856 Y31.517
X-123.345 Y32.16
X-123.825 Y32.81
X-124.295 Y33.468
X-124.755 Y34.132
X-125.205 Y34.804
X-125.645 Y35.482
X-126.074 Y36.167
X-126.494 Y36.858
X-126.903 Y37.554
X-127.303 Y38.257
X-127.692 Y38.965
X-128.072 Y39.679
X-128.442 Y40.397
X-128.802 Y41.12
X-129.153 Y41.849
X-129.495 Y42.581
X-129.827 Y43.318
X-130.15 Y44.059
X-130.463 Y44.804
X-130.768 Y45.553
X-131.063 Y46.305
X-131.35 Y47.06
X-131.628 Y47.819
X-131.898 Y48.581
X-132.159 Y49.346
X-132.412 Y50.114
X-132.657 Y50.884
X-132.894 Y51.657
X-133.123 Y52.432
X-133.344 Y53.209
X-133.558 Y53.989
X-133.764 Y54.77
X-133.963 Y55.554
X-134.154 Y56.339
X-134.343 Y57.14
X-134.379 Y57.296
X-134.46 Y57.663
X-134.5 Y57.847
X-135.112 Y60.785
X-135.216 Y61.336
X-135.249 Y61.52
X-135.745 Y64.458
X-135.832 Y65.009
X-135.858 Y65.193
X-136.277 Y68.315
X-136.325 Y68.682
X-136.346 Y68.866
X-136.702 Y72.355
X-136.717 Y72.539
X-136.743 Y72.906
X-136.766 Y73.274
X-137.156 Y79.701
X-137.183 Y80.252
X-137.187 Y80.436
Y84.309
G3 X-137.704 Y84.791 I-0.5 J-0.017
G1 X-137.791 Y84.788 Z-9.992
X-137.875 Y84.785 Z-9.97
X-137.954 Y84.782 Z-9.933
X-138.025 Y84.78 Z-9.883
X-138.087 Y84.778 Z-9.821
X-138.137 Y84.776 Z-9.75
X-138.174 Y84.775 Z-9.671
X-138.196 Y84.774 Z-9.587
X-138.204 Z-9.5
G0 Z5
X174.778 Y-23.565
Z-9
G1 Z-9.5 F1000
X174.772 Y-23.56 Z-9.587
X174.755 Y-23.545 Z-9.671
X174.727 Y-23.521 Z-9.75
X174.69 Y-23.488 Z-9.821
X174.644 Y-23.447 Z-9.883
X174.59 Y-23.4 Z-9.933
X174.531 Y-23.348 Z-9.97
X174.467 Y-23.293 Z-9.992
X174.402 Y-23.235 Z-10
G3 X173.702 Y-22.88 I-1.044 J-1.189
G1 X170.199 Y-22.225
X170.029 Y-22.191
X169.294 Y-22.039
X163.418 Y-20.808
X162.867 Y-20.69
X162.684 Y-20.648
X156.195 Y-19.103
X156.073 Y-19.073
X149.938 Y-17.45
X149.462 Y-17.321
X149.266 Y-17.266
X143.402 Y-15.58
X143.219 Y-15.526
X142.299 Y-15.246
X137.159 Y-13.673
X136.424 Y-13.439
X117.694 Y-7.406
X113.287 Y-5.987
X112.368 Y-5.704
X107.538 Y-4.227
X107.227 Y-4.133
X106.859 Y-4.026
X101.534 Y-2.499
X101.35 Y-2.446
X100.983 Y-2.346
X95.474 Y-0.895
X94.923 Y-0.754
X89.047 Y0.637
X88.863 Y0.681
X88.629 Y0.732
X82.62 Y1.981
X82.069 Y2.089
X80.967 Y2.286
X76.009 Y3.169
X75.458 Y3.264
X75.275 Y3.295
X72.336 Y3.752
X71.969 Y3.807
X71.602 Y3.861
X68.664 Y4.274
X68.48 Y4.299
X67.929 Y4.371
X64.808 Y4.762
X64.257 Y4.827
X61.135 Y5.173
X60.584 Y5.233
X56.911 Y5.587
X56.177 Y5.65
X52.688 Y5.938
X52.504 Y5.951
X44.608 Y6.446
X44.057 Y6.478
X36.043 Y6.792
X35.426 Y6.812
X27.53 Y6.966
X26.979 Y6.974
X26.612 Y6.976
X18.899 Y7.004
X18.349 Y7.002
X10.452 Y6.935
X9.718 Y6.925
X-7.176 Y6.6
X-23.52 Y6.26
X-23.887 Y6.253
X-31.783 Y6.158
X-32.518 Y6.154
X-39.863 Y6.152
X-40.414 Y6.154
X-48.31 Y6.283
X-48.677 Y6.296
X-56.206 Y6.585
X-56.39 Y6.595
X-63.552 Y7.07
X-63.735 Y7.084
X-64.102 Y7.114
X-64.286 Y7.129
X-70.897 Y7.8
X-71.448 Y7.859
X-71.631 Y7.88
X-74.57 Y8.27
X-75.12 Y8.346
X-75.304 Y8.373
X-78.242 Y8.833
X-78.793 Y8.924
X-78.977 Y8.956
X-81.915 Y9.494
X-82.466 Y9.604
X-83.064 Y9.73
X-85.588 Y10.267
X-88.652 Y11.016
X-89.26 Y11.176
X-91.647 Y11.846
X-92.198 Y12.004
X-92.382 Y12.06
X-95.32 Y13.002
X-96.238 Y13.335
X-98.258 Y14.071
X-98.442 Y14.142
X-98.993 Y14.368
X-101.196 Y15.278
X-101.38 Y15.359
X-103.767 Y16.468
X-103.885 Y16.526
X-104.502 Y16.84
X-106.154 Y17.697
X-106.365 Y17.811
X-106.889 Y18.106
X-108.358 Y18.952
X-108.607 Y19.097
X-108.725 Y19.168
X-110.378 Y20.217
X-110.562 Y20.336
X-111.112 Y20.707
X-112.226 Y21.484
X-112.398 Y21.606
X-112.765 Y21.872
X-112.949 Y22.008
X-114.188 Y22.953
X-114.426 Y23.137
X-114.649 Y23.321
X-115.887 Y24.348
X-115.974 Y24.422
X-116.254 Y24.677
X-118.538 Y26.81
X-118.913 Y27.177
X-119.009 Y27.274
X-121.396 Y29.869
X-121.594 Y30.116
X-121.947 Y30.558
X-123.629 Y32.687
X-123.774 Y32.87
X-123.902 Y33.054
X-125.803 Y35.855
X-125.889 Y35.992
X-126.17 Y36.458
X-126.328 Y36.727
X-127.608 Y38.931
X-127.913 Y39.482
X-128.007 Y39.666
X-129.374 Y42.42
X-129.463 Y42.604
X-129.711 Y43.155
X-130.953 Y46.093
X-131.028 Y46.277
X-131.1 Y46.461
X-132.283 Y49.766
X-132.345 Y49.95
X-132.516 Y50.501
X-133.401 Y53.439
X-133.453 Y53.623
X-133.516 Y53.857
X-133.55 Y53.99
X-134.336 Y57.112
X-134.343 Y57.14
G3 X-134.955 Y57.494 I-0.483 J-0.13
G1 X-135.039 Y57.471 Z-9.992
X-135.12 Y57.449 Z-9.97
X-135.197 Y57.429 Z-9.933
X-135.265 Y57.411 Z-9.883
X-135.325 Y57.395 Z-9.821
X-135.373 Y57.382 Z-9.75
X-135.409 Y57.372 Z-9.671
X-135.431 Y57.366 Z-9.587
X-135.438 Y57.364 Z-9.5
G0 Z15

(2D Contour4)
G0 X128.687 Y-88.361
Z15
Z5
G1 Z-5 F333.3
X-292.425 F1000
G2 X-294.925 Y-85.861 I0 J2.5
G1 Y-27.361
G2 X-239.925 Y27.639 I55 J0
G1 X-239.92
X-237.592 Y27.634
X-237.58
X-235.279 Y27.618
X-235.266
X-232.991 Y27.591
X-232.979
X-230.731 Y27.553
X-230.719
X-228.496 Y27.504
X-228.483
X-226.287 Y27.445
X-226.274
X-224.103 Y27.375
X-224.089 Y27.374
X-221.945 Y27.294
X-221.932 Y27.293
X-219.813 Y27.202
X-219.799
X-217.706 Y27.1
X-217.692 Y27.099
X-215.625 Y26.987
X-215.61 Y26.986
X-213.569 Y26.864
X-213.555 Y26.863
X-211.538 Y26.731
X-211.523 Y26.73
X-209.531 Y26.587
X-209.517 Y26.586
X-207.55 Y26.433
X-207.535 Y26.432
X-205.592 Y26.27
X-205.577 Y26.269
X-203.657 Y26.097
X-203.642 Y26.095
X-201.746 Y25.914
X-201.731 Y25.913
X-199.859 Y25.722
X-199.844 Y25.72
X-197.994 Y25.521
X-197.978 Y25.519
X-196.151 Y25.31
X-196.136 Y25.308
X-194.331 Y25.091
X-194.315 Y25.089
X-192.532 Y24.862
X-192.516 Y24.86
X-190.755 Y24.625
X-190.74 Y24.623
X-189 Y24.38
X-188.984 Y24.377
X-187.265 Y24.126
X-187.249 Y24.123
X-185.551 Y23.863
X-185.535 Y23.861
X-183.858 Y23.593
X-183.842 Y23.59
X-182.185 Y23.315
X-182.169 Y23.312
X-180.531 Y23.028
X-180.515 Y23.026
X-178.897 Y22.735
X-178.881 Y22.732
X-177.281 Y22.434
X-177.265 Y22.431
X-175.683 Y22.125
X-175.668 Y22.122
X-174.104 Y21.81
X-174.088 Y21.807
X-172.542 Y21.489
X-172.528 Y21.485
X-170.997 Y21.16
X-170.982 Y21.157
X-169.468 Y20.826
X-169.453 Y20.823
X-167.955 Y20.485
X-167.941 Y20.482
X-166.457 Y20.139
X-166.443 Y20.136
X-164.974 Y19.787
X-164.96 Y19.784
X-163.506 Y19.43
X-163.493 Y19.427
X-162.051 Y19.068
X-162.038 Y19.065
X-160.61 Y18.701
X-160.597 Y18.698
X-159.181 Y18.329
X-159.169 Y18.326
X-157.765 Y17.953
X-157.753 Y17.95
X-156.361 Y17.572
X-156.35 Y17.569
X-154.968 Y17.188
X-154.957 Y17.185
X-153.586 Y16.8
X-153.57 Y16.795
X-150.857 Y16.015
X-150.839 Y16.009
X-148.161 Y15.215
X-148.144 Y15.21
X-145.498 Y14.406
X-145.483 Y14.401
X-142.863 Y13.587
X-142.851 Y13.583
X-140.255 Y12.762
X-140.245 Y12.758
X-137.668 Y11.931
X-137.661 Y11.929
X-135.096 Y11.098
X-135.092 Y11.096
X-132.538 Y10.264
X-127.448 Y8.602
X-122.362 Y6.96
X-119.816 Y6.152
X-117.259 Y5.355
X-114.692 Y4.57
X-112.108 Y3.8
X-109.504 Y3.047
X-106.877 Y2.312
X-104.224 Y1.598
X-101.538 Y0.905
X-100.187 Y0.568
X-98.826 Y0.237
X-97.456 Y-0.088
X-96.077 Y-0.407
X-94.69 Y-0.719
X-93.293 Y-1.025
X-91.887 Y-1.325
X-90.472 Y-1.617
X-89.047 Y-1.903
X-87.612 Y-2.181
X-86.167 Y-2.452
X-84.712 Y-2.716
X-83.246 Y-2.972
X-81.769 Y-3.221
X-80.281 Y-3.462
X-78.782 Y-3.694
X-77.272 Y-3.919
X-75.75 Y-4.136
X-74.216 Y-4.344
X-72.669 Y-4.544
X-71.111 Y-4.735
X-69.541 Y-4.918
X-67.958 Y-5.093
X-66.364 Y-5.26
X-64.757 Y-5.419
X-63.139 Y-5.57
X-61.51 Y-5.713
X-59.869 Y-5.848
X-58.216 Y-5.975
X-56.552 Y-6.094
X-54.877 Y-6.205
X-53.191 Y-6.309
X-51.494 Y-6.405
X-49.786 Y-6.494
X-48.067 Y-6.575
X-46.337 Y-6.648
X-44.596 Y-6.714
X-42.845 Y-6.773
X-41.084 Y-6.824
X-39.312 Y-6.869
X-37.53 Y-6.906
X-35.738 Y-6.937
X-33.937 Y-6.961
X-32.129 Y-6.98
X-28.483 Y-6.999
X-24.809 Y-6.998
X-21.107 Y-6.979
X-17.383 Y-6.942
X-13.637 Y-6.892
X-9.875 Y-6.829
X-6.1 Y-6.757
X-2.314 Y-6.677
X5.272 Y-6.507
X5.274
X12.846 Y-6.345
X12.853
X16.625 Y-6.275
X16.632
X20.389 Y-6.216
X20.399
X24.138 Y-6.173
X24.15
X27.868 Y-6.148
X27.882
X31.574 Y-6.144
X31.587
X33.423 Y-6.151
X33.432
X35.26 Y-6.164
X35.269 Y-6.165
X37.089 Y-6.185
X37.1
X38.911 Y-6.213
X38.922
X40.725 Y-6.249
X40.737
X42.53 Y-6.293
X42.542
X44.326 Y-6.346
X44.339
X46.113 Y-6.407
X46.126 Y-6.408
X47.889 Y-6.478
X47.904 Y-6.479
X49.655 Y-6.559
X49.671 Y-6.56
X51.411 Y-6.651
X51.427 Y-6.652
X53.155 Y-6.753
X53.172 Y-6.754
X54.888 Y-6.866
X54.906 Y-6.867
X56.608 Y-6.991
X56.628 Y-6.992
X58.317 Y-7.128
X58.337 Y-7.13
X60.013 Y-7.278
X60.033 Y-7.28
X61.695 Y-7.441
X61.717 Y-7.443
X63.364 Y-7.617
X63.387 Y-7.619
X65.019 Y-7.806
X65.042 Y-7.809
X66.66 Y-8.01
X66.684 Y-8.013
X68.286 Y-8.228
X68.311 Y-8.232
X69.897 Y-8.461
X69.924 Y-8.465
X71.494 Y-8.709
X71.521 Y-8.713
X73.074 Y-8.973
X73.102 Y-8.977
X74.639 Y-9.252
X74.668 Y-9.257
X76.187 Y-9.548
X76.217 Y-9.554
X77.718 Y-9.86
X77.75 Y-9.867
X79.233 Y-10.189
X79.266 Y-10.197
X80.73 Y-10.536
X80.765 Y-10.544
X82.21 Y-10.901
X82.245 Y-10.91
X83.671 Y-11.283
X83.708 Y-11.293
X85.115 Y-11.685
X85.153 Y-11.696
X86.539 Y-12.105
X86.578 Y-12.117
X87.945 Y-12.545
X87.985 Y-12.558
X89.331 Y-13.005
X89.373 Y-13.019
X90.697 Y-13.485
X90.74 Y-13.501
X92.043 Y-13.986
X92.087 Y-14.003
X93.368 Y-14.508
X93.412 Y-14.526
X94.672 Y-15.05
X94.717 Y-15.069
X95.954 Y-15.613
X96.001 Y-15.634
X97.216 Y-16.197
X97.263 Y-16.22
X98.456 Y-16.804
X98.505 Y-16.828
X99.676 Y-17.433
X99.725 Y-17.459
X100.874 Y-18.085
X100.924 Y-18.113
X102.051 Y-18.761
X102.101 Y-18.79
X103.207 Y-19.46
X103.257 Y-19.491
X104.341 Y-20.183
X104.392 Y-20.216
X105.454 Y-20.931
X105.504 Y-20.966
X106.544 Y-21.703
X106.594 Y-21.74
X107.613 Y-22.501
X107.663 Y-22.539
X108.66 Y-23.324
X108.71 Y-23.364
X109.685 Y-24.173
X109.735 Y-24.216
X110.688 Y-25.049
X110.736 Y-25.092
X111.668 Y-25.95
X111.716 Y-25.996
X112.626 Y-26.88
X112.673 Y-26.927
X113.561 Y-27.836
X113.606 Y-27.883
X114.474 Y-28.82
X114.518 Y-28.869
X115.365 Y-29.833
X115.409 Y-29.884
X116.235 Y-30.876
X116.275 Y-30.927
X117.081 Y-31.948
X117.123 Y-32.002
X117.907 Y-33.052
X117.945 Y-33.105
X118.708 Y-34.186
X118.746 Y-34.241
X119.487 Y-35.353
X119.522 Y-35.407
X120.242 Y-36.549
X120.276 Y-36.605
X120.974 Y-37.779
X121.005 Y-37.834
X121.682 Y-39.041
X121.713 Y-39.097
X122.367 Y-40.337
X122.388 Y-40.378
X122.707 Y-41.011
X122.72 Y-41.037
X123.034 Y-41.678
X123.048 Y-41.706
X123.356 Y-42.356
X123.369 Y-42.385
X123.671 Y-43.043
X123.683 Y-43.068
X123.98 Y-43.735
X123.992 Y-43.764
X124.283 Y-44.44
X124.295 Y-44.468
X124.58 Y-45.153
X124.59 Y-45.177
X124.87 Y-45.871
X124.88 Y-45.896
X125.155 Y-46.598
X125.167 Y-46.629
X125.435 Y-47.34
X125.444 Y-47.365
X125.707 Y-48.086
X125.716 Y-48.112
X125.973 Y-48.843
X125.981 Y-48.866
X126.233 Y-49.606
X126.242 Y-49.632
X126.488 Y-50.381
X126.496 Y-50.407
X126.737 Y-51.165
X126.744 Y-51.191
X126.978 Y-51.959
X126.986 Y-51.984
X127.214 Y-52.762
X127.221 Y-52.787
X127.443 Y-53.574
X127.45 Y-53.598
X127.666 Y-54.395
X127.672 Y-54.419
X127.882 Y-55.225
X127.889 Y-55.252
X128.092 Y-56.067
X128.097 Y-56.088
X128.295 Y-56.914
X128.301 Y-56.939
X128.492 Y-57.774
X128.497 Y-57.797
X128.682 Y-58.642
X128.687 Y-58.664
X128.866 Y-59.518
X128.87 Y-59.54
X129.043 Y-60.404
X129.048 Y-60.429
X129.214 Y-61.302
X129.218 Y-61.324
X129.378 Y-62.207
X129.382 Y-62.228
X129.536 Y-63.121
X129.54 Y-63.144
X129.687 Y-64.047
X129.69 Y-64.067
X129.831 Y-64.98
X129.834 Y-65
X129.969 Y-65.922
X129.972 Y-65.944
X130.1 Y-66.877
X130.103 Y-66.898
X130.224 Y-67.84
X130.226 Y-67.859
X130.341 Y-68.811
X130.343 Y-68.832
X130.451 Y-69.794
X130.453 Y-69.812
X130.555 Y-70.783
X130.557 Y-70.804
X130.652 Y-71.785
X130.654 Y-71.802
X130.743 Y-72.794
X130.745 Y-72.813
X130.827 Y-73.815
X130.828 Y-73.834
X130.903 Y-74.845
X130.904 Y-74.864
X130.972 Y-75.885
X130.973 Y-75.901
X131.035 Y-76.932
X131.037 Y-76.951
X131.092 Y-77.992
Y-78.009
X131.14 Y-79.061
X131.141 Y-79.078
X131.182 Y-80.139
Y-80.141
X131.185 Y-80.22
X131.187 Y-80.315
Y-85.861
G2 X128.687 Y-88.361 I-2.5 J0
G1 Z-10 F333.3
X-292.425 F1000
G2 X-294.925 Y-85.861 I0 J2.5
G1 Y-27.361
G2 X-239.925 Y27.639 I55 J0
G1 X-239.92
X-237.592 Y27.634
X-237.58
X-235.279 Y27.618
X-235.266
X-232.991 Y27.591
X-232.979
X-230.731 Y27.553
X-230.719
X-228.496 Y27.504
X-228.483
X-226.287 Y27.445
X-226.274
X-224.103 Y27.375
X-224.089 Y27.374
X-221.945 Y27.294
X-221.932 Y27.293
X-219.813 Y27.202
X-219.799
X-217.706 Y27.1
X-217.692 Y27.099
X-215.625 Y26.987
X-215.61 Y26.986
X-213.569 Y26.864
X-213.555 Y26.863
X-211.538 Y26.731
X-211.523 Y26.73
X-209.531 Y26.587
X-209.517 Y26.586
X-207.55 Y26.433
X-207.535 Y26.432
X-205.592 Y26.27
X-205.577 Y26.269
X-203.657 Y26.097
X-203.642 Y26.095
X-201.746 Y25.914
X-201.731 Y25.913
X-199.859 Y25.722
X-199.844 Y25.72
X-197.994 Y25.521
X-197.978 Y25.519
X-196.151 Y25.31
X-196.136 Y25.308
X-194.331 Y25.091
X-194.315 Y25.089
X-192.532 Y24.862
X-192.516 Y24.86
X-190.755 Y24.625
X-190.74 Y24.623
X-189 Y24.38
X-188.984 Y24.377
X-187.265 Y24.126
X-187.249 Y24.123
X-185.551 Y23.863
X-185.535 Y23.861
X-183.858 Y23.593
X-183.842 Y23.59
X-182.185 Y23.315
X-182.169 Y23.312
X-180.531 Y23.028
X-180.515 Y23.026
X-178.897 Y22.735
X-178.881 Y22.732
X-177.281 Y22.434
X-177.265 Y22.431
X-175.683 Y22.125
X-175.668 Y22.122
X-174.104 Y21.81
X-174.088 Y21.807
X-172.542 Y21.489
X-172.528 Y21.485
X-170.997 Y21.16
X-170.982 Y21.157
X-169.468 Y20.826
X-169.453 Y20.823
X-167.955 Y20.485
X-167.941 Y20.482
X-166.457 Y20.139
X-166.443 Y20.136
X-164.974 Y19.787
X-164.96 Y19.784
X-163.506 Y19.43
X-163.493 Y19.427
X-162.051 Y19.068
X-162.038 Y19.065
X-160.61 Y18.701
X-160.597 Y18.698
X-159.181 Y18.329
X-159.169 Y18.326
X-157.765 Y17.953
X-157.753 Y17.95
X-156.361 Y17.572
X-156.35 Y17.569
X-154.968 Y17.188
X-154.957 Y17.185
X-153.586 Y16.8
X-153.57 Y16.795
X-150.857 Y16.015
X-150.839 Y16.009
X-148.161 Y15.215
X-148.144 Y15.21
X-145.498 Y14.406
X-145.483 Y14.401
X-142.863 Y13.587
X-142.851 Y13.583
X-140.255 Y12.762
X-140.245 Y12.758
X-137.668 Y11.931
X-137.661 Y11.929
X-135.096 Y11.098
X-135.092 Y11.096
X-132.538 Y10.264
X-127.448 Y8.602
X-122.362 Y6.96
X-119.816 Y6.152
X-117.259 Y5.355
X-114.692 Y4.57
X-112.108 Y3.8
X-109.504 Y3.047
X-106.877 Y2.312
X-104.224 Y1.598
X-101.538 Y0.905
X-100.187 Y0.568
X-98.826 Y0.237
X-97.456 Y-0.088
X-96.077 Y-0.407
X-94.69 Y-0.719
X-93.293 Y-1.025
X-91.887 Y-1.325
X-90.472 Y-1.617
X-89.047 Y-1.903
X-87.612 Y-2.181
X-86.167 Y-2.452
X-84.712 Y-2.716
X-83.246 Y-2.972
X-81.769 Y-3.221
X-80.281 Y-3.462
X-78.782 Y-3.694
X-77.272 Y-3.919
X-75.75 Y-4.136
X-74.216 Y-4.344
X-72.669 Y-4.544
X-71.111 Y-4.735
X-69.541 Y-4.918
X-67.958 Y-5.093
X-66.364 Y-5.26
X-64.757 Y-5.419
X-63.139 Y-5.57
X-61.51 Y-5.713
X-59.869 Y-5.848
X-58.216 Y-5.975
X-56.552 Y-6.094
X-54.877 Y-6.205
X-53.191 Y-6.309
X-51.494 Y-6.405
X-49.786 Y-6.494
X-48.067 Y-6.575
X-46.337 Y-6.648
X-44.596 Y-6.714
X-42.845 Y-6.773
X-41.084 Y-6.824
X-39.312 Y-6.869
X-37.53 Y-6.906
X-35.738 Y-6.937
X-33.937 Y-6.961
X-32.129 Y-6.98
X-28.483 Y-6.999
X-24.809 Y-6.998
X-21.107 Y-6.979
X-17.383 Y-6.942
X-13.637 Y-6.892
X-9.875 Y-6.829
X-6.1 Y-6.757
X-2.314 Y-6.677
X5.272 Y-6.507
X5.274
X12.846 Y-6.345
X12.853
X16.625 Y-6.275
X16.632
X20.389 Y-6.216
X20.399
X24.138 Y-6.173
X24.15
X27.868 Y-6.148
X27.882
X31.574 Y-6.144
X31.587
X33.423 Y-6.151
X33.432
X35.26 Y-6.164
X35.269 Y-6.165
X37.089 Y-6.185
X37.1
X38.911 Y-6.213
X38.922
X40.725 Y-6.249
X40.737
X42.53 Y-6.293
X42.542
X44.326 Y-6.346
X44.339
X46.113 Y-6.407
X46.126 Y-6.408
X47.889 Y-6.478
X47.904 Y-6.479
X49.655 Y-6.559
X49.671 Y-6.56
X51.411 Y-6.651
X51.427 Y-6.652
X53.155 Y-6.753
X53.172 Y-6.754
X54.888 Y-6.866
X54.906 Y-6.867
X56.608 Y-6.991
X56.628 Y-6.992
X58.317 Y-7.128
X58.337 Y-7.13
X60.013 Y-7.278
X60.033 Y-7.28
X61.695 Y-7.441
X61.717 Y-7.443
X63.364 Y-7.617
X63.387 Y-7.619
X65.019 Y-7.806
X65.042 Y-7.809
X66.66 Y-8.01
X66.684 Y-8.013
X68.286 Y-8.228
X68.311 Y-8.232
X69.897 Y-8.461
X69.924 Y-8.465
X71.494 Y-8.709
X71.521 Y-8.713
X73.074 Y-8.973
X73.102 Y-8.977
X74.639 Y-9.252
X74.668 Y-9.257
X76.187 Y-9.548
X76.217 Y-9.554
X77.718 Y-9.86
X77.75 Y-9.867
X79.233 Y-10.189
X79.266 Y-10.197
X80.73 Y-10.536
X80.765 Y-10.544
X82.21 Y-10.901
X82.245 Y-10.91
X83.671 Y-11.283
X83.708 Y-11.293
X85.115 Y-11.685
X85.153 Y-11.696
X86.539 Y-12.105
X86.578 Y-12.117
X87.945 Y-12.545
X87.985 Y-12.558
X89.331 Y-13.005
X89.373 Y-13.019
X90.697 Y-13.485
X90.74 Y-13.501
X92.043 Y-13.986
X92.087 Y-14.003
X93.368 Y-14.508
X93.412 Y-14.526
X94.672 Y-15.05
X94.717 Y-15.069
X95.954 Y-15.613
X96.001 Y-15.634
X97.216 Y-16.197
X97.263 Y-16.22
X98.456 Y-16.804
X98.505 Y-16.828
X99.676 Y-17.433
X99.725 Y-17.459
X100.874 Y-18.085
X100.924 Y-18.113
X102.051 Y-18.761
X102.101 Y-18.79
X103.207 Y-19.46
X103.257 Y-19.491
X104.341 Y-20.183
X104.392 Y-20.216
X105.454 Y-20.931
X105.504 Y-20.966
X106.544 Y-21.703
X106.594 Y-21.74
X107.613 Y-22.501
X107.663 Y-22.539
X108.66 Y-23.324
X108.71 Y-23.364
X109.685 Y-24.173
X109.735 Y-24.216
X110.688 Y-25.049
X110.736 Y-25.092
X111.668 Y-25.95
X111.716 Y-25.996
X112.626 Y-26.88
X112.673 Y-26.927
X113.561 Y-27.836
X113.606 Y-27.883
X114.474 Y-28.82
X114.518 Y-28.869
X115.365 Y-29.833
X115.409 Y-29.884
X116.235 Y-30.876
X116.275 Y-30.927
X117.081 Y-31.948
X117.123 Y-32.002
X117.907 Y-33.052
X117.945 Y-33.105
X118.708 Y-34.186
X118.746 Y-34.241
X119.487 Y-35.353
X119.522 Y-35.407
X120.242 Y-36.549
X120.276 Y-36.605
X120.974 Y-37.779
X121.005 Y-37.834
X121.682 Y-39.041
X121.713 Y-39.097
X122.367 Y-40.337
X122.388 Y-40.378
X122.707 Y-41.011
X122.72 Y-41.037
X123.034 Y-41.678
X123.048 Y-41.706
X123.356 Y-42.356
X123.369 Y-42.385
X123.671 Y-43.043
X123.683 Y-43.068
X123.98 Y-43.735
X123.992 Y-43.764
X124.283 Y-44.44
X124.295 Y-44.468
X124.58 Y-45.153
X124.59 Y-45.177
X124.87 Y-45.871
X124.88 Y-45.896
X125.155 Y-46.598
X125.167 Y-46.629
X125.435 Y-47.34
X125.444 Y-47.365
X125.707 Y-48.086
X125.716 Y-48.112
X125.973 Y-48.843
X125.981 Y-48.866
X126.233 Y-49.606
X126.242 Y-49.632
X126.488 Y-50.381
X126.496 Y-50.407
X126.737 Y-51.165
X126.744 Y-51.191
X126.978 Y-51.959
X126.986 Y-51.984
X127.214 Y-52.762
X127.221 Y-52.787
X127.443 Y-53.574
X127.45 Y-53.598
X127.666 Y-54.395
X127.672 Y-54.419
X127.882 Y-55.225
X127.889 Y-55.252
X128.092 Y-56.067
X128.097 Y-56.088
X128.295 Y-56.914
X128.301 Y-56.939
X128.492 Y-57.774
X128.497 Y-57.797
X128.682 Y-58.642
X128.687 Y-58.664
X128.866 Y-59.518
X128.87 Y-59.54
X129.043 Y-60.404
X129.048 Y-60.429
X129.214 Y-61.302
X129.218 Y-61.324
X129.378 Y-62.207
X129.382 Y-62.228
X129.536 Y-63.121
X129.54 Y-63.144
X129.687 Y-64.047
X129.69 Y-64.067
X129.831 Y-64.98
X129.834 Y-65
X129.969 Y-65.922
X129.972 Y-65.944
X130.1 Y-66.877
X130.103 Y-66.898
X130.224 Y-67.84
X130.226 Y-67.859
X130.341 Y-68.811
X130.343 Y-68.832
X130.451 Y-69.794
X130.453 Y-69.812
X130.555 Y-70.783
X130.557 Y-70.804
X130.652 Y-71.785
X130.654 Y-71.802
X130.743 Y-72.794
X130.745 Y-72.813
X130.827 Y-73.815
X130.828 Y-73.834
X130.903 Y-74.845
X130.904 Y-74.864
X130.972 Y-75.885
X130.973 Y-75.901
X131.035 Y-76.932
X131.037 Y-76.951
X131.092 Y-77.992
Y-78.009
X131.14 Y-79.061
X131.141 Y-79.078
X131.182 Y-80.139
Y-80.141
X131.185 Y-80.22
X131.187 Y-80.315
Y-85.861
G2 X128.687 Y-88.361 I-2.5 J0
G1 Z-15 F333.3
X-292.425 F1000
G2 X-294.925 Y-85.861 I0 J2.5
G1 Y-27.361
G2 X-239.925 Y27.639 I55 J0
G1 X-239.92
X-237.592 Y27.634
X-237.58
X-235.279 Y27.618
X-235.266
X-232.991 Y27.591
X-232.979
X-230.731 Y27.553
X-230.719
X-228.496 Y27.504
X-228.483
X-226.287 Y27.445
X-226.274
X-224.103 Y27.375
X-224.089 Y27.374
X-221.945 Y27.294
X-221.932 Y27.293
X-219.813 Y27.202
X-219.799
X-217.706 Y27.1
X-217.692 Y27.099
X-215.625 Y26.987
X-215.61 Y26.986
X-213.569 Y26.864
X-213.555 Y26.863
X-211.538 Y26.731
X-211.523 Y26.73
X-209.531 Y26.587
X-209.517 Y26.586
X-207.55 Y26.433
X-207.535 Y26.432
X-205.592 Y26.27
X-205.577 Y26.269
X-203.657 Y26.097
X-203.642 Y26.095
X-201.746 Y25.914
X-201.731 Y25.913
X-199.859 Y25.722
X-199.844 Y25.72
X-197.994 Y25.521
X-197.978 Y25.519
X-196.151 Y25.31
X-196.136 Y25.308
X-194.331 Y25.091
X-194.315 Y25.089
X-192.532 Y24.862
X-192.516 Y24.86
X-190.755 Y24.625
X-190.74 Y24.623
X-189 Y24.38
X-188.984 Y24.377
X-187.265 Y24.126
X-187.249 Y24.123
X-185.551 Y23.863
X-185.535 Y23.861
X-183.858 Y23.593
X-183.842 Y23.59
X-182.185 Y23.315
X-182.169 Y23.312
X-180.531 Y23.028
X-180.515 Y23.026
X-178.897 Y22.735
X-178.881 Y22.732
X-177.281 Y22.434
X-177.265 Y22.431
X-175.683 Y22.125
X-175.668 Y22.122
X-174.104 Y21.81
X-174.088 Y21.807
X-172.542 Y21.489
X-172.528 Y21.485
X-170.997 Y21.16
X-170.982 Y21.157
X-169.468 Y20.826
X-169.453 Y20.823
X-167.955 Y20.485
X-167.941 Y20.482
X-166.457 Y20.139
X-166.443 Y20.136
X-164.974 Y19.787
X-164.96 Y19.784
X-163.506 Y19.43
X-163.493 Y19.427
X-162.051 Y19.068
X-162.038 Y19.065
X-160.61 Y18.701
X-160.597 Y18.698
X-159.181 Y18.329
X-159.169 Y18.326
X-157.765 Y17.953
X-157.753 Y17.95
X-156.361 Y17.572
X-156.35 Y17.569
X-154.968 Y17.188
X-154.957 Y17.185
X-153.586 Y16.8
X-153.57 Y16.795
X-150.857 Y16.015
X-150.839 Y16.009
X-148.161 Y15.215
X-148.144 Y15.21
X-145.498 Y14.406
X-145.483 Y14.401
X-142.863 Y13.587
X-142.851 Y13.583
X-140.255 Y12.762
X-140.245 Y12.758
X-137.668 Y11.931
X-137.661 Y11.929
X-135.096 Y11.098
X-135.092 Y11.096
X-132.538 Y10.264
X-127.448 Y8.602
X-122.362 Y6.96
X-119.816 Y6.152
X-117.259 Y5.355
X-114.692 Y4.57
X-112.108 Y3.8
X-109.504 Y3.047
X-106.877 Y2.312
X-104.224 Y1.598
X-101.538 Y0.905
X-100.187 Y0.568
X-98.826 Y0.237
X-97.456 Y-0.088
X-96.077 Y-0.407
X-94.69 Y-0.719
X-93.293 Y-1.025
X-91.887 Y-1.325
X-90.472 Y-1.617
X-89.047 Y-1.903
X-87.612 Y-2.181
X-86.167 Y-2.452
X-84.712 Y-2.716
X-83.246 Y-2.972
X-81.769 Y-3.221
X-80.281 Y-3.462
X-78.782 Y-3.694
X-77.272 Y-3.919
X-75.75 Y-4.136
X-74.216 Y-4.344
X-72.669 Y-4.544
X-71.111 Y-4.735
X-69.541 Y-4.918
X-67.958 Y-5.093
X-66.364 Y-5.26
X-64.757 Y-5.419
X-63.139 Y-5.57
X-61.51 Y-5.713
X-59.869 Y-5.848
X-58.216 Y-5.975
X-56.552 Y-6.094
X-54.877 Y-6.205
X-53.191 Y-6.309
X-51.494 Y-6.405
X-49.786 Y-6.494
X-48.067 Y-6.575
X-46.337 Y-6.648
X-44.596 Y-6.714
X-42.845 Y-6.773
X-41.084 Y-6.824
X-39.312 Y-6.869
X-37.53 Y-6.906
X-35.738 Y-6.937
X-33.937 Y-6.961
X-32.129 Y-6.98
X-28.483 Y-6.999
X-24.809 Y-6.998
X-21.107 Y-6.979
X-17.383 Y-6.942
X-13.637 Y-6.892
X-9.875 Y-6.829
X-6.1 Y-6.757
X-2.314 Y-6.677
X5.272 Y-6.507
X5.274
X12.846 Y-6.345
X12.853
X16.625 Y-6.275
X16.632
X20.389 Y-6.216
X20.399
X24.138 Y-6.173
X24.15
X27.868 Y-6.148
X27.882
X31.574 Y-6.144
X31.587
X33.423 Y-6.151
X33.432
X35.26 Y-6.164
X35.269 Y-6.165
X37.089 Y-6.185
X37.1
X38.911 Y-6.213
X38.922
X40.725 Y-6.249
X40.737
X42.53 Y-6.293
X42.542
X44.326 Y-6.346
X44.339
X46.113 Y-6.407
X46.126 Y-6.408
X47.889 Y-6.478
X47.904 Y-6.479
X49.655 Y-6.559
X49.671 Y-6.56
X51.411 Y-6.651
X51.427 Y-6.652
X53.155 Y-6.753
X53.172 Y-6.754
X54.888 Y-6.866
X54.906 Y-6.867
X56.608 Y-6.991
X56.628 Y-6.992
X58.317 Y-7.128
X58.337 Y-7.13
X60.013 Y-7.278
X60.033 Y-7.28
X61.695 Y-7.441
X61.717 Y-7.443
X63.364 Y-7.617
X63.387 Y-7.619
X65.019 Y-7.806
X65.042 Y-7.809
X66.66 Y-8.01
X66.684 Y-8.013
X68.286 Y-8.228
X68.311 Y-8.232
X69.897 Y-8.461
X69.924 Y-8.465
X71.494 Y-8.709
X71.521 Y-8.713
X73.074 Y-8.973
X73.102 Y-8.977
X74.639 Y-9.252
X74.668 Y-9.257
X76.187 Y-9.548
X76.217 Y-9.554
X77.718 Y-9.86
X77.75 Y-9.867
X79.233 Y-10.189
X79.266 Y-10.197
X80.73 Y-10.536
X80.765 Y-10.544
X82.21 Y-10.901
X82.245 Y-10.91
X83.671 Y-11.283
X83.708 Y-11.293
X85.115 Y-11.685
X85.153 Y-11.696
X86.539 Y-12.105
X86.578 Y-12.117
X87.945 Y-12.545
X87.985 Y-12.558
X89.331 Y-13.005
X89.373 Y-13.019
X90.697 Y-13.485
X90.74 Y-13.501
X92.043 Y-13.986
X92.087 Y-14.003
X93.368 Y-14.508
X93.412 Y-14.526
X94.672 Y-15.05
X94.717 Y-15.069
X95.954 Y-15.613
X96.001 Y-15.634
X97.216 Y-16.197
X97.263 Y-16.22
X98.456 Y-16.804
X98.505 Y-16.828
X99.676 Y-17.433
X99.725 Y-17.459
X100.874 Y-18.085
X100.924 Y-18.113
X102.051 Y-18.761
X102.101 Y-18.79
X103.207 Y-19.46
X103.257 Y-19.491
X104.341 Y-20.183
X104.392 Y-20.216
X105.454 Y-20.931
X105.504 Y-20.966
X106.544 Y-21.703
X106.594 Y-21.74
X107.613 Y-22.501
X107.663 Y-22.539
X108.66 Y-23.324
X108.71 Y-23.364
X109.685 Y-24.173
X109.735 Y-24.216
X110.688 Y-25.049
X110.736 Y-25.092
X111.668 Y-25.95
X111.716 Y-25.996
X112.626 Y-26.88
X112.673 Y-26.927
X113.561 Y-27.836
X113.606 Y-27.883
X114.474 Y-28.82
X114.518 Y-28.869
X115.365 Y-29.833
X115.409 Y-29.884
X116.235 Y-30.876
X116.275 Y-30.927
X117.081 Y-31.948
X117.123 Y-32.002
X117.907 Y-33.052
X117.945 Y-33.105
X118.708 Y-34.186
X118.746 Y-34.241
X119.487 Y-35.353
X119.522 Y-35.407
X120.242 Y-36.549
X120.276 Y-36.605
X120.974 Y-37.779
X121.005 Y-37.834
X121.682 Y-39.041
X121.713 Y-39.097
X122.367 Y-40.337
X122.388 Y-40.378
X122.707 Y-41.011
X122.72 Y-41.037
X123.034 Y-41.678
X123.048 Y-41.706
X123.356 Y-42.356
X123.369 Y-42.385
X123.671 Y-43.043
X123.683 Y-43.068
X123.98 Y-43.735
X123.992 Y-43.764
X124.283 Y-44.44
X124.295 Y-44.468
X124.58 Y-45.153
X124.59 Y-45.177
X124.87 Y-45.871
X124.88 Y-45.896
X125.155 Y-46.598
X125.167 Y-46.629
X125.435 Y-47.34
X125.444 Y-47.365
X125.707 Y-48.086
X125.716 Y-48.112
X125.973 Y-48.843
X125.981 Y-48.866
X126.233 Y-49.606
X126.242 Y-49.632
X126.488 Y-50.381
X126.496 Y-50.407
X126.737 Y-51.165
X126.744 Y-51.191
X126.978 Y-51.959
X126.986 Y-51.984
X127.214 Y-52.762
X127.221 Y-52.787
X127.443 Y-53.574
X127.45 Y-53.598
X127.666 Y-54.395
X127.672 Y-54.419
X127.882 Y-55.225
X127.889 Y-55.252
X128.092 Y-56.067
X128.097 Y-56.088
X128.295 Y-56.914
X128.301 Y-56.939
X128.492 Y-57.774
X128.497 Y-57.797
X128.682 Y-58.642
X128.687 Y-58.664
X128.866 Y-59.518
X128.87 Y-59.54
X129.043 Y-60.404
X129.048 Y-60.429
X129.214 Y-61.302
X129.218 Y-61.324
X129.378 Y-62.207
X129.382 Y-62.228
X129.536 Y-63.121
X129.54 Y-63.144
X129.687 Y-64.047
X129.69 Y-64.067
X129.831 Y-64.98
X129.834 Y-65
X129.969 Y-65.922
X129.972 Y-65.944
X130.1 Y-66.877
X130.103 Y-66.898
X130.224 Y-67.84
X130.226 Y-67.859
X130.341 Y-68.811
X130.343 Y-68.832
X130.451 Y-69.794
X130.453 Y-69.812
X130.555 Y-70.783
X130.557 Y-70.804
X130.652 Y-71.785
X130.654 Y-71.802
X130.743 Y-72.794
X130.745 Y-72.813
X130.827 Y-73.815
X130.828 Y-73.834
X130.903 Y-74.845
X130.904 Y-74.864
X130.972 Y-75.885
X130.973 Y-75.901
X131.035 Y-76.932
X131.037 Y-76.951
X131.092 Y-77.992
Y-78.009
X131.14 Y-79.061
X131.141 Y-79.078
X131.182 Y-80.139
Y-80.141
X131.185 Y-80.22
X131.187 Y-80.315
Y-85.861
G2 X128.687 Y-88.361 I-2.5 J0
G1 Z-19 F333.3
X-292.425 F1000
G2 X-294.925 Y-85.861 I0 J2.5
G1 Y-27.361
G2 X-239.925 Y27.639 I55 J0
G1 X-239.92
X-237.592 Y27.634
X-237.58
X-235.279 Y27.618
X-235.266
X-232.991 Y27.591
X-232.979
X-230.731 Y27.553
X-230.719
X-228.496 Y27.504
X-228.483
X-226.287 Y27.445
X-226.274
X-224.103 Y27.375
X-224.089 Y27.374
X-221.945 Y27.294
X-221.932 Y27.293
X-219.813 Y27.202
X-219.799
X-217.706 Y27.1
X-217.692 Y27.099
X-215.625 Y26.987
X-215.61 Y26.986
X-213.569 Y26.864
X-213.555 Y26.863
X-211.538 Y26.731
X-211.523 Y26.73
X-209.531 Y26.587
X-209.517 Y26.586
X-207.55 Y26.433
X-207.535 Y26.432
X-205.592 Y26.27
X-205.577 Y26.269
X-203.657 Y26.097
X-203.642 Y26.095
X-201.746 Y25.914
X-201.731 Y25.913
X-199.859 Y25.722
X-199.844 Y25.72
X-197.994 Y25.521
X-197.978 Y25.519
X-196.151 Y25.31
X-196.136 Y25.308
X-194.331 Y25.091
X-194.315 Y25.089
X-192.532 Y24.862
X-192.516 Y24.86
X-190.755 Y24.625
X-190.74 Y24.623
X-189 Y24.38
X-188.984 Y24.377
X-187.265 Y24.126
X-187.249 Y24.123
X-185.551 Y23.863
X-185.535 Y23.861
X-183.858 Y23.593
X-183.842 Y23.59
X-182.185 Y23.315
X-182.169 Y23.312
X-180.531 Y23.028
X-180.515 Y23.026
X-178.897 Y22.735
X-178.881 Y22.732
X-177.281 Y22.434
X-177.265 Y22.431
X-175.683 Y22.125
X-175.668 Y22.122
X-174.104 Y21.81
X-174.088 Y21.807
X-172.542 Y21.489
X-172.528 Y21.485
X-170.997 Y21.16
X-170.982 Y21.157
X-169.468 Y20.826
X-169.453 Y20.823
X-167.955 Y20.485
X-167.941 Y20.482
X-166.457 Y20.139
X-166.443 Y20.136
X-164.974 Y19.787
X-164.96 Y19.784
X-163.506 Y19.43
X-163.493 Y19.427
X-162.051 Y19.068
X-162.038 Y19.065
X-160.61 Y18.701
X-160.597 Y18.698
X-159.181 Y18.329
X-159.169 Y18.326
X-157.765 Y17.953
X-157.753 Y17.95
X-156.361 Y17.572
X-156.35 Y17.569
X-154.968 Y17.188
X-154.957 Y17.185
X-153.586 Y16.8
X-153.57 Y16.795
X-150.857 Y16.015
X-150.839 Y16.009
X-148.161 Y15.215
X-148.144 Y15.21
X-145.498 Y14.406
X-145.483 Y14.401
X-142.863 Y13.587
X-142.851 Y13.583
X-140.255 Y12.762
X-140.245 Y12.758
X-137.668 Y11.931
X-137.661 Y11.929
X-135.096 Y11.098
X-135.092 Y11.096
X-132.538 Y10.264
X-127.448 Y8.602
X-122.362 Y6.96
X-119.816 Y6.152
X-117.259 Y5.355
X-114.692 Y4.57
X-112.108 Y3.8
X-109.504 Y3.047
X-106.877 Y2.312
X-104.224 Y1.598
X-101.538 Y0.905
X-100.187 Y0.568
X-98.826 Y0.237
X-97.456 Y-0.088
X-96.077 Y-0.407
X-94.69 Y-0.719
X-93.293 Y-1.025
X-91.887 Y-1.325
X-90.472 Y-1.617
X-89.047 Y-1.903
X-87.612 Y-2.181
X-86.167 Y-2.452
X-84.712 Y-2.716
X-83.246 Y-2.972
X-81.769 Y-3.221
X-80.281 Y-3.462
X-78.782 Y-3.694
X-77.272 Y-3.919
X-75.75 Y-4.136
X-74.216 Y-4.344
X-72.669 Y-4.544
X-71.111 Y-4.735
X-69.541 Y-4.918
X-67.958 Y-5.093
X-66.364 Y-5.26
X-64.757 Y-5.419
X-63.139 Y-5.57
X-61.51 Y-5.713
X-59.869 Y-5.848
X-58.216 Y-5.975
X-56.552 Y-6.094
X-54.877 Y-6.205
X-53.191 Y-6.309
X-51.494 Y-6.405
X-49.786 Y-6.494
X-48.067 Y-6.575
X-46.337 Y-6.648
X-44.596 Y-6.714
X-42.845 Y-6.773
X-41.084 Y-6.824
X-39.312 Y-6.869
X-37.53 Y-6.906
X-35.738 Y-6.937
X-33.937 Y-6.961
X-32.129 Y-6.98
X-28.483 Y-6.999
X-24.809 Y-6.998
X-21.107 Y-6.979
X-17.383 Y-6.942
X-13.637 Y-6.892
X-9.875 Y-6.829
X-6.1 Y-6.757
X-2.314 Y-6.677
X5.272 Y-6.507
X5.274
X12.846 Y-6.345
X12.853
X16.625 Y-6.275
X16.632
X20.389 Y-6.216
X20.399
X24.138 Y-6.173
X24.15
X27.868 Y-6.148
X27.882
X31.574 Y-6.144
X31.587
X33.423 Y-6.151
X33.432
X35.26 Y-6.164
X35.269 Y-6.165
X37.089 Y-6.185
X37.1
X38.911 Y-6.213
X38.922
X40.725 Y-6.249
X40.737
X42.53 Y-6.293
X42.542
X44.326 Y-6.346
X44.339
X46.113 Y-6.407
X46.126 Y-6.408
X47.889 Y-6.478
X47.904 Y-6.479
X49.655 Y-6.559
X49.671 Y-6.56
X51.411 Y-6.651
X51.427 Y-6.652
X53.155 Y-6.753
X53.172 Y-6.754
X54.888 Y-6.866
X54.906 Y-6.867
X56.608 Y-6.991
X56.628 Y-6.992
X58.317 Y-7.128
X58.337 Y-7.13
X60.013 Y-7.278
X60.033 Y-7.28
X61.695 Y-7.441
X61.717 Y-7.443
X63.364 Y-7.617
X63.387 Y-7.619
X65.019 Y-7.806
X65.042 Y-7.809
X66.66 Y-8.01
X66.684 Y-8.013
X68.286 Y-8.228
X68.311 Y-8.232
X69.897 Y-8.461
X69.924 Y-8.465
X71.494 Y-8.709
X71.521 Y-8.713
X73.074 Y-8.973
X73.102 Y-8.977
X74.639 Y-9.252
X74.668 Y-9.257
X76.187 Y-9.548
X76.217 Y-9.554
X77.718 Y-9.86
X77.75 Y-9.867
X79.233 Y-10.189
X79.266 Y-10.197
X80.73 Y-10.536
X80.765 Y-10.544
X82.21 Y-10.901
X82.245 Y-10.91
X83.671 Y-11.283
X83.708 Y-11.293
X85.115 Y-11.685
X85.153 Y-11.696
X86.539 Y-12.105
X86.578 Y-12.117
X87.945 Y-12.545
X87.985 Y-12.558
X89.331 Y-13.005
X89.373 Y-13.019
X90.697 Y-13.485
X90.74 Y-13.501
X92.043 Y-13.986
X92.087 Y-14.003
X93.368 Y-14.508
X93.412 Y-14.526
X94.672 Y-15.05
X94.717 Y-15.069
X95.954 Y-15.613
X96.001 Y-15.634
X97.216 Y-16.197
X97.263 Y-16.22
X98.456 Y-16.804
X98.505 Y-16.828
X99.676 Y-17.433
X99.725 Y-17.459
X100.874 Y-18.085
X100.924 Y-18.113
X102.051 Y-18.761
X102.101 Y-18.79
X103.207 Y-19.46
X103.257 Y-19.491
X104.341 Y-20.183
X104.392 Y-20.216
X105.454 Y-20.931
X105.504 Y-20.966
X106.544 Y-21.703
X106.594 Y-21.74
X107.613 Y-22.501
X107.663 Y-22.539
X108.66 Y-23.324
X108.71 Y-23.364
X109.685 Y-24.173
X109.735 Y-24.216
X110.688 Y-25.049
X110.736 Y-25.092
X111.668 Y-25.95
X111.716 Y-25.996
X112.626 Y-26.88
X112.673 Y-26.927
X113.561 Y-27.836
X113.606 Y-27.883
X114.474 Y-28.82
X114.518 Y-28.869
X115.365 Y-29.833
X115.409 Y-29.884
X116.235 Y-30.876
X116.275 Y-30.927
X117.081 Y-31.948
X117.123 Y-32.002
X117.907 Y-33.052
X117.945 Y-33.105
X118.708 Y-34.186
X118.746 Y-34.241
X119.487 Y-35.353
X119.522 Y-35.407
X120.242 Y-36.549
X120.276 Y-36.605
X120.974 Y-37.779
X121.005 Y-37.834
X121.682 Y-39.041
X121.713 Y-39.097
X122.367 Y-40.337
X122.388 Y-40.378
X122.707 Y-41.011
X122.72 Y-41.037
X123.034 Y-41.678
X123.048 Y-41.706
X123.356 Y-42.356
X123.369 Y-42.385
X123.671 Y-43.043
X123.683 Y-43.068
X123.98 Y-43.735
X123.992 Y-43.764
X124.283 Y-44.44
X124.295 Y-44.468
X124.58 Y-45.153
X124.59 Y-45.177
X124.87 Y-45.871
X124.88 Y-45.896
X125.155 Y-46.598
X125.167 Y-46.629
X125.435 Y-47.34
X125.444 Y-47.365
X125.707 Y-48.086
X125.716 Y-48.112
X125.973 Y-48.843
X125.981 Y-48.866
X126.233 Y-49.606
X126.242 Y-49.632
X126.488 Y-50.381
X126.496 Y-50.407
X126.737 Y-51.165
X126.744 Y-51.191
X126.978 Y-51.959
X126.986 Y-51.984
X127.214 Y-52.762
X127.221 Y-52.787
X127.443 Y-53.574
X127.45 Y-53.598
X127.666 Y-54.395
X127.672 Y-54.419
X127.882 Y-55.225
X127.889 Y-55.252
X128.092 Y-56.067
X128.097 Y-56.088
X128.295 Y-56.914
X128.301 Y-56.939
X128.492 Y-57.774
X128.497 Y-57.797
X128.682 Y-58.642
X128.687 Y-58.664
X128.866 Y-59.518
X128.87 Y-59.54
X129.043 Y-60.404
X129.048 Y-60.429
X129.214 Y-61.302
X129.218 Y-61.324
X129.378 Y-62.207
X129.382 Y-62.228
X129.536 Y-63.121
X129.54 Y-63.144
X129.687 Y-64.047
X129.69 Y-64.067
X129.831 Y-64.98
X129.834 Y-65
X129.969 Y-65.922
X129.972 Y-65.944
X130.1 Y-66.877
X130.103 Y-66.898
X130.224 Y-67.84
X130.226 Y-67.859
X130.341 Y-68.811
X130.343 Y-68.832
X130.451 Y-69.794
X130.453 Y-69.812
X130.555 Y-70.783
X130.557 Y-70.804
X130.652 Y-71.785
X130.654 Y-71.802
X130.743 Y-72.794
X130.745 Y-72.813
X130.827 Y-73.815
X130.828 Y-73.834
X130.903 Y-74.845
X130.904 Y-74.864
X130.972 Y-75.885
X130.973 Y-75.901
X131.035 Y-76.932
X131.037 Y-76.951
X131.092 Y-77.992
Y-78.009
X131.14 Y-79.061
X131.141 Y-79.078
X131.182 Y-80.139
Y-80.141
X131.185 Y-80.22
X131.187 Y-80.315
Y-85.861
G2 X128.687 Y-88.361 I-2.5 J0
G0 Z15

(2D Contour4 2)
G0 X-140.774 Y88.361
Z15
Z5
G1 Z-5 F333.3
X292.425 F1000
G2 X294.925 Y85.861 I0 J-2.5
G1 Y27.361
G2 X233.925 Y-33.639 I-61 J0
G1 X233.919
X231.539 Y-33.634
X231.527
X229.173 Y-33.617
X229.161
X226.834 Y-33.589
X226.822
X224.521 Y-33.55
X224.508
X222.232 Y-33.5
X222.219
X219.97 Y-33.439
X219.957 Y-33.438
X217.734 Y-33.367
X217.721 Y-33.366
X215.524 Y-33.284
X215.51 Y-33.283
X213.338 Y-33.189
X213.325
X211.179 Y-33.085
X211.165 Y-33.084
X209.044 Y-32.969
X209.03 Y-32.968
X206.935 Y-32.843
X206.92 Y-32.842
X204.849 Y-32.706
X204.835 Y-32.705
X202.79 Y-32.559
X202.775 Y-32.558
X200.754 Y-32.401
X200.739 Y-32.4
X198.742 Y-32.234
X198.727 Y-32.232
X196.754 Y-32.056
X196.739 Y-32.054
X194.79 Y-31.868
X194.775 Y-31.866
X192.85 Y-31.67
X192.834 Y-31.668
X190.932 Y-31.463
X190.917 Y-31.461
X189.038 Y-31.246
X189.022 Y-31.244
X187.166 Y-31.02
X187.15 Y-31.018
X185.316 Y-30.784
X185.301 Y-30.782
X183.489 Y-30.54
X183.473 Y-30.537
X181.683 Y-30.286
X181.667 Y-30.284
X179.898 Y-30.024
X179.882 Y-30.022
X178.134 Y-29.753
X178.118 Y-29.751
X176.391 Y-29.475
X176.375 Y-29.472
X174.668 Y-29.188
X174.652 Y-29.185
X172.965 Y-28.893
X172.95 Y-28.89
X171.282 Y-28.59
X171.266 Y-28.588
X169.617 Y-28.281
X169.602 Y-28.278
X167.972 Y-27.963
X167.957 Y-27.96
X166.344 Y-27.639
X166.328 Y-27.636
X164.734 Y-27.308
X164.719 Y-27.305
X163.142 Y-26.971
X163.128 Y-26.967
X161.568 Y-26.627
X161.553 Y-26.623
X160.009 Y-26.277
X159.995 Y-26.273
X158.467 Y-25.921
X158.453 Y-25.918
X156.94 Y-25.559
X156.926 Y-25.556
X155.428 Y-25.193
X155.415 Y-25.189
X153.932 Y-24.821
X153.919 Y-24.818
X152.45 Y-24.444
X152.437 Y-24.441
X150.982 Y-24.063
X150.971 Y-24.06
X149.528 Y-23.677
X149.516 Y-23.674
X148.086 Y-23.288
X148.074 Y-23.284
X146.657 Y-22.894
X146.647 Y-22.891
X145.24 Y-22.497
X145.229 Y-22.494
X143.834 Y-22.097
X143.824 Y-22.094
X142.44 Y-21.694
X142.427 Y-21.69
X139.687 Y-20.881
X139.671 Y-20.876
X136.968 Y-20.058
X136.954 Y-20.054
X134.283 Y-19.228
X134.272 Y-19.225
X131.629 Y-18.394
X131.62 Y-18.392
X129.001 Y-17.558
X128.995 Y-17.556
X126.396 Y-16.722
X126.392 Y-16.721
X123.81 Y-15.887
X118.68 Y-14.233
X113.573 Y-12.61
X111.023 Y-11.816
X108.467 Y-11.035
X105.902 Y-10.269
X103.324 Y-9.52
X100.731 Y-8.79
X98.118 Y-8.079
X95.481 Y-7.39
X92.815 Y-6.724
X91.476 Y-6.4
X90.126 Y-6.083
X88.768 Y-5.771
X87.402 Y-5.466
X86.026 Y-5.168
X84.642 Y-4.876
X83.247 Y-4.592
X81.843 Y-4.314
X80.429 Y-4.044
X79.005 Y-3.78
X77.57 Y-3.524
X76.124 Y-3.276
X74.667 Y-3.035
X73.198 Y-2.802
X71.718 Y-2.576
X70.227 Y-2.358
X68.723 Y-2.148
X67.207 Y-1.946
X65.68 Y-1.752
X64.139 Y-1.565
X62.587 Y-1.387
X61.022 Y-1.216
X59.444 Y-1.054
X57.854 Y-0.9
X56.251 Y-0.753
X54.636 Y-0.615
X53.008 Y-0.484
X51.367 Y-0.361
X49.714 Y-0.246
X48.049 Y-0.139
X46.371 Y-0.04
X44.681 Y0.052
X42.979 Y0.136
X41.266 Y0.213
X39.54 Y0.283
X37.803 Y0.345
X36.054 Y0.4
X34.294 Y0.449
X32.523 Y0.491
X30.742 Y0.526
X28.95 Y0.555
X27.148 Y0.577
X25.336 Y0.594
X23.517 Y0.605
X19.847 Y0.61
X16.145 Y0.596
X12.413 Y0.564
X8.655 Y0.517
X4.874 Y0.457
X1.074 Y0.386
X-2.742 Y0.308
X-6.569 Y0.225
X-14.24 Y0.058
X-14.246
X-21.91 Y-0.091
X-21.919
X-25.739 Y-0.151
X-25.748
X-29.555 Y-0.196
X-29.567
X-33.357 Y-0.223
X-33.371
X-37.142 Y-0.229
X-37.158
X-40.906 Y-0.21
X-40.92 Y-0.209
X-42.784 Y-0.19
X-42.794
X-44.651 Y-0.162
X-44.662
X-46.512 Y-0.127
X-46.524 Y-0.126
X-48.366 Y-0.083
X-48.378 Y-0.082
X-50.212 Y-0.03
X-50.225 Y-0.029
X-52.051 Y0.032
X-52.065 Y0.033
X-53.881 Y0.105
X-53.896
X-55.703 Y0.187
X-55.718 Y0.188
X-57.516 Y0.28
X-57.532 Y0.281
X-59.32 Y0.385
X-59.337 Y0.386
X-61.114 Y0.501
X-61.132 Y0.502
X-62.898 Y0.63
X-62.917 Y0.631
X-64.672 Y0.771
X-64.692 Y0.773
X-66.436 Y0.925
X-66.456 Y0.927
X-68.188 Y1.093
X-68.21 Y1.096
X-69.929 Y1.276
X-69.952 Y1.278
X-71.659 Y1.473
X-71.682 Y1.476
X-73.376 Y1.685
X-73.401 Y1.688
X-75.081 Y1.913
X-75.107 Y1.916
X-76.774 Y2.157
X-76.8 Y2.161
X-78.453 Y2.417
X-78.481 Y2.422
X-80.119 Y2.695
X-80.148 Y2.7
X-81.771 Y2.991
X-81.801 Y2.996
X-83.409 Y3.305
X-83.441 Y3.311
X-85.033 Y3.637
X-85.066 Y3.644
X-86.642 Y3.989
X-86.676 Y3.997
X-88.236 Y4.361
X-88.271 Y4.369
X-89.815 Y4.753
X-89.851 Y4.762
X-91.378 Y5.165
X-91.415 Y5.175
X-92.924 Y5.599
X-92.963 Y5.61
X-94.455 Y6.055
X-94.494 Y6.067
X-95.968 Y6.533
X-96.009 Y6.547
X-97.464 Y7.034
X-97.506 Y7.049
X-98.943 Y7.559
X-98.986 Y7.575
X-100.404 Y8.108
X-100.448 Y8.125
X-101.847 Y8.681
X-101.893 Y8.699
X-103.272 Y9.279
X-103.318 Y9.299
X-104.677 Y9.902
X-104.724 Y9.924
X-106.063 Y10.552
X-106.111 Y10.575
X-107.429 Y11.228
X-107.477 Y11.252
X-108.775 Y11.93
X-108.825 Y11.957
X-110.101 Y12.661
X-110.15 Y12.689
X-111.405 Y13.42
X-111.455 Y13.449
X-112.689 Y14.206
X-112.74 Y14.238
X-113.951 Y15.022
X-114.002 Y15.056
X-115.191 Y15.867
X-115.241 Y15.902
X-116.408 Y16.741
X-116.459 Y16.779
X-117.603 Y17.646
X-117.655 Y17.686
X-118.775 Y18.582
X-118.824 Y18.622
X-119.922 Y19.547
X-119.971 Y19.59
X-121.045 Y20.544
X-121.094 Y20.589
X-122.144 Y21.573
X-122.192 Y21.619
X-123.218 Y22.633
X-123.266 Y22.682
X-124.267 Y23.726
X-124.312 Y23.775
X-125.289 Y24.85
X-125.322 Y24.886
X-125.802 Y25.436
X-125.825 Y25.463
X-126.298 Y26.02
X-126.319 Y26.046
X-126.786 Y26.611
X-126.809 Y26.638
X-127.269 Y27.211
X-127.289 Y27.237
X-127.743 Y27.818
