(CamperKuehlschrankLueftung)
(T1  D=5 CR=0 - ZMIN=-10 - flat end mill)
G90 G94
G17
G21
G28 G91 Z0
G90

(Bore1)
T1
S5000 M3
G54
M8
G0 X26 Y42.229
Z15
Z1.5
G1 Z0 F1000
X26.25
G3 X26.5 Y42.479 I0 J0.25
X25.5 Y42.479 Z-1.092 I-0.5 J0
X26.5 Y42.479 Z-2.184 I0.5 J0
X25.5 Y42.479 Z-3.276 I-0.5 J0
X26.5 Y42.479 Z-4.368 I0.5 J0
X25.5 Y42.479 Z-5.46 I-0.5 J0
X26.5 Y42.479 Z-6.551 I0.5 J0
X25.5 Y42.479 Z-7.643 I-0.5 J0
X26.5 Y42.479 Z-8.735 I0.5 J0
X25.5 Y42.479 Z-9.827 I-0.5 J0
X25.561 Y42.241 Z-10 I0.5 J0
X26.439 Y42.718 I0.439 J0.238
X25.561 Y42.241 I-0.439 J-0.238
X25.9 Y42.14 I0.22 J0.119
G1 X26.119 Y42.259
G0 Z5
X26 Y30.562
Z1.5
G1 Z0 F1000
X26.25
G3 X26.5 Y30.812 I0 J0.25
X25.5 Y30.812 Z-1.092 I-0.5 J0
X26.5 Y30.812 Z-2.184 I0.5 J0
X25.5 Y30.812 Z-3.276 I-0.5 J0
X26.5 Y30.812 Z-4.368 I0.5 J0
X25.5 Y30.812 Z-5.46 I-0.5 J0
X26.5 Y30.812 Z-6.551 I0.5 J0
X25.5 Y30.812 Z-7.643 I-0.5 J0
X26.5 Y30.812 Z-8.735 I0.5 J0
X25.5 Y30.812 Z-9.827 I-0.5 J0
X25.561 Y30.574 Z-10 I0.5 J0
X26.439 Y31.051 I0.439 J0.238
X25.561 Y30.574 I-0.439 J-0.238
X25.9 Y30.473 I0.22 J0.119
G1 X26.119 Y30.593
G0 Z5
X26 Y18.896
Z1.5
G1 Z0 F1000
X26.25
G3 X26.5 Y19.146 I0 J0.25
X25.5 Y19.146 Z-1.092 I-0.5 J0
X26.5 Y19.146 Z-2.184 I0.5 J0
X25.5 Y19.146 Z-3.276 I-0.5 J0
X26.5 Y19.146 Z-4.368 I0.5 J0
X25.5 Y19.146 Z-5.46 I-0.5 J0
X26.5 Y19.146 Z-6.551 I0.5 J0
X25.5 Y19.146 Z-7.643 I-0.5 J0
X26.5 Y19.146 Z-8.735 I0.5 J0
X25.5 Y19.146 Z-9.827 I-0.5 J0
X25.561 Y18.907 Z-10 I0.5 J0
X26.439 Y19.384 I0.439 J0.238
X25.561 Y18.907 I-0.439 J-0.238
X25.9 Y18.807 I0.22 J0.119
G1 X26.119 Y18.926
G0 Z5
X57.25 Y42.229
Z1.5
G1 Z0 F1000
X57.5
G3 X57.75 Y42.479 I0 J0.25
X56.75 Y42.479 Z-1.092 I-0.5 J0
X57.75 Y42.479 Z-2.184 I0.5 J0
X56.75 Y42.479 Z-3.276 I-0.5 J0
X57.75 Y42.479 Z-4.368 I0.5 J0
X56.75 Y42.479 Z-5.46 I-0.5 J0
X57.75 Y42.479 Z-6.551 I0.5 J0
X56.75 Y42.479 Z-7.643 I-0.5 J0
X57.75 Y42.479 Z-8.735 I0.5 J0
X56.75 Y42.479 Z-9.827 I-0.5 J0
X56.811 Y42.241 Z-10 I0.5 J0
X57.689 Y42.718 I0.439 J0.238
X56.811 Y42.241 I-0.439 J-0.238
X57.15 Y42.14 I0.22 J0.119
G1 X57.369 Y42.259
G0 Z5
X57.25 Y30.562
Z1.5
G1 Z0 F1000
X57.5
G3 X57.75 Y30.812 I0 J0.25
X56.75 Y30.812 Z-1.092 I-0.5 J0
X57.75 Y30.812 Z-2.184 I0.5 J0
X56.75 Y30.812 Z-3.276 I-0.5 J0
X57.75 Y30.812 Z-4.368 I0.5 J0
X56.75 Y30.812 Z-5.46 I-0.5 J0
X57.75 Y30.812 Z-6.551 I0.5 J0
X56.75 Y30.812 Z-7.643 I-0.5 J0
X57.75 Y30.812 Z-8.735 I0.5 J0
X56.75 Y30.812 Z-9.827 I-0.5 J0
X56.811 Y30.574 Z-10 I0.5 J0
X57.689 Y31.051 I0.439 J0.238
X56.811 Y30.574 I-0.439 J-0.238
X57.15 Y30.473 I0.22 J0.119
G1 X57.369 Y30.593
G0 Z5
X57.25 Y18.896
Z1.5
G1 Z0 F1000
X57.5
G3 X57.75 Y19.146 I0 J0.25
X56.75 Y19.146 Z-1.092 I-0.5 J0
X57.75 Y19.146 Z-2.184 I0.5 J0
X56.75 Y19.146 Z-3.276 I-0.5 J0
X57.75 Y19.146 Z-4.368 I0.5 J0
X56.75 Y19.146 Z-5.46 I-0.5 J0
X57.75 Y19.146 Z-6.551 I0.5 J0
X56.75 Y19.146 Z-7.643 I-0.5 J0
X57.75 Y19.146 Z-8.735 I0.5 J0
X56.75 Y19.146 Z-9.827 I-0.5 J0
X56.811 Y18.907 Z-10 I0.5 J0
X57.689 Y19.384 I0.439 J0.238
X56.811 Y18.907 I-0.439 J-0.238
X57.15 Y18.807 I0.22 J0.119
G1 X57.369 Y18.926
G0 Z5
X57.25 Y7.229
Z1.5
G1 Z0 F1000
X57.5
G3 X57.75 Y7.479 I0 J0.25
X56.75 Y7.479 Z-1.092 I-0.5 J0
X57.75 Y7.479 Z-2.184 I0.5 J0
X56.75 Y7.479 Z-3.276 I-0.5 J0
X57.75 Y7.479 Z-4.368 I0.5 J0
X56.75 Y7.479 Z-5.46 I-0.5 J0
X57.75 Y7.479 Z-6.551 I0.5 J0
X56.75 Y7.479 Z-7.643 I-0.5 J0
X57.75 Y7.479 Z-8.735 I0.5 J0
X56.75 Y7.479 Z-9.827 I-0.5 J0
X56.811 Y7.241 Z-10 I0.5 J0
X57.689 Y7.718 I0.439 J0.238
X56.811 Y7.241 I-0.439 J-0.238
X57.15 Y7.14 I0.22 J0.119
G1 X57.369 Y7.259
G0 Z5
X88.5 Y7.229
Z1.5
G1 Z0 F1000
X88.75
G3 X89 Y7.479 I0 J0.25
X88 Y7.479 Z-1.092 I-0.5 J0
X89 Y7.479 Z-2.184 I0.5 J0
X88 Y7.479 Z-3.276 I-0.5 J0
X89 Y7.479 Z-4.368 I0.5 J0
X88 Y7.479 Z-5.46 I-0.5 J0
X89 Y7.479 Z-6.551 I0.5 J0
X88 Y7.479 Z-7.643 I-0.5 J0
X89 Y7.479 Z-8.735 I0.5 J0
X88 Y7.479 Z-9.827 I-0.5 J0
X88.061 Y7.241 Z-10 I0.5 J0
X88.939 Y7.718 I0.439 J0.238
X88.061 Y7.241 I-0.439 J-0.238
X88.4 Y7.14 I0.22 J0.119
G1 X88.619 Y7.259
G0 Z5
X88.5 Y18.896
Z1.5
G1 Z0 F1000
X88.75
G3 X89 Y19.146 I0 J0.25
X88 Y19.146 Z-1.092 I-0.5 J0
X89 Y19.146 Z-2.184 I0.5 J0
X88 Y19.146 Z-3.276 I-0.5 J0
X89 Y19.146 Z-4.368 I0.5 J0
X88 Y19.146 Z-5.46 I-0.5 J0
X89 Y19.146 Z-6.551 I0.5 J0
X88 Y19.146 Z-7.643 I-0.5 J0
X89 Y19.146 Z-8.735 I0.5 J0
X88 Y19.146 Z-9.827 I-0.5 J0
X88.061 Y18.907 Z-10 I0.5 J0
X88.939 Y19.384 I0.439 J0.238
X88.061 Y18.907 I-0.439 J-0.238
X88.4 Y18.807 I0.22 J0.119
G1 X88.619 Y18.926
G0 Z5
X88.5 Y30.562
Z1.5
G1 Z0 F1000
X88.75
G3 X89 Y30.812 I0 J0.25
X88 Y30.812 Z-1.092 I-0.5 J0
X89 Y30.812 Z-2.184 I0.5 J0
X88 Y30.812 Z-3.276 I-0.5 J0
X89 Y30.812 Z-4.368 I0.5 J0
X88 Y30.812 Z-5.46 I-0.5 J0
X89 Y30.812 Z-6.551 I0.5 J0
X88 Y30.812 Z-7.643 I-0.5 J0
X89 Y30.812 Z-8.735 I0.5 J0
X88 Y30.812 Z-9.827 I-0.5 J0
X88.061 Y30.574 Z-10 I0.5 J0
X88.939 Y31.051 I0.439 J0.238
X88.061 Y30.574 I-0.439 J-0.238
X88.4 Y30.473 I0.22 J0.119
G1 X88.619 Y30.593
G0 Z5
X88.5 Y42.229
Z1.5
G1 Z0 F1000
X88.75
G3 X89 Y42.479 I0 J0.25
X88 Y42.479 Z-1.092 I-0.5 J0
X89 Y42.479 Z-2.184 I0.5 J0
X88 Y42.479 Z-3.276 I-0.5 J0
X89 Y42.479 Z-4.368 I0.5 J0
X88 Y42.479 Z-5.46 I-0.5 J0
X89 Y42.479 Z-6.551 I0.5 J0
X88 Y42.479 Z-7.643 I-0.5 J0
X89 Y42.479 Z-8.735 I0.5 J0
X88 Y42.479 Z-9.827 I-0.5 J0
X88.061 Y42.241 Z-10 I0.5 J0
X88.939 Y42.718 I0.439 J0.238
X88.061 Y42.241 I-0.439 J-0.238
X88.4 Y42.14 I0.22 J0.119
G1 X88.619 Y42.259
G0 Z5
X119.75 Y42.229
Z1.5
G1 Z0 F1000
X120
G3 X120.25 Y42.479 I0 J0.25
X119.25 Y42.479 Z-1.092 I-0.5 J0
X120.25 Y42.479 Z-2.184 I0.5 J0
X119.25 Y42.479 Z-3.276 I-0.5 J0
X120.25 Y42.479 Z-4.368 I0.5 J0
X119.25 Y42.479 Z-5.46 I-0.5 J0
X120.25 Y42.479 Z-6.551 I0.5 J0
X119.25 Y42.479 Z-7.643 I-0.5 J0
X120.25 Y42.479 Z-8.735 I0.5 J0
X119.25 Y42.479 Z-9.827 I-0.5 J0
X119.311 Y42.241 Z-10 I0.5 J0
X120.189 Y42.718 I0.439 J0.238
X119.311 Y42.241 I-0.439 J-0.238
X119.65 Y42.14 I0.22 J0.119
G1 X119.869 Y42.259
G0 Z5
X119.75 Y30.562
Z1.5
G1 Z0 F1000
X120
G3 X120.25 Y30.812 I0 J0.25
X119.25 Y30.812 Z-1.092 I-0.5 J0
X120.25 Y30.812 Z-2.184 I0.5 J0
X119.25 Y30.812 Z-3.276 I-0.5 J0
X120.25 Y30.812 Z-4.368 I0.5 J0
X119.25 Y30.812 Z-5.46 I-0.5 J0
X120.25 Y30.812 Z-6.551 I0.5 J0
X119.25 Y30.812 Z-7.643 I-0.5 J0
X120.25 Y30.812 Z-8.735 I0.5 J0
X119.25 Y30.812 Z-9.827 I-0.5 J0
X119.311 Y30.574 Z-10 I0.5 J0
X120.189 Y31.051 I0.439 J0.238
X119.311 Y30.574 I-0.439 J-0.238
X119.65 Y30.473 I0.22 J0.119
G1 X119.869 Y30.593
G0 Z5
X119.75 Y18.896
Z1.5
G1 Z0 F1000
X120
G3 X120.25 Y19.146 I0 J0.25
X119.25 Y19.146 Z-1.092 I-0.5 J0
X120.25 Y19.146 Z-2.184 I0.5 J0
X119.25 Y19.146 Z-3.276 I-0.5 J0
X120.25 Y19.146 Z-4.368 I0.5 J0
X119.25 Y19.146 Z-5.46 I-0.5 J0
X120.25 Y19.146 Z-6.551 I0.5 J0
X119.25 Y19.146 Z-7.643 I-0.5 J0
X120.25 Y19.146 Z-8.735 I0.5 J0
X119.25 Y19.146 Z-9.827 I-0.5 J0
X119.311 Y18.907 Z-10 I0.5 J0
X120.189 Y19.384 I0.439 J0.238
X119.311 Y18.907 I-0.439 J-0.238
X119.65 Y18.807 I0.22 J0.119
G1 X119.869 Y18.926
G0 Z5
X119.75 Y7.229
Z1.5
G1 Z0 F1000
X120
G3 X120.25 Y7.479 I0 J0.25
X119.25 Y7.479 Z-1.092 I-0.5 J0
X120.25 Y7.479 Z-2.184 I0.5 J0
X119.25 Y7.479 Z-3.276 I-0.5 J0
X120.25 Y7.479 Z-4.368 I0.5 J0
X119.25 Y7.479 Z-5.46 I-0.5 J0
X120.25 Y7.479 Z-6.551 I0.5 J0
X119.25 Y7.479 Z-7.643 I-0.5 J0
X120.25 Y7.479 Z-8.735 I0.5 J0
X119.25 Y7.479 Z-9.827 I-0.5 J0
X119.311 Y7.241 Z-10 I0.5 J0
X120.189 Y7.718 I0.439 J0.238
X119.311 Y7.241 I-0.439 J-0.238
X119.65 Y7.14 I0.22 J0.119
G1 X119.869 Y7.259
G0 Z5
X151 Y7.229
Z1.5
G1 Z0 F1000
X151.25
G3 X151.5 Y7.479 I0 J0.25
X150.5 Y7.479 Z-1.092 I-0.5 J0
X151.5 Y7.479 Z-2.184 I0.5 J0
X150.5 Y7.479 Z-3.276 I-0.5 J0
X151.5 Y7.479 Z-4.368 I0.5 J0
X150.5 Y7.479 Z-5.46 I-0.5 J0
X151.5 Y7.479 Z-6.551 I0.5 J0
X150.5 Y7.479 Z-7.643 I-0.5 J0
X151.5 Y7.479 Z-8.735 I0.5 J0
X150.5 Y7.479 Z-9.827 I-0.5 J0
X150.561 Y7.241 Z-10 I0.5 J0
X151.439 Y7.718 I0.439 J0.238
X150.561 Y7.241 I-0.439 J-0.238
X150.9 Y7.14 I0.22 J0.119
G1 X151.119 Y7.259
G0 Z5
X151 Y18.896
Z1.5
G1 Z0 F1000
X151.25
G3 X151.5 Y19.146 I0 J0.25
X150.5 Y19.146 Z-1.092 I-0.5 J0
X151.5 Y19.146 Z-2.184 I0.5 J0
X150.5 Y19.146 Z-3.276 I-0.5 J0
X151.5 Y19.146 Z-4.368 I0.5 J0
X150.5 Y19.146 Z-5.46 I-0.5 J0
X151.5 Y19.146 Z-6.551 I0.5 J0
X150.5 Y19.146 Z-7.643 I-0.5 J0
X151.5 Y19.146 Z-8.735 I0.5 J0
X150.5 Y19.146 Z-9.827 I-0.5 J0
X150.561 Y18.907 Z-10 I0.5 J0
X151.439 Y19.384 I0.439 J0.238
X150.561 Y18.907 I-0.439 J-0.238
X150.9 Y18.807 I0.22 J0.119
G1 X151.119 Y18.926
G0 Z5
X151 Y30.562
Z1.5
G1 Z0 F1000
X151.25
G3 X151.5 Y30.812 I0 J0.25
X150.5 Y30.812 Z-1.092 I-0.5 J0
X151.5 Y30.812 Z-2.184 I0.5 J0
X150.5 Y30.812 Z-3.276 I-0.5 J0
X151.5 Y30.812 Z-4.368 I0.5 J0
X150.5 Y30.812 Z-5.46 I-0.5 J0
X151.5 Y30.812 Z-6.551 I0.5 J0
X150.5 Y30.812 Z-7.643 I-0.5 J0
X151.5 Y30.812 Z-8.735 I0.5 J0
X150.5 Y30.812 Z-9.827 I-0.5 J0
X150.561 Y30.574 Z-10 I0.5 J0
X151.439 Y31.051 I0.439 J0.238
X150.561 Y30.574 I-0.439 J-0.238
X150.9 Y30.473 I0.22 J0.119
G1 X151.119 Y30.593
G0 Z5
X151 Y42.229
Z1.5
G1 Z0 F1000
X151.25
G3 X151.5 Y42.479 I0 J0.25
X150.5 Y42.479 Z-1.092 I-0.5 J0
X151.5 Y42.479 Z-2.184 I0.5 J0
X150.5 Y42.479 Z-3.276 I-0.5 J0
X151.5 Y42.479 Z-4.368 I0.5 J0
X150.5 Y42.479 Z-5.46 I-0.5 J0
X151.5 Y42.479 Z-6.551 I0.5 J0
X150.5 Y42.479 Z-7.643 I-0.5 J0
X151.5 Y42.479 Z-8.735 I0.5 J0
X150.5 Y42.479 Z-9.827 I-0.5 J0
X150.561 Y42.241 Z-10 I0.5 J0
X151.439 Y42.718 I0.439 J0.238
X150.561 Y42.241 I-0.439 J-0.238
X150.9 Y42.14 I0.22 J0.119
G1 X151.119 Y42.259
G0 Z5
X182.25 Y42.229
Z1.5
G1 Z0 F1000
X182.5
G3 X182.75 Y42.479 I0 J0.25
X181.75 Y42.479 Z-1.092 I-0.5 J0
X182.75 Y42.479 Z-2.184 I0.5 J0
X181.75 Y42.479 Z-3.276 I-0.5 J0
X182.75 Y42.479 Z-4.368 I0.5 J0
X181.75 Y42.479 Z-5.46 I-0.5 J0
X182.75 Y42.479 Z-6.551 I0.5 J0
X181.75 Y42.479 Z-7.643 I-0.5 J0
X182.75 Y42.479 Z-8.735 I0.5 J0
X181.75 Y42.479 Z-9.827 I-0.5 J0
X181.811 Y42.241 Z-10 I0.5 J0
X182.689 Y42.718 I0.439 J0.238
X181.811 Y42.241 I-0.439 J-0.238
X182.15 Y42.14 I0.22 J0.119
G1 X182.369 Y42.259
G0 Z5
X182.25 Y30.562
Z1.5
G1 Z0 F1000
X182.5
G3 X182.75 Y30.812 I0 J0.25
X181.75 Y30.812 Z-1.092 I-0.5 J0
X182.75 Y30.812 Z-2.184 I0.5 J0
X181.75 Y30.812 Z-3.276 I-0.5 J0
X182.75 Y30.812 Z-4.368 I0.5 J0
X181.75 Y30.812 Z-5.46 I-0.5 J0
X182.75 Y30.812 Z-6.551 I0.5 J0
X181.75 Y30.812 Z-7.643 I-0.5 J0
X182.75 Y30.812 Z-8.735 I0.5 J0
X181.75 Y30.812 Z-9.827 I-0.5 J0
X181.811 Y30.574 Z-10 I0.5 J0
X182.689 Y31.051 I0.439 J0.238
X181.811 Y30.574 I-0.439 J-0.238
X182.15 Y30.473 I0.22 J0.119
G1 X182.369 Y30.593
G0 Z5
X182.25 Y18.896
Z1.5
G1 Z0 F1000
X182.5
G3 X182.75 Y19.146 I0 J0.25
X181.75 Y19.146 Z-1.092 I-0.5 J0
X182.75 Y19.146 Z-2.184 I0.5 J0
X181.75 Y19.146 Z-3.276 I-0.5 J0
X182.75 Y19.146 Z-4.368 I0.5 J0
X181.75 Y19.146 Z-5.46 I-0.5 J0
X182.75 Y19.146 Z-6.551 I0.5 J0
X181.75 Y19.146 Z-7.643 I-0.5 J0
X182.75 Y19.146 Z-8.735 I0.5 J0
X181.75 Y19.146 Z-9.827 I-0.5 J0
X181.811 Y18.907 Z-10 I0.5 J0
X182.689 Y19.384 I0.439 J0.238
X181.811 Y18.907 I-0.439 J-0.238
X182.15 Y18.807 I0.22 J0.119
G1 X182.369 Y18.926
G0 Z5
X182.25 Y7.229
Z1.5
G1 Z0 F1000
X182.5
G3 X182.75 Y7.479 I0 J0.25
X181.75 Y7.479 Z-1.092 I-0.5 J0
X182.75 Y7.479 Z-2.184 I0.5 J0
X181.75 Y7.479 Z-3.276 I-0.5 J0
X182.75 Y7.479 Z-4.368 I0.5 J0
X181.75 Y7.479 Z-5.46 I-0.5 J0
X182.75 Y7.479 Z-6.551 I0.5 J0
X181.75 Y7.479 Z-7.643 I-0.5 J0
X182.75 Y7.479 Z-8.735 I0.5 J0
X181.75 Y7.479 Z-9.827 I-0.5 J0
X181.811 Y7.241 Z-10 I0.5 J0
X182.689 Y7.718 I0.439 J0.238
X181.811 Y7.241 I-0.439 J-0.238
X182.15 Y7.14 I0.22 J0.119
G1 X182.369 Y7.259
G0 Z5
X213.5 Y7.229
Z1.5
G1 Z0 F1000
X213.75
G3 X214 Y7.479 I0 J0.25
X213 Y7.479 Z-1.092 I-0.5 J0
X214 Y7.479 Z-2.184 I0.5 J0
X213 Y7.479 Z-3.276 I-0.5 J0
X214 Y7.479 Z-4.368 I0.5 J0
X213 Y7.479 Z-5.46 I-0.5 J0
X214 Y7.479 Z-6.551 I0.5 J0
X213 Y7.479 Z-7.643 I-0.5 J0
X214 Y7.479 Z-8.735 I0.5 J0
X213 Y7.479 Z-9.827 I-0.5 J0
X213.061 Y7.241 Z-10 I0.5 J0
X213.939 Y7.718 I0.439 J0.238
X213.061 Y7.241 I-0.439 J-0.238
X213.4 Y7.14 I0.22 J0.119
G1 X213.619 Y7.259
G0 Z5
X213.5 Y18.896
Z1.5
G1 Z0 F1000
X213.75
G3 X214 Y19.146 I0 J0.25
X213 Y19.146 Z-1.092 I-0.5 J0
X214 Y19.146 Z-2.184 I0.5 J0
X213 Y19.146 Z-3.276 I-0.5 J0
X214 Y19.146 Z-4.368 I0.5 J0
X213 Y19.146 Z-5.46 I-0.5 J0
X214 Y19.146 Z-6.551 I0.5 J0
X213 Y19.146 Z-7.643 I-0.5 J0
X214 Y19.146 Z-8.735 I0.5 J0
X213 Y19.146 Z-9.827 I-0.5 J0
X213.061 Y18.907 Z-10 I0.5 J0
X213.939 Y19.384 I0.439 J0.238
X213.061 Y18.907 I-0.439 J-0.238
X213.4 Y18.807 I0.22 J0.119
G1 X213.619 Y18.926
G0 Z5
X213.5 Y30.562
Z1.5
G1 Z0 F1000
X213.75
G3 X214 Y30.812 I0 J0.25
X213 Y30.812 Z-1.092 I-0.5 J0
X214 Y30.812 Z-2.184 I0.5 J0
X213 Y30.812 Z-3.276 I-0.5 J0
X214 Y30.812 Z-4.368 I0.5 J0
X213 Y30.812 Z-5.46 I-0.5 J0
X214 Y30.812 Z-6.551 I0.5 J0
X213 Y30.812 Z-7.643 I-0.5 J0
X214 Y30.812 Z-8.735 I0.5 J0
X213 Y30.812 Z-9.827 I-0.5 J0
X213.061 Y30.574 Z-10 I0.5 J0
X213.939 Y31.051 I0.439 J0.238
X213.061 Y30.574 I-0.439 J-0.238
X213.4 Y30.473 I0.22 J0.119
G1 X213.619 Y30.593
G0 Z5
X213.5 Y42.229
Z1.5
G1 Z0 F1000
X213.75
G3 X214 Y42.479 I0 J0.25
X213 Y42.479 Z-1.092 I-0.5 J0
X214 Y42.479 Z-2.184 I0.5 J0
X213 Y42.479 Z-3.276 I-0.5 J0
X214 Y42.479 Z-4.368 I0.5 J0
X213 Y42.479 Z-5.46 I-0.5 J0
X214 Y42.479 Z-6.551 I0.5 J0
X213 Y42.479 Z-7.643 I-0.5 J0
X214 Y42.479 Z-8.735 I0.5 J0
X213 Y42.479 Z-9.827 I-0.5 J0
X213.061 Y42.241 Z-10 I0.5 J0
X213.939 Y42.718 I0.439 J0.238
X213.061 Y42.241 I-0.439 J-0.238
X213.4 Y42.14 I0.22 J0.119
G1 X213.619 Y42.259
G0 Z5
X244.75 Y42.229
Z1.5
G1 Z0 F1000
X245
G3 X245.25 Y42.479 I0 J0.25
X244.25 Y42.479 Z-1.092 I-0.5 J0
X245.25 Y42.479 Z-2.184 I0.5 J0
X244.25 Y42.479 Z-3.276 I-0.5 J0
X245.25 Y42.479 Z-4.368 I0.5 J0
X244.25 Y42.479 Z-5.46 I-0.5 J0
X245.25 Y42.479 Z-6.551 I0.5 J0
X244.25 Y42.479 Z-7.643 I-0.5 J0
X245.25 Y42.479 Z-8.735 I0.5 J0
X244.25 Y42.479 Z-9.827 I-0.5 J0
X244.311 Y42.241 Z-10 I0.5 J0
X245.189 Y42.718 I0.439 J0.238
X244.311 Y42.241 I-0.439 J-0.238
X244.65 Y42.14 I0.22 J0.119
G1 X244.869 Y42.259
G0 Z5
X244.75 Y30.562
Z1.5
G1 Z0 F1000
X245
G3 X245.25 Y30.812 I0 J0.25
X244.25 Y30.812 Z-1.092 I-0.5 J0
X245.25 Y30.812 Z-2.184 I0.5 J0
X244.25 Y30.812 Z-3.276 I-0.5 J0
X245.25 Y30.812 Z-4.368 I0.5 J0
X244.25 Y30.812 Z-5.46 I-0.5 J0
X245.25 Y30.812 Z-6.551 I0.5 J0
X244.25 Y30.812 Z-7.643 I-0.5 J0
X245.25 Y30.812 Z-8.735 I0.5 J0
X244.25 Y30.812 Z-9.827 I-0.5 J0
X244.311 Y30.574 Z-10 I0.5 J0
X245.189 Y31.051 I0.439 J0.238
X244.311 Y30.574 I-0.439 J-0.238
X244.65 Y30.473 I0.22 J0.119
G1 X244.869 Y30.593
G0 Z5
X244.75 Y18.896
Z1.5
G1 Z0 F1000
X245
G3 X245.25 Y19.146 I0 J0.25
X244.25 Y19.146 Z-1.092 I-0.5 J0
X245.25 Y19.146 Z-2.184 I0.5 J0
X244.25 Y19.146 Z-3.276 I-0.5 J0
X245.25 Y19.146 Z-4.368 I0.5 J0
X244.25 Y19.146 Z-5.46 I-0.5 J0
X245.25 Y19.146 Z-6.551 I0.5 J0
X244.25 Y19.146 Z-7.643 I-0.5 J0
X245.25 Y19.146 Z-8.735 I0.5 J0
X244.25 Y19.146 Z-9.827 I-0.5 J0
X244.311 Y18.907 Z-10 I0.5 J0
X245.189 Y19.384 I0.439 J0.238
X244.311 Y18.907 I-0.439 J-0.238
X244.65 Y18.807 I0.22 J0.119
G1 X244.869 Y18.926
G0 Z5
X244.75 Y7.229
Z1.5
G1 Z0 F1000
X245
G3 X245.25 Y7.479 I0 J0.25
X244.25 Y7.479 Z-1.092 I-0.5 J0
X245.25 Y7.479 Z-2.184 I0.5 J0
X244.25 Y7.479 Z-3.276 I-0.5 J0
X245.25 Y7.479 Z-4.368 I0.5 J0
X244.25 Y7.479 Z-5.46 I-0.5 J0
X245.25 Y7.479 Z-6.551 I0.5 J0
X244.25 Y7.479 Z-7.643 I-0.5 J0
X245.25 Y7.479 Z-8.735 I0.5 J0
X244.25 Y7.479 Z-9.827 I-0.5 J0
X244.311 Y7.241 Z-10 I0.5 J0
X245.189 Y7.718 I0.439 J0.238
X244.311 Y7.241 I-0.439 J-0.238
X244.65 Y7.14 I0.22 J0.119
G1 X244.869 Y7.259
G0 Z5
X276 Y7.229
Z1.5
G1 Z0 F1000
X276.25
G3 X276.5 Y7.479 I0 J0.25
X275.5 Y7.479 Z-1.092 I-0.5 J0
X275.717 Y7.067 Z-1.429 I0.5 J0
X276.283 Y7.891 Z-2.52 I0.283 J0.412
X275.821 Y7.946 Z-2.857 I-0.283 J-0.412
X276.179 Y7.012 Z-3.949 I0.179 J-0.467
X275.821 Y7.946 Z-5.041 I-0.179 J0.467
X276.179 Y7.012 Z-6.133 I0.179 J-0.467
X275.821 Y7.946 Z-7.225 I-0.179 J0.467
X276.179 Y7.012 Z-8.317 I0.179 J-0.467
X275.821 Y7.946 Z-9.409 I-0.179 J0.467
X275.561 Y7.241 Z-10 I0.179 J-0.467
X276.439 Y7.718 I0.439 J0.238
X275.561 Y7.241 I-0.439 J-0.238
X275.9 Y7.14 I0.22 J0.119
G1 X276.119 Y7.259
G0 Z5
X276 Y18.896
Z1.5
G1 Z0 F1000
X276.25
G3 X276.5 Y19.146 I0 J0.25
X275.5 Y19.146 Z-1.092 I-0.5 J0
X275.717 Y18.734 Z-1.429 I0.5 J0
X276.283 Y19.558 Z-2.52 I0.283 J0.412
X275.821 Y19.613 Z-2.857 I-0.283 J-0.412
X276.179 Y18.679 Z-3.949 I0.179 J-0.467
X275.821 Y19.613 Z-5.041 I-0.179 J0.467
X276.179 Y18.679 Z-6.133 I0.179 J-0.467
X275.821 Y19.613 Z-7.225 I-0.179 J0.467
X276.179 Y18.679 Z-8.317 I0.179 J-0.467
X275.821 Y19.613 Z-9.409 I-0.179 J0.467
X275.561 Y18.907 Z-10 I0.179 J-0.467
X276.439 Y19.384 I0.439 J0.238
X275.561 Y18.907 I-0.439 J-0.238
X275.9 Y18.807 I0.22 J0.119
G1 X276.119 Y18.926
G0 Z5
X276 Y30.562
Z1.5
G1 Z0 F1000
X276.25
G3 X276.5 Y30.812 I0 J0.25
X275.5 Y30.812 Z-1.092 I-0.5 J0
X275.717 Y30.4 Z-1.429 I0.5 J0
X276.283 Y31.224 Z-2.52 I0.283 J0.412
X275.821 Y31.279 Z-2.857 I-0.283 J-0.412
X276.179 Y30.346 Z-3.949 I0.179 J-0.467
X275.821 Y31.279 Z-5.041 I-0.179 J0.467
X276.179 Y30.346 Z-6.133 I0.179 J-0.467
X275.821 Y31.279 Z-7.225 I-0.179 J0.467
X276.179 Y30.346 Z-8.317 I0.179 J-0.467
X275.821 Y31.279 Z-9.409 I-0.179 J0.467
X275.561 Y30.574 Z-10 I0.179 J-0.467
X276.439 Y31.051 I0.439 J0.238
X275.561 Y30.574 I-0.439 J-0.238
X275.9 Y30.473 I0.22 J0.119
G1 X276.119 Y30.593
G0 Z5
X276 Y42.229
Z1.5
G1 Z0 F1000
X276.25
G3 X276.5 Y42.479 I0 J0.25
X275.5 Y42.479 Z-1.092 I-0.5 J0
X275.717 Y42.067 Z-1.429 I0.5 J0
X276.283 Y42.891 Z-2.52 I0.283 J0.412
X275.821 Y42.946 Z-2.857 I-0.283 J-0.412
X276.179 Y42.012 Z-3.949 I0.179 J-0.467
X275.821 Y42.946 Z-5.041 I-0.179 J0.467
X276.179 Y42.012 Z-6.133 I0.179 J-0.467
X275.821 Y42.946 Z-7.225 I-0.179 J0.467
X276.179 Y42.012 Z-8.317 I0.179 J-0.467
X275.821 Y42.946 Z-9.409 I-0.179 J0.467
X275.561 Y42.241 Z-10 I0.179 J-0.467
X276.439 Y42.718 I0.439 J0.238
X275.561 Y42.241 I-0.439 J-0.238
X275.9 Y42.14 I0.22 J0.119
G1 X276.119 Y42.259
G0 Z5
X307.25 Y42.229
Z1.5
G1 Z0 F1000
X307.5
G3 X307.75 Y42.479 I0 J0.25
X306.75 Y42.479 Z-1.092 I-0.5 J0
X306.967 Y42.067 Z-1.429 I0.5 J0
X307.533 Y42.891 Z-2.52 I0.283 J0.412
X307.071 Y42.946 Z-2.857 I-0.283 J-0.412
X307.429 Y42.012 Z-3.949 I0.179 J-0.467
X307.071 Y42.946 Z-5.041 I-0.179 J0.467
X307.429 Y42.012 Z-6.133 I0.179 J-0.467
X307.071 Y42.946 Z-7.225 I-0.179 J0.467
X307.429 Y42.012 Z-8.317 I0.179 J-0.467
X307.071 Y42.946 Z-9.409 I-0.179 J0.467
X306.811 Y42.241 Z-10 I0.179 J-0.467
X307.689 Y42.718 I0.439 J0.238
X306.811 Y42.241 I-0.439 J-0.238
X307.15 Y42.14 I0.22 J0.119
G1 X307.369 Y42.259
G0 Z5
X307.25 Y30.562
Z1.5
G1 Z0 F1000
X307.5
G3 X307.75 Y30.812 I0 J0.25
X306.75 Y30.812 Z-1.092 I-0.5 J0
X306.967 Y30.4 Z-1.429 I0.5 J0
X307.533 Y31.224 Z-2.52 I0.283 J0.412
X307.071 Y31.279 Z-2.857 I-0.283 J-0.412
X307.429 Y30.346 Z-3.949 I0.179 J-0.467
X307.071 Y31.279 Z-5.041 I-0.179 J0.467
X307.429 Y30.346 Z-6.133 I0.179 J-0.467
X307.071 Y31.279 Z-7.225 I-0.179 J0.467
X307.429 Y30.346 Z-8.317 I0.179 J-0.467
X307.071 Y31.279 Z-9.409 I-0.179 J0.467
X306.811 Y30.574 Z-10 I0.179 J-0.467
X307.689 Y31.051 I0.439 J0.238
X306.811 Y30.574 I-0.439 J-0.238
X307.15 Y30.473 I0.22 J0.119
G1 X307.369 Y30.593
G0 Z5
X307.25 Y18.896
Z1.5
G1 Z0 F1000
X307.5
G3 X307.75 Y19.146 I0 J0.25
X306.75 Y19.146 Z-1.092 I-0.5 J0
X306.967 Y18.734 Z-1.429 I0.5 J0
X307.533 Y19.558 Z-2.52 I0.283 J0.412
X307.071 Y19.613 Z-2.857 I-0.283 J-0.412
X307.429 Y18.679 Z-3.949 I0.179 J-0.467
X307.071 Y19.613 Z-5.041 I-0.179 J0.467
X307.429 Y18.679 Z-6.133 I0.179 J-0.467
X307.071 Y19.613 Z-7.225 I-0.179 J0.467
X307.429 Y18.679 Z-8.317 I0.179 J-0.467
X307.071 Y19.613 Z-9.409 I-0.179 J0.467
X306.811 Y18.907 Z-10 I0.179 J-0.467
X307.689 Y19.384 I0.439 J0.238
X306.811 Y18.907 I-0.439 J-0.238
X307.15 Y18.807 I0.22 J0.119
G1 X307.369 Y18.926
G0 Z5
X307.25 Y7.229
Z1.5
G1 Z0 F1000
X307.5
G3 X307.75 Y7.479 I0 J0.25
X306.75 Y7.479 Z-1.092 I-0.5 J0
X306.967 Y7.067 Z-1.429 I0.5 J0
X307.533 Y7.891 Z-2.52 I0.283 J0.412
X307.071 Y7.946 Z-2.857 I-0.283 J-0.412
X307.429 Y7.012 Z-3.949 I0.179 J-0.467
X307.071 Y7.946 Z-5.041 I-0.179 J0.467
X307.429 Y7.012 Z-6.133 I0.179 J-0.467
X307.071 Y7.946 Z-7.225 I-0.179 J0.467
X307.429 Y7.012 Z-8.317 I0.179 J-0.467
X307.071 Y7.946 Z-9.409 I-0.179 J0.467
X306.811 Y7.241 Z-10 I0.179 J-0.467
X307.689 Y7.718 I0.439 J0.238
X306.811 Y7.241 I-0.439 J-0.238
X307.15 Y7.14 I0.22 J0.119
G1 X307.369 Y7.259
G0 Z5
X338.5 Y7.229
Z1.5
G1 Z0 F1000
X338.75
G3 X339 Y7.479 I0 J0.25
X338 Y7.479 Z-1.092 I-0.5 J0
X338.217 Y7.067 Z-1.429 I0.5 J0
X338.783 Y7.891 Z-2.52 I0.283 J0.412
X338.321 Y7.946 Z-2.857 I-0.283 J-0.412
X338.679 Y7.012 Z-3.949 I0.179 J-0.467
X338.321 Y7.946 Z-5.041 I-0.179 J0.467
X338.679 Y7.012 Z-6.133 I0.179 J-0.467
X338.321 Y7.946 Z-7.225 I-0.179 J0.467
X338.679 Y7.012 Z-8.317 I0.179 J-0.467
X338.321 Y7.946 Z-9.409 I-0.179 J0.467
X338.061 Y7.241 Z-10 I0.179 J-0.467
X338.939 Y7.718 I0.439 J0.238
X338.061 Y7.241 I-0.439 J-0.238
X338.4 Y7.14 I0.22 J0.119
G1 X338.619 Y7.259
G0 Z5
X338.5 Y18.896
Z1.5
G1 Z0 F1000
X338.75
G3 X339 Y19.146 I0 J0.25
X338 Y19.146 Z-1.092 I-0.5 J0
X338.217 Y18.734 Z-1.429 I0.5 J0
X338.783 Y19.558 Z-2.52 I0.283 J0.412
X338.321 Y19.613 Z-2.857 I-0.283 J-0.412
X338.679 Y18.679 Z-3.949 I0.179 J-0.467
X338.321 Y19.613 Z-5.041 I-0.179 J0.467
X338.679 Y18.679 Z-6.133 I0.179 J-0.467
X338.321 Y19.613 Z-7.225 I-0.179 J0.467
X338.679 Y18.679 Z-8.317 I0.179 J-0.467
X338.321 Y19.613 Z-9.409 I-0.179 J0.467
X338.061 Y18.907 Z-10 I0.179 J-0.467
X338.939 Y19.384 I0.439 J0.238
X338.061 Y18.907 I-0.439 J-0.238
X338.4 Y18.807 I0.22 J0.119
G1 X338.619 Y18.926
G0 Z5
X338.5 Y30.562
Z1.5
G1 Z0 F1000
X338.75
G3 X339 Y30.812 I0 J0.25
X338 Y30.812 Z-1.092 I-0.5 J0
X338.217 Y30.4 Z-1.429 I0.5 J0
X338.783 Y31.224 Z-2.52 I0.283 J0.412
X338.321 Y31.279 Z-2.857 I-0.283 J-0.412
X338.679 Y30.346 Z-3.949 I0.179 J-0.467
X338.321 Y31.279 Z-5.041 I-0.179 J0.467
X338.679 Y30.346 Z-6.133 I0.179 J-0.467
X338.321 Y31.279 Z-7.225 I-0.179 J0.467
X338.679 Y30.346 Z-8.317 I0.179 J-0.467
X338.321 Y31.279 Z-9.409 I-0.179 J0.467
X338.061 Y30.574 Z-10 I0.179 J-0.467
X338.939 Y31.051 I0.439 J0.238
X338.061 Y30.574 I-0.439 J-0.238
X338.4 Y30.473 I0.22 J0.119
G1 X338.619 Y30.593
G0 Z5
X338.5 Y42.229
Z1.5
G1 Z0 F1000
X338.75
G3 X339 Y42.479 I0 J0.25
X338 Y42.479 Z-1.092 I-0.5 J0
X338.217 Y42.067 Z-1.429 I0.5 J0
X338.783 Y42.891 Z-2.52 I0.283 J0.412
X338.321 Y42.946 Z-2.857 I-0.283 J-0.412
X338.679 Y42.012 Z-3.949 I0.179 J-0.467
X338.321 Y42.946 Z-5.041 I-0.179 J0.467
X338.679 Y42.012 Z-6.133 I0.179 J-0.467
X338.321 Y42.946 Z-7.225 I-0.179 J0.467
X338.679 Y42.012 Z-8.317 I0.179 J-0.467
X338.321 Y42.946 Z-9.409 I-0.179 J0.467
X338.061 Y42.241 Z-10 I0.179 J-0.467
X338.939 Y42.718 I0.439 J0.238
X338.061 Y42.241 I-0.439 J-0.238
X338.4 Y42.14 I0.22 J0.119
G1 X338.619 Y42.259
G0 Z5
X369.75 Y42.229
Z1.5
G1 Z0 F1000
X370
G3 X370.25 Y42.479 I0 J0.25
X369.25 Y42.479 Z-1.092 I-0.5 J0
X369.467 Y42.067 Z-1.429 I0.5 J0
X370.033 Y42.891 Z-2.52 I0.283 J0.412
X369.571 Y42.946 Z-2.857 I-0.283 J-0.412
X369.929 Y42.012 Z-3.949 I0.179 J-0.467
X369.571 Y42.946 Z-5.041 I-0.179 J0.467
X369.929 Y42.012 Z-6.133 I0.179 J-0.467
X369.571 Y42.946 Z-7.225 I-0.179 J0.467
X369.929 Y42.012 Z-8.317 I0.179 J-0.467
X369.571 Y42.946 Z-9.409 I-0.179 J0.467
X369.311 Y42.241 Z-10 I0.179 J-0.467
X370.189 Y42.718 I0.439 J0.238
X369.311 Y42.241 I-0.439 J-0.238
X369.65 Y42.14 I0.22 J0.119
G1 X369.869 Y42.259
G0 Z5
X369.75 Y30.562
Z1.5
G1 Z0 F1000
X370
G3 X370.25 Y30.812 I0 J0.25
X369.25 Y30.812 Z-1.092 I-0.5 J0
X369.467 Y30.4 Z-1.429 I0.5 J0
X370.033 Y31.224 Z-2.52 I0.283 J0.412
X369.571 Y31.279 Z-2.857 I-0.283 J-0.412
X369.929 Y30.346 Z-3.949 I0.179 J-0.467
X369.571 Y31.279 Z-5.041 I-0.179 J0.467
X369.929 Y30.346 Z-6.133 I0.179 J-0.467
X369.571 Y31.279 Z-7.225 I-0.179 J0.467
X369.929 Y30.346 Z-8.317 I0.179 J-0.467
X369.571 Y31.279 Z-9.409 I-0.179 J0.467
X369.311 Y30.574 Z-10 I0.179 J-0.467
X370.189 Y31.051 I0.439 J0.238
X369.311 Y30.574 I-0.439 J-0.238
X369.65 Y30.473 I0.22 J0.119
G1 X369.869 Y30.593
G0 Z5
X369.75 Y18.896
Z1.5
G1 Z0 F1000
X370
G3 X370.25 Y19.146 I0 J0.25
X369.25 Y19.146 Z-1.092 I-0.5 J0
X369.467 Y18.734 Z-1.429 I0.5 J0
X370.033 Y19.558 Z-2.52 I0.283 J0.412
X369.571 Y19.613 Z-2.857 I-0.283 J-0.412
X369.929 Y18.679 Z-3.949 I0.179 J-0.467
X369.571 Y19.613 Z-5.041 I-0.179 J0.467
X369.929 Y18.679 Z-6.133 I0.179 J-0.467
X369.571 Y19.613 Z-7.225 I-0.179 J0.467
X369.929 Y18.679 Z-8.317 I0.179 J-0.467
X369.571 Y19.613 Z-9.409 I-0.179 J0.467
X369.311 Y18.907 Z-10 I0.179 J-0.467
X370.189 Y19.384 I0.439 J0.238
X369.311 Y18.907 I-0.439 J-0.238
X369.65 Y18.807 I0.22 J0.119
G1 X369.869 Y18.926
G0 Z5
X369.75 Y7.229
Z1.5
G1 Z0 F1000
X370
G3 X370.25 Y7.479 I0 J0.25
X369.25 Y7.479 Z-1.092 I-0.5 J0
X369.467 Y7.067 Z-1.429 I0.5 J0
X370.033 Y7.891 Z-2.52 I0.283 J0.412
X369.571 Y7.946 Z-2.857 I-0.283 J-0.412
X369.929 Y7.012 Z-3.949 I0.179 J-0.467
X369.571 Y7.946 Z-5.041 I-0.179 J0.467
X369.929 Y7.012 Z-6.133 I0.179 J-0.467
X369.571 Y7.946 Z-7.225 I-0.179 J0.467
X369.929 Y7.012 Z-8.317 I0.179 J-0.467
X369.571 Y7.946 Z-9.409 I-0.179 J0.467
X369.311 Y7.241 Z-10 I0.179 J-0.467
X370.189 Y7.718 I0.439 J0.238
X369.311 Y7.241 I-0.439 J-0.238
X369.65 Y7.14 I0.22 J0.119
G1 X369.869 Y7.259
G0 Z5
X401 Y7.229
Z1.5
G1 Z0 F1000
X401.25
G3 X401.5 Y7.479 I0 J0.25
X400.5 Y7.479 Z-1.092 I-0.5 J0
X400.717 Y7.067 Z-1.429 I0.5 J0
X401.283 Y7.891 Z-2.52 I0.283 J0.412
X400.821 Y7.946 Z-2.857 I-0.283 J-0.412
X401.179 Y7.012 Z-3.949 I0.179 J-0.467
X400.821 Y7.946 Z-5.041 I-0.179 J0.467
X401.179 Y7.012 Z-6.133 I0.179 J-0.467
X400.821 Y7.946 Z-7.225 I-0.179 J0.467
X401.179 Y7.012 Z-8.317 I0.179 J-0.467
X400.821 Y7.946 Z-9.409 I-0.179 J0.467
X400.561 Y7.241 Z-10 I0.179 J-0.467
X401.439 Y7.718 I0.439 J0.238
X400.561 Y7.241 I-0.439 J-0.238
X400.9 Y7.14 I0.22 J0.119
G1 X401.119 Y7.259
G0 Z5
X401 Y18.896
Z1.5
G1 Z0 F1000
X401.25
G3 X401.5 Y19.146 I0 J0.25
X400.5 Y19.146 Z-1.092 I-0.5 J0
X400.717 Y18.734 Z-1.429 I0.5 J0
X401.283 Y19.558 Z-2.52 I0.283 J0.412
X400.821 Y19.613 Z-2.857 I-0.283 J-0.412
X401.179 Y18.679 Z-3.949 I0.179 J-0.467
X400.821 Y19.613 Z-5.041 I-0.179 J0.467
X401.179 Y18.679 Z-6.133 I0.179 J-0.467
X400.821 Y19.613 Z-7.225 I-0.179 J0.467
X401.179 Y18.679 Z-8.317 I0.179 J-0.467
X400.821 Y19.613 Z-9.409 I-0.179 J0.467
X400.561 Y18.907 Z-10 I0.179 J-0.467
X401.439 Y19.384 I0.439 J0.238
X400.561 Y18.907 I-0.439 J-0.238
X400.9 Y18.807 I0.22 J0.119
G1 X401.119 Y18.926
G0 Z5
X401 Y30.562
Z1.5
G1 Z0 F1000
X401.25
G3 X401.5 Y30.812 I0 J0.25
X400.5 Y30.812 Z-1.092 I-0.5 J0
X400.717 Y30.4 Z-1.429 I0.5 J0
X401.283 Y31.224 Z-2.52 I0.283 J0.412
X400.821 Y31.279 Z-2.857 I-0.283 J-0.412
X401.179 Y30.346 Z-3.949 I0.179 J-0.467
X400.821 Y31.279 Z-5.041 I-0.179 J0.467
X401.179 Y30.346 Z-6.133 I0.179 J-0.467
X400.821 Y31.279 Z-7.225 I-0.179 J0.467
X401.179 Y30.346 Z-8.317 I0.179 J-0.467
X400.821 Y31.279 Z-9.409 I-0.179 J0.467
X400.561 Y30.574 Z-10 I0.179 J-0.467
X401.439 Y31.051 I0.439 J0.238
X400.561 Y30.574 I-0.439 J-0.238
X400.9 Y30.473 I0.22 J0.119
G1 X401.119 Y30.593
G0 Z5
X401 Y42.229
Z1.5
G1 Z0 F1000
X401.25
G3 X401.5 Y42.479 I0 J0.25
X400.5 Y42.479 Z-1.092 I-0.5 J0
X400.717 Y42.067 Z-1.429 I0.5 J0
X401.283 Y42.891 Z-2.52 I0.283 J0.412
X400.821 Y42.946 Z-2.857 I-0.283 J-0.412
X401.179 Y42.012 Z-3.949 I0.179 J-0.467
X400.821 Y42.946 Z-5.041 I-0.179 J0.467
X401.179 Y42.012 Z-6.133 I0.179 J-0.467
X400.821 Y42.946 Z-7.225 I-0.179 J0.467
X401.179 Y42.012 Z-8.317 I0.179 J-0.467
X400.821 Y42.946 Z-9.409 I-0.179 J0.467
X400.561 Y42.241 Z-10 I0.179 J-0.467
X401.439 Y42.718 I0.439 J0.238
X400.561 Y42.241 I-0.439 J-0.238
X400.9 Y42.14 I0.22 J0.119
G1 X401.119 Y42.259
G0 Z5
X432.25 Y42.229
Z1.5
G1 Z0 F1000
X432.5
G3 X432.75 Y42.479 I0 J0.25
X431.75 Y42.479 Z-1.092 I-0.5 J0
X431.967 Y42.067 Z-1.429 I0.5 J0
X432.533 Y42.891 Z-2.52 I0.283 J0.412
X432.071 Y42.946 Z-2.857 I-0.283 J-0.412
X432.429 Y42.012 Z-3.949 I0.179 J-0.467
X432.071 Y42.946 Z-5.041 I-0.179 J0.467
X432.429 Y42.012 Z-6.133 I0.179 J-0.467
X432.071 Y42.946 Z-7.225 I-0.179 J0.467
X432.429 Y42.012 Z-8.317 I0.179 J-0.467
X432.071 Y42.946 Z-9.409 I-0.179 J0.467
X431.811 Y42.241 Z-10 I0.179 J-0.467
X432.689 Y42.718 I0.439 J0.238
X431.811 Y42.241 I-0.439 J-0.238
X432.15 Y42.14 I0.22 J0.119
G1 X432.369 Y42.259
G0 Z5
X432.25 Y30.562
Z1.5
G1 Z0 F1000
X432.5
G3 X432.75 Y30.812 I0 J0.25
X431.75 Y30.812 Z-1.092 I-0.5 J0
X431.967 Y30.4 Z-1.429 I0.5 J0
X432.533 Y31.224 Z-2.52 I0.283 J0.412
X432.071 Y31.279 Z-2.857 I-0.283 J-0.412
X432.429 Y30.346 Z-3.949 I0.179 J-0.467
X432.071 Y31.279 Z-5.041 I-0.179 J0.467
X432.429 Y30.346 Z-6.133 I0.179 J-0.467
X432.071 Y31.279 Z-7.225 I-0.179 J0.467
X432.429 Y30.346 Z-8.317 I0.179 J-0.467
X432.071 Y31.279 Z-9.409 I-0.179 J0.467
X431.811 Y30.574 Z-10 I0.179 J-0.467
X432.689 Y31.051 I0.439 J0.238
X431.811 Y30.574 I-0.439 J-0.238
X432.15 Y30.473 I0.22 J0.119
G1 X432.369 Y30.593
G0 Z5
X432.25 Y18.896
Z1.5
G1 Z0 F1000
X432.5
G3 X432.75 Y19.146 I0 J0.25
X431.75 Y19.146 Z-1.092 I-0.5 J0
X431.967 Y18.734 Z-1.429 I0.5 J0
X432.533 Y19.558 Z-2.52 I0.283 J0.412
X432.071 Y19.613 Z-2.857 I-0.283 J-0.412
X432.429 Y18.679 Z-3.949 I0.179 J-0.467
X432.071 Y19.613 Z-5.041 I-0.179 J0.467
X432.429 Y18.679 Z-6.133 I0.179 J-0.467
X432.071 Y19.613 Z-7.225 I-0.179 J0.467
X432.429 Y18.679 Z-8.317 I0.179 J-0.467
X432.071 Y19.613 Z-9.409 I-0.179 J0.467
X431.811 Y18.907 Z-10 I0.179 J-0.467
X432.689 Y19.384 I0.439 J0.238
X431.811 Y18.907 I-0.439 J-0.238
X432.15 Y18.807 I0.22 J0.119
G1 X432.369 Y18.926
G0 Z5
X432.25 Y7.229
Z1.5
G1 Z0 F1000
X432.5
G3 X432.75 Y7.479 I0 J0.25
X431.75 Y7.479 Z-1.092 I-0.5 J0
X431.967 Y7.067 Z-1.429 I0.5 J0
X432.533 Y7.891 Z-2.52 I0.283 J0.412
X432.071 Y7.946 Z-2.857 I-0.283 J-0.412
X432.429 Y7.012 Z-3.949 I0.179 J-0.467
X432.071 Y7.946 Z-5.041 I-0.179 J0.467
X432.429 Y7.012 Z-6.133 I0.179 J-0.467
X432.071 Y7.946 Z-7.225 I-0.179 J0.467
X432.429 Y7.012 Z-8.317 I0.179 J-0.467
X432.071 Y7.946 Z-9.409 I-0.179 J0.467
X431.811 Y7.241 Z-10 I0.179 J-0.467
X432.689 Y7.718 I0.439 J0.238
X431.811 Y7.241 I-0.439 J-0.238
X432.15 Y7.14 I0.22 J0.119
G1 X432.369 Y7.259
G0 Z5
X463.5 Y7.229
Z1.5
G1 Z0 F1000
X463.75
G3 X464 Y7.479 I0 J0.25
X463 Y7.479 Z-1.092 I-0.5 J0
X463.217 Y7.067 Z-1.429 I0.5 J0
X463.783 Y7.891 Z-2.52 I0.283 J0.412
X463.321 Y7.946 Z-2.857 I-0.283 J-0.412
X463.679 Y7.012 Z-3.949 I0.179 J-0.467
X463.321 Y7.946 Z-5.041 I-0.179 J0.467
X463.679 Y7.012 Z-6.133 I0.179 J-0.467
X463.321 Y7.946 Z-7.225 I-0.179 J0.467
X463.679 Y7.012 Z-8.317 I0.179 J-0.467
X463.321 Y7.946 Z-9.409 I-0.179 J0.467
X463.061 Y7.241 Z-10 I0.179 J-0.467
X463.939 Y7.718 I0.439 J0.238
X463.061 Y7.241 I-0.439 J-0.238
X463.4 Y7.14 I0.22 J0.119
G1 X463.619 Y7.259
G0 Z5
X463.5 Y18.896
Z1.5
G1 Z0 F1000
X463.75
G3 X464 Y19.146 I0 J0.25
X463 Y19.146 Z-1.092 I-0.5 J0
X463.217 Y18.734 Z-1.429 I0.5 J0
X463.783 Y19.558 Z-2.52 I0.283 J0.412
X463.321 Y19.613 Z-2.857 I-0.283 J-0.412
X463.679 Y18.679 Z-3.949 I0.179 J-0.467
X463.321 Y19.613 Z-5.041 I-0.179 J0.467
X463.679 Y18.679 Z-6.133 I0.179 J-0.467
X463.321 Y19.613 Z-7.225 I-0.179 J0.467
X463.679 Y18.679 Z-8.317 I0.179 J-0.467
X463.321 Y19.613 Z-9.409 I-0.179 J0.467
X463.061 Y18.907 Z-10 I0.179 J-0.467
X463.939 Y19.384 I0.439 J0.238
X463.061 Y18.907 I-0.439 J-0.238
X463.4 Y18.807 I0.22 J0.119
G1 X463.619 Y18.926
G0 Z5
X463.5 Y30.562
Z1.5
G1 Z0 F1000
X463.75
G3 X464 Y30.812 I0 J0.25
X463 Y30.812 Z-1.092 I-0.5 J0
X463.217 Y30.4 Z-1.429 I0.5 J0
X463.783 Y31.224 Z-2.52 I0.283 J0.412
X463.321 Y31.279 Z-2.857 I-0.283 J-0.412
X463.679 Y30.346 Z-3.949 I0.179 J-0.467
X463.321 Y31.279 Z-5.041 I-0.179 J0.467
X463.679 Y30.346 Z-6.133 I0.179 J-0.467
X463.321 Y31.279 Z-7.225 I-0.179 J0.467
X463.679 Y30.346 Z-8.317 I0.179 J-0.467
X463.321 Y31.279 Z-9.409 I-0.179 J0.467
X463.061 Y30.574 Z-10 I0.179 J-0.467
X463.939 Y31.051 I0.439 J0.238
X463.061 Y30.574 I-0.439 J-0.238
X463.4 Y30.473 I0.22 J0.119
G1 X463.619 Y30.593
G0 Z5
X463.5 Y42.229
Z1.5
G1 Z0 F1000
X463.75
G3 X464 Y42.479 I0 J0.25
X463 Y42.479 Z-1.092 I-0.5 J0
X463.217 Y42.067 Z-1.429 I0.5 J0
X463.783 Y42.891 Z-2.52 I0.283 J0.412
X463.321 Y42.946 Z-2.857 I-0.283 J-0.412
X463.679 Y42.012 Z-3.949 I0.179 J-0.467
X463.321 Y42.946 Z-5.041 I-0.179 J0.467
X463.679 Y42.012 Z-6.133 I0.179 J-0.467
X463.321 Y42.946 Z-7.225 I-0.179 J0.467
X463.679 Y42.012 Z-8.317 I0.179 J-0.467
X463.321 Y42.946 Z-9.409 I-0.179 J0.467
X463.061 Y42.241 Z-10 I0.179 J-0.467
X463.939 Y42.718 I0.439 J0.238
X463.061 Y42.241 I-0.439 J-0.238
X463.4 Y42.14 I0.22 J0.119
G1 X463.619 Y42.259
G0 Z5
X494.75 Y42.229
Z1.5
G1 Z0 F1000
X495
G3 X495.25 Y42.479 I0 J0.25
X494.25 Y42.479 Z-1.092 I-0.5 J0
X494.467 Y42.067 Z-1.429 I0.5 J0
X495.033 Y42.891 Z-2.52 I0.283 J0.412
X494.571 Y42.946 Z-2.857 I-0.283 J-0.412
X494.929 Y42.012 Z-3.949 I0.179 J-0.467
X494.571 Y42.946 Z-5.041 I-0.179 J0.467
X494.929 Y42.012 Z-6.133 I0.179 J-0.467
X494.571 Y42.946 Z-7.225 I-0.179 J0.467
X494.929 Y42.012 Z-8.317 I0.179 J-0.467
X494.571 Y42.946 Z-9.409 I-0.179 J0.467
X494.311 Y42.241 Z-10 I0.179 J-0.467
X495.189 Y42.718 I0.439 J0.238
X494.311 Y42.241 I-0.439 J-0.238
X494.65 Y42.14 I0.22 J0.119
G1 X494.869 Y42.259
G0 Z5
X494.75 Y30.562
Z1.5
G1 Z0 F1000
X495
G3 X495.25 Y30.812 I0 J0.25
X494.25 Y30.812 Z-1.092 I-0.5 J0
X494.467 Y30.4 Z-1.429 I0.5 J0
X495.033 Y31.224 Z-2.52 I0.283 J0.412
X494.571 Y31.279 Z-2.857 I-0.283 J-0.412
X494.929 Y30.346 Z-3.949 I0.179 J-0.467
X494.571 Y31.279 Z-5.041 I-0.179 J0.467
X494.929 Y30.346 Z-6.133 I0.179 J-0.467
X494.571 Y31.279 Z-7.225 I-0.179 J0.467
X494.929 Y30.346 Z-8.317 I0.179 J-0.467
X494.571 Y31.279 Z-9.409 I-0.179 J0.467
X494.311 Y30.574 Z-10 I0.179 J-0.467
X495.189 Y31.051 I0.439 J0.238
X494.311 Y30.574 I-0.439 J-0.238
X494.65 Y30.473 I0.22 J0.119
G1 X494.869 Y30.593
G0 Z5
X494.75 Y18.896
Z1.5
G1 Z0 F1000
X495
G3 X495.25 Y19.146 I0 J0.25
X494.25 Y19.146 Z-1.092 I-0.5 J0
X494.467 Y18.734 Z-1.429 I0.5 J0
X495.033 Y19.558 Z-2.52 I0.283 J0.412
X494.571 Y19.613 Z-2.857 I-0.283 J-0.412
X494.929 Y18.679 Z-3.949 I0.179 J-0.467
X494.571 Y19.613 Z-5.041 I-0.179 J0.467
X494.929 Y18.679 Z-6.133 I0.179 J-0.467
X494.571 Y19.613 Z-7.225 I-0.179 J0.467
X494.929 Y18.679 Z-8.317 I0.179 J-0.467
X494.571 Y19.613 Z-9.409 I-0.179 J0.467
X494.311 Y18.907 Z-10 I0.179 J-0.467
X495.189 Y19.384 I0.439 J0.238
X494.311 Y18.907 I-0.439 J-0.238
X494.65 Y18.807 I0.22 J0.119
G1 X494.869 Y18.926
G0 Z5
X494.75 Y7.229
Z1.5
G1 Z0 F1000
X495
G3 X495.25 Y7.479 I0 J0.25
X494.25 Y7.479 Z-1.092 I-0.5 J0
X494.467 Y7.067 Z-1.429 I0.5 J0
X495.033 Y7.891 Z-2.52 I0.283 J0.412
X494.571 Y7.946 Z-2.857 I-0.283 J-0.412
X494.929 Y7.012 Z-3.949 I0.179 J-0.467
X494.571 Y7.946 Z-5.041 I-0.179 J0.467
X494.929 Y7.012 Z-6.133 I0.179 J-0.467
X494.571 Y7.946 Z-7.225 I-0.179 J0.467
X494.929 Y7.012 Z-8.317 I0.179 J-0.467
X494.571 Y7.946 Z-9.409 I-0.179 J0.467
X494.311 Y7.241 Z-10 I0.179 J-0.467
X495.189 Y7.718 I0.439 J0.238
X494.311 Y7.241 I-0.439 J-0.238
X494.65 Y7.14 I0.22 J0.119
G1 X494.869 Y7.259
G0 Z5
X526 Y18.896
Z1.5
G1 Z0 F1000
X526.25
G3 X526.5 Y19.146 I0 J0.25
X525.5 Y19.146 Z-1.092 I-0.5 J0
X525.717 Y18.734 Z-1.429 I0.5 J0
X526.283 Y19.558 Z-2.52 I0.283 J0.412
X525.821 Y19.613 Z-2.857 I-0.283 J-0.412
X526.179 Y18.679 Z-3.949 I0.179 J-0.467
X526.486 Y19.029 Z-4.286 I-0.179 J0.467
X525.514 Y19.262 Z-5.378 I-0.486 J0.117
X525.628 Y18.811 Z-5.714 I0.486 J-0.117
X526.372 Y19.48 Z-6.806 I0.372 J0.335
X525.935 Y19.641 Z-7.143 I-0.372 J-0.335
X526.065 Y18.65 Z-8.235 I0.065 J-0.496
X526.445 Y18.919 Z-8.571 I-0.065 J0.496
X525.555 Y19.373 Z-9.663 I-0.445 J0.227
X525.561 Y18.907 Z-10 I0.445 J-0.227
X526.439 Y19.384 I0.439 J0.238
X525.561 Y18.907 I-0.439 J-0.238
X525.899 Y18.807 I0.22 J0.119
G1 X526.119 Y18.926
G0 Z5
X526 Y30.562
Z1.5
G1 Z0 F1000
X526.25
G3 X526.5 Y30.812 I0 J0.25
X525.5 Y30.812 Z-1.092 I-0.5 J0
X525.717 Y30.4 Z-1.429 I0.5 J0
X526.283 Y31.224 Z-2.52 I0.283 J0.412
X525.821 Y31.279 Z-2.857 I-0.283 J-0.412
X526.179 Y30.346 Z-3.949 I0.179 J-0.467
X526.486 Y30.696 Z-4.286 I-0.179 J0.467
X525.514 Y30.929 Z-5.378 I-0.486 J0.117
X525.628 Y30.478 Z-5.714 I0.486 J-0.117
X526.372 Y31.147 Z-6.806 I0.372 J0.335
X525.935 Y31.308 Z-7.143 I-0.372 J-0.335
X526.065 Y30.317 Z-8.235 I0.065 J-0.496
X526.445 Y30.585 Z-8.571 I-0.065 J0.496
X525.555 Y31.039 Z-9.663 I-0.445 J0.227
X525.561 Y30.574 Z-10 I0.445 J-0.227
X526.439 Y31.051 I0.439 J0.238
X525.561 Y30.574 I-0.439 J-0.238
X525.899 Y30.473 I0.22 J0.119
G1 X526.119 Y30.593
G0 Z5
X526 Y42.229
Z1.5
G1 Z0 F1000
X526.25
G3 X526.5 Y42.479 I0 J0.25
X525.5 Y42.479 Z-1.092 I-0.5 J0
X525.717 Y42.067 Z-1.429 I0.5 J0
X526.283 Y42.891 Z-2.52 I0.283 J0.412
X525.821 Y42.946 Z-2.857 I-0.283 J-0.412
X526.179 Y42.012 Z-3.949 I0.179 J-0.467
X526.486 Y42.362 Z-4.286 I-0.179 J0.467
X525.514 Y42.596 Z-5.378 I-0.486 J0.117
X525.628 Y42.145 Z-5.714 I0.486 J-0.117
X526.372 Y42.814 Z-6.806 I0.372 J0.335
X525.935 Y42.975 Z-7.143 I-0.372 J-0.335
X526.065 Y41.983 Z-8.235 I0.065 J-0.496
X526.445 Y42.252 Z-8.571 I-0.065 J0.496
X525.555 Y42.706 Z-9.663 I-0.445 J0.227
X525.561 Y42.241 Z-10 I0.445 J-0.227
X526.439 Y42.718 I0.439 J0.238
X525.561 Y42.241 I-0.439 J-0.238
X525.899 Y42.14 I0.22 J0.119
G1 X526.119 Y42.259
G0 Z15

(2D Contour5)
X552.88 Y3.066
Z15
Z5
G1 Z-3.5 F333.3
X552.879 Y3.074 Z-3.587 F1000
X552.877 Y3.096 Z-3.671
X552.873 Y3.133 Z-3.75
X552.869 Y3.182 Z-3.821
X552.863 Y3.244 Z-3.883
X552.856 Y3.315 Z-3.933
X552.848 Y3.394 Z-3.97
X552.84 Y3.477 Z-3.992
X552.832 Y3.564 Z-4
X552.784 Y4.061
G3 X552.239 Y4.511 I-0.498 J-0.048
G1 X552.12 Y4.503
X552 Y4.5
X504.5
Y0
G2 X502 Y-2.5 I-2.5 J0
G1 X43
G2 X40.5 Y0 I0 J2.5
G1 Y4.5
X0
G2 X-2.5 Y7 I0 J2.5
G1 Y55
G2 X0 Y57.5 I2.5 J0
G1 X552
G2 X554.5 Y55 I0 J-2.5
G1 Y7
G2 X552.239 Y4.511 I-2.5 J0
G3 X551.789 Y3.966 I0.048 J-0.498
G1 X551.837 Y3.468
X551.845 Y3.382 Z-3.992
X551.853 Y3.298 Z-3.97
X551.86 Y3.219 Z-3.933
X551.867 Y3.148 Z-3.883
X551.873 Y3.087 Z-3.821
X551.878 Y3.037 Z-3.75
X551.881 Y3.001 Z-3.671
X551.884 Y2.978 Z-3.587
Y2.971 Z-3.5
G0 Z5
X552.88 Y3.066
G1 Z1 F333.3
Z-7.5
X552.879 Y3.074 Z-7.587 F1000
X552.877 Y3.096 Z-7.671
X552.873 Y3.133 Z-7.75
X552.869 Y3.182 Z-7.821
X552.863 Y3.244 Z-7.883
X552.856 Y3.315 Z-7.933
X552.848 Y3.394 Z-7.97
X552.84 Y3.477 Z-7.992
X552.832 Y3.564 Z-8
X552.784 Y4.061
G3 X552.239 Y4.511 I-0.498 J-0.048
G1 X552.12 Y4.503
X552 Y4.5
X504.5
Y0
G2 X502 Y-2.5 I-2.5 J0
G1 X43
G2 X40.5 Y0 I0 J2.5
G1 Y4.5
X0
G2 X-2.5 Y7 I0 J2.5
G1 Y55
G2 X0 Y57.5 I2.5 J0
G1 X552
G2 X554.5 Y55 I0 J-2.5
G1 Y7
G2 X552.239 Y4.511 I-2.5 J0
G3 X551.789 Y3.966 I0.048 J-0.498
G1 X551.837 Y3.468
X551.845 Y3.382 Z-7.992
X551.853 Y3.298 Z-7.97
X551.86 Y3.219 Z-7.933
X551.867 Y3.148 Z-7.883
X551.873 Y3.087 Z-7.821
X551.878 Y3.037 Z-7.75
X551.881 Y3.001 Z-7.671
X551.884 Y2.978 Z-7.587
Y2.971 Z-7.5
G0 Z5
X552.88 Y3.066
G1 Z-3 F333.3
Z-9.5
X552.879 Y3.074 Z-9.587 F1000
X552.877 Y3.096 Z-9.671
X552.873 Y3.133 Z-9.75
X552.869 Y3.182 Z-9.821
X552.863 Y3.244 Z-9.883
X552.856 Y3.315 Z-9.933
X552.848 Y3.394 Z-9.97
X552.84 Y3.477 Z-9.992
X552.832 Y3.564 Z-10
X552.784 Y4.061
G3 X552.239 Y4.511 I-0.498 J-0.048
G1 X552.12 Y4.503
X552 Y4.5
X504.5
Y0
G2 X502 Y-2.5 I-2.5 J0
G1 X43
G2 X40.5 Y0 I0 J2.5
G1 Y4.5
X0
G2 X-2.5 Y7 I0 J2.5
G1 Y55
G2 X0 Y57.5 I2.5 J0
G1 X552
G2 X554.5 Y55 I0 J-2.5
G1 Y7
G2 X552.239 Y4.511 I-2.5 J0
G3 X551.789 Y3.966 I0.048 J-0.498
G1 X551.837 Y3.468
X551.845 Y3.382 Z-9.992
X551.853 Y3.298 Z-9.97
X551.86 Y3.219 Z-9.933
X551.867 Y3.148 Z-9.883
X551.873 Y3.087 Z-9.821
X551.878 Y3.037 Z-9.75
X551.881 Y3.001 Z-9.671
X551.884 Y2.978 Z-9.587
Y2.971 Z-9.5
G0 Z15
M9
G28 G91 Z0
G90
G28 G91 X0 Y0
G90
M5
M30
