(CamperKuchenregaleSeitenwand)
(T4 D=5 CR=0 - ZMIN=-13 - flat end mill)
G90 G94
G17
G21
(-Attention- Property Safe Retracts is set to Clearance Height.)
(Ensure the clearance height will clear the part and or fixtures.)
(Raise the Z-axis to a safe height before starting the program.)

(2D Contour1)
T4
S5000 M3
G17 G90 G94
G54
M8
G0 X32.266 Y311.597
Z15
G0 Z5
G1 Z4 F333.3
Z-3
X32.279 Y311.594 F1000
X35.038 Y310.902
X35.049 Y310.899
X37.802 Y310.195
X37.816 Y310.192
X40.561 Y309.474
X40.574 Y309.47
X43.312 Y308.738
X43.325 Y308.735
X46.054 Y307.989
X46.069 Y307.985
X48.788 Y307.224
X48.803 Y307.219
X51.512 Y306.443
X51.528 Y306.439
X54.227 Y305.647
X54.243 Y305.642
X56.93 Y304.834
X56.948 Y304.829
X59.623 Y304.003
X59.64 Y303.998
X62.302 Y303.156
X62.32 Y303.15
X64.968 Y302.29
X64.987 Y302.284
X67.621 Y301.406
X67.64 Y301.399
X70.259 Y300.502
X70.278 Y300.495
X72.881 Y299.579
X72.902 Y299.572
X75.487 Y298.636
X75.508 Y298.628
X78.076 Y297.672
X78.098 Y297.663
X80.647 Y296.686
X80.669 Y296.678
X83.198 Y295.681
X83.222 Y295.671
X85.731 Y294.652
X85.755 Y294.642
X88.244 Y293.601
X88.268 Y293.591
X90.735 Y292.528
X90.76 Y292.517
X93.204 Y291.431
X93.23 Y291.419
X95.651 Y290.31
X95.677 Y290.298
X98.074 Y289.165
X98.101 Y289.153
X100.472 Y287.998
X100.5 Y287.984
X102.847 Y286.805
X102.874 Y286.791
X105.195 Y285.588
X105.225 Y285.572
X107.518 Y284.344
X107.546 Y284.329
X109.813 Y283.078
X109.843 Y283.061
X112.081 Y281.785
X112.111 Y281.767
X114.321 Y280.466
X114.351 Y280.449
X116.533 Y279.124
X116.563 Y279.105
X118.715 Y277.756
X118.746 Y277.737
X120.868 Y276.362
X120.898 Y276.343
X122.991 Y274.945
X123.021 Y274.924
X125.083 Y273.502
X125.113 Y273.481
X127.144 Y272.036
X127.174 Y272.014
X129.175 Y270.545
X129.206 Y270.523
X131.175 Y269.031
X131.204 Y269.008
X133.143 Y267.493
X133.172 Y267.47
X135.08 Y265.933
X135.109 Y265.909
X136.985 Y264.351
X137.013 Y264.328
X138.859 Y262.749
X138.887 Y262.725
X140.702 Y261.126
X140.729 Y261.102
X142.514 Y259.483
X142.54 Y259.459
X144.294 Y257.822
X144.319 Y257.797
X146.043 Y256.142
X146.068 Y256.119
X147.763 Y254.447
X147.787 Y254.423
X149.452 Y252.735
X149.474 Y252.712
X151.111 Y251.008
X151.133 Y250.985
X152.742 Y249.268
X152.763 Y249.246
X154.344 Y247.516
X154.365 Y247.493
X155.918 Y245.751
X155.938 Y245.729
X157.465 Y243.975
X157.483 Y243.954
X158.984 Y242.191
X159.001 Y242.17
X160.477 Y240.398
X160.494 Y240.377
X161.945 Y238.596
X161.961 Y238.577
X163.388 Y236.79
X163.403 Y236.771
X164.807 Y234.977
X164.821 Y234.958
X166.202 Y233.159
X166.215 Y233.142
X167.574 Y231.339
X167.587 Y231.322
X168.925 Y229.516
X168.937 Y229.5
X170.254 Y227.692
X170.265 Y227.677
X171.563 Y225.867
X171.573 Y225.852
X172.852 Y224.041
X172.862 Y224.027
X174.122 Y222.216
X174.131 Y222.203
X175.374 Y220.393
X175.383 Y220.381
X176.609 Y218.572
X176.616 Y218.561
X177.827 Y216.754
X177.835 Y216.742
X179.029 Y214.938
X179.035 Y214.928
X180.215 Y213.126
X180.222 Y213.116
X181.388 Y211.318
X181.393 Y211.309
X182.546 Y209.514
X182.552 Y209.505
X183.692 Y207.713
X183.698 Y207.705
X184.825 Y205.918
X184.829 Y205.91
X185.945 Y204.126
X185.949 Y204.119
X187.055 Y202.339
X187.061 Y202.331
X188.155 Y200.554
X188.161 Y200.544
X190.321 Y197
X190.329 Y196.986
X192.452 Y193.45
X192.461 Y193.435
X194.55 Y189.901
X194.56 Y189.885
X196.616 Y186.346
X196.626 Y186.328
X198.652 Y182.772
X198.661 Y182.755
X199.662 Y180.967
X199.668 Y180.957
X200.662 Y179.161
X200.67 Y179.147
X201.656 Y177.339
X201.662 Y177.327
X202.641 Y175.508
X202.65 Y175.491
X203.62 Y173.656
X203.628 Y173.641
X204.59 Y171.79
X204.598 Y171.774
X205.553 Y169.904
X205.563 Y169.885
X206.508 Y167.994
X206.518 Y167.975
X207.455 Y166.06
X207.464 Y166.04
X208.392 Y164.1
X208.402 Y164.078
X209.321 Y162.109
X209.332 Y162.086
X210.241 Y160.085
X210.251 Y160.062
X211.15 Y158.029
X211.161 Y158.004
X212.05 Y155.933
X212.058 Y155.916
X212.499 Y154.867
X212.505 Y154.851
X212.942 Y153.791
X212.947 Y153.78
X213.382 Y152.71
X213.387 Y152.696
X213.819 Y151.615
X213.825 Y151.601
X214.254 Y150.509
X214.259 Y150.496
X214.685 Y149.393
X214.691 Y149.378
X215.114 Y148.262
X215.12 Y148.247
X215.539 Y147.119
X215.543 Y147.107
X215.96 Y145.967
X215.965 Y145.953
X216.379 Y144.8
X216.385 Y144.784
X216.795 Y143.617
X216.799 Y143.603
X217.206 Y142.423
X217.212 Y142.407
X217.615 Y141.213
X217.619 Y141.199
X218.019 Y139.99
X218.024 Y139.975
X218.42 Y138.752
X218.425 Y138.738
X218.818 Y137.5
X218.823 Y137.485
X219.212 Y136.231
X219.216 Y136.215
X219.601 Y134.945
X219.605 Y134.932
X219.988 Y133.646
X219.992 Y133.631
X220.37 Y132.328
X220.375 Y132.311
X220.748 Y130.992
X220.751 Y130.979
X221.121 Y129.642
X221.126 Y129.625
X221.491 Y128.27
X221.494 Y128.257
X221.856 Y126.884
X221.861 Y126.868
X222.218 Y125.477
X222.221 Y125.464
X222.574 Y124.055
X222.578 Y124.039
X222.926 Y122.61
X222.929 Y122.595
X223.273 Y121.146
G2 X221.049 Y118.078 I-2.432 J-0.577
G1 X210.778 Y117.222
X220.446 Y1.208
G2 X217.955 Y-1.5 I-2.491 J-0.208
G1 X1
G2 X-1.5 Y1 I0 J2.5
G1 Y316
G2 X1.495 Y318.45 I2.5 J0
G1 X4.301 Y317.883
X4.31 Y317.882
X7.113 Y317.305
X7.123 Y317.303
X9.923 Y316.715
X9.932 Y316.713
X12.729 Y316.115
X12.739 Y316.113
X15.532 Y315.504
X15.542 Y315.501
X18.332 Y314.881
X18.342 Y314.879
X21.127 Y314.248
X21.137 Y314.246
X23.919 Y313.604
X23.931 Y313.601
X26.707 Y312.946
X26.717 Y312.944
X29.489 Y312.278
X29.5 Y312.275
X32.266 Y311.597
Z-6 F333.3
X32.279 Y311.594 F1000
X35.038 Y310.902
X35.049 Y310.899
X37.802 Y310.195
X37.816 Y310.192
X40.561 Y309.474
X40.574 Y309.47
X43.312 Y308.738
X43.325 Y308.735
X46.054 Y307.989
X46.069 Y307.985
X48.788 Y307.224
X48.803 Y307.219
X51.512 Y306.443
X51.528 Y306.439
X54.227 Y305.647
X54.243 Y305.642
X56.93 Y304.834
X56.948 Y304.829
X59.623 Y304.003
X59.64 Y303.998
X62.302 Y303.156
X62.32 Y303.15
X64.968 Y302.29
X64.987 Y302.284
X67.621 Y301.406
X67.64 Y301.399
X70.259 Y300.502
X70.278 Y300.495
X72.881 Y299.579
X72.902 Y299.572
X75.487 Y298.636
X75.508 Y298.628
X78.076 Y297.672
X78.098 Y297.663
X80.647 Y296.686
X80.669 Y296.678
X83.198 Y295.681
X83.222 Y295.671
X85.731 Y294.652
X85.755 Y294.642
X88.244 Y293.601
X88.268 Y293.591
X90.735 Y292.528
X90.76 Y292.517
X93.204 Y291.431
X93.23 Y291.419
X95.651 Y290.31
X95.677 Y290.298
X98.074 Y289.165
X98.101 Y289.153
X100.472 Y287.998
X100.5 Y287.984
X102.847 Y286.805
X102.874 Y286.791
X105.195 Y285.588
X105.225 Y285.572
X107.518 Y284.344
X107.546 Y284.329
X109.813 Y283.078
X109.843 Y283.061
X112.081 Y281.785
X112.111 Y281.767
X114.321 Y280.466
X114.351 Y280.449
X116.533 Y279.124
X116.563 Y279.105
X118.715 Y277.756
X118.746 Y277.737
X120.868 Y276.362
X120.898 Y276.343
X122.991 Y274.945
X123.021 Y274.924
X125.083 Y273.502
X125.113 Y273.481
X127.144 Y272.036
X127.174 Y272.014
X129.175 Y270.545
X129.206 Y270.523
X131.175 Y269.031
X131.204 Y269.008
X133.143 Y267.493
X133.172 Y267.47
X135.08 Y265.933
X135.109 Y265.909
X136.985 Y264.351
X137.013 Y264.328
X138.859 Y262.749
X138.887 Y262.725
X140.702 Y261.126
X140.729 Y261.102
X142.514 Y259.483
X142.54 Y259.459
X144.294 Y257.822
X144.319 Y257.797
X146.043 Y256.142
X146.068 Y256.119
X147.763 Y254.447
X147.787 Y254.423
X149.452 Y252.735
X149.474 Y252.712
X151.111 Y251.008
X151.133 Y250.985
X152.742 Y249.268
X152.763 Y249.246
X154.344 Y247.516
X154.365 Y247.493
X155.918 Y245.751
X155.938 Y245.729
X157.465 Y243.975
X157.483 Y243.954
X158.984 Y242.191
X159.001 Y242.17
X160.477 Y240.398
X160.494 Y240.377
X161.945 Y238.596
X161.961 Y238.577
X163.388 Y236.79
X163.403 Y236.771
X164.807 Y234.977
X164.821 Y234.958
X166.202 Y233.159
X166.215 Y233.142
X167.574 Y231.339
X167.587 Y231.322
X168.925 Y229.516
X168.937 Y229.5
X170.254 Y227.692
X170.265 Y227.677
X171.563 Y225.867
X171.573 Y225.852
X172.852 Y224.041
X172.862 Y224.027
X174.122 Y222.216
X174.131 Y222.203
X175.374 Y220.393
X175.383 Y220.381
X176.609 Y218.572
X176.616 Y218.561
X177.827 Y216.754
X177.835 Y216.742
X179.029 Y214.938
X179.035 Y214.928
X180.215 Y213.126
X180.222 Y213.116
X181.388 Y211.318
X181.393 Y211.309
X182.546 Y209.514
X182.552 Y209.505
X183.692 Y207.713
X183.698 Y207.705
X184.825 Y205.918
X184.829 Y205.91
X185.945 Y204.126
X185.949 Y204.119
X187.055 Y202.339
X187.061 Y202.331
X188.155 Y200.554
X188.161 Y200.544
X190.321 Y197
X190.329 Y196.986
X192.452 Y193.45
X192.461 Y193.435
X194.55 Y189.901
X194.56 Y189.885
X196.616 Y186.346
X196.626 Y186.328
X198.652 Y182.772
X198.661 Y182.755
X199.662 Y180.967
X199.668 Y180.957
X200.662 Y179.161
X200.67 Y179.147
X201.656 Y177.339
X201.662 Y177.327
X202.641 Y175.508
X202.65 Y175.491
X203.62 Y173.656
X203.628 Y173.641
X204.59 Y171.79
X204.598 Y171.774
X205.553 Y169.904
X205.563 Y169.885
X206.508 Y167.994
X206.518 Y167.975
X207.455 Y166.06
X207.464 Y166.04
X208.392 Y164.1
X208.402 Y164.078
X209.321 Y162.109
X209.332 Y162.086
X210.241 Y160.085
X210.251 Y160.062
X211.15 Y158.029
X211.161 Y158.004
X212.05 Y155.933
X212.058 Y155.916
X212.499 Y154.867
X212.505 Y154.851
X212.942 Y153.791
X212.947 Y153.78
X213.382 Y152.71
X213.387 Y152.696
X213.819 Y151.615
X213.825 Y151.601
X214.254 Y150.509
X214.259 Y150.496
X214.685 Y149.393
X214.691 Y149.378
X215.114 Y148.262
X215.12 Y148.247
X215.539 Y147.119
X215.543 Y147.107
X215.96 Y145.967
X215.965 Y145.953
X216.379 Y144.8
X216.385 Y144.784
X216.795 Y143.617
X216.799 Y143.603
X217.206 Y142.423
X217.212 Y142.407
X217.615 Y141.213
X217.619 Y141.199
X218.019 Y139.99
X218.024 Y139.975
X218.42 Y138.752
X218.425 Y138.738
X218.818 Y137.5
X218.823 Y137.485
X219.212 Y136.231
X219.216 Y136.215
X219.601 Y134.945
X219.605 Y134.932
X219.988 Y133.646
X219.992 Y133.631
X220.37 Y132.328
X220.375 Y132.311
X220.748 Y130.992
X220.751 Y130.979
X221.121 Y129.642
X221.126 Y129.625
X221.491 Y128.27
X221.494 Y128.257
X221.856 Y126.884
X221.861 Y126.868
X222.218 Y125.477
X222.221 Y125.464
X222.574 Y124.055
X222.578 Y124.039
X222.926 Y122.61
X222.929 Y122.595
X223.273 Y121.146
G2 X221.049 Y118.078 I-2.432 J-0.577
G1 X210.778 Y117.222
X220.446 Y1.208
G2 X217.955 Y-1.5 I-2.491 J-0.208
G1 X1
G2 X-1.5 Y1 I0 J2.5
G1 Y316
G2 X1.495 Y318.45 I2.5 J0
G1 X4.301 Y317.883
X4.31 Y317.882
X7.113 Y317.305
X7.123 Y317.303
X9.923 Y316.715
X9.932 Y316.713
X12.729 Y316.115
X12.739 Y316.113
X15.532 Y315.504
X15.542 Y315.501
X18.332 Y314.881
X18.342 Y314.879
X21.127 Y314.248
X21.137 Y314.246
X23.919 Y313.604
X23.931 Y313.601
X26.707 Y312.946
X26.717 Y312.944
X29.489 Y312.278
X29.5 Y312.275
X32.266 Y311.597
Z-9 F333.3
X32.279 Y311.594 F1000
X35.038 Y310.902
X35.049 Y310.899
X37.802 Y310.195
X37.816 Y310.192
X40.561 Y309.474
X40.574 Y309.47
X43.312 Y308.738
X43.325 Y308.735
X46.054 Y307.989
X46.069 Y307.985
X48.788 Y307.224
X48.803 Y307.219
X51.512 Y306.443
X51.528 Y306.439
X54.227 Y305.647
X54.243 Y305.642
X56.93 Y304.834
X56.948 Y304.829
X59.623 Y304.003
X59.64 Y303.998
X62.302 Y303.156
X62.32 Y303.15
X64.968 Y302.29
X64.987 Y302.284
X67.621 Y301.406
X67.64 Y301.399
X70.259 Y300.502
X70.278 Y300.495
X72.881 Y299.579
X72.902 Y299.572
X75.487 Y298.636
X75.508 Y298.628
X78.076 Y297.672
X78.098 Y297.663
X80.647 Y296.686
X80.669 Y296.678
X83.198 Y295.681
X83.222 Y295.671
X85.731 Y294.652
X85.755 Y294.642
X88.244 Y293.601
X88.268 Y293.591
X90.735 Y292.528
X90.76 Y292.517
X93.204 Y291.431
X93.23 Y291.419
X95.651 Y290.31
X95.677 Y290.298
X98.074 Y289.165
X98.101 Y289.153
X100.472 Y287.998
X100.5 Y287.984
X102.847 Y286.805
X102.874 Y286.791
X105.195 Y285.588
X105.225 Y285.572
X107.518 Y284.344
X107.546 Y284.329
X109.813 Y283.078
X109.843 Y283.061
X112.081 Y281.785
X112.111 Y281.767
X114.321 Y280.466
X114.351 Y280.449
X116.533 Y279.124
X116.563 Y279.105
X118.715 Y277.756
X118.746 Y277.737
X120.868 Y276.362
X120.898 Y276.343
X122.991 Y274.945
X123.021 Y274.924
X125.083 Y273.502
X125.113 Y273.481
X127.144 Y272.036
X127.174 Y272.014
X129.175 Y270.545
X129.206 Y270.523
X131.175 Y269.031
X131.204 Y269.008
X133.143 Y267.493
X133.172 Y267.47
X135.08 Y265.933
X135.109 Y265.909
X136.985 Y264.351
X137.013 Y264.328
X138.859 Y262.749
X138.887 Y262.725
X140.702 Y261.126
X140.729 Y261.102
X142.514 Y259.483
X142.54 Y259.459
X144.294 Y257.822
X144.319 Y257.797
X146.043 Y256.142
X146.068 Y256.119
X147.763 Y254.447
X147.787 Y254.423
X149.452 Y252.735
X149.474 Y252.712
X151.111 Y251.008
X151.133 Y250.985
X152.742 Y249.268
X152.763 Y249.246
X154.344 Y247.516
X154.365 Y247.493
X155.918 Y245.751
X155.938 Y245.729
X157.465 Y243.975
X157.483 Y243.954
X158.984 Y242.191
X159.001 Y242.17
X160.477 Y240.398
X160.494 Y240.377
X161.945 Y238.596
X161.961 Y238.577
X163.388 Y236.79
X163.403 Y236.771
X164.807 Y234.977
X164.821 Y234.958
X166.202 Y233.159
X166.215 Y233.142
X167.574 Y231.339
X167.587 Y231.322
X168.925 Y229.516
X168.937 Y229.5
X170.254 Y227.692
X170.265 Y227.677
X171.563 Y225.867
X171.573 Y225.852
X172.852 Y224.041
X172.862 Y224.027
X174.122 Y222.216
X174.131 Y222.203
X175.374 Y220.393
X175.383 Y220.381
X176.609 Y218.572
X176.616 Y218.561
X177.827 Y216.754
X177.835 Y216.742
X179.029 Y214.938
X179.035 Y214.928
X180.215 Y213.126
X180.222 Y213.116
X181.388 Y211.318
X181.393 Y211.309
X182.546 Y209.514
X182.552 Y209.505
X183.692 Y207.713
X183.698 Y207.705
X184.825 Y205.918
X184.829 Y205.91
X185.945 Y204.126
X185.949 Y204.119
X187.055 Y202.339
X187.061 Y202.331
X188.155 Y200.554
X188.161 Y200.544
X190.321 Y197
X190.329 Y196.986
X192.452 Y193.45
X192.461 Y193.435
X194.55 Y189.901
X194.56 Y189.885
X196.616 Y186.346
X196.626 Y186.328
X198.652 Y182.772
X198.661 Y182.755
X199.662 Y180.967
X199.668 Y180.957
X200.662 Y179.161
X200.67 Y179.147
X201.656 Y177.339
X201.662 Y177.327
X202.641 Y175.508
X202.65 Y175.491
X203.62 Y173.656
X203.628 Y173.641
X204.59 Y171.79
X204.598 Y171.774
X205.553 Y169.904
X205.563 Y169.885
X206.508 Y167.994
X206.518 Y167.975
X207.455 Y166.06
X207.464 Y166.04
X208.392 Y164.1
X208.402 Y164.078
X209.321 Y162.109
X209.332 Y162.086
X210.241 Y160.085
X210.251 Y160.062
X211.15 Y158.029
X211.161 Y158.004
X212.05 Y155.933
X212.058 Y155.916
X212.499 Y154.867
X212.505 Y154.851
X212.942 Y153.791
X212.947 Y153.78
X213.382 Y152.71
X213.387 Y152.696
X213.819 Y151.615
X213.825 Y151.601
X214.254 Y150.509
X214.259 Y150.496
X214.685 Y149.393
X214.691 Y149.378
X215.114 Y148.262
X215.12 Y148.247
X215.539 Y147.119
X215.543 Y147.107
X215.96 Y145.967
X215.965 Y145.953
X216.379 Y144.8
X216.385 Y144.784
X216.795 Y143.617
X216.799 Y143.603
X217.206 Y142.423
X217.212 Y142.407
X217.615 Y141.213
X217.619 Y141.199
X218.019 Y139.99
X218.024 Y139.975
X218.42 Y138.752
X218.425 Y138.738
X218.818 Y137.5
X218.823 Y137.485
X219.212 Y136.231
X219.216 Y136.215
X219.601 Y134.945
X219.605 Y134.932
X219.988 Y133.646
X219.992 Y133.631
X220.37 Y132.328
X220.375 Y132.311
X220.748 Y130.992
X220.751 Y130.979
X221.121 Y129.642
X221.126 Y129.625
X221.491 Y128.27
X221.494 Y128.257
X221.856 Y126.884
X221.861 Y126.868
X222.218 Y125.477
X222.221 Y125.464
X222.574 Y124.055
X222.578 Y124.039
X222.926 Y122.61
X222.929 Y122.595
X223.273 Y121.146
G2 X221.049 Y118.078 I-2.432 J-0.577
G1 X210.778 Y117.222
X220.446 Y1.208
G2 X217.955 Y-1.5 I-2.491 J-0.208
G1 X1
G2 X-1.5 Y1 I0 J2.5
G1 Y316
G2 X1.495 Y318.45 I2.5 J0
G1 X4.301 Y317.883
X4.31 Y317.882
X7.113 Y317.305
X7.123 Y317.303
X9.923 Y316.715
X9.932 Y316.713
X12.729 Y316.115
X12.739 Y316.113
X15.532 Y315.504
X15.542 Y315.501
X18.332 Y314.881
X18.342 Y314.879
X21.127 Y314.248
X21.137 Y314.246
X23.919 Y313.604
X23.931 Y313.601
X26.707 Y312.946
X26.717 Y312.944
X29.489 Y312.278
X29.5 Y312.275
X32.266 Y311.597
Z-12 F333.3
X32.279 Y311.594 F1000
X35.038 Y310.902
X35.049 Y310.899
X37.802 Y310.195
X37.816 Y310.192
X40.561 Y309.474
X40.574 Y309.47
X43.312 Y308.738
X43.325 Y308.735
X46.054 Y307.989
X46.069 Y307.985
X48.788 Y307.224
X48.803 Y307.219
X51.512 Y306.443
X51.528 Y306.439
X54.227 Y305.647
X54.243 Y305.642
X56.93 Y304.834
X56.948 Y304.829
X59.623 Y304.003
X59.64 Y303.998
X62.302 Y303.156
X62.32 Y303.15
X64.968 Y302.29
X64.987 Y302.284
X67.621 Y301.406
X67.64 Y301.399
X70.259 Y300.502
X70.278 Y300.495
X72.881 Y299.579
X72.902 Y299.572
X75.487 Y298.636
X75.508 Y298.628
X78.076 Y297.672
X78.098 Y297.663
X80.647 Y296.686
X80.669 Y296.678
X83.198 Y295.681
X83.222 Y295.671
X85.731 Y294.652
X85.755 Y294.642
X88.244 Y293.601
X88.268 Y293.591
X90.735 Y292.528
X90.76 Y292.517
X93.204 Y291.431
X93.23 Y291.419
X95.651 Y290.31
X95.677 Y290.298
X98.074 Y289.165
X98.101 Y289.153
X100.472 Y287.998
X100.5 Y287.984
X102.847 Y286.805
X102.874 Y286.791
X105.195 Y285.588
X105.225 Y285.572
X107.518 Y284.344
X107.546 Y284.329
X109.813 Y283.078
X109.843 Y283.061
X112.081 Y281.785
X112.111 Y281.767
X114.321 Y280.466
X114.351 Y280.449
X116.533 Y279.124
X116.563 Y279.105
X118.715 Y277.756
X118.746 Y277.737
X120.868 Y276.362
X120.898 Y276.343
X122.991 Y274.945
X123.021 Y274.924
X125.083 Y273.502
X125.113 Y273.481
X127.144 Y272.036
X127.174 Y272.014
X129.175 Y270.545
X129.206 Y270.523
X131.175 Y269.031
X131.204 Y269.008
X133.143 Y267.493
X133.172 Y267.47
X135.08 Y265.933
X135.109 Y265.909
X136.985 Y264.351
X137.013 Y264.328
X138.859 Y262.749
X138.887 Y262.725
X140.702 Y261.126
X140.729 Y261.102
X142.514 Y259.483
X142.54 Y259.459
X144.294 Y257.822
X144.319 Y257.797
X146.043 Y256.142
X146.068 Y256.119
X147.763 Y254.447
X147.787 Y254.423
X149.452 Y252.735
X149.474 Y252.712
X151.111 Y251.008
X151.133 Y250.985
X152.742 Y249.268
X152.763 Y249.246
X154.344 Y247.516
X154.365 Y247.493
X155.918 Y245.751
X155.938 Y245.729
X157.465 Y243.975
X157.483 Y243.954
X158.984 Y242.191
X159.001 Y242.17
X160.477 Y240.398
X160.494 Y240.377
X161.945 Y238.596
X161.961 Y238.577
X163.388 Y236.79
X163.403 Y236.771
X164.807 Y234.977
X164.821 Y234.958
X166.202 Y233.159
X166.215 Y233.142
X167.574 Y231.339
X167.587 Y231.322
X168.925 Y229.516
X168.937 Y229.5
X170.254 Y227.692
X170.265 Y227.677
X171.563 Y225.867
X171.573 Y225.852
X172.852 Y224.041
X172.862 Y224.027
X174.122 Y222.216
X174.131 Y222.203
X175.374 Y220.393
X175.383 Y220.381
X176.609 Y218.572
X176.616 Y218.561
X177.827 Y216.754
X177.835 Y216.742
X179.029 Y214.938
X179.035 Y214.928
X180.215 Y213.126
X180.222 Y213.116
X181.388 Y211.318
X181.393 Y211.309
X182.546 Y209.514
X182.552 Y209.505
X183.692 Y207.713
X183.698 Y207.705
X184.825 Y205.918
X184.829 Y205.91
X185.945 Y204.126
X185.949 Y204.119
X187.055 Y202.339
X187.061 Y202.331
X188.155 Y200.554
X188.161 Y200.544
X190.321 Y197
X190.329 Y196.986
X192.452 Y193.45
X192.461 Y193.435
X194.55 Y189.901
X194.56 Y189.885
X196.616 Y186.346
X196.626 Y186.328
X198.652 Y182.772
X198.661 Y182.755
X199.662 Y180.967
X199.668 Y180.957
X200.662 Y179.161
X200.67 Y179.147
X201.656 Y177.339
X201.662 Y177.327
X202.641 Y175.508
X202.65 Y175.491
X203.62 Y173.656
X203.628 Y173.641
X204.59 Y171.79
X204.598 Y171.774
X205.553 Y169.904
X205.563 Y169.885
X206.508 Y167.994
X206.518 Y167.975
X207.455 Y166.06
X207.464 Y166.04
X208.392 Y164.1
X208.402 Y164.078
X209.321 Y162.109
X209.332 Y162.086
X210.241 Y160.085
X210.251 Y160.062
X211.15 Y158.029
X211.161 Y158.004
X212.05 Y155.933
X212.058 Y155.916
X212.499 Y154.867
X212.505 Y154.851
X212.942 Y153.791
X212.947 Y153.78
X213.382 Y152.71
X213.387 Y152.696
X213.819 Y151.615
X213.825 Y151.601
X214.254 Y150.509
X214.259 Y150.496
X214.685 Y149.393
X214.691 Y149.378
X215.114 Y148.262
X215.12 Y148.247
X215.539 Y147.119
X215.543 Y147.107
X215.96 Y145.967
X215.965 Y145.953
X216.379 Y144.8
X216.385 Y144.784
X216.795 Y143.617
X216.799 Y143.603
X217.206 Y142.423
X217.212 Y142.407
X217.615 Y141.213
X217.619 Y141.199
X218.019 Y139.99
X218.024 Y139.975
X218.42 Y138.752
X218.425 Y138.738
X218.818 Y137.5
X218.823 Y137.485
X219.212 Y136.231
X219.216 Y136.215
X219.601 Y134.945
X219.605 Y134.932
X219.988 Y133.646
X219.992 Y133.631
X220.37 Y132.328
X220.375 Y132.311
X220.748 Y130.992
X220.751 Y130.979
X221.121 Y129.642
X221.126 Y129.625
X221.491 Y128.27
X221.494 Y128.257
X221.856 Y126.884
X221.861 Y126.868
X222.218 Y125.477
X222.221 Y125.464
X222.574 Y124.055
X222.578 Y124.039
X222.926 Y122.61
X222.929 Y122.595
X223.273 Y121.146
G2 X221.049 Y118.078 I-2.432 J-0.577
G1 X210.778 Y117.222
X220.446 Y1.208
G2 X217.955 Y-1.5 I-2.491 J-0.208
G1 X1
G2 X-1.5 Y1 I0 J2.5
G1 Y316
G2 X1.495 Y318.45 I2.5 J0
G1 X4.301 Y317.883
X4.31 Y317.882
X7.113 Y317.305
X7.123 Y317.303
X9.923 Y316.715
X9.932 Y316.713
X12.729 Y316.115
X12.739 Y316.113
X15.532 Y315.504
X15.542 Y315.501
X18.332 Y314.881
X18.342 Y314.879
X21.127 Y314.248
X21.137 Y314.246
X23.919 Y313.604
X23.931 Y313.601
X26.707 Y312.946
X26.717 Y312.944
X29.489 Y312.278
X29.5 Y312.275
X32.266 Y311.597
Z-13 F333.3
X32.279 Y311.594 F1000
X35.038 Y310.902
X35.049 Y310.899
X37.802 Y310.195
X37.816 Y310.192
X40.561 Y309.474
X40.574 Y309.47
X43.312 Y308.738
X43.325 Y308.735
X46.054 Y307.989
X46.069 Y307.985
X48.788 Y307.224
X48.803 Y307.219
X51.512 Y306.443
X51.528 Y306.439
X54.227 Y305.647
X54.243 Y305.642
X56.93 Y304.834
X56.948 Y304.829
X59.623 Y304.003
X59.64 Y303.998
X62.302 Y303.156
X62.32 Y303.15
X64.968 Y302.29
X64.987 Y302.284
X67.621 Y301.406
X67.64 Y301.399
X70.259 Y300.502
X70.278 Y300.495
X72.881 Y299.579
X72.902 Y299.572
X75.487 Y298.636
X75.508 Y298.628
X78.076 Y297.672
X78.098 Y297.663
X80.647 Y296.686
X80.669 Y296.678
X83.198 Y295.681
X83.222 Y295.671
X85.731 Y294.652
X85.755 Y294.642
X88.244 Y293.601
X88.268 Y293.591
X90.735 Y292.528
X90.76 Y292.517
X93.204 Y291.431
X93.23 Y291.419
X95.651 Y290.31
X95.677 Y290.298
X98.074 Y289.165
X98.101 Y289.153
X100.472 Y287.998
X100.5 Y287.984
X102.847 Y286.805
X102.874 Y286.791
X105.195 Y285.588
X105.225 Y285.572
X107.518 Y284.344
X107.546 Y284.329
X109.813 Y283.078
X109.843 Y283.061
X112.081 Y281.785
X112.111 Y281.767
X114.321 Y280.466
X114.351 Y280.449
X116.533 Y279.124
X116.563 Y279.105
X118.715 Y277.756
X118.746 Y277.737
X120.868 Y276.362
X120.898 Y276.343
X122.991 Y274.945
X123.021 Y274.924
X125.083 Y273.502
X125.113 Y273.481
X127.144 Y272.036
X127.174 Y272.014
X129.175 Y270.545
X129.206 Y270.523
X131.175 Y269.031
X131.204 Y269.008
X133.143 Y267.493
X133.172 Y267.47
X135.08 Y265.933
X135.109 Y265.909
X136.985 Y264.351
X137.013 Y264.328
X138.859 Y262.749
X138.887 Y262.725
X140.702 Y261.126
X140.729 Y261.102
X142.514 Y259.483
X142.54 Y259.459
X144.294 Y257.822
X144.319 Y257.797
X146.043 Y256.142
X146.068 Y256.119
X147.763 Y254.447
X147.787 Y254.423
X149.452 Y252.735
X149.474 Y252.712
X151.111 Y251.008
X151.133 Y250.985
X152.742 Y249.268
X152.763 Y249.246
X154.344 Y247.516
X154.365 Y247.493
X155.918 Y245.751
X155.938 Y245.729
X157.465 Y243.975
X157.483 Y243.954
X158.984 Y242.191
X159.001 Y242.17
X160.477 Y240.398
X160.494 Y240.377
X161.945 Y238.596
X161.961 Y238.577
X163.388 Y236.79
X163.403 Y236.771
X164.807 Y234.977
X164.821 Y234.958
X166.202 Y233.159
X166.215 Y233.142
X167.574 Y231.339
X167.587 Y231.322
X168.925 Y229.516
X168.937 Y229.5
X170.254 Y227.692
X170.265 Y227.677
X171.563 Y225.867
X171.573 Y225.852
X172.852 Y224.041
X172.862 Y224.027
X174.122 Y222.216
X174.131 Y222.203
X175.374 Y220.393
X175.383 Y220.381
X176.609 Y218.572
X176.616 Y218.561
X177.827 Y216.754
X177.835 Y216.742
X179.029 Y214.938
X179.035 Y214.928
X180.215 Y213.126
X180.222 Y213.116
X181.388 Y211.318
X181.393 Y211.309
X182.546 Y209.514
X182.552 Y209.505
X183.692 Y207.713
X183.698 Y207.705
X184.825 Y205.918
X184.829 Y205.91
X185.945 Y204.126
X185.949 Y204.119
X187.055 Y202.339
X187.061 Y202.331
X188.155 Y200.554
X188.161 Y200.544
X190.321 Y197
X190.329 Y196.986
X192.452 Y193.45
X192.461 Y193.435
X194.55 Y189.901
X194.56 Y189.885
X196.616 Y186.346
X196.626 Y186.328
X198.652 Y182.772
X198.661 Y182.755
X199.662 Y180.967
X199.668 Y180.957
X200.662 Y179.161
X200.67 Y179.147
X201.656 Y177.339
X201.662 Y177.327
X202.641 Y175.508
X202.65 Y175.491
X203.62 Y173.656
X203.628 Y173.641
X204.59 Y171.79
X204.598 Y171.774
X205.553 Y169.904
X205.563 Y169.885
X206.508 Y167.994
X206.518 Y167.975
X207.455 Y166.06
X207.464 Y166.04
X208.392 Y164.1
X208.402 Y164.078
X209.321 Y162.109
X209.332 Y162.086
X210.241 Y160.085
X210.251 Y160.062
X211.15 Y158.029
X211.161 Y158.004
X212.05 Y155.933
X212.058 Y155.916
X212.499 Y154.867
X212.505 Y154.851
X212.942 Y153.791
X212.947 Y153.78
X213.382 Y152.71
X213.387 Y152.696
X213.819 Y151.615
X213.825 Y151.601
X214.254 Y150.509
X214.259 Y150.496
X214.685 Y149.393
X214.691 Y149.378
X215.114 Y148.262
X215.12 Y148.247
X215.539 Y147.119
X215.543 Y147.107
X215.96 Y145.967
X215.965 Y145.953
X216.379 Y144.8
X216.385 Y144.784
X216.795 Y143.617
X216.799 Y143.603
X217.206 Y142.423
X217.212 Y142.407
X217.615 Y141.213
X217.619 Y141.199
X218.019 Y139.99
X218.024 Y139.975
X218.42 Y138.752
X218.425 Y138.738
X218.818 Y137.5
X218.823 Y137.485
X219.212 Y136.231
X219.216 Y136.215
X219.601 Y134.945
X219.605 Y134.932
X219.988 Y133.646
X219.992 Y133.631
X220.37 Y132.328
X220.375 Y132.311
X220.748 Y130.992
X220.751 Y130.979
X221.121 Y129.642
X221.126 Y129.625
X221.491 Y128.27
X221.494 Y128.257
X221.856 Y126.884
X221.861 Y126.868
X222.218 Y125.477
X222.221 Y125.464
X222.574 Y124.055
X222.578 Y124.039
X222.926 Y122.61
X222.929 Y122.595
X223.273 Y121.146
G2 X221.049 Y118.078 I-2.432 J-0.577
G1 X210.778 Y117.222
X220.446 Y1.208
G2 X217.955 Y-1.5 I-2.491 J-0.208
G1 X1
G2 X-1.5 Y1 I0 J2.5
G1 Y316
G2 X1.495 Y318.45 I2.5 J0
G1 X4.301 Y317.883
X4.31 Y317.882
X7.113 Y317.305
X7.123 Y317.303
X9.923 Y316.715
X9.932 Y316.713
X12.729 Y316.115
X12.739 Y316.113
X15.532 Y315.504
X15.542 Y315.501
X18.332 Y314.881
X18.342 Y314.879
X21.127 Y314.248
X21.137 Y314.246
X23.919 Y313.604
X23.931 Y313.601
X26.707 Y312.946
X26.717 Y312.944
X29.489 Y312.278
X29.5 Y312.275
X32.266 Y311.597
G0 Z15
M9
M5
M30
