(CamperEssigOelSchaumstoff)
(T4 D=5 CR=0 - ZMIN=-50 - flat end mill)
G90 G94
G17
G21
(-Attention- Property Safe Retracts is set to Clearance Height.)
(Ensure the clearance height will clear the part and or fixtures.)
(Raise the Z-axis to a safe height before starting the program.)

(2D Contour2)
T4
S5000 M3
G17 G90 G94
G54
M8
G0 X108.605 Y309.114
Z15
G0 Z5
G1 Z1 F333.3
Z-18
G3 X58.621 Y307.886 I-24.992 J-0.614 F1000
X108.605 Y309.114 I24.992 J0.614
G0 Z5
X183.49 Y301.798
G1 Z1 F333.3
Z-18
G3 X118.51 Y300.202 I-32.49 J-0.798 F1000
X183.49 Y301.798 I32.49 J0.798
G1 Z-36 F333.3
G3 X118.51 Y300.202 I-32.49 J-0.798 F1000
X183.49 Y301.798 I32.49 J0.798
G1 Z-50 F333.3
G3 X118.51 Y300.202 I-32.49 J-0.798 F1000
X183.49 Y301.798 I32.49 J0.798
G0 Z5
X108.605 Y309.114
G1 Z-17 F333.3
Z-36
G3 X58.621 Y307.886 I-24.992 J-0.614 F1000
X108.605 Y309.114 I24.992 J0.614
G1 Z-50 F333.3
G3 X58.621 Y307.886 I-24.992 J-0.614 F1000
X108.605 Y309.114 I24.992 J0.614
G0 Z5
X108.613 Y242.25
G1 Z1 F333.3
Z-18
G3 X58.613 Y242.25 I-25 J0 F1000
X108.613 Y242.25 I25 J0
G0 Z5
X183.49 Y218.465
G1 Z1 F333.3
Z-18
G3 X118.51 Y216.869 I-32.49 J-0.798 F1000
X183.49 Y218.465 I32.49 J0.798
G1 Z-36 F333.3
G3 X118.51 Y216.869 I-32.49 J-0.798 F1000
X183.49 Y218.465 I32.49 J0.798
G1 Z-50 F333.3
G3 X118.51 Y216.869 I-32.49 J-0.798 F1000
X183.49 Y218.465 I32.49 J0.798
G0 Z5
X183.5 Y134.333
G1 Z1 F333.3
Z-18
G3 X151 Y166.833 I-32.5 J0 F1000
X151 Y101.833 I0 J-32.5
X183.5 Y134.333 I0 J32.5
G1 Z-36 F333.3
G3 X151 Y166.833 I-32.5 J0 F1000
X151 Y101.833 I0 J-32.5
X183.5 Y134.333 I0 J32.5
G1 Z-50 F333.3
G3 X151 Y166.833 I-32.5 J0 F1000
X151 Y101.833 I0 J-32.5
X183.5 Y134.333 I0 J32.5
G0 Z5
X183.49 Y51.798
G1 Z1 F333.3
Z-18
G3 X118.51 Y50.202 I-32.49 J-0.798 F1000
X183.49 Y51.798 I32.49 J0.798
G1 Z-36 F333.3
G3 X118.51 Y50.202 I-32.49 J-0.798 F1000
X183.49 Y51.798 I32.49 J0.798
G1 Z-50 F333.3
G3 X118.51 Y50.202 I-32.49 J-0.798 F1000
X183.49 Y51.798 I32.49 J0.798
G0 Z5
X108.613 Y43.5
G1 Z1 F333.3
Z-18
G3 X58.613 Y43.5 I-25 J0 F1000
X108.613 Y43.5 I25 J0
G1 Z-36 F333.3
G3 X58.613 Y43.5 I-25 J0 F1000
X108.613 Y43.5 I25 J0
G1 Z-50 F333.3
G3 X58.613 Y43.5 I-25 J0 F1000
X108.613 Y43.5 I25 J0
G0 Z5
Y109.75
G1 Z1 F333.3
Z-18
G3 X58.613 Y109.75 I-25 J0 F1000
X108.613 Y109.75 I25 J0
G1 Z-36 F333.3
G3 X58.613 Y109.75 I-25 J0 F1000
X108.613 Y109.75 I25 J0
G1 Z-50 F333.3
G3 X58.613 Y109.75 I-25 J0 F1000
X108.613 Y109.75 I25 J0
G0 Z5
Y176
G1 Z1 F333.3
Z-18
G3 X58.613 Y176 I-25 J0 F1000
X108.613 Y176 I25 J0
G1 Z-36 F333.3
G3 X58.613 Y176 I-25 J0 F1000
X108.613 Y176 I25 J0
G1 Z-50 F333.3
G3 X58.613 Y176 I-25 J0 F1000
X108.613 Y176 I25 J0
G0 Z5
Y242.25
G1 Z-17 F333.3
Z-36
G3 X58.613 Y242.25 I-25 J0 F1000
X108.613 Y242.25 I25 J0
G1 Z-50 F333.3
G3 X58.613 Y242.25 I-25 J0 F1000
X108.613 Y242.25 I25 J0
G0 Z5
X48.5 Y260
G1 Z1 F333.3
Z-18
G3 X13.5 Y260 I-17.5 J0 F1000
X48.5 Y260 I17.5 J0
G1 Z-36 F333.3
G3 X13.5 Y260 I-17.5 J0 F1000
X48.5 Y260 I17.5 J0
G1 Z-50 F333.3
G3 X13.5 Y260 I-17.5 J0 F1000
X48.5 Y260 I17.5 J0
G0 Z5
Y204
G1 Z1 F333.3
Z-18
G3 X13.5 Y204 I-17.5 J0 F1000
X48.5 Y204 I17.5 J0
G1 Z-36 F333.3
G3 X13.5 Y204 I-17.5 J0 F1000
X48.5 Y204 I17.5 J0
G1 Z-50 F333.3
G3 X13.5 Y204 I-17.5 J0 F1000
X48.5 Y204 I17.5 J0
G0 Z5
X48.494 Y148.445
G1 Z1 F333.3
Z-18
G3 X13.506 Y147.555 I-17.494 J-0.445 F1000
X48.494 Y148.445 I17.494 J0.445
G1 Z-36 F333.3
G3 X13.506 Y147.555 I-17.494 J-0.445 F1000
X48.494 Y148.445 I17.494 J0.445
G1 Z-50 F333.3
G3 X13.506 Y147.555 I-17.494 J-0.445 F1000
X48.494 Y148.445 I17.494 J0.445
G0 Z5
X48.5 Y92
G1 Z1 F333.3
Z-18
G3 X13.5 Y92 I-17.5 J0 F1000
X48.5 Y92 I17.5 J0
G1 Z-36 F333.3
G3 X13.5 Y92 I-17.5 J0 F1000
X48.5 Y92 I17.5 J0
G1 Z-50 F333.3
G3 X13.5 Y92 I-17.5 J0 F1000
X48.5 Y92 I17.5 J0
G0 Z5
X48.494 Y36.445
G1 Z1 F333.3
Z-18
G3 X13.506 Y35.555 I-17.494 J-0.445 F1000
X48.494 Y36.445 I17.494 J0.445
G1 Z-36 F333.3
G3 X13.506 Y35.555 I-17.494 J-0.445 F1000
X48.494 Y36.445 I17.494 J0.445
G1 Z-50 F333.3
G3 X13.506 Y35.555 I-17.494 J-0.445 F1000
X48.494 Y36.445 I17.494 J0.445
G0 Z5
X48.5 Y316
G1 Z1 F333.3
Z-18
G3 X13.5 Y316 I-17.5 J0 F1000
X48.5 Y316 I17.5 J0
G1 Z-36 F333.3
G3 X13.5 Y316 I-17.5 J0 F1000
X48.5 Y316 I17.5 J0
G1 Z-50 F333.3
G3 X13.5 Y316 I-17.5 J0 F1000
X48.5 Y316 I17.5 J0
G0 Z5
X128.5 Y401
G1 Z1 F333.3
Z-18
G3 X33.5 Y401 I-47.5 J0 F1000
X128.5 Y401 I47.5 J0
G1 Z-36 F333.3
G3 X33.5 Y401 I-47.5 J0 F1000
X128.5 Y401 I47.5 J0
G1 Z-50 F333.3
G3 X33.5 Y401 I-47.5 J0 F1000
X128.5 Y401 I47.5 J0
G0 Z5
X183.5 Y563.5
G1 Z1 F333.3
Z-18
Y568.5 F1000
X173.5
Y413.5
X183.5
Y563.5
Z-36 F333.3
Y568.5 F1000
X173.5
Y413.5
X183.5
Y563.5
Z-50 F333.3
Y568.5 F1000
X173.5
Y413.5
X183.5
Y563.5
G0 Z5
X128.486 Y522.166
G1 Z1 F333.3
Z-18
G3 X33.514 Y519.834 I-47.486 J-1.166 F1000
X128.486 Y522.166 I47.486 J1.166
G1 Z-36 F333.3
G3 X33.514 Y519.834 I-47.486 J-1.166 F1000
X128.486 Y522.166 I47.486 J1.166
G1 Z-50 F333.3
G3 X33.514 Y519.834 I-47.486 J-1.166 F1000
X128.486 Y522.166 I47.486 J1.166
G0 Z15

(2D Contour3)
G0 X-1.5 Y1
Z15
Z5
G1 Z1 F333.3
Z-18
Y591 F1000
G2 X1 Y593.5 I2.5 J0
G1 X206
G2 X208.5 Y591 I0 J-2.5
G1 Y1
G2 X206 Y-1.5 I-2.5 J0
G1 X1
G2 X-1.5 Y1 I0 J2.5
G1 Z-36 F333.3
Y591 F1000
G2 X1 Y593.5 I2.5 J0
G1 X206
G2 X208.5 Y591 I0 J-2.5
G1 Y1
G2 X206 Y-1.5 I-2.5 J0
G1 X1
G2 X-1.5 Y1 I0 J2.5
G1 Z-50 F333.3
Y591 F1000
G2 X1 Y593.5 I2.5 J0
G1 X206
G2 X208.5 Y591 I0 J-2.5
G1 Y1
G2 X206 Y-1.5 I-2.5 J0
G1 X1
G2 X-1.5 Y1 I0 J2.5
G0 Z15

M9
M5
M30
