(CamperTuerverkleidung)
(T4 D=5 CR=0 - ZMIN=-5 - flat end mill)
G90 G94
G17
G21
(-Attention- Property Safe Retracts is set to Clearance Height.)
(Ensure the clearance height will clear the part and or fixtures.)
(Raise the Z-axis to a safe height before starting the program.)

(2D Contour1)
T4
S5000 M3
G17 G90 G94
G54
M8
G0 X-2.83 Y166.138
Z15
G0 Z5
G1 Z1 F333.3
Z-4.5
X-2.823 Y166.139 Z-4.587 F1000
X-2.8 Y166.141 Z-4.671
X-2.764 Y166.144 Z-4.75
X-2.714 Y166.148 Z-4.821
X-2.652 Y166.154 Z-4.883
X-2.581 Y166.16 Z-4.933
X-2.503 Y166.167 Z-4.97
X-2.419 Y166.174 Z-4.992
X-2.332 Y166.181 Z-5
X-1.834 Y166.225
G3 X-1.379 Y166.766 I-0.043 J0.498
G1 X-1.382 Y166.796
X-1.425 Y167.375
X-1.428 Y167.419
X-1.46 Y167.994
X-1.462 Y168.039
X-1.485 Y168.611
X-1.486 Y168.657
X-1.498 Y169.224
Y169.271
X-1.499 Y169.835
Y169.883
X-1.489 Y170.443
X-1.487 Y170.493
X-1.467 Y171.049
X-1.464 Y171.099
X-1.432 Y171.652
X-1.429 Y171.703
X-1.386 Y172.252
X-1.381 Y172.303
X-1.327 Y172.849
X-1.322 Y172.902
X-1.256 Y173.445
X-1.249 Y173.498
X-1.172 Y174.037
X-1.164 Y174.092
X-1.076 Y174.627
X-1.067 Y174.68
X-0.967 Y175.213
X-0.956 Y175.269
X-0.844 Y175.798
X-0.832 Y175.852
X-0.709 Y176.378
X-0.695 Y176.433
X-0.56 Y176.956
X-0.545 Y177.011
X-0.398 Y177.531
X-0.382 Y177.586
X-0.223 Y178.103
X-0.205 Y178.158
X-0.034 Y178.672
X-0.016 Y178.726
X0.168 Y179.238
X0.189 Y179.293
X0.385 Y179.801
X0.405 Y179.854
X0.614 Y180.36
X0.637 Y180.415
X0.858 Y180.917
X0.88 Y180.966
X1.114 Y181.467
X1.14 Y181.521
X1.386 Y182.018
X1.411 Y182.067
X1.67 Y182.562
X1.696 Y182.61
X1.968 Y183.103
X1.996 Y183.153
X2.281 Y183.643
X2.309 Y183.69
X2.607 Y184.178
X2.637 Y184.225
X2.948 Y184.71
X2.976 Y184.752
X3.301 Y185.236
X3.332 Y185.281
X3.67 Y185.762
X3.7 Y185.803
X4.051 Y186.282
X4.081 Y186.322
X4.446 Y186.799
X4.478 Y186.84
X4.856 Y187.314
X4.884 Y187.349
X5.276 Y187.822
X5.308 Y187.859
X5.713 Y188.329
X5.743 Y188.363
X6.161 Y188.831
X6.189 Y188.862
X6.621 Y189.329
X6.655 Y189.365
X7.1 Y189.828
X7.128 Y189.856
X7.586 Y190.318
X7.616 Y190.347
X8.087 Y190.807
X8.117 Y190.835
X8.602 Y191.293
X8.631 Y191.32
X9.129 Y191.776
X9.16 Y191.804
X9.672 Y192.257
X9.698 Y192.279
X10.224 Y192.731
X10.251 Y192.755
X10.79 Y193.205
X10.82 Y193.229
X11.372 Y193.676
X11.397 Y193.696
X11.963 Y194.142
X11.99 Y194.163
X12.569 Y194.607
X12.597 Y194.628
X13.19 Y195.069
X13.213 Y195.087
X13.819 Y195.527
X13.845 Y195.545
X14.464 Y195.983
X14.489 Y196.001
X15.122 Y196.437
X15.146 Y196.453
X15.793 Y196.887
X15.816 Y196.903
X16.476 Y197.335
X16.499 Y197.35
X17.172 Y197.78
X17.192 Y197.793
X17.878 Y198.222
X17.903 Y198.237
X18.601 Y198.663
X18.623 Y198.676
X19.334 Y199.1
X19.353 Y199.112
X20.077 Y199.535
X20.099 Y199.548
X20.836 Y199.968
X20.853 Y199.978
X21.602 Y200.397
X21.624 Y200.409
X22.385 Y200.825
X22.401 Y200.834
X23.174 Y201.249
X23.193 Y201.258
X23.978 Y201.671
X23.996 Y201.681
X24.792 Y202.092
X24.81 Y202.101
X25.618 Y202.51
X25.633 Y202.517
X26.453 Y202.925
X26.471 Y202.934
X27.303 Y203.339
X27.317 Y203.346
X28.159 Y203.75
X28.175 Y203.758
X29.028 Y204.16
X29.044 Y204.167
X29.908 Y204.567
X29.923 Y204.574
X30.798 Y204.972
X30.813 Y204.978
X31.699 Y205.374
X31.713 Y205.381
X32.61 Y205.775
X32.621 Y205.78
X33.528 Y206.173
X33.542 Y206.179
X34.459 Y206.57
X34.472 Y206.575
X35.4 Y206.964
X35.413 Y206.97
X36.35 Y207.357
X36.36 Y207.361
X37.308 Y207.747
X37.327 Y207.755
X39.25 Y208.52
X39.272 Y208.528
X41.233 Y209.287
X41.255 Y209.296
X43.252 Y210.047
X43.272 Y210.054
X45.303 Y210.799
X45.323 Y210.806
X47.387 Y211.544
X47.405 Y211.551
X49.501 Y212.282
X49.518 Y212.287
X51.643 Y213.012
X51.66 Y213.018
X53.814 Y213.736
X53.829 Y213.741
X56.01 Y214.452
X56.024 Y214.457
X58.229 Y215.161
X58.243 Y215.165
X60.471 Y215.863
X60.484 Y215.867
X62.735 Y216.558
X62.747 Y216.562
X65.018 Y217.246
X65.029 Y217.249
X67.318 Y217.927
X67.329 Y217.93
X69.635 Y218.601
X69.645 Y218.604
X71.966 Y219.269
X71.976 Y219.272
X74.311 Y219.93
X74.321 Y219.933
X76.667 Y220.584
X76.675 Y220.586
X79.032 Y221.232
X79.046 Y221.236
X83.785 Y222.506
X83.799 Y222.51
X88.561 Y223.756
X88.575 Y223.759
X93.347 Y224.978
X93.358 Y224.981
X98.126 Y226.176
X98.137 Y226.179
X102.889 Y227.348
X102.896 Y227.349
X105.262 Y227.924
X105.266 Y227.925
X107.623 Y228.493
X107.627 Y228.494
X109.974 Y229.056
X109.977 Y229.057
X112.312 Y229.613
X112.317 Y229.614
X114.639 Y230.162
X114.641 Y230.163
X116.948 Y230.705
X116.951
X119.243 Y231.241
X119.247 Y231.242
X121.521 Y231.77
X121.522 Y231.771
X123.778 Y232.293
X123.782
X126.017 Y232.807
X126.018 Y232.808
X128.232 Y233.316
X128.234
X130.425 Y233.817
X130.427 Y233.818
X132.594 Y234.311
X134.736 Y234.798
X134.737
X136.85 Y235.277
X138.936 Y235.749
X138.938 Y235.75
X140.994 Y236.214
X143.017 Y236.671
X143.019
X145.011 Y237.12
X146.972 Y237.562
X146.974
X148.903 Y237.995
X150.799 Y238.42
X150.8 Y238.421
X152.66 Y238.837
X154.486 Y239.246
X154.488
X156.278 Y239.645
X158.031 Y240.036
X158.033 Y240.037
X159.75 Y240.418
X161.429 Y240.79
X162.254 Y240.973
X162.256
X163.071 Y241.153
X163.875 Y241.331
X164.671 Y241.507
X164.673
X165.458 Y241.68
X165.46 Y241.681
X166.235 Y241.851
X167.001 Y242.019
X167.755 Y242.185
X167.758
X168.504 Y242.348
X168.507 Y242.349
X169.243 Y242.509
X169.968 Y242.667
X169.974 Y242.668
X170.689 Y242.822
X171.394 Y242.974
X171.4 Y242.976
X172.097 Y243.125
X172.099
X173.464 Y243.416
X173.471 Y243.418
X174.799 Y243.697
X174.806 Y243.698
X176.095 Y243.965
X176.103 Y243.967
X177.354 Y244.222
X177.363 Y244.223
X178.578 Y244.466
X178.587 Y244.468
X179.764 Y244.699
X179.778 Y244.702
X180.918 Y244.919
X180.929 Y244.921
X182.033 Y245.126
X182.049 Y245.129
X183.117 Y245.32
X183.135 Y245.323
X184.168 Y245.5
X184.187 Y245.503
X185.186 Y245.666
X185.208 Y245.67
X186.173 Y245.819
X186.199 Y245.823
X187.134 Y245.957
X187.16 Y245.96
X188.064 Y246.08
X188.098 Y246.085
X188.974 Y246.189
X189.008 Y246.192
X189.857 Y246.281
X189.897 Y246.285
X190.719 Y246.358
X190.762 Y246.362
X191.561 Y246.419
X191.604 Y246.421
X192.379 Y246.463
X192.431 Y246.466
X193.184 Y246.491
X193.24 Y246.492
X193.974 Y246.5
X194.052 Y246.499
X194.248 Y246.495
X194.354 Y246.491
X194.56 Y246.478
X194.657 Y246.47
X194.872 Y246.448
X194.948 Y246.439
X195.173 Y246.409
X195.245 Y246.398
X195.478 Y246.36
X195.551 Y246.348
X195.794 Y246.301
X195.861 Y246.286
X196.113 Y246.23
X196.166 Y246.218
X196.427 Y246.154
X196.487 Y246.139
X196.756 Y246.066
X196.808 Y246.051
X197.086 Y245.969
X197.127 Y245.956
X197.414 Y245.866
X197.461 Y245.851
X197.756 Y245.752
X197.8 Y245.737
X198.103 Y245.629
X198.135 Y245.617
X198.447 Y245.501
X198.488 Y245.486
X198.807 Y245.361
X198.834 Y245.35
X199.162 Y245.217
X199.199 Y245.202
X199.534 Y245.06
X199.565 Y245.046
X199.908 Y244.895
X199.933 Y244.884
X200.284 Y244.725
X200.319 Y244.709
X200.677 Y244.54
X200.693 Y244.532
X201.059 Y244.356
X201.087 Y244.343
X201.46 Y244.158
X201.481 Y244.147
X201.861 Y243.954
X201.881 Y243.944
X202.268 Y243.743
X202.281 Y243.736
X202.676 Y243.528
X202.697 Y243.517
X203.098 Y243.301
X203.109 Y243.295
X203.518 Y243.072
X203.531 Y243.065
X203.947 Y242.835
X203.966 Y242.824
X204.82 Y242.342
X204.837 Y242.332
X205.719 Y241.825
X205.737 Y241.815
X206.647 Y241.282
X206.658 Y241.276
X207.596 Y240.72
X207.604 Y240.715
X208.571 Y240.137
X208.58 Y240.131
X209.574 Y239.531
X209.576 Y239.53
X210.598 Y238.912
X210.599 Y238.911
X211.649 Y238.275
X211.65
X212.726 Y237.623
X213.828 Y236.956
X214.955 Y236.277
X216.107 Y235.587
X217.283 Y234.889
X218.487 Y234.184
X219.716 Y233.472
X220.97 Y232.757
X222.254 Y232.039
X223.565 Y231.319
X224.903 Y230.6
X226.271 Y229.884
X227.67 Y229.17
X229.098 Y228.461
X230.555 Y227.76
X232.045 Y227.066
X233.567 Y226.382
X235.119 Y225.709
X236.705 Y225.05
X238.324 Y224.404
X239.981 Y223.774
X240.817 Y223.467
X241.664 Y223.163
X242.52 Y222.865
X243.386 Y222.571
X244.261 Y222.283
X245.145 Y221.999
X246.038 Y221.722
X246.942 Y221.45
X247.856 Y221.183
X248.779 Y220.921
X249.711 Y220.666
X250.653 Y220.418
X251.606 Y220.176
X252.569 Y219.94
X253.541 Y219.71
X254.524 Y219.488
X255.518 Y219.271
X256.521 Y219.063
X257.536 Y218.861
X258.56 Y218.666
X259.596 Y218.48
X260.644 Y218.301
X261.701 Y218.13
X262.771 Y217.966
X263.85 Y217.81
X264.942 Y217.663
X266.044 Y217.524
X267.157 Y217.393
X268.283 Y217.273
X269.421 Y217.159
X270.569 Y217.055
X271.73 Y216.959
X272.903 Y216.873
X274.089 Y216.795
X275.286 Y216.726
X276.493 Y216.666
X277.714 Y216.616
X278.948 Y216.575
X280.193 Y216.542
X281.45 Y216.519
X282.719 Y216.505
X284.006 Y216.5
X699.001
G2 X705.501 Y210 I0 J-6.5
G1 Y37
G2 X667.001 Y-1.5 I-38.5 J0
G1 X404.009
X403.966
X173.983 Y2.5
X172.767 Y2.504
X172.749 Y2.505
X171.521 Y2.518
X171.503
X170.281 Y2.54
X170.262 Y2.541
X169.047 Y2.572
X169.029
X167.819 Y2.612
X167.8 Y2.613
X166.597 Y2.661
X166.578 Y2.662
X165.381 Y2.719
X165.363 Y2.72
X164.171 Y2.786
X164.152 Y2.787
X162.967 Y2.862
X162.948 Y2.863
X161.768 Y2.947
X161.748 Y2.948
X160.575 Y3.04
X160.556 Y3.042
X159.388 Y3.143
X159.369 Y3.144
X158.207 Y3.254
X158.187 Y3.256
X157.032 Y3.374
X157.013 Y3.376
X155.863 Y3.502
X155.843 Y3.504
X154.699 Y3.639
X154.679 Y3.642
X153.54 Y3.785
X153.52 Y3.788
X152.388 Y3.94
X152.368 Y3.943
X151.241 Y4.103
X151.221 Y4.106
X150.101 Y4.275
X150.081 Y4.278
X148.966 Y4.456
X148.946 Y4.459
X147.836 Y4.645
X147.816 Y4.648
X146.713 Y4.843
X146.693 Y4.846
X145.595 Y5.049
X145.574 Y5.053
X144.482 Y5.263
X144.462 Y5.267
X143.375 Y5.487
X143.344 Y5.493
X141.188 Y5.956
X141.147 Y5.965
X139.013 Y6.461
X138.972 Y6.471
X136.861 Y7
X136.819 Y7.011
X134.73 Y7.572
X134.689 Y7.584
X132.622 Y8.177
X132.58 Y8.19
X130.535 Y8.815
X130.494 Y8.829
X128.471 Y9.486
X128.43 Y9.5
X126.428 Y10.19
X126.386 Y10.204
X124.406 Y10.925
X124.366 Y10.941
X122.406 Y11.693
X122.366 Y11.709
X120.427 Y12.491
X120.387 Y12.508
X118.469 Y13.321
X118.43 Y13.338
X116.532 Y14.181
X116.494 Y14.198
X114.616 Y15.07
X114.579 Y15.088
X112.72 Y15.989
X112.682 Y16.007
X110.843 Y16.937
X110.807 Y16.955
X108.987 Y17.913
X108.952 Y17.932
X107.151 Y18.916
X107.116 Y18.936
X105.334 Y19.948
X105.3 Y19.967
X103.536 Y21.006
X103.503 Y21.025
X101.757 Y22.09
X101.724 Y22.11
X99.996 Y23.2
X99.964 Y23.22
X98.254 Y24.336
X98.224 Y24.356
X96.531 Y25.496
X96.501 Y25.516
X94.825 Y26.681
X94.796 Y26.701
X93.137 Y27.889
X93.108 Y27.91
X91.466 Y29.121
X91.438 Y29.142
X89.812 Y30.376
X89.785 Y30.397
X88.176 Y31.653
X88.15 Y31.674
X86.556 Y32.952
X86.53 Y32.973
X84.952 Y34.273
X84.928 Y34.294
X83.364 Y35.615
X83.341 Y35.635
X81.793 Y36.977
X81.77 Y36.997
X80.237 Y38.359
X80.215 Y38.378
X78.696 Y39.759
X78.675 Y39.778
X77.17 Y41.178
X77.15 Y41.197
X75.659 Y42.615
X75.64 Y42.633
X74.162 Y44.069
X74.144 Y44.087
X72.68 Y45.539
X72.662 Y45.557
X71.212 Y47.025
X71.194 Y47.043
X69.757 Y48.527
X69.74 Y48.544
X68.316 Y50.044
X68.3 Y50.061
X66.889 Y51.574
X66.874 Y51.591
X65.475 Y53.118
X65.46 Y53.135
X64.074 Y54.676
X64.06 Y54.691
X62.686 Y56.245
X62.672 Y56.261
X61.31 Y57.826
X61.297 Y57.841
X59.948 Y59.419
X59.935 Y59.433
X58.597 Y61.022
X58.585 Y61.036
X57.258 Y62.634
X57.247 Y62.648
X55.932 Y64.257
X55.921 Y64.27
X54.617 Y65.888
X54.606 Y65.901
X53.313 Y67.527
X53.303 Y67.539
X52.021 Y69.173
X52.011 Y69.186
X50.74 Y70.827
X50.731 Y70.839
X49.47 Y72.487
X49.461 Y72.499
X48.21 Y74.153
X48.202 Y74.164
X46.962 Y75.824
X46.954 Y75.835
X45.723 Y77.499
X45.715 Y77.51
X44.496 Y79.179
X44.488 Y79.189
X43.279 Y80.862
X43.271 Y80.872
X42.072 Y82.548
X42.065 Y82.558
X40.877 Y84.237
X40.87 Y84.247
X39.693 Y85.928
X39.686 Y85.938
X38.519 Y87.62
X38.513 Y87.63
X37.357 Y89.313
X37.351 Y89.323
X36.207 Y91.007
X36.2 Y91.016
X35.067 Y92.7
X35.061 Y92.71
X33.939 Y94.393
X33.933 Y94.402
X32.823 Y96.085
X32.817 Y96.094
X31.718 Y97.774
X31.712 Y97.784
X30.625 Y99.462
X30.62 Y99.471
X29.544 Y101.147
X29.539 Y101.156
X28.475 Y102.829
X28.47 Y102.837
X27.419 Y104.505
X27.413 Y104.514
X26.373 Y106.179
X26.368 Y106.188
X25.341 Y107.848
X25.336 Y107.856
X24.321 Y109.51
X24.316 Y109.518
X23.314 Y111.166
X23.309 Y111.174
X22.319 Y112.816
X22.314 Y112.824
X21.336 Y114.459
X21.331 Y114.468
X20.367 Y116.096
X20.362 Y116.104
X19.411 Y117.724
X19.405 Y117.733
X18.468 Y119.345
X18.463 Y119.354
X17.539 Y120.957
X17.534 Y120.967
X16.625 Y122.561
X16.619 Y122.571
X15.725 Y124.156
X15.719 Y124.167
X14.841 Y125.742
X14.835 Y125.752
X13.973 Y127.317
X13.966 Y127.329
X13.12 Y128.884
X13.114 Y128.896
X12.285 Y130.44
X12.278 Y130.452
X11.466 Y131.984
X11.459 Y131.998
X10.665 Y133.519
X10.658 Y133.532
X9.881 Y135.041
X9.874 Y135.055
X9.117 Y136.551
X9.109 Y136.567
X8.37 Y138.051
X8.362 Y138.067
X7.643 Y139.538
X7.635 Y139.554
X6.935 Y141.011
X6.927 Y141.029
X6.248 Y142.472
X6.239 Y142.493
X5.583 Y143.922
X5.572 Y143.944
X4.939 Y145.359
X4.929 Y145.383
X4.32 Y146.783
X4.308 Y146.81
X3.725 Y148.196
X3.713 Y148.225
X3.155 Y149.597
X3.143 Y149.629
X2.613 Y150.986
X2.6 Y151.02
X2.099 Y152.362
X2.085 Y152.4
X1.613 Y153.727
X1.599 Y153.767
X1.158 Y155.079
X1.144 Y155.123
X0.734 Y156.42
X0.72 Y156.468
X0.343 Y157.749
X0.328 Y157.8
X-0.015 Y159.066
X-0.029 Y159.122
X-0.337 Y160.373
X-0.351 Y160.433
X-0.623 Y161.667
X-0.633 Y161.715
X-0.755 Y162.326
X-0.762 Y162.359
X-0.874 Y162.966
X-0.881 Y163.002
X-0.984 Y163.606
X-0.99 Y163.641
X-1.084 Y164.24
X-1.089 Y164.277
X-1.173 Y164.872
X-1.178 Y164.911
X-1.252 Y165.502
X-1.257 Y165.542
X-1.32 Y166.129
X-1.324 Y166.171
X-1.378 Y166.754
X-1.379 Y166.766
G3 X-1.92 Y167.221 I-0.498 J-0.043
G1 X-2.419 Y167.178
X-2.505 Y167.17 Z-4.992
X-2.589 Y167.163 Z-4.97
X-2.668 Y167.156 Z-4.933
X-2.739 Y167.15 Z-4.883
X-2.8 Y167.145 Z-4.821
X-2.85 Y167.14 Z-4.75
X-2.887 Y167.137 Z-4.671
X-2.909 Y167.135 Z-4.587
X-2.917 Z-4.5
G0 Z15
M9
M5
M30
