(CamperSchubladeDosenhalter_schmal)
(T4 D=5 CR=0 - ZMIN=-13 - flat end mill)
G90 G94
G17
G21
(-Attention- Property Safe Retracts is set to Clearance Height.)
(Ensure the clearance height will clear the part and or fixtures.)
(Raise the Z-axis to a safe height before starting the program.)

(2D Contour4)
T4
S5000 M3
G17 G90 G94
G54
M8
G0 X405.833 Y58.85
Z15
G0 Z5
G1 Z-4 F333.3
Y131.8 F1000
G3 X397.333 Y140.3 I-8.5 J0
G1 X331.633
G3 X323.133 Y131.8 I0 J-8.5
G1 Y26
G3 X331.633 Y17.5 I8.5 J0
G1 X397.333
G3 X405.833 Y26 I0 J8.5
G1 Y58.85
Z-8 F333.3
Y131.8 F1000
G3 X397.333 Y140.3 I-8.5 J0
G1 X331.633
G3 X323.133 Y131.8 I0 J-8.5
G1 Y26
G3 X331.633 Y17.5 I8.5 J0
G1 X397.333
G3 X405.833 Y26 I0 J8.5
G1 Y58.85
Z-12 F333.3
Y131.8 F1000
G3 X397.333 Y140.3 I-8.5 J0
G1 X331.633
G3 X323.133 Y131.8 I0 J-8.5
G1 Y26
G3 X331.633 Y17.5 I8.5 J0
G1 X397.333
G3 X405.833 Y26 I0 J8.5
G1 Y58.85
Z-13 F333.3
Y131.8 F1000
G3 X397.333 Y140.3 I-8.5 J0
G1 X331.633
G3 X323.133 Y131.8 I0 J-8.5
G1 Y26
G3 X331.633 Y17.5 I8.5 J0
G1 X397.333
G3 X405.833 Y26 I0 J8.5
G1 Y58.85
G0 Z5
X506.5 Y98.95
G1 Z-4 F333.3
Y131.8 F1000
G3 X498 Y140.3 I-8.5 J0
G1 X432.3
G3 X423.8 Y131.8 I0 J-8.5
G1 Y26
G3 X432.3 Y17.5 I8.5 J0
G1 X498
G3 X506.5 Y26 I0 J8.5
G1 Y98.95
Z-8 F333.3
Y131.8 F1000
G3 X498 Y140.3 I-8.5 J0
G1 X432.3
G3 X423.8 Y131.8 I0 J-8.5
G1 Y26
G3 X432.3 Y17.5 I8.5 J0
G1 X498
G3 X506.5 Y26 I0 J8.5
G1 Y98.95
Z-12 F333.3
Y131.8 F1000
G3 X498 Y140.3 I-8.5 J0
G1 X432.3
G3 X423.8 Y131.8 I0 J-8.5
G1 Y26
G3 X432.3 Y17.5 I8.5 J0
G1 X498
G3 X506.5 Y26 I0 J8.5
G1 Y98.95
Z-13 F333.3
Y131.8 F1000
G3 X498 Y140.3 I-8.5 J0
G1 X432.3
G3 X423.8 Y131.8 I0 J-8.5
G1 Y26
G3 X432.3 Y17.5 I8.5 J0
G1 X498
G3 X506.5 Y26 I0 J8.5
G1 Y98.95
G0 Z5
X305.167
G1 Z-4 F333.3
Y131.8 F1000
G3 X296.667 Y140.3 I-8.5 J0
G1 X230.967
G3 X222.467 Y131.8 I0 J-8.5
G1 Y26
G3 X230.967 Y17.5 I8.5 J0
G1 X296.667
G3 X305.167 Y26 I0 J8.5
G1 Y98.95
Z-8 F333.3
Y131.8 F1000
G3 X296.667 Y140.3 I-8.5 J0
G1 X230.967
G3 X222.467 Y131.8 I0 J-8.5
G1 Y26
G3 X230.967 Y17.5 I8.5 J0
G1 X296.667
G3 X305.167 Y26 I0 J8.5
G1 Y98.95
Z-12 F333.3
Y131.8 F1000
G3 X296.667 Y140.3 I-8.5 J0
G1 X230.967
G3 X222.467 Y131.8 I0 J-8.5
G1 Y26
G3 X230.967 Y17.5 I8.5 J0
G1 X296.667
G3 X305.167 Y26 I0 J8.5
G1 Y98.95
Z-13 F333.3
Y131.8 F1000
G3 X296.667 Y140.3 I-8.5 J0
G1 X230.967
G3 X222.467 Y131.8 I0 J-8.5
G1 Y26
G3 X230.967 Y17.5 I8.5 J0
G1 X296.667
G3 X305.167 Y26 I0 J8.5
G1 Y98.95
G0 Z5
X204.5 Y58.85
G1 Z-4 F333.3
Y131.8 F1000
G3 X196 Y140.3 I-8.5 J0
G1 X130.3
G3 X121.8 Y131.8 I0 J-8.5
G1 Y26
G3 X130.3 Y17.5 I8.5 J0
G1 X196
G3 X204.5 Y26 I0 J8.5
G1 Y58.85
Z-8 F333.3
Y131.8 F1000
G3 X196 Y140.3 I-8.5 J0
G1 X130.3
G3 X121.8 Y131.8 I0 J-8.5
G1 Y26
G3 X130.3 Y17.5 I8.5 J0
G1 X196
G3 X204.5 Y26 I0 J8.5
G1 Y58.85
Z-12 F333.3
Y131.8 F1000
G3 X196 Y140.3 I-8.5 J0
G1 X130.3
G3 X121.8 Y131.8 I0 J-8.5
G1 Y26
G3 X130.3 Y17.5 I8.5 J0
G1 X196
G3 X204.5 Y26 I0 J8.5
G1 Y58.85
Z-13 F333.3
Y131.8 F1000
G3 X196 Y140.3 I-8.5 J0
G1 X130.3
G3 X121.8 Y131.8 I0 J-8.5
G1 Y26
G3 X130.3 Y17.5 I8.5 J0
G1 X196
G3 X204.5 Y26 I0 J8.5
G1 Y58.85
G0 Z15

(2D Contour3)
G0 X7 Y159.3
Z15
Z5
G1 Z-4 F333.3
X520 F1000
G2 X528.5 Y150.8 I0 J-8.5
G1 Y7
G2 X520 Y-1.5 I-8.5 J0
G1 X7
G2 X-1.5 Y7 I0 J8.5
G1 Y150.8
G2 X7 Y159.3 I8.5 J0
G1 Z-8 F333.3
X520 F1000
G2 X528.5 Y150.8 I0 J-8.5
G1 Y7
G2 X520 Y-1.5 I-8.5 J0
G1 X7
G2 X-1.5 Y7 I0 J8.5
G1 Y150.8
G2 X7 Y159.3 I8.5 J0
G1 Z-12 F333.3
X520 F1000
G2 X528.5 Y150.8 I0 J-8.5
G1 Y7
G2 X520 Y-1.5 I-8.5 J0
G1 X7
G2 X-1.5 Y7 I0 J8.5
G1 Y150.8
G2 X7 Y159.3 I8.5 J0
G1 Z-13 F333.3
X520 F1000
G2 X528.5 Y150.8 I0 J-8.5
G1 Y7
G2 X520 Y-1.5 I-8.5 J0
G1 X7
G2 X-1.5 Y7 I0 J8.5
G1 Y150.8
G2 X7 Y159.3 I8.5 J0
G0 Z15
M9
M5
M30
