(CamperSchmutzfangerKlein)
(T4 D=5 CR=0 - ZMIN=-6 - flat end mill)
G90 G94
G17
G21
(-Attention- Property Safe Retracts is set to Clearance Height.)
(Ensure the clearance height will clear the part and or fixtures.)
(Raise the Z-axis to a safe height before starting the program.)

(Bore2)
T4
S5000 M3
G54
M8
G0 X20.285 Y346.936
Z15
G0 Z2
G1 Z0.5 F1000
X20.278 Y346.937 Z0.413
X20.255 Y346.938 Z0.329
X20.219 Y346.941 Z0.25
X20.169 Y346.944 Z0.179
X20.107 Y346.948 Z0.117
X20.036 Y346.953 Z0.067
X19.957 Y346.958 Z0.03
X19.873 Y346.964 Z0.008
X19.787 Y346.97 Z0
X19.537 Y346.987
G3 X19.005 Y346.521 I-0.034 J-0.499
X22.995 Y346.252 Z-0.157 I1.995 J-0.135
X19.005 Y346.521 Z-0.314 I-1.995 J0.135
X22.995 Y346.252 Z-0.471 I1.995 J-0.135
X19.005 Y346.521 Z-0.629 I-1.995 J0.135
X22.995 Y346.252 Z-0.786 I1.995 J-0.135
X19.005 Y346.521 Z-0.943 I-1.995 J0.135
X22.995 Y346.252 Z-1.1 I1.995 J-0.135
X19.005 Y346.521 Z-1.257 I-1.995 J0.135
X22.995 Y346.252 Z-1.414 I1.995 J-0.135
X19.005 Y346.521 Z-1.571 I-1.995 J0.135
X22.995 Y346.252 Z-1.729 I1.995 J-0.135
X19.005 Y346.521 Z-1.886 I-1.995 J0.135
X22.995 Y346.252 Z-2.043 I1.995 J-0.135
X19.005 Y346.521 Z-2.2 I-1.995 J0.135
X22.995 Y346.252 Z-2.357 I1.995 J-0.135
X19.005 Y346.521 Z-2.514 I-1.995 J0.135
X22.995 Y346.252 Z-2.671 I1.995 J-0.135
X19.005 Y346.521 Z-2.829 I-1.995 J0.135
X22.995 Y346.252 Z-2.986 I1.995 J-0.135
X19.005 Y346.521 Z-3.143 I-1.995 J0.135
X22.995 Y346.252 Z-3.3 I1.995 J-0.135
X19.005 Y346.521 Z-3.457 I-1.995 J0.135
X22.995 Y346.252 Z-3.614 I1.995 J-0.135
X19.005 Y346.521 Z-3.771 I-1.995 J0.135
X22.995 Y346.252 Z-3.929 I1.995 J-0.135
X19.005 Y346.521 Z-4.086 I-1.995 J0.135
X22.995 Y346.252 Z-4.243 I1.995 J-0.135
X19.005 Y346.521 Z-4.4 I-1.995 J0.135
X22.995 Y346.252 Z-4.557 I1.995 J-0.135
X19.005 Y346.521 Z-4.714 I-1.995 J0.135
X22.995 Y346.252 Z-4.871 I1.995 J-0.135
X19.005 Y346.521 Z-5.029 I-1.995 J0.135
X22.995 Y346.252 Z-5.186 I1.995 J-0.135
X19.005 Y346.521 Z-5.343 I-1.995 J0.135
X22.995 Y346.252 Z-5.5 I1.995 J-0.135
X19.005 Y346.521 Z-5.657 I-1.995 J0.135
X22.995 Y346.252 Z-5.814 I1.995 J-0.135
X19.005 Y346.521 Z-5.971 I-1.995 J0.135
X19.248 Y345.422 Z-6 I1.995 J-0.135
X22.752 Y347.351 I1.752 J0.965
X19.248 Y345.422 I-1.752 J-0.965
X19.927 Y345.225 I0.438 J0.241
G1 X20.146 Y345.346
X20.222 Y345.388 Z-5.992
X20.296 Y345.428 Z-5.97
X20.365 Y345.466 Z-5.933
X20.428 Y345.501 Z-5.883
X20.482 Y345.531 Z-5.821
X20.526 Y345.555 Z-5.75
X20.558 Y345.572 Z-5.671
X20.578 Y345.583 Z-5.587
X20.584 Y345.587 Z-5.5
G0 Z5
X108.403 Y346.936
Z2
G1 Z0.5 F1000
X108.395 Y346.937 Z0.413
X108.373 Y346.938 Z0.329
X108.336 Y346.941 Z0.25
X108.286 Y346.944 Z0.179
X108.224 Y346.948 Z0.117
X108.153 Y346.953 Z0.067
X108.074 Y346.958 Z0.03
X107.99 Y346.964 Z0.008
X107.904 Y346.97 Z0
X107.654 Y346.987
G3 X107.122 Y346.521 I-0.034 J-0.499
X111.113 Y346.252 Z-0.157 I1.995 J-0.135
X107.122 Y346.521 Z-0.314 I-1.995 J0.135
X111.113 Y346.252 Z-0.471 I1.995 J-0.135
X107.122 Y346.521 Z-0.629 I-1.995 J0.135
X111.113 Y346.252 Z-0.786 I1.995 J-0.135
X107.122 Y346.521 Z-0.943 I-1.995 J0.135
X111.113 Y346.252 Z-1.1 I1.995 J-0.135
X107.122 Y346.521 Z-1.257 I-1.995 J0.135
X111.113 Y346.252 Z-1.414 I1.995 J-0.135
X107.122 Y346.521 Z-1.571 I-1.995 J0.135
X111.113 Y346.252 Z-1.729 I1.995 J-0.135
X107.122 Y346.521 Z-1.886 I-1.995 J0.135
X111.113 Y346.252 Z-2.043 I1.995 J-0.135
X107.122 Y346.521 Z-2.2 I-1.995 J0.135
X111.113 Y346.252 Z-2.357 I1.995 J-0.135
X107.122 Y346.521 Z-2.514 I-1.995 J0.135
X111.113 Y346.252 Z-2.671 I1.995 J-0.135
X107.122 Y346.521 Z-2.829 I-1.995 J0.135
X111.113 Y346.252 Z-2.986 I1.995 J-0.135
X107.122 Y346.521 Z-3.143 I-1.995 J0.135
X111.113 Y346.252 Z-3.3 I1.995 J-0.135
X107.122 Y346.521 Z-3.457 I-1.995 J0.135
X111.113 Y346.252 Z-3.614 I1.995 J-0.135
X107.122 Y346.521 Z-3.771 I-1.995 J0.135
X111.113 Y346.252 Z-3.929 I1.995 J-0.135
X107.122 Y346.521 Z-4.086 I-1.995 J0.135
X111.113 Y346.252 Z-4.243 I1.995 J-0.135
X107.122 Y346.521 Z-4.4 I-1.995 J0.135
X111.113 Y346.252 Z-4.557 I1.995 J-0.135
X107.122 Y346.521 Z-4.714 I-1.995 J0.135
X111.113 Y346.252 Z-4.871 I1.995 J-0.135
X107.122 Y346.521 Z-5.029 I-1.995 J0.135
X111.113 Y346.252 Z-5.186 I1.995 J-0.135
X107.122 Y346.521 Z-5.343 I-1.995 J0.135
X111.113 Y346.252 Z-5.5 I1.995 J-0.135
X107.122 Y346.521 Z-5.657 I-1.995 J0.135
X111.113 Y346.252 Z-5.814 I1.995 J-0.135
X107.122 Y346.521 Z-5.971 I-1.995 J0.135
X107.365 Y345.422 Z-6 I1.995 J-0.135
X110.869 Y347.351 I1.752 J0.965
X107.365 Y345.422 I-1.752 J-0.965
X108.044 Y345.225 I0.438 J0.241
G1 X108.263 Y345.346
X108.34 Y345.388 Z-5.992
X108.413 Y345.428 Z-5.97
X108.482 Y345.466 Z-5.933
X108.545 Y345.501 Z-5.883
X108.599 Y345.531 Z-5.821
X108.643 Y345.555 Z-5.75
X108.675 Y345.572 Z-5.671
X108.695 Y345.583 Z-5.587
X108.701 Y345.587 Z-5.5
G0 Z5
X182.168 Y346.936
Z2
G1 Z0.5 F1000
X182.161 Y346.937 Z0.413
X182.138 Y346.938 Z0.329
X182.101 Y346.941 Z0.25
X182.051 Y346.944 Z0.179
X181.99 Y346.948 Z0.117
X181.919 Y346.953 Z0.067
X181.84 Y346.958 Z0.03
X181.756 Y346.964 Z0.008
X181.669 Y346.97 Z0
X181.42 Y346.987
G3 X180.887 Y346.521 I-0.034 J-0.499
X184.878 Y346.252 Z-0.157 I1.995 J-0.135
X180.887 Y346.521 Z-0.314 I-1.995 J0.135
X184.878 Y346.252 Z-0.471 I1.995 J-0.135
X180.887 Y346.521 Z-0.629 I-1.995 J0.135
X184.878 Y346.252 Z-0.786 I1.995 J-0.135
X180.887 Y346.521 Z-0.943 I-1.995 J0.135
X184.878 Y346.252 Z-1.1 I1.995 J-0.135
X180.887 Y346.521 Z-1.257 I-1.995 J0.135
X184.878 Y346.252 Z-1.414 I1.995 J-0.135
X180.887 Y346.521 Z-1.571 I-1.995 J0.135
X184.878 Y346.252 Z-1.729 I1.995 J-0.135
X180.887 Y346.521 Z-1.886 I-1.995 J0.135
X184.878 Y346.252 Z-2.043 I1.995 J-0.135
X180.887 Y346.521 Z-2.2 I-1.995 J0.135
X184.878 Y346.252 Z-2.357 I1.995 J-0.135
X180.887 Y346.521 Z-2.514 I-1.995 J0.135
X184.878 Y346.252 Z-2.671 I1.995 J-0.135
X180.887 Y346.521 Z-2.829 I-1.995 J0.135
X184.878 Y346.252 Z-2.986 I1.995 J-0.135
X180.887 Y346.521 Z-3.143 I-1.995 J0.135
X184.878 Y346.252 Z-3.3 I1.995 J-0.135
X180.887 Y346.521 Z-3.457 I-1.995 J0.135
X184.878 Y346.252 Z-3.614 I1.995 J-0.135
X180.887 Y346.521 Z-3.771 I-1.995 J0.135
X184.878 Y346.252 Z-3.929 I1.995 J-0.135
X180.887 Y346.521 Z-4.086 I-1.995 J0.135
X184.878 Y346.252 Z-4.243 I1.995 J-0.135
X180.887 Y346.521 Z-4.4 I-1.995 J0.135
X184.878 Y346.252 Z-4.557 I1.995 J-0.135
X180.887 Y346.521 Z-4.714 I-1.995 J0.135
X184.878 Y346.252 Z-4.871 I1.995 J-0.135
X180.887 Y346.521 Z-5.029 I-1.995 J0.135
X184.878 Y346.252 Z-5.186 I1.995 J-0.135
X180.887 Y346.521 Z-5.343 I-1.995 J0.135
X184.878 Y346.252 Z-5.5 I1.995 J-0.135
X180.887 Y346.521 Z-5.657 I-1.995 J0.135
X184.878 Y346.252 Z-5.814 I1.995 J-0.135
X180.887 Y346.521 Z-5.971 I-1.995 J0.135
X181.131 Y345.422 Z-6 I1.995 J-0.135
X184.635 Y347.351 I1.752 J0.965
X181.131 Y345.422 I-1.752 J-0.965
X181.81 Y345.225 I0.438 J0.241
G1 X182.029 Y345.346
X182.105 Y345.388 Z-5.992
X182.179 Y345.428 Z-5.97
X182.248 Y345.466 Z-5.933
X182.31 Y345.501 Z-5.883
X182.364 Y345.531 Z-5.821
X182.408 Y345.555 Z-5.75
X182.441 Y345.572 Z-5.671
X182.46 Y345.583 Z-5.587
X182.467 Y345.587 Z-5.5
G0 Z5
X270.285 Y346.936
Z2
G1 Z0.5 F1000
X270.278 Y346.937 Z0.413
X270.255 Y346.938 Z0.329
X270.219 Y346.941 Z0.25
X270.169 Y346.944 Z0.179
X270.107 Y346.948 Z0.117
X270.036 Y346.953 Z0.067
X269.957 Y346.958 Z0.03
X269.873 Y346.964 Z0.008
X269.787 Y346.97 Z0
X269.537 Y346.987
G3 X269.005 Y346.521 I-0.034 J-0.499
X272.995 Y346.252 Z-0.157 I1.995 J-0.135
X269.005 Y346.521 Z-0.314 I-1.995 J0.135
X272.995 Y346.252 Z-0.471 I1.995 J-0.135
X269.005 Y346.521 Z-0.629 I-1.995 J0.135
X272.995 Y346.252 Z-0.786 I1.995 J-0.135
X269.005 Y346.521 Z-0.943 I-1.995 J0.135
X272.995 Y346.252 Z-1.1 I1.995 J-0.135
X269.005 Y346.521 Z-1.257 I-1.995 J0.135
X272.995 Y346.252 Z-1.414 I1.995 J-0.135
X269.005 Y346.521 Z-1.571 I-1.995 J0.135
X272.995 Y346.252 Z-1.729 I1.995 J-0.135
X269.005 Y346.521 Z-1.886 I-1.995 J0.135
X272.995 Y346.252 Z-2.043 I1.995 J-0.135
X269.005 Y346.521 Z-2.2 I-1.995 J0.135
X272.995 Y346.252 Z-2.357 I1.995 J-0.135
X269.005 Y346.521 Z-2.514 I-1.995 J0.135
X272.995 Y346.252 Z-2.671 I1.995 J-0.135
X269.005 Y346.521 Z-2.829 I-1.995 J0.135
X272.995 Y346.252 Z-2.986 I1.995 J-0.135
X269.005 Y346.521 Z-3.143 I-1.995 J0.135
X272.995 Y346.252 Z-3.3 I1.995 J-0.135
X269.005 Y346.521 Z-3.457 I-1.995 J0.135
X272.995 Y346.252 Z-3.614 I1.995 J-0.135
X269.005 Y346.521 Z-3.771 I-1.995 J0.135
X272.995 Y346.252 Z-3.929 I1.995 J-0.135
X269.005 Y346.521 Z-4.086 I-1.995 J0.135
X272.995 Y346.252 Z-4.243 I1.995 J-0.135
X269.005 Y346.521 Z-4.4 I-1.995 J0.135
X272.995 Y346.252 Z-4.557 I1.995 J-0.135
X269.005 Y346.521 Z-4.714 I-1.995 J0.135
X272.995 Y346.252 Z-4.871 I1.995 J-0.135
X269.005 Y346.521 Z-5.029 I-1.995 J0.135
X272.995 Y346.252 Z-5.186 I1.995 J-0.135
X269.005 Y346.521 Z-5.343 I-1.995 J0.135
X272.995 Y346.252 Z-5.5 I1.995 J-0.135
X269.005 Y346.521 Z-5.657 I-1.995 J0.135
X272.995 Y346.252 Z-5.814 I1.995 J-0.135
X269.005 Y346.521 Z-5.971 I-1.995 J0.135
X269.248 Y345.422 Z-6 I1.995 J-0.135
X272.752 Y347.351 I1.752 J0.965
X269.248 Y345.422 I-1.752 J-0.965
X269.927 Y345.225 I0.438 J0.241
G1 X270.146 Y345.346
X270.222 Y345.388 Z-5.992
X270.296 Y345.428 Z-5.97
X270.365 Y345.466 Z-5.933
X270.428 Y345.501 Z-5.883
X270.482 Y345.531 Z-5.821
X270.525 Y345.555 Z-5.75
X270.558 Y345.572 Z-5.671
X270.578 Y345.583 Z-5.587
X270.584 Y345.587 Z-5.5
G0 Z15

(2D Contour2)
G0 X145.5 Y365
Z15
Z5
G1 Z3 F333.3
Z-1.5
G19 G2 Y364.5 Z-2 J-0.5 K0 F1000
G1 Y364
G17 G3 X146 Y363.5 I0.5 J0
G1 X276
G2 X293.5 Y346 I0 J-17.5
G1 Y16
G2 X276 Y-1.5 I-17.5 J0
G1 X16
G2 X-1.5 Y16 I0 J17.5
G1 Y346
G2 X16 Y363.5 I17.5 J0
G1 X146
G3 X146.5 Y364 I0 J0.5
G1 Y364.5
G19 G3 Y365 Z-1.5 J0 K0.5
G0 Z5
X145.5
G1 Z1 F333.3
Z-3.5
G2 Y364.5 Z-4 J-0.5 K0 F1000
G1 Y364
G17 G3 X146 Y363.5 I0.5 J0
G1 X276
G2 X293.5 Y346 I0 J-17.5
G1 Y16
G2 X276 Y-1.5 I-17.5 J0
G1 X16
G2 X-1.5 Y16 I0 J17.5
G1 Y346
G2 X16 Y363.5 I17.5 J0
G1 X146
G3 X146.5 Y364 I0 J0.5
G1 Y364.5
G19 G3 Y365 Z-3.5 J0 K0.5
G0 Z5
X145.5
G1 Z-1 F333.3
Z-5.5
G2 Y364.5 Z-6 J-0.5 K0 F1000
G1 Y364
G17 G3 X146 Y363.5 I0.5 J0
G1 X276
G2 X293.5 Y346 I0 J-17.5
G1 Y16
G2 X276 Y-1.5 I-17.5 J0
G1 X16
G2 X-1.5 Y16 I0 J17.5
G1 Y346
G2 X16 Y363.5 I17.5 J0
G1 X146
G3 X146.5 Y364 I0 J0.5
G1 Y364.5
G19 G3 Y365 Z-5.5 J0 K0.5
G0 Z15
G17
M9
M5
M30
