(CamperGaskastenMuelleimerFinne)
(T4  D=5 CR=0 - ZMIN=-9 - flat end mill)
G90 G94
G17
G21

(2D Contour13)
T4
S5000 M3
G54
M8
G0 X20.843 Y53.649
Z15
Z5
G1 Z-4.5 F333.3
G19 G2 Y53.149 Z-5 J-0.5 K0 F1000
G1 Y52.649
G17 G3 X21.343 Y52.149 I0.5 J0
G1 X42.686
G2 X45.186 Y49.649 I0 J-2.5
G1 Y0
G2 X41.952 Y-2.39 I-2.5 J0
X-2.473 Y49.283 I18.733 J61.039
X0 Y52.149 I2.473 J0.367
G1 X21.343
G3 X21.843 Y52.649 I0 J0.5
G1 Y53.149
G19 G3 Y53.649 Z-4.5 J0 K0.5
G1 X20.843
Z-8.5 F333.3
G2 Y53.149 Z-9 J-0.5 K0 F1000
G1 Y52.649
G17 G3 X21.343 Y52.149 I0.5 J0
G1 X42.686
G2 X45.186 Y49.649 I0 J-2.5
G1 Y0
G2 X41.952 Y-2.39 I-2.5 J0
X-2.473 Y49.283 I18.733 J61.039
X0 Y52.149 I2.473 J0.367
G1 X21.343
G3 X21.843 Y52.649 I0 J0.5
G1 Y53.149
G19 G3 Y53.649 Z-8.5 J0 K0.5
G0 Z15
G17
M9
M5
M30
