(CamperSchubladeDosenhalter_schmal)
(T4 D=5 CR=0 - ZMIN=-13 - flat end mill)
G90 G94
G17
G21
(-Attention- Property Safe Retracts is set to Clearance Height.)
(Ensure the clearance height will clear the part and or fixtures.)
(Raise the Z-axis to a safe height before starting the program.)

(2D Contour4)
T4
S5000 M3
G17 G90 G94
G54
M8
G0 X306.3 Y263.817
Z15
G0 Z5
G1 Z-4 F333.3
Y296.667 F1000
G3 X297.8 Y305.167 I-8.5 J0
G1 X192
G3 X183.5 Y296.667 I0 J-8.5
G1 Y230.967
G3 X192 Y222.467 I8.5 J0
G1 X297.8
G3 X306.3 Y230.967 I0 J8.5
G1 Y263.817
Z-8 F333.3
Y296.667 F1000
G3 X297.8 Y305.167 I-8.5 J0
G1 X192
G3 X183.5 Y296.667 I0 J-8.5
G1 Y230.967
G3 X192 Y222.467 I8.5 J0
G1 X297.8
G3 X306.3 Y230.967 I0 J8.5
G1 Y263.817
Z-12 F333.3
Y296.667 F1000
G3 X297.8 Y305.167 I-8.5 J0
G1 X192
G3 X183.5 Y296.667 I0 J-8.5
G1 Y230.967
G3 X192 Y222.467 I8.5 J0
G1 X297.8
G3 X306.3 Y230.967 I0 J8.5
G1 Y263.817
Z-13 F333.3
Y296.667 F1000
G3 X297.8 Y305.167 I-8.5 J0
G1 X192
G3 X183.5 Y296.667 I0 J-8.5
G1 Y230.967
G3 X192 Y222.467 I8.5 J0
G1 X297.8
G3 X306.3 Y230.967 I0 J8.5
G1 Y263.817
G0 Z5
X224.85 Y323.133
G1 Z-4 F333.3
X297.8 F1000
G3 X306.3 Y331.633 I0 J8.5
G1 Y397.333
G3 X297.8 Y405.833 I-8.5 J0
G1 X192
G3 X183.5 Y397.333 I0 J-8.5
G1 Y331.633
G3 X192 Y323.133 I8.5 J0
G1 X224.85
Z-8 F333.3
X297.8 F1000
G3 X306.3 Y331.633 I0 J8.5
G1 Y397.333
G3 X297.8 Y405.833 I-8.5 J0
G1 X192
G3 X183.5 Y397.333 I0 J-8.5
G1 Y331.633
G3 X192 Y323.133 I8.5 J0
G1 X224.85
Z-12 F333.3
X297.8 F1000
G3 X306.3 Y331.633 I0 J8.5
G1 Y397.333
G3 X297.8 Y405.833 I-8.5 J0
G1 X192
G3 X183.5 Y397.333 I0 J-8.5
G1 Y331.633
G3 X192 Y323.133 I8.5 J0
G1 X224.85
Z-13 F333.3
X297.8 F1000
G3 X306.3 Y331.633 I0 J8.5
G1 Y397.333
G3 X297.8 Y405.833 I-8.5 J0
G1 X192
G3 X183.5 Y397.333 I0 J-8.5
G1 Y331.633
G3 X192 Y323.133 I8.5 J0
G1 X224.85
G0 Z5
X306.3 Y465.15
G1 Z-4 F333.3
Y498 F1000
G3 X297.8 Y506.5 I-8.5 J0
G1 X192
G3 X183.5 Y498 I0 J-8.5
G1 Y432.3
G3 X192 Y423.8 I8.5 J0
G1 X297.8
G3 X306.3 Y432.3 I0 J8.5
G1 Y465.15
Z-8 F333.3
Y498 F1000
G3 X297.8 Y506.5 I-8.5 J0
G1 X192
G3 X183.5 Y498 I0 J-8.5
G1 Y432.3
G3 X192 Y423.8 I8.5 J0
G1 X297.8
G3 X306.3 Y432.3 I0 J8.5
G1 Y465.15
Z-12 F333.3
Y498 F1000
G3 X297.8 Y506.5 I-8.5 J0
G1 X192
G3 X183.5 Y498 I0 J-8.5
G1 Y432.3
G3 X192 Y423.8 I8.5 J0
G1 X297.8
G3 X306.3 Y432.3 I0 J8.5
G1 Y465.15
Z-13 F333.3
Y498 F1000
G3 X297.8 Y506.5 I-8.5 J0
G1 X192
G3 X183.5 Y498 I0 J-8.5
G1 Y432.3
G3 X192 Y423.8 I8.5 J0
G1 X297.8
G3 X306.3 Y432.3 I0 J8.5
G1 Y465.15
G0 Z5
X224.85 Y121.8
G1 Z-4 F333.3
X297.8 F1000
G3 X306.3 Y130.3 I0 J8.5
G1 Y196
G3 X297.8 Y204.5 I-8.5 J0
G1 X192
G3 X183.5 Y196 I0 J-8.5
G1 Y130.3
G3 X192 Y121.8 I8.5 J0
G1 X224.85
Z-8 F333.3
X297.8 F1000
G3 X306.3 Y130.3 I0 J8.5
G1 Y196
G3 X297.8 Y204.5 I-8.5 J0
G1 X192
G3 X183.5 Y196 I0 J-8.5
G1 Y130.3
G3 X192 Y121.8 I8.5 J0
G1 X224.85
Z-12 F333.3
X297.8 F1000
G3 X306.3 Y130.3 I0 J8.5
G1 Y196
G3 X297.8 Y204.5 I-8.5 J0
G1 X192
G3 X183.5 Y196 I0 J-8.5
G1 Y130.3
G3 X192 Y121.8 I8.5 J0
G1 X224.85
Z-13 F333.3
X297.8 F1000
G3 X306.3 Y130.3 I0 J8.5
G1 Y196
G3 X297.8 Y204.5 I-8.5 J0
G1 X192
G3 X183.5 Y196 I0 J-8.5
G1 Y130.3
G3 X192 Y121.8 I8.5 J0
G1 X224.85
G0 Z15

(2D Contour3)
G0 X158.5 Y1
Z15
Z5
G1 Z-4 F333.3
Y526 F1000
G2 X161 Y528.5 I2.5 J0
G1 X328.8
G2 X331.3 Y526 I0 J-2.5
G1 Y1
G2 X328.8 Y-1.5 I-2.5 J0
G1 X161
G2 X158.5 Y1 I0 J2.5
G1 Z-8 F333.3
Y526 F1000
G2 X161 Y528.5 I2.5 J0
G1 X328.8
G2 X331.3 Y526 I0 J-2.5
G1 Y1
G2 X328.8 Y-1.5 I-2.5 J0
G1 X161
G2 X158.5 Y1 I0 J2.5
G1 Z-12 F333.3
Y526 F1000
G2 X161 Y528.5 I2.5 J0
G1 X328.8
G2 X331.3 Y526 I0 J-2.5
G1 Y1
G2 X328.8 Y-1.5 I-2.5 J0
G1 X161
G2 X158.5 Y1 I0 J2.5
G1 Z-13 F333.3
Y526 F1000
G2 X161 Y528.5 I2.5 J0
G1 X328.8
G2 X331.3 Y526 I0 J-2.5
G1 Y1
G2 X328.8 Y-1.5 I-2.5 J0
G1 X161
G2 X158.5 Y1 I0 J2.5
G0 Z5
X146.039 Y-1.5
G1 Z-4 F333.3
X146 F1000
X81
G2 X78.5 Y1 I0 J2.5
G1 Y526
G2 X81 Y528.5 I2.5 J0
G1 X146
G2 X148.5 Y526 I0 J-2.5
G1 Y1
G2 X146.039 Y-1.5 I-2.5 J0
G1 Z-8 F333.3
X146 F1000
X81
G2 X78.5 Y1 I0 J2.5
G1 Y526
G2 X81 Y528.5 I2.5 J0
G1 X146
G2 X148.5 Y526 I0 J-2.5
G1 Y1
G2 X146.039 Y-1.5 I-2.5 J0
G1 Z-12 F333.3
X146 F1000
X81
G2 X78.5 Y1 I0 J2.5
G1 Y526
G2 X81 Y528.5 I2.5 J0
G1 X146
G2 X148.5 Y526 I0 J-2.5
G1 Y1
G2 X146.039 Y-1.5 I-2.5 J0
G1 Z-13 F333.3
X146 F1000
X81
G2 X78.5 Y1 I0 J2.5
G1 Y526
G2 X81 Y528.5 I2.5 J0
G1 X146
G2 X148.5 Y526 I0 J-2.5
G1 Y1
G2 X146.039 Y-1.5 I-2.5 J0
G0 Z5
X66.045
G1 Z-4 F333.3
X66 F1000
X1
G2 X-1.5 Y1 I0 J2.5
G1 Y526
G2 X1 Y528.5 I2.5 J0
G1 X66
G2 X68.5 Y526 I0 J-2.5
G1 Y1
G2 X66.045 Y-1.5 I-2.5 J0
G1 Z-8 F333.3
X66 F1000
X1
G2 X-1.5 Y1 I0 J2.5
G1 Y526
G2 X1 Y528.5 I2.5 J0
G1 X66
G2 X68.5 Y526 I0 J-2.5
G1 Y1
G2 X66.045 Y-1.5 I-2.5 J0
G1 Z-12 F333.3
X66 F1000
X1
G2 X-1.5 Y1 I0 J2.5
G1 Y526
G2 X1 Y528.5 I2.5 J0
G1 X66
G2 X68.5 Y526 I0 J-2.5
G1 Y1
G2 X66.045 Y-1.5 I-2.5 J0
G1 Z-13 F333.3
X66 F1000
X1
G2 X-1.5 Y1 I0 J2.5
G1 Y526
G2 X1 Y528.5 I2.5 J0
G1 X66
G2 X68.5 Y526 I0 J-2.5
G1 Y1
G2 X66.045 Y-1.5 I-2.5 J0
G0 Z15
M9
M5
M30
