(CamperToilettenBohrungen)
(T4 D=5 CR=0 - ZMIN=-8 - flat end mill)
G90 G94
G17
G21
(-Attention- Property Safe Retracts is set to Clearance Height.)
(Ensure the clearance height will clear the part and or fixtures.)
(Raise the Z-axis to a safe height before starting the program.)

(Circular1)
T4
S5000 M3
G17 G90 G94
G54
M8
G0 X25.632 Y16.863
Z15
G0 Z0.5
G1 Z-1 F1000
X25.882
G3 X26.132 Y17.113 I0 J0.25
X25.132 Y17.113 I-0.5 J0
X26.132 Y17.113 I0.5 J0
X25.882 Y17.363 I-0.25 J0
G1 X25.632
G0 Z5
Y16.863
Z-0.5
G1 Z-2 F1000
X25.882
G3 X26.132 Y17.113 I0 J0.25
X25.132 Y17.113 I-0.5 J0
X26.132 Y17.113 I0.5 J0
X25.882 Y17.363 I-0.25 J0
G1 X25.632
G0 Z5
Y16.863
Z-1.5
G1 Z-3 F1000
X25.882
G3 X26.132 Y17.113 I0 J0.25
X25.132 Y17.113 I-0.5 J0
X26.132 Y17.113 I0.5 J0
X25.882 Y17.363 I-0.25 J0
G1 X25.632
G0 Z5
Y16.863
Z-2.5
G1 Z-4 F1000
X25.882
G3 X26.132 Y17.113 I0 J0.25
X25.132 Y17.113 I-0.5 J0
X26.132 Y17.113 I0.5 J0
X25.882 Y17.363 I-0.25 J0
G1 X25.632
G0 Z5
Y16.863
Z-3.5
G1 Z-5 F1000
X25.882
G3 X26.132 Y17.113 I0 J0.25
X25.132 Y17.113 I-0.5 J0
X26.132 Y17.113 I0.5 J0
X25.882 Y17.363 I-0.25 J0
G1 X25.632
G0 Z5
Y16.863
Z-4.5
G1 Z-6 F1000
X25.882
G3 X26.132 Y17.113 I0 J0.25
X25.132 Y17.113 I-0.5 J0
X26.132 Y17.113 I0.5 J0
X25.882 Y17.363 I-0.25 J0
G1 X25.632
G0 Z5
Y16.863
Z-5.5
G1 Z-7 F1000
X25.882
G3 X26.132 Y17.113 I0 J0.25
X25.132 Y17.113 I-0.5 J0
X26.132 Y17.113 I0.5 J0
X25.882 Y17.363 I-0.25 J0
G1 X25.632
G0 Z5
Y16.863
Z-6
G1 Z-7.5 F1000
X25.882
G3 X26.132 Y17.113 I0 J0.25
X25.132 Y17.113 I-0.5 J0
X26.132 Y17.113 I0.5 J0
X25.882 Y17.363 I-0.25 J0
G1 X25.632
G0 Z5
Y16.863
Z-6.5
G1 Z-8 F1000
X25.882
G3 X26.132 Y17.113 I0 J0.25
X25.132 Y17.113 I-0.5 J0
X26.132 Y17.113 I0.5 J0
X25.882 Y17.363 I-0.25 J0
G1 X25.632
G0 Z5
X-25.632 Y16.863
Z0.5
G1 Z-1 F1000
X-25.382
G3 X-25.132 Y17.113 I0 J0.25
X-26.132 Y17.113 I-0.5 J0
X-25.132 Y17.113 I0.5 J0
X-25.382 Y17.363 I-0.25 J0
G1 X-25.632
G0 Z5
Y16.863
Z-0.5
G1 Z-2 F1000
X-25.382
G3 X-25.132 Y17.113 I0 J0.25
X-26.132 Y17.113 I-0.5 J0
X-25.132 Y17.113 I0.5 J0
X-25.382 Y17.363 I-0.25 J0
G1 X-25.632
G0 Z5
Y16.863
Z-1.5
G1 Z-3 F1000
X-25.382
G3 X-25.132 Y17.113 I0 J0.25
X-26.132 Y17.113 I-0.5 J0
X-25.132 Y17.113 I0.5 J0
X-25.382 Y17.363 I-0.25 J0
G1 X-25.632
G0 Z5
Y16.863
Z-2.5
G1 Z-4 F1000
X-25.382
G3 X-25.132 Y17.113 I0 J0.25
X-26.132 Y17.113 I-0.5 J0
X-25.132 Y17.113 I0.5 J0
X-25.382 Y17.363 I-0.25 J0
G1 X-25.632
G0 Z5
Y16.863
Z-3.5
G1 Z-5 F1000
X-25.382
G3 X-25.132 Y17.113 I0 J0.25
X-26.132 Y17.113 I-0.5 J0
X-25.132 Y17.113 I0.5 J0
X-25.382 Y17.363 I-0.25 J0
G1 X-25.632
G0 Z5
Y16.863
Z-4.5
G1 Z-6 F1000
X-25.382
G3 X-25.132 Y17.113 I0 J0.25
X-26.132 Y17.113 I-0.5 J0
X-25.132 Y17.113 I0.5 J0
X-25.382 Y17.363 I-0.25 J0
G1 X-25.632
G0 Z5
Y16.863
Z-5.5
G1 Z-7 F1000
X-25.382
G3 X-25.132 Y17.113 I0 J0.25
X-26.132 Y17.113 I-0.5 J0
X-25.132 Y17.113 I0.5 J0
X-25.382 Y17.363 I-0.25 J0
G1 X-25.632
G0 Z5
Y16.863
Z-6
G1 Z-7.5 F1000
X-25.382
G3 X-25.132 Y17.113 I0 J0.25
X-26.132 Y17.113 I-0.5 J0
X-25.132 Y17.113 I0.5 J0
X-25.382 Y17.363 I-0.25 J0
G1 X-25.632
G0 Z5
Y16.863
Z-6.5
G1 Z-8 F1000
X-25.382
G3 X-25.132 Y17.113 I0 J0.25
X-26.132 Y17.113 I-0.5 J0
X-25.132 Y17.113 I0.5 J0
X-25.382 Y17.363 I-0.25 J0
G1 X-25.632
G0 Z5
X-14.901 Y105.269
Z0.5
G1 Z-1 F1000
X-14.651
G3 X-14.401 Y105.519 I0 J0.25
X-15.401 Y105.519 I-0.5 J0
X-14.401 Y105.519 I0.5 J0
X-14.651 Y105.769 I-0.25 J0
G1 X-14.901
G0 Z5
Y105.269
Z-0.5
G1 Z-2 F1000
X-14.651
G3 X-14.401 Y105.519 I0 J0.25
X-15.401 Y105.519 I-0.5 J0
X-14.401 Y105.519 I0.5 J0
X-14.651 Y105.769 I-0.25 J0
G1 X-14.901
G0 Z5
Y105.269
Z-1.5
G1 Z-3 F1000
X-14.651
G3 X-14.401 Y105.519 I0 J0.25
X-15.401 Y105.519 I-0.5 J0
X-14.401 Y105.519 I0.5 J0
X-14.651 Y105.769 I-0.25 J0
G1 X-14.901
G0 Z5
Y105.269
Z-2.5
G1 Z-4 F1000
X-14.651
G3 X-14.401 Y105.519 I0 J0.25
X-15.401 Y105.519 I-0.5 J0
X-14.401 Y105.519 I0.5 J0
X-14.651 Y105.769 I-0.25 J0
G1 X-14.901
G0 Z5
Y105.269
Z-3.5
G1 Z-5 F1000
X-14.651
G3 X-14.401 Y105.519 I0 J0.25
X-15.401 Y105.519 I-0.5 J0
X-14.401 Y105.519 I0.5 J0
X-14.651 Y105.769 I-0.25 J0
G1 X-14.901
G0 Z5
Y105.269
Z-4.5
G1 Z-6 F1000
X-14.651
G3 X-14.401 Y105.519 I0 J0.25
X-15.401 Y105.519 I-0.5 J0
X-14.401 Y105.519 I0.5 J0
X-14.651 Y105.769 I-0.25 J0
G1 X-14.901
G0 Z5
Y105.269
Z-5.5
G1 Z-7 F1000
X-14.651
G3 X-14.401 Y105.519 I0 J0.25
X-15.401 Y105.519 I-0.5 J0
X-14.401 Y105.519 I0.5 J0
X-14.651 Y105.769 I-0.25 J0
G1 X-14.901
G0 Z5
Y105.269
Z-6
G1 Z-7.5 F1000
X-14.651
G3 X-14.401 Y105.519 I0 J0.25
X-15.401 Y105.519 I-0.5 J0
X-14.401 Y105.519 I0.5 J0
X-14.651 Y105.769 I-0.25 J0
G1 X-14.901
G0 Z5
Y105.269
Z-6.5
G1 Z-8 F1000
X-14.651
G3 X-14.401 Y105.519 I0 J0.25
X-15.401 Y105.519 I-0.5 J0
X-14.401 Y105.519 I0.5 J0
X-14.651 Y105.769 I-0.25 J0
G1 X-14.901
G0 Z5
X14.901 Y105.269
Z0.5
G1 Z-1 F1000
X15.151
G3 X15.401 Y105.519 I0 J0.25
X14.401 Y105.519 I-0.5 J0
X15.401 Y105.519 I0.5 J0
X15.151 Y105.769 I-0.25 J0
G1 X14.901
G0 Z5
Y105.269
Z-0.5
G1 Z-2 F1000
X15.151
G3 X15.401 Y105.519 I0 J0.25
X14.401 Y105.519 I-0.5 J0
X15.401 Y105.519 I0.5 J0
X15.151 Y105.769 I-0.25 J0
G1 X14.901
G0 Z5
Y105.269
Z-1.5
G1 Z-3 F1000
X15.151
G3 X15.401 Y105.519 I0 J0.25
X14.401 Y105.519 I-0.5 J0
X15.401 Y105.519 I0.5 J0
X15.151 Y105.769 I-0.25 J0
G1 X14.901
G0 Z5
Y105.269
Z-2.5
G1 Z-4 F1000
X15.151
G3 X15.401 Y105.519 I0 J0.25
X14.401 Y105.519 I-0.5 J0
X15.401 Y105.519 I0.5 J0
X15.151 Y105.769 I-0.25 J0
G1 X14.901
G0 Z5
Y105.269
Z-3.5
G1 Z-5 F1000
X15.151
G3 X15.401 Y105.519 I0 J0.25
X14.401 Y105.519 I-0.5 J0
X15.401 Y105.519 I0.5 J0
X15.151 Y105.769 I-0.25 J0
G1 X14.901
G0 Z5
Y105.269
Z-4.5
G1 Z-6 F1000
X15.151
G3 X15.401 Y105.519 I0 J0.25
X14.401 Y105.519 I-0.5 J0
X15.401 Y105.519 I0.5 J0
X15.151 Y105.769 I-0.25 J0
G1 X14.901
G0 Z5
Y105.269
Z-5.5
G1 Z-7 F1000
X15.151
G3 X15.401 Y105.519 I0 J0.25
X14.401 Y105.519 I-0.5 J0
X15.401 Y105.519 I0.5 J0
X15.151 Y105.769 I-0.25 J0
G1 X14.901
G0 Z5
Y105.269
Z-6
G1 Z-7.5 F1000
X15.151
G3 X15.401 Y105.519 I0 J0.25
X14.401 Y105.519 I-0.5 J0
X15.401 Y105.519 I0.5 J0
X15.151 Y105.769 I-0.25 J0
G1 X14.901
G0 Z5
Y105.269
Z-6.5
G1 Z-8 F1000
X15.151
G3 X15.401 Y105.519 I0 J0.25
X14.401 Y105.519 I-0.5 J0
X15.401 Y105.519 I0.5 J0
X15.151 Y105.769 I-0.25 J0
G1 X14.901
G0 Z15

(2D Contour1)
G0 X16.5 Y19
Z15
Z5
G1 Z1 F333.3
Z-1
Y47.62 F1000
G2 X17.426 Y50.355 I4.5 J0
X14.692 Y49.429 I-2.735 J3.574
G1 X-14.692
G2 X-17.426 Y50.355 I0 J4.5
X-16.5 Y47.62 I-3.574 J-2.735
G1 Y4.308
G2 X-17.426 Y1.574 I-4.5 J0
X-14.692 Y2.5 I2.735 J-3.574
G1 X14.692
G2 X17.426 Y1.574 I0 J-4.5
X16.5 Y4.308 I3.574 J2.735
G1 Y19
Z-2 F333.3
Y47.62 F1000
G2 X17.426 Y50.355 I4.5 J0
X14.692 Y49.429 I-2.735 J3.574
G1 X-14.692
G2 X-17.426 Y50.355 I0 J4.5
X-16.5 Y47.62 I-3.574 J-2.735
G1 Y4.308
G2 X-17.426 Y1.574 I-4.5 J0
X-14.692 Y2.5 I2.735 J-3.574
G1 X14.692
G2 X17.426 Y1.574 I0 J-4.5
X16.5 Y4.308 I3.574 J2.735
G1 Y19
Z-3 F333.3
Y47.62 F1000
G2 X17.426 Y50.355 I4.5 J0
X14.692 Y49.429 I-2.735 J3.574
G1 X-14.692
G2 X-17.426 Y50.355 I0 J4.5
X-16.5 Y47.62 I-3.574 J-2.735
G1 Y4.308
G2 X-17.426 Y1.574 I-4.5 J0
X-14.692 Y2.5 I2.735 J-3.574
G1 X14.692
G2 X17.426 Y1.574 I0 J-4.5
X16.5 Y4.308 I3.574 J2.735
G1 Y19
Z-4 F333.3
Y47.62 F1000
G2 X17.426 Y50.355 I4.5 J0
X14.692 Y49.429 I-2.735 J3.574
G1 X-14.692
G2 X-17.426 Y50.355 I0 J4.5
X-16.5 Y47.62 I-3.574 J-2.735
G1 Y4.308
G2 X-17.426 Y1.574 I-4.5 J0
X-14.692 Y2.5 I2.735 J-3.574
G1 X14.692
G2 X17.426 Y1.574 I0 J-4.5
X16.5 Y4.308 I3.574 J2.735
G1 Y19
Z-5 F333.3
Y47.62 F1000
G2 X17.426 Y50.355 I4.5 J0
X14.692 Y49.429 I-2.735 J3.574
G1 X-14.692
G2 X-17.426 Y50.355 I0 J4.5
X-16.5 Y47.62 I-3.574 J-2.735
G1 Y4.308
G2 X-17.426 Y1.574 I-4.5 J0
X-14.692 Y2.5 I2.735 J-3.574
G1 X14.692
G2 X17.426 Y1.574 I0 J-4.5
X16.5 Y4.308 I3.574 J2.735
G1 Y19
Z-6 F333.3
Y47.62 F1000
G2 X17.426 Y50.355 I4.5 J0
X14.692 Y49.429 I-2.735 J3.574
G1 X-14.692
G2 X-17.426 Y50.355 I0 J4.5
X-16.5 Y47.62 I-3.574 J-2.735
G1 Y4.308
G2 X-17.426 Y1.574 I-4.5 J0
X-14.692 Y2.5 I2.735 J-3.574
G1 X14.692
G2 X17.426 Y1.574 I0 J-4.5
X16.5 Y4.308 I3.574 J2.735
G1 Y19
Z-7 F333.3
Y47.62 F1000
G2 X17.426 Y50.355 I4.5 J0
X14.692 Y49.429 I-2.735 J3.574
G1 X-14.692
G2 X-17.426 Y50.355 I0 J4.5
X-16.5 Y47.62 I-3.574 J-2.735
G1 Y4.308
G2 X-17.426 Y1.574 I-4.5 J0
X-14.692 Y2.5 I2.735 J-3.574
G1 X14.692
G2 X17.426 Y1.574 I0 J-4.5
X16.5 Y4.308 I3.574 J2.735
G1 Y19
Z-8 F333.3
Y47.62 F1000
G2 X17.426 Y50.355 I4.5 J0
X14.692 Y49.429 I-2.735 J3.574
G1 X-14.692
G2 X-17.426 Y50.355 I0 J4.5
X-16.5 Y47.62 I-3.574 J-2.735
G1 Y4.308
G2 X-17.426 Y1.574 I-4.5 J0
X-14.692 Y2.5 I2.735 J-3.574
G1 X14.692
G2 X17.426 Y1.574 I0 J-4.5
X16.5 Y4.308 I3.574 J2.735
G1 Y19
G0 Z5
X19.25 Y0
G1 Z1 F333.3
Z-1
G3 X19.105 Y0.227 I-0.25 J0 F1000
G2 X18.265 Y0.735 I1.895 J4.082
X18.773 Y-0.105 I-3.574 J-2.735
G3 X19.25 Y0 I0.227 J0.105
G1 Z-2 F333.3
G3 X19.105 Y0.227 I-0.25 J0 F1000
G2 X18.265 Y0.735 I1.895 J4.082
X18.773 Y-0.105 I-3.574 J-2.735
G3 X19.25 Y0 I0.227 J0.105
G1 Z-3 F333.3
G3 X19.105 Y0.227 I-0.25 J0 F1000
G2 X18.265 Y0.735 I1.895 J4.082
X18.773 Y-0.105 I-3.574 J-2.735
G3 X19.25 Y0 I0.227 J0.105
G1 Z-4 F333.3
G3 X19.105 Y0.227 I-0.25 J0 F1000
G2 X18.265 Y0.735 I1.895 J4.082
X18.773 Y-0.105 I-3.574 J-2.735
G3 X19.25 Y0 I0.227 J0.105
G1 Z-5 F333.3
G3 X19.105 Y0.227 I-0.25 J0 F1000
G2 X18.265 Y0.735 I1.895 J4.082
X18.773 Y-0.105 I-3.574 J-2.735
G3 X19.25 Y0 I0.227 J0.105
G1 Z-6 F333.3
G3 X19.105 Y0.227 I-0.25 J0 F1000
G2 X18.265 Y0.735 I1.895 J4.082
X18.773 Y-0.105 I-3.574 J-2.735
G3 X19.25 Y0 I0.227 J0.105
G1 Z-7 F333.3
G3 X19.105 Y0.227 I-0.25 J0 F1000
G2 X18.265 Y0.735 I1.895 J4.082
X18.773 Y-0.105 I-3.574 J-2.735
G3 X19.25 Y0 I0.227 J0.105
G1 Z-8 F333.3
G3 X19.105 Y0.227 I-0.25 J0 F1000
G2 X18.265 Y0.735 I1.895 J4.082
X18.773 Y-0.105 I-3.574 J-2.735
G3 X19.25 Y0 I0.227 J0.105
G0 Z5
X-18.58 Y0.265
G1 Z1 F333.3
Z-1
G2 X-18.265 Y0.735 I3.888 J-2.265 F1000
X-19.105 Y0.227 I-2.735 J3.574
G3 X-18.895 Y-0.227 I0.105 J-0.227
X-18.773 Y-0.105 I-0.105 J0.227
G2 X-18.58 Y0.265 I4.082 J-1.895
G1 Z-2 F333.3
G2 X-18.265 Y0.735 I3.888 J-2.265 F1000
X-19.105 Y0.227 I-2.735 J3.574
G3 X-18.895 Y-0.227 I0.105 J-0.227
X-18.773 Y-0.105 I-0.105 J0.227
G2 X-18.58 Y0.265 I4.082 J-1.895
G1 Z-3 F333.3
G2 X-18.265 Y0.735 I3.888 J-2.265 F1000
X-19.105 Y0.227 I-2.735 J3.574
G3 X-18.895 Y-0.227 I0.105 J-0.227
X-18.773 Y-0.105 I-0.105 J0.227
G2 X-18.58 Y0.265 I4.082 J-1.895
G1 Z-4 F333.3
G2 X-18.265 Y0.735 I3.888 J-2.265 F1000
X-19.105 Y0.227 I-2.735 J3.574
G3 X-18.895 Y-0.227 I0.105 J-0.227
X-18.773 Y-0.105 I-0.105 J0.227
G2 X-18.58 Y0.265 I4.082 J-1.895
G1 Z-5 F333.3
G2 X-18.265 Y0.735 I3.888 J-2.265 F1000
X-19.105 Y0.227 I-2.735 J3.574
G3 X-18.895 Y-0.227 I0.105 J-0.227
X-18.773 Y-0.105 I-0.105 J0.227
G2 X-18.58 Y0.265 I4.082 J-1.895
G1 Z-6 F333.3
G2 X-18.265 Y0.735 I3.888 J-2.265 F1000
X-19.105 Y0.227 I-2.735 J3.574
G3 X-18.895 Y-0.227 I0.105 J-0.227
X-18.773 Y-0.105 I-0.105 J0.227
G2 X-18.58 Y0.265 I4.082 J-1.895
G1 Z-7 F333.3
G2 X-18.265 Y0.735 I3.888 J-2.265 F1000
X-19.105 Y0.227 I-2.735 J3.574
G3 X-18.895 Y-0.227 I0.105 J-0.227
X-18.773 Y-0.105 I-0.105 J0.227
G2 X-18.58 Y0.265 I4.082 J-1.895
G1 Z-8 F333.3
G2 X-18.265 Y0.735 I3.888 J-2.265 F1000
X-19.105 Y0.227 I-2.735 J3.574
G3 X-18.895 Y-0.227 I0.105 J-0.227
X-18.773 Y-0.105 I-0.105 J0.227
G2 X-18.58 Y0.265 I4.082 J-1.895
G0 Z5
X-19.128 Y52.144
G1 Z1 F333.3
Z-1
G3 X-19.105 Y51.702 I0.128 J-0.215 F1000
G2 X-18.265 Y51.194 I-1.895 J-4.082
X-18.773 Y52.034 I3.574 J2.735
G3 X-19.128 Y52.144 I-0.227 J-0.105
G1 Z-2 F333.3
G3 X-19.105 Y51.702 I0.128 J-0.215 F1000
G2 X-18.265 Y51.194 I-1.895 J-4.082
X-18.773 Y52.034 I3.574 J2.735
G3 X-19.128 Y52.144 I-0.227 J-0.105
G1 Z-3 F333.3
G3 X-19.105 Y51.702 I0.128 J-0.215 F1000
G2 X-18.265 Y51.194 I-1.895 J-4.082
X-18.773 Y52.034 I3.574 J2.735
G3 X-19.128 Y52.144 I-0.227 J-0.105
G1 Z-4 F333.3
G3 X-19.105 Y51.702 I0.128 J-0.215 F1000
G2 X-18.265 Y51.194 I-1.895 J-4.082
X-18.773 Y52.034 I3.574 J2.735
G3 X-19.128 Y52.144 I-0.227 J-0.105
G1 Z-5 F333.3
G3 X-19.105 Y51.702 I0.128 J-0.215 F1000
G2 X-18.265 Y51.194 I-1.895 J-4.082
X-18.773 Y52.034 I3.574 J2.735
G3 X-19.128 Y52.144 I-0.227 J-0.105
G1 Z-6 F333.3
G3 X-19.105 Y51.702 I0.128 J-0.215 F1000
G2 X-18.265 Y51.194 I-1.895 J-4.082
X-18.773 Y52.034 I3.574 J2.735
G3 X-19.128 Y52.144 I-0.227 J-0.105
G1 Z-7 F333.3
G3 X-19.105 Y51.702 I0.128 J-0.215 F1000
G2 X-18.265 Y51.194 I-1.895 J-4.082
X-18.773 Y52.034 I3.574 J2.735
G3 X-19.128 Y52.144 I-0.227 J-0.105
G1 Z-8 F333.3
G3 X-19.105 Y51.702 I0.128 J-0.215 F1000
G2 X-18.265 Y51.194 I-1.895 J-4.082
X-18.773 Y52.034 I3.574 J2.735
G3 X-19.128 Y52.144 I-0.227 J-0.105
G0 Z5
X18.806 Y52.087
G1 Z1 F333.3
Z-1
X18.773 Y52.034 F1000
G2 X18.265 Y51.194 I-4.082 J1.895
X19.105 Y51.702 I2.735 J-3.574
G3 X18.895 Y52.156 I-0.105 J0.227
X18.806 Y52.087 I0.105 J-0.227
G1 Z-2 F333.3
X18.773 Y52.034 F1000
G2 X18.265 Y51.194 I-4.082 J1.895
X19.105 Y51.702 I2.735 J-3.574
G3 X18.895 Y52.156 I-0.105 J0.227
X18.806 Y52.087 I0.105 J-0.227
G1 Z-3 F333.3
X18.773 Y52.034 F1000
G2 X18.265 Y51.194 I-4.082 J1.895
X19.105 Y51.702 I2.735 J-3.574
G3 X18.895 Y52.156 I-0.105 J0.227
X18.806 Y52.087 I0.105 J-0.227
G1 Z-4 F333.3
X18.773 Y52.034 F1000
G2 X18.265 Y51.194 I-4.082 J1.895
X19.105 Y51.702 I2.735 J-3.574
G3 X18.895 Y52.156 I-0.105 J0.227
X18.806 Y52.087 I0.105 J-0.227
G1 Z-5 F333.3
X18.773 Y52.034 F1000
G2 X18.265 Y51.194 I-4.082 J1.895
X19.105 Y51.702 I2.735 J-3.574
G3 X18.895 Y52.156 I-0.105 J0.227
X18.806 Y52.087 I0.105 J-0.227
G1 Z-6 F333.3
X18.773 Y52.034 F1000
G2 X18.265 Y51.194 I-4.082 J1.895
X19.105 Y51.702 I2.735 J-3.574
G3 X18.895 Y52.156 I-0.105 J0.227
X18.806 Y52.087 I0.105 J-0.227
G1 Z-7 F333.3
X18.773 Y52.034 F1000
G2 X18.265 Y51.194 I-4.082 J1.895
X19.105 Y51.702 I2.735 J-3.574
G3 X18.895 Y52.156 I-0.105 J0.227
X18.806 Y52.087 I0.105 J-0.227
G1 Z-8 F333.3
X18.773 Y52.034 F1000
G2 X18.265 Y51.194 I-4.082 J1.895
X19.105 Y51.702 I2.735 J-3.574
G3 X18.895 Y52.156 I-0.105 J0.227
X18.806 Y52.087 I0.105 J-0.227
G0 Z15

M9
M5
M30
