(GaskastenMuelleimerRueckwand)
(T4  D=5 CR=0 - ZMIN=-9 - flat end mill)
G90 G94
G17
G21

(2D Pocket6)
T4
S5000 M3
G54
M8
G0 X-2.402 Y470.048
Z15
Z5
G1 Z-4 F333.3
X-2.397 Y470.054 Z-4.087 F1000
X-2.384 Y470.072 Z-4.171
X-2.362 Y470.102 Z-4.25
X-2.333 Y470.142 Z-4.321
X-2.296 Y470.192 Z-4.383
X-2.254 Y470.25 Z-4.433
X-2.207 Y470.313 Z-4.47
X-2.157 Y470.381 Z-4.492
X-2.106 Y470.451 Z-4.5
X-1.395 Y471.416
G2 X1.61 Y474.421 I11.395 J-8.389
G1 X1.625 Y474.433
X1.695 Y474.484 Z-4.492
X1.763 Y474.534 Z-4.47
X1.827 Y474.581 Z-4.433
X1.884 Y474.623 Z-4.383
X1.934 Y474.66 Z-4.321
X1.974 Y474.689 Z-4.25
X2.004 Y474.711 Z-4.171
X2.022 Y474.725 Z-4.087
X2.028 Y474.729 Z-4
G0 Z5
X287.872 Y475.42
G1 Z-4 F333.3
X287.878 Y475.415 Z-4.087 F1000
X287.896 Y475.402 Z-4.171
X287.926 Y475.38 Z-4.25
X287.966 Y475.35 Z-4.321
X288.016 Y475.314 Z-4.383
X288.073 Y475.272 Z-4.433
X288.137 Y475.225 Z-4.47
X288.205 Y475.175 Z-4.492
X288.274 Y475.123 Z-4.5
X289.227 Y474.422
G2 X292.232 Y471.417 I-8.389 J-11.395
G1 X292.244 Y471.402
X292.295 Y471.332 Z-4.492
X292.345 Y471.264 Z-4.47
X292.392 Y471.2 Z-4.433
X292.434 Y471.143 Z-4.383
X292.471 Y471.093 Z-4.321
X292.5 Y471.053 Z-4.25
X292.522 Y471.023 Z-4.171
X292.536 Y471.005 Z-4.087
X292.54 Y470.999 Z-4
G0 Z5
X293.231 Y2.966
G1 Z-4 F333.3
X293.226 Y2.96 Z-4.087 F1000
X293.213 Y2.942 Z-4.171
X293.191 Y2.912 Z-4.25
X293.161 Y2.872 Z-4.321
X293.125 Y2.822 Z-4.383
X293.083 Y2.765 Z-4.433
X293.036 Y2.701 Z-4.47
X292.986 Y2.633 Z-4.492
X292.934 Y2.564 Z-4.5
X292.233 Y1.611
G2 X289.228 Y-1.394 I-11.395 J8.389
G1 X289.213 Y-1.406
X289.143 Y-1.457 Z-4.492
X289.075 Y-1.507 Z-4.47
X289.011 Y-1.554 Z-4.433
X288.954 Y-1.596 Z-4.383
X288.904 Y-1.633 Z-4.321
X288.864 Y-1.662 Z-4.25
X288.834 Y-1.684 Z-4.171
X288.816 Y-1.698 Z-4.087
X288.81 Y-1.702 Z-4
G0 Z5
X2.979 Y-2.402
G1 Z-4 F333.3
X2.973 Y-2.397 Z-4.087 F1000
X2.954 Y-2.384 Z-4.171
X2.925 Y-2.362 Z-4.25
X2.885 Y-2.333 Z-4.321
X2.835 Y-2.296 Z-4.383
X2.777 Y-2.254 Z-4.433
X2.714 Y-2.207 Z-4.47
X2.646 Y-2.157 Z-4.492
X2.576 Y-2.106 Z-4.5
X1.611 Y-1.395
G2 X-1.394 Y1.61 I8.389 J11.395
X-1.423 Y4.447 I1.954 J1.439
G3 X-0.906 Y7.238 I-2.773 J1.957
G2 X-1.25 Y10 I10.906 J2.762
G1 Y463.027
G2 X10 Y474.277 I11.25 J0
G1 X280.838
G2 X292.088 Y463.027 I0 J-11.25
G1 Y10
G2 X280.838 Y-1.25 I-11.25 J0
G1 X10
G2 X-0.906 Y7.238 I0 J11.25
X0.216 Y9.838 I2.252 J0.57
G3 X1.65 Y12.279 I-1.36 J2.441
G1 Y463.027
G2 X10 Y471.377 I8.35 J0
G1 X280.838
G2 X289.188 Y463.027 I0 J-8.35
G1 Y10
G2 X280.838 Y1.65 I-8.35 J0
G1 X10
G2 X1.65 Y10 I0 J8.35
G1 Y12.279
G2 X3.1 Y14.454 I2.356 J0
G3 X4.55 Y16.629 I-0.906 J2.175
G1 Y463.027
G2 X10 Y468.477 I5.45 J0
G1 X280.838
G2 X286.288 Y463.027 I0 J-5.45
G1 Y10
G2 X280.838 Y4.55 I-5.45 J0
G1 X10
G2 X4.55 Y10 I0 J5.45
G1 Y16.629
G2 X6.025 Y18.841 I2.397 J0
G3 X7.5 Y21.054 I-0.922 J2.212
G1 Y463.027
G2 X10 Y465.527 I2.5 J0
G1 X280.838
G2 X283.338 Y463.027 I0 J-2.5
G1 Y10
G2 X280.838 Y7.5 I-2.5 J0
G1 X10
G2 X7.5 Y10 I0 J2.5
G1 Y21.054
X7.496 Y21.117 Z-4.487
X7.484 Y21.18 Z-4.475
X7.464 Y21.24 Z-4.462
X7.428 Y21.313 Z-4.408
X7.38 Y21.378 Z-4.354
X7.343 Y21.418 Z-4.272
X7.301 Y21.453 Z-4.191
X7.27 Y21.474 Z-4
G0 Z15

(2D Contour7)
X292.338 Y472.027
Z15
Z5
G1 Z-5 F333.3
Y1 F1000
G2 X289.838 Y-1.5 I-2.5 J0
G1 X1
G2 X-1.5 Y1 I0 J2.5
G1 Y472.027
G2 X1 Y474.527 I2.5 J0
G1 X289.838
G2 X292.338 Y472.027 I0 J-2.5
G1 Z-9 F333.3
Y1 F1000
G2 X289.838 Y-1.5 I-2.5 J0
G1 X1
G2 X-1.5 Y1 I0 J2.5
G1 Y472.027
G2 X1 Y474.527 I2.5 J0
G1 X289.838
G2 X292.338 Y472.027 I0 J-2.5
G0 Z15
M9
M5
M30
