(CamperStuȈtzrahmenGaskasten)
(T3  D=3 CR=0 - ZMIN=-10 - flat end mill)
G90 G94
G17
G21

(2D Contour3)
T3
S5000 M3
G54
M8
G0 X167.041 Y102.759
Z15
Z5
G1 Z3 F333.3
Z-1.7
G18 G2 X167.341 Z-2 I0.3 K0 F1000
G1 X167.641
G17 G3 X167.941 Y103.059 I0 J0.3
G1 Y222.5
G3 X119.441 Y271 I-48.5 J0
G1 X-119.441
G3 X-167.941 Y222.5 I0 J-48.5
G1 Y-271
X167.941
Y103.059
G3 X167.641 Y103.359 I-0.3 J0
G1 X167.341
G18 G3 X167.041 Z-1.7 I0 K0.3
G1 Y102.759
Z-3.7 F333.3
G2 X167.341 Z-4 I0.3 K0 F1000
G1 X167.641
G17 G3 X167.941 Y103.059 I0 J0.3
G1 Y222.5
G3 X119.441 Y271 I-48.5 J0
G1 X-119.441
G3 X-167.941 Y222.5 I0 J-48.5
G1 Y-271
X167.941
Y103.059
G3 X167.641 Y103.359 I-0.3 J0
G1 X167.341
G18 G3 X167.041 Z-3.7 I0 K0.3
G1 Y102.759
Z-5.7 F333.3
G2 X167.341 Z-6 I0.3 K0 F1000
G1 X167.641
G17 G3 X167.941 Y103.059 I0 J0.3
G1 Y222.5
G3 X119.441 Y271 I-48.5 J0
G1 X-119.441
G3 X-167.941 Y222.5 I0 J-48.5
G1 Y-271
X167.941
Y103.059
G3 X167.641 Y103.359 I-0.3 J0
G1 X167.341
G18 G3 X167.041 Z-5.7 I0 K0.3
G1 Y102.759
Z-7.7 F333.3
G2 X167.341 Z-8 I0.3 K0 F1000
G1 X167.641
G17 G3 X167.941 Y103.059 I0 J0.3
G1 Y222.5
G3 X119.441 Y271 I-48.5 J0
G1 X-119.441
G3 X-167.941 Y222.5 I0 J-48.5
G1 Y-271
X167.941
Y103.059
G3 X167.641 Y103.359 I-0.3 J0
G1 X167.341
G18 G3 X167.041 Z-7.7 I0 K0.3
G1 Y102.759
Z-9.7 F333.3
G2 X167.341 Z-10 I0.3 K0 F1000
G1 X167.641
G17 G3 X167.941 Y103.059 I0 J0.3
G1 Y222.5
G3 X119.441 Y271 I-48.5 J0
G1 X-119.441
G3 X-167.941 Y222.5 I0 J-48.5
G1 Y-271
X167.941
Y103.059
G3 X167.641 Y103.359 I-0.3 J0
G1 X167.341
G18 G3 X167.041 Z-9.7 I0 K0.3
G0 Z15
G17

(2D Contour3 2)
G0 X-191.841 Y-292.8
Z15
Z5
G1 Z3 F333.3
Z-1.7
G18 G2 X-191.541 Z-2 I0.3 K0 F1000
G1 X-191.241
G17 G3 X-190.941 Y-292.5 I0 J0.3
G1 Y222.5
G2 X-119.441 Y294 I71.5 J0
G1 X119.441
G2 X190.941 Y222.5 I0 J-71.5
G1 Y-292.5
G2 X189.441 Y-294 I-1.5 J0
G1 X-189.441
G2 X-190.941 Y-292.5 I0 J1.5
G3 X-191.241 Y-292.2 I-0.3 J0
G1 X-191.541
G18 G3 X-191.841 Z-1.7 I0 K0.3
G1 Y-292.8
Z-3.7 F333.3
G2 X-191.541 Z-4 I0.3 K0 F1000
G1 X-191.241
G17 G3 X-190.941 Y-292.5 I0 J0.3
G1 Y222.5
G2 X-119.441 Y294 I71.5 J0
G1 X119.441
G2 X190.941 Y222.5 I0 J-71.5
G1 Y-292.5
G2 X189.441 Y-294 I-1.5 J0
G1 X-189.441
G2 X-190.941 Y-292.5 I0 J1.5
G3 X-191.241 Y-292.2 I-0.3 J0
G1 X-191.541
G18 G3 X-191.841 Z-3.7 I0 K0.3
G1 Y-292.8
Z-5.7 F333.3
G2 X-191.541 Z-6 I0.3 K0 F1000
G1 X-191.241
G17 G3 X-190.941 Y-292.5 I0 J0.3
G1 Y222.5
G2 X-119.441 Y294 I71.5 J0
G1 X119.441
G2 X190.941 Y222.5 I0 J-71.5
G1 Y-292.5
G2 X189.441 Y-294 I-1.5 J0
G1 X-189.441
G2 X-190.941 Y-292.5 I0 J1.5
G3 X-191.241 Y-292.2 I-0.3 J0
G1 X-191.541
G18 G3 X-191.841 Z-5.7 I0 K0.3
G1 Y-292.8
Z-7.7 F333.3
G2 X-191.541 Z-8 I0.3 K0 F1000
G1 X-191.241
G17 G3 X-190.941 Y-292.5 I0 J0.3
G1 Y222.5
G2 X-119.441 Y294 I71.5 J0
G1 X119.441
G2 X190.941 Y222.5 I0 J-71.5
G1 Y-292.5
G2 X189.441 Y-294 I-1.5 J0
G1 X-189.441
G2 X-190.941 Y-292.5 I0 J1.5
G3 X-191.241 Y-292.2 I-0.3 J0
G1 X-191.541
G18 G3 X-191.841 Z-7.7 I0 K0.3
G1 Y-292.8
Z-9.7 F333.3
G2 X-191.541 Z-10 I0.3 K0 F1000
G1 X-191.241
G17 G3 X-190.941 Y-292.5 I0 J0.3
G1 Y222.5
G2 X-119.441 Y294 I71.5 J0
G1 X119.441
G2 X190.941 Y222.5 I0 J-71.5
G1 Y-292.5
G2 X189.441 Y-294 I-1.5 J0
G1 X-189.441
G2 X-190.941 Y-292.5 I0 J1.5
G3 X-191.241 Y-292.2 I-0.3 J0
G1 X-191.541
G18 G3 X-191.841 Z-9.7 I0 K0.3
G0 Z15
G17
M9
M5
M30
