(CamperGaskastenMuelleimerSeitenwandRechts)
(T4  D=5 CR=0 - ZMIN=-9 - flat end mill)
G90 G94
G17
G21

(2D Pocket8)
T4
S5000 M3
G54
M8
G0 X68.299 Y114.803
Z15
Z5
G1 Z2.97 F333.3
X68.288 Y114.782 Z2.819
X68.259 Y114.722 Z2.683
X68.218 Y114.625 Z2.573
X68.171 Y114.5 Z2.5
G3 X72.666 Y112.966 Z-0.216 I2.248 J-0.767
X72.794 Y113.733 Z-0.5 I-2.248 J0.767
X68.835 Y113.733 I-1.979 J0
X69.835 Y113.733 I0.5 J0 F1000
X65.835 Y113.733 I-2 J0
X72.835 Y113.733 I3.5 J0
X62.835 Y113.733 I-5 J0
X72.835 Y113.733 I5 J0
G1 X72.831 Y113.797 Z-0.487
X72.819 Y113.859 Z-0.475
X72.799 Y113.92 Z-0.462
X72.762 Y113.992 Z-0.408
X72.715 Y114.058 Z-0.354
X72.678 Y114.097 Z-0.272
X72.636 Y114.132 Z-0.191
X72.605 Y114.154 Z0
G0 Z15
X116.173 Y209.178
Z5
G1 Z2.97 F333.3
X116.162 Y209.157 Z2.819
X116.134 Y209.097 Z2.683
X116.092 Y209 Z2.573
X116.045 Y208.875 Z2.5
G3 X120.541 Y207.341 Z-0.216 I2.248 J-0.767
X120.668 Y208.108 Z-0.5 I-2.248 J0.767
X116.709 Y208.108 I-1.979 J0
X117.709 Y208.108 I0.5 J0 F1000
X113.709 Y208.108 I-2 J0
X120.709 Y208.108 I3.5 J0
X110.709 Y208.108 I-5 J0
X120.709 Y208.108 I5 J0
G1 X120.705 Y208.172 Z-0.487
X120.693 Y208.234 Z-0.475
X120.673 Y208.295 Z-0.462
X120.637 Y208.367 Z-0.408
X120.589 Y208.433 Z-0.354
X120.552 Y208.472 Z-0.272
X120.51 Y208.507 Z-0.191
X120.479 Y208.529 Z0
G0 Z15

(2D Contour9)
X-4 Y-0.5
Z15
Z5
G1 Z-4.5 F333.3
G18 G2 X-3.5 Z-5 I0.5 K0 F1000
G1 X-3
G17 G3 X-2.5 Y0 I0 J0.5
G1 Y402.781
G2 X0 Y405.281 I2.5 J0
G1 X13.525
Y438.507
G2 X23.025 Y448.007 I9.5 J0
G1 X26.131
X26.202 Y448.006
G2 X144.845 Y428.875 I-13.136 J-458.913
X146.627 Y426.48 I-0.718 J-2.395
G1 Y0
G2 X144.127 Y-2.5 I-2.5 J0
G1 X0
G2 X-2.5 Y0 I0 J2.5
G3 X-3 Y0.5 I-0.5 J0
G1 X-3.5
G18 G3 X-4 Z-4.5 I0 K0.5
G1 Y-0.5
Z-8.5 F333.3
G2 X-3.5 Z-9 I0.5 K0 F1000
G1 X-3
G17 G3 X-2.5 Y0 I0 J0.5
G1 Y402.781
G2 X0 Y405.281 I2.5 J0
G1 X13.525
Y438.507
G2 X23.025 Y448.007 I9.5 J0
G1 X26.131
X26.202 Y448.006
G2 X144.845 Y428.875 I-13.136 J-458.913
X146.627 Y426.48 I-0.718 J-2.395
G1 Y0
G2 X144.127 Y-2.5 I-2.5 J0
G1 X0
G2 X-2.5 Y0 I0 J2.5
G3 X-3 Y0.5 I-0.5 J0
G1 X-3.5
G18 G3 X-4 Z-8.5 I0 K0.5
G0 Z15
G17
M9
M5
M30
