(CamperRohrhalterBoden)
(T4 D=5 CR=0 - ZMIN=-20 - flat end mill)
G90 G94
G17
G21
(-Attention- Property Safe Retracts is set to Clearance Height.)
(Ensure the clearance height will clear the part and or fixtures.)
(Raise the Z-axis to a safe height before starting the program.)

(2D Contour1)
T4
S5000 M3
G17 G90 G94
G54
M8
G0 X83.5 Y-1.5
Z15
G0 Z5
G1 Z4 F333.3
Z-3
X28.5 F1000
G2 X26 Y1 I0 J2.5
G1 Y8.771
G3 X7.282 Y56.417 I-70 J0
G2 X-0.847 Y67.175 I48.718 J45.264
X-1.5 Y69.51 I3.847 J2.335
G1 Y80.705
G2 X7.184 Y82.361 I4.5 J0
G3 X104.973 Y82.762 I48.816 J19.32
G2 X109.169 Y85.641 I4.198 J-1.621
G1 X109.212
G2 X113.712 Y81.212 I0 J-4.5
G1 X113.885 Y70.224
G2 X113.259 Y67.864 I-4.5 J-0.07
X104.717 Y56.417 I-57.259 J33.817
G3 X86 Y8.771 I51.283 J-47.646
G1 Y1
G2 X83.5 Y-1.5 I-2.5 J0
G1 Z-6 F333.3
X28.5 F1000
G2 X26 Y1 I0 J2.5
G1 Y8.771
G3 X7.282 Y56.417 I-70 J0
G2 X-0.847 Y67.175 I48.718 J45.264
X-1.5 Y69.51 I3.847 J2.335
G1 Y80.705
G2 X7.184 Y82.361 I4.5 J0
G3 X104.973 Y82.762 I48.816 J19.32
G2 X109.169 Y85.641 I4.198 J-1.621
G1 X109.212
G2 X113.712 Y81.212 I0 J-4.5
G1 X113.885 Y70.224
G2 X113.259 Y67.864 I-4.5 J-0.07
X104.717 Y56.417 I-57.259 J33.817
G3 X86 Y8.771 I51.283 J-47.646
G1 Y1
G2 X83.5 Y-1.5 I-2.5 J0
G1 Z-9 F333.3
X28.5 F1000
G2 X26 Y1 I0 J2.5
G1 Y8.771
G3 X7.282 Y56.417 I-70 J0
G2 X-0.847 Y67.175 I48.718 J45.264
X-1.5 Y69.51 I3.847 J2.335
G1 Y80.705
G2 X7.184 Y82.361 I4.5 J0
G3 X104.973 Y82.762 I48.816 J19.32
G2 X109.169 Y85.641 I4.198 J-1.621
G1 X109.212
G2 X113.712 Y81.212 I0 J-4.5
G1 X113.885 Y70.224
G2 X113.259 Y67.864 I-4.5 J-0.07
X104.717 Y56.417 I-57.259 J33.817
G3 X86 Y8.771 I51.283 J-47.646
G1 Y1
G2 X83.5 Y-1.5 I-2.5 J0
G1 Z-12 F333.3
X28.5 F1000
G2 X26 Y1 I0 J2.5
G1 Y8.771
G3 X7.282 Y56.417 I-70 J0
G2 X-0.847 Y67.175 I48.718 J45.264
X-1.5 Y69.51 I3.847 J2.335
G1 Y80.705
G2 X7.184 Y82.361 I4.5 J0
G3 X104.973 Y82.762 I48.816 J19.32
G2 X109.169 Y85.641 I4.198 J-1.621
G1 X109.212
G2 X113.712 Y81.212 I0 J-4.5
G1 X113.885 Y70.224
G2 X113.259 Y67.864 I-4.5 J-0.07
X104.717 Y56.417 I-57.259 J33.817
G3 X86 Y8.771 I51.283 J-47.646
G1 Y1
G2 X83.5 Y-1.5 I-2.5 J0
G1 Z-15 F333.3
X28.5 F1000
G2 X26 Y1 I0 J2.5
G1 Y8.771
G3 X7.282 Y56.417 I-70 J0
G2 X-0.847 Y67.175 I48.718 J45.264
X-1.5 Y69.51 I3.847 J2.335
G1 Y80.705
G2 X7.184 Y82.361 I4.5 J0
G3 X104.973 Y82.762 I48.816 J19.32
G2 X109.169 Y85.641 I4.198 J-1.621
G1 X109.212
G2 X113.712 Y81.212 I0 J-4.5
G1 X113.885 Y70.224
G2 X113.259 Y67.864 I-4.5 J-0.07
X104.717 Y56.417 I-57.259 J33.817
G3 X86 Y8.771 I51.283 J-47.646
G1 Y1
G2 X83.5 Y-1.5 I-2.5 J0
G1 Z-18 F333.3
X28.5 F1000
G2 X26 Y1 I0 J2.5
G1 Y8.771
G3 X7.282 Y56.417 I-70 J0
G2 X-0.847 Y67.175 I48.718 J45.264
X-1.5 Y69.51 I3.847 J2.335
G1 Y80.705
G2 X7.184 Y82.361 I4.5 J0
G3 X104.973 Y82.762 I48.816 J19.32
G2 X109.169 Y85.641 I4.198 J-1.621
G1 X109.212
G2 X113.712 Y81.212 I0 J-4.5
G1 X113.885 Y70.224
G2 X113.259 Y67.864 I-4.5 J-0.07
X104.717 Y56.417 I-57.259 J33.817
G3 X86 Y8.771 I51.283 J-47.646
G1 Y1
G2 X83.5 Y-1.5 I-2.5 J0
G1 Z-20 F333.3
X28.5 F1000
G2 X26 Y1 I0 J2.5
G1 Y8.771
G3 X7.282 Y56.417 I-70 J0
G2 X-0.847 Y67.175 I48.718 J45.264
X-1.5 Y69.51 I3.847 J2.335
G1 Y80.705
G2 X7.184 Y82.361 I4.5 J0
G3 X104.973 Y82.762 I48.816 J19.32
G2 X109.169 Y85.641 I4.198 J-1.621
G1 X109.212
G2 X113.712 Y81.212 I0 J-4.5
G1 X113.885 Y70.224
G2 X113.259 Y67.864 I-4.5 J-0.07
X104.717 Y56.417 I-57.259 J33.817
G3 X86 Y8.771 I51.283 J-47.646
G1 Y1
G2 X83.5 Y-1.5 I-2.5 J0
G0 Z15
M9
M5
M30
