(Camping_Lochgitter_kuehlschrank)
(T4 D=5 CR=0 - ZMIN=-8 - flat end mill)
G90 G94
G17
G21
(-Attention- Property Safe Retracts is set to Clearance Height.)
(Ensure the clearance height will clear the part and or fixtures.)
(Raise the Z-axis to a safe height before starting the program.)

(Circular1)
T4
S5000 M3
G17 G90 G94
G54
M8
G0 X8 Y7.75
Z15
G0 Z-2.5
G1 Z-4 F1000
X8.25
G3 X8.5 Y8 I0 J0.25
X7.5 Y8 I-0.5 J0
X8.5 Y8 I0.5 J0
X8.25 Y8.25 I-0.25 J0
G1 X8
G0 Z5
Y7.75
Z-6.5
G1 Z-8 F1000
X8.25
G3 X8.5 Y8 I0 J0.25
X7.5 Y8 I-0.5 J0
X8.5 Y8 I0.5 J0
X8.25 Y8.25 I-0.25 J0
G1 X8
G0 Z5
X18 Y7.75
Z-2.5
G1 Z-4 F1000
X18.25
G3 X18.5 Y8 I0 J0.25
X17.5 Y8 I-0.5 J0
X18.5 Y8 I0.5 J0
X18.25 Y8.25 I-0.25 J0
G1 X18
G0 Z5
Y7.75
Z-6.5
G1 Z-8 F1000
X18.25
G3 X18.5 Y8 I0 J0.25
X17.5 Y8 I-0.5 J0
X18.5 Y8 I0.5 J0
X18.25 Y8.25 I-0.25 J0
G1 X18
G0 Z5
X28 Y7.75
Z-2.5
G1 Z-4 F1000
X28.25
G3 X28.5 Y8 I0 J0.25
X27.5 Y8 I-0.5 J0
X28.5 Y8 I0.5 J0
X28.25 Y8.25 I-0.25 J0
G1 X28
G0 Z5
Y7.75
Z-6.5
G1 Z-8 F1000
X28.25
G3 X28.5 Y8 I0 J0.25
X27.5 Y8 I-0.5 J0
X28.5 Y8 I0.5 J0
X28.25 Y8.25 I-0.25 J0
G1 X28
G0 Z5
X38 Y7.75
Z-2.5
G1 Z-4 F1000
X38.25
G3 X38.5 Y8 I0 J0.25
X37.5 Y8 I-0.5 J0
X38.5 Y8 I0.5 J0
X38.25 Y8.25 I-0.25 J0
G1 X38
G0 Z5
Y7.75
Z-6.5
G1 Z-8 F1000
X38.25
G3 X38.5 Y8 I0 J0.25
X37.5 Y8 I-0.5 J0
X38.5 Y8 I0.5 J0
X38.25 Y8.25 I-0.25 J0
G1 X38
G0 Z5
Y17.75
Z-2.5
G1 Z-4 F1000
X38.25
G3 X38.5 Y18 I0 J0.25
X37.5 Y18 I-0.5 J0
X38.5 Y18 I0.5 J0
X38.25 Y18.25 I-0.25 J0
G1 X38
G0 Z5
Y17.75
Z-6.5
G1 Z-8 F1000
X38.25
G3 X38.5 Y18 I0 J0.25
X37.5 Y18 I-0.5 J0
X38.5 Y18 I0.5 J0
X38.25 Y18.25 I-0.25 J0
G1 X38
G0 Z5
X28 Y17.75
Z-2.5
G1 Z-4 F1000
X28.25
G3 X28.5 Y18 I0 J0.25
X27.5 Y18 I-0.5 J0
X28.5 Y18 I0.5 J0
X28.25 Y18.25 I-0.25 J0
G1 X28
G0 Z5
Y17.75
Z-6.5
G1 Z-8 F1000
X28.25
G3 X28.5 Y18 I0 J0.25
X27.5 Y18 I-0.5 J0
X28.5 Y18 I0.5 J0
X28.25 Y18.25 I-0.25 J0
G1 X28
G0 Z5
X18 Y17.75
Z-2.5
G1 Z-4 F1000
X18.25
G3 X18.5 Y18 I0 J0.25
X17.5 Y18 I-0.5 J0
X18.5 Y18 I0.5 J0
X18.25 Y18.25 I-0.25 J0
G1 X18
G0 Z5
Y17.75
Z-6.5
G1 Z-8 F1000
X18.25
G3 X18.5 Y18 I0 J0.25
X17.5 Y18 I-0.5 J0
X18.5 Y18 I0.5 J0
X18.25 Y18.25 I-0.25 J0
G1 X18
G0 Z5
X8 Y17.75
Z-2.5
G1 Z-4 F1000
X8.25
G3 X8.5 Y18 I0 J0.25
X7.5 Y18 I-0.5 J0
X8.5 Y18 I0.5 J0
X8.25 Y18.25 I-0.25 J0
G1 X8
G0 Z5
Y17.75
Z-6.5
G1 Z-8 F1000
X8.25
G3 X8.5 Y18 I0 J0.25
X7.5 Y18 I-0.5 J0
X8.5 Y18 I0.5 J0
X8.25 Y18.25 I-0.25 J0
G1 X8
G0 Z5
Y27.75
Z-2.5
G1 Z-4 F1000
X8.25
G3 X8.5 Y28 I0 J0.25
X7.5 Y28 I-0.5 J0
X8.5 Y28 I0.5 J0
X8.25 Y28.25 I-0.25 J0
G1 X8
G0 Z5
Y27.75
Z-6.5
G1 Z-8 F1000
X8.25
G3 X8.5 Y28 I0 J0.25
X7.5 Y28 I-0.5 J0
X8.5 Y28 I0.5 J0
X8.25 Y28.25 I-0.25 J0
G1 X8
G0 Z5
X18 Y27.75
Z-2.5
G1 Z-4 F1000
X18.25
G3 X18.5 Y28 I0 J0.25
X17.5 Y28 I-0.5 J0
X18.5 Y28 I0.5 J0
X18.25 Y28.25 I-0.25 J0
G1 X18
G0 Z5
Y27.75
Z-6.5
G1 Z-8 F1000
X18.25
G3 X18.5 Y28 I0 J0.25
X17.5 Y28 I-0.5 J0
X18.5 Y28 I0.5 J0
X18.25 Y28.25 I-0.25 J0
G1 X18
G0 Z5
X28 Y27.75
Z-2.5
G1 Z-4 F1000
X28.25
G3 X28.5 Y28 I0 J0.25
X27.5 Y28 I-0.5 J0
X28.5 Y28 I0.5 J0
X28.25 Y28.25 I-0.25 J0
G1 X28
G0 Z5
Y27.75
Z-6.5
G1 Z-8 F1000
X28.25
G3 X28.5 Y28 I0 J0.25
X27.5 Y28 I-0.5 J0
X28.5 Y28 I0.5 J0
X28.25 Y28.25 I-0.25 J0
G1 X28
G0 Z5
X38 Y27.75
Z-2.5
G1 Z-4 F1000
X38.25
G3 X38.5 Y28 I0 J0.25
X37.5 Y28 I-0.5 J0
X38.5 Y28 I0.5 J0
X38.25 Y28.25 I-0.25 J0
G1 X38
G0 Z5
Y27.75
Z-6.5
G1 Z-8 F1000
X38.25
G3 X38.5 Y28 I0 J0.25
X37.5 Y28 I-0.5 J0
X38.5 Y28 I0.5 J0
X38.25 Y28.25 I-0.25 J0
G1 X38
G0 Z5
Y37.75
Z-2.5
G1 Z-4 F1000
X38.25
G3 X38.5 Y38 I0 J0.25
X37.5 Y38 I-0.5 J0
X38.5 Y38 I0.5 J0
X38.25 Y38.25 I-0.25 J0
G1 X38
G0 Z5
Y37.75
Z-6.5
G1 Z-8 F1000
X38.25
G3 X38.5 Y38 I0 J0.25
X37.5 Y38 I-0.5 J0
X38.5 Y38 I0.5 J0
X38.25 Y38.25 I-0.25 J0
G1 X38
G0 Z5
X28 Y37.75
Z-2.5
G1 Z-4 F1000
X28.25
G3 X28.5 Y38 I0 J0.25
X27.5 Y38 I-0.5 J0
X28.5 Y38 I0.5 J0
X28.25 Y38.25 I-0.25 J0
G1 X28
G0 Z5
Y37.75
Z-6.5
G1 Z-8 F1000
X28.25
G3 X28.5 Y38 I0 J0.25
X27.5 Y38 I-0.5 J0
X28.5 Y38 I0.5 J0
X28.25 Y38.25 I-0.25 J0
G1 X28
G0 Z5
X18 Y37.75
Z-2.5
G1 Z-4 F1000
X18.25
G3 X18.5 Y38 I0 J0.25
X17.5 Y38 I-0.5 J0
X18.5 Y38 I0.5 J0
X18.25 Y38.25 I-0.25 J0
G1 X18
G0 Z5
Y37.75
Z-6.5
G1 Z-8 F1000
X18.25
G3 X18.5 Y38 I0 J0.25
X17.5 Y38 I-0.5 J0
X18.5 Y38 I0.5 J0
X18.25 Y38.25 I-0.25 J0
G1 X18
G0 Z5
X8 Y37.75
Z-2.5
G1 Z-4 F1000
X8.25
G3 X8.5 Y38 I0 J0.25
X7.5 Y38 I-0.5 J0
X8.5 Y38 I0.5 J0
X8.25 Y38.25 I-0.25 J0
G1 X8
G0 Z5
Y37.75
Z-6.5
G1 Z-8 F1000
X8.25
G3 X8.5 Y38 I0 J0.25
X7.5 Y38 I-0.5 J0
X8.5 Y38 I0.5 J0
X8.25 Y38.25 I-0.25 J0
G1 X8
G0 Z5
Y47.75
Z-2.5
G1 Z-4 F1000
X8.25
G3 X8.5 Y48 I0 J0.25
X7.5 Y48 I-0.5 J0
X8.5 Y48 I0.5 J0
X8.25 Y48.25 I-0.25 J0
G1 X8
G0 Z5
Y47.75
Z-6.5
G1 Z-8 F1000
X8.25
G3 X8.5 Y48 I0 J0.25
X7.5 Y48 I-0.5 J0
X8.5 Y48 I0.5 J0
X8.25 Y48.25 I-0.25 J0
G1 X8
G0 Z5
X18 Y47.75
Z-2.5
G1 Z-4 F1000
X18.25
G3 X18.5 Y48 I0 J0.25
X17.5 Y48 I-0.5 J0
X18.5 Y48 I0.5 J0
X18.25 Y48.25 I-0.25 J0
G1 X18
G0 Z5
Y47.75
Z-6.5
G1 Z-8 F1000
X18.25
G3 X18.5 Y48 I0 J0.25
X17.5 Y48 I-0.5 J0
X18.5 Y48 I0.5 J0
X18.25 Y48.25 I-0.25 J0
G1 X18
G0 Z5
X28 Y47.75
Z-2.5
G1 Z-4 F1000
X28.25
G3 X28.5 Y48 I0 J0.25
X27.5 Y48 I-0.5 J0
X28.5 Y48 I0.5 J0
X28.25 Y48.25 I-0.25 J0
G1 X28
G0 Z5
Y47.75
Z-6.5
G1 Z-8 F1000
X28.25
G3 X28.5 Y48 I0 J0.25
X27.5 Y48 I-0.5 J0
X28.5 Y48 I0.5 J0
X28.25 Y48.25 I-0.25 J0
G1 X28
G0 Z5
X38 Y47.75
Z-2.5
G1 Z-4 F1000
X38.25
G3 X38.5 Y48 I0 J0.25
X37.5 Y48 I-0.5 J0
X38.5 Y48 I0.5 J0
X38.25 Y48.25 I-0.25 J0
G1 X38
G0 Z5
Y47.75
Z-6.5
G1 Z-8 F1000
X38.25
G3 X38.5 Y48 I0 J0.25
X37.5 Y48 I-0.5 J0
X38.5 Y48 I0.5 J0
X38.25 Y48.25 I-0.25 J0
G1 X38
G0 Z5
Y57.75
Z-2.5
G1 Z-4 F1000
X38.25
G3 X38.5 Y58 I0 J0.25
X37.5 Y58 I-0.5 J0
X38.5 Y58 I0.5 J0
X38.25 Y58.25 I-0.25 J0
G1 X38
G0 Z5
Y57.75
Z-6.5
G1 Z-8 F1000
X38.25
G3 X38.5 Y58 I0 J0.25
X37.5 Y58 I-0.5 J0
X38.5 Y58 I0.5 J0
X38.25 Y58.25 I-0.25 J0
G1 X38
G0 Z5
X28 Y57.75
Z-2.5
G1 Z-4 F1000
X28.25
G3 X28.5 Y58 I0 J0.25
X27.5 Y58 I-0.5 J0
X28.5 Y58 I0.5 J0
X28.25 Y58.25 I-0.25 J0
G1 X28
G0 Z5
Y57.75
Z-6.5
G1 Z-8 F1000
X28.25
G3 X28.5 Y58 I0 J0.25
X27.5 Y58 I-0.5 J0
X28.5 Y58 I0.5 J0
X28.25 Y58.25 I-0.25 J0
G1 X28
G0 Z5
X18 Y57.75
Z-2.5
G1 Z-4 F1000
X18.25
G3 X18.5 Y58 I0 J0.25
X17.5 Y58 I-0.5 J0
X18.5 Y58 I0.5 J0
X18.25 Y58.25 I-0.25 J0
G1 X18
G0 Z5
Y57.75
Z-6.5
G1 Z-8 F1000
X18.25
G3 X18.5 Y58 I0 J0.25
X17.5 Y58 I-0.5 J0
X18.5 Y58 I0.5 J0
X18.25 Y58.25 I-0.25 J0
G1 X18
G0 Z5
X8 Y57.75
Z-2.5
G1 Z-4 F1000
X8.25
G3 X8.5 Y58 I0 J0.25
X7.5 Y58 I-0.5 J0
X8.5 Y58 I0.5 J0
X8.25 Y58.25 I-0.25 J0
G1 X8
G0 Z5
Y57.75
Z-6.5
G1 Z-8 F1000
X8.25
G3 X8.5 Y58 I0 J0.25
X7.5 Y58 I-0.5 J0
X8.5 Y58 I0.5 J0
X8.25 Y58.25 I-0.25 J0
G1 X8
G0 Z5
Y67.75
Z-2.5
G1 Z-4 F1000
X8.25
G3 X8.5 Y68 I0 J0.25
X7.5 Y68 I-0.5 J0
X8.5 Y68 I0.5 J0
X8.25 Y68.25 I-0.25 J0
G1 X8
G0 Z5
Y67.75
Z-6.5
G1 Z-8 F1000
X8.25
G3 X8.5 Y68 I0 J0.25
X7.5 Y68 I-0.5 J0
X8.5 Y68 I0.5 J0
X8.25 Y68.25 I-0.25 J0
G1 X8
G0 Z5
X18 Y67.75
Z-2.5
G1 Z-4 F1000
X18.25
G3 X18.5 Y68 I0 J0.25
X17.5 Y68 I-0.5 J0
X18.5 Y68 I0.5 J0
X18.25 Y68.25 I-0.25 J0
G1 X18
G0 Z5
Y67.75
Z-6.5
G1 Z-8 F1000
X18.25
G3 X18.5 Y68 I0 J0.25
X17.5 Y68 I-0.5 J0
X18.5 Y68 I0.5 J0
X18.25 Y68.25 I-0.25 J0
G1 X18
G0 Z5
X28 Y67.75
Z-2.5
G1 Z-4 F1000
X28.25
G3 X28.5 Y68 I0 J0.25
X27.5 Y68 I-0.5 J0
X28.5 Y68 I0.5 J0
X28.25 Y68.25 I-0.25 J0
G1 X28
G0 Z5
Y67.75
Z-6.5
G1 Z-8 F1000
X28.25
G3 X28.5 Y68 I0 J0.25
X27.5 Y68 I-0.5 J0
X28.5 Y68 I0.5 J0
X28.25 Y68.25 I-0.25 J0
G1 X28
G0 Z5
X38 Y67.75
Z-2.5
G1 Z-4 F1000
X38.25
G3 X38.5 Y68 I0 J0.25
X37.5 Y68 I-0.5 J0
X38.5 Y68 I0.5 J0
X38.25 Y68.25 I-0.25 J0
G1 X38
G0 Z5
Y67.75
Z-6.5
G1 Z-8 F1000
X38.25
G3 X38.5 Y68 I0 J0.25
X37.5 Y68 I-0.5 J0
X38.5 Y68 I0.5 J0
X38.25 Y68.25 I-0.25 J0
G1 X38
G0 Z5
Y77.75
Z-2.5
G1 Z-4 F1000
X38.25
G3 X38.5 Y78 I0 J0.25
X37.5 Y78 I-0.5 J0
X38.5 Y78 I0.5 J0
X38.25 Y78.25 I-0.25 J0
G1 X38
G0 Z5
Y77.75
Z-6.5
G1 Z-8 F1000
X38.25
G3 X38.5 Y78 I0 J0.25
X37.5 Y78 I-0.5 J0
X38.5 Y78 I0.5 J0
X38.25 Y78.25 I-0.25 J0
G1 X38
G0 Z5
X28 Y77.75
Z-2.5
G1 Z-4 F1000
X28.25
G3 X28.5 Y78 I0 J0.25
X27.5 Y78 I-0.5 J0
X28.5 Y78 I0.5 J0
X28.25 Y78.25 I-0.25 J0
G1 X28
G0 Z5
Y77.75
Z-6.5
G1 Z-8 F1000
X28.25
G3 X28.5 Y78 I0 J0.25
X27.5 Y78 I-0.5 J0
X28.5 Y78 I0.5 J0
X28.25 Y78.25 I-0.25 J0
G1 X28
G0 Z5
X18 Y77.75
Z-2.5
G1 Z-4 F1000
X18.25
G3 X18.5 Y78 I0 J0.25
X17.5 Y78 I-0.5 J0
X18.5 Y78 I0.5 J0
X18.25 Y78.25 I-0.25 J0
G1 X18
G0 Z5
Y77.75
Z-6.5
G1 Z-8 F1000
X18.25
G3 X18.5 Y78 I0 J0.25
X17.5 Y78 I-0.5 J0
X18.5 Y78 I0.5 J0
X18.25 Y78.25 I-0.25 J0
G1 X18
G0 Z5
X8 Y77.75
Z-2.5
G1 Z-4 F1000
X8.25
G3 X8.5 Y78 I0 J0.25
X7.5 Y78 I-0.5 J0
X8.5 Y78 I0.5 J0
X8.25 Y78.25 I-0.25 J0
G1 X8
G0 Z5
Y77.75
Z-6.5
G1 Z-8 F1000
X8.25
G3 X8.5 Y78 I0 J0.25
X7.5 Y78 I-0.5 J0
X8.5 Y78 I0.5 J0
X8.25 Y78.25 I-0.25 J0
G1 X8
G0 Z5
Y87.75
Z-2.5
G1 Z-4 F1000
X8.25
G3 X8.5 Y88 I0 J0.25
X7.5 Y88 I-0.5 J0
X8.5 Y88 I0.5 J0
X8.25 Y88.25 I-0.25 J0
G1 X8
G0 Z5
Y87.75
Z-6.5
G1 Z-8 F1000
X8.25
G3 X8.5 Y88 I0 J0.25
X7.5 Y88 I-0.5 J0
X8.5 Y88 I0.5 J0
X8.25 Y88.25 I-0.25 J0
G1 X8
G0 Z5
X18 Y87.75
Z-2.5
G1 Z-4 F1000
X18.25
G3 X18.5 Y88 I0 J0.25
X17.5 Y88 I-0.5 J0
X18.5 Y88 I0.5 J0
X18.25 Y88.25 I-0.25 J0
G1 X18
G0 Z5
Y87.75
Z-6.5
G1 Z-8 F1000
X18.25
G3 X18.5 Y88 I0 J0.25
X17.5 Y88 I-0.5 J0
X18.5 Y88 I0.5 J0
X18.25 Y88.25 I-0.25 J0
G1 X18
G0 Z5
X28 Y87.75
Z-2.5
G1 Z-4 F1000
X28.25
G3 X28.5 Y88 I0 J0.25
X27.5 Y88 I-0.5 J0
X28.5 Y88 I0.5 J0
X28.25 Y88.25 I-0.25 J0
G1 X28
G0 Z5
Y87.75
Z-6.5
G1 Z-8 F1000
X28.25
G3 X28.5 Y88 I0 J0.25
X27.5 Y88 I-0.5 J0
X28.5 Y88 I0.5 J0
X28.25 Y88.25 I-0.25 J0
G1 X28
G0 Z5
X38 Y87.75
Z-2.5
G1 Z-4 F1000
X38.25
G3 X38.5 Y88 I0 J0.25
X37.5 Y88 I-0.5 J0
X38.5 Y88 I0.5 J0
X38.25 Y88.25 I-0.25 J0
G1 X38
G0 Z5
Y87.75
Z-6.5
G1 Z-8 F1000
X38.25
G3 X38.5 Y88 I0 J0.25
X37.5 Y88 I-0.5 J0
X38.5 Y88 I0.5 J0
X38.25 Y88.25 I-0.25 J0
G1 X38
G0 Z5
Y97.75
Z-2.5
G1 Z-4 F1000
X38.25
G3 X38.5 Y98 I0 J0.25
X37.5 Y98 I-0.5 J0
X38.5 Y98 I0.5 J0
X38.25 Y98.25 I-0.25 J0
G1 X38
G0 Z5
Y97.75
Z-6.5
G1 Z-8 F1000
X38.25
G3 X38.5 Y98 I0 J0.25
X37.5 Y98 I-0.5 J0
X38.5 Y98 I0.5 J0
X38.25 Y98.25 I-0.25 J0
G1 X38
G0 Z5
X28 Y97.75
Z-2.5
G1 Z-4 F1000
X28.25
G3 X28.5 Y98 I0 J0.25
X27.5 Y98 I-0.5 J0
X28.5 Y98 I0.5 J0
X28.25 Y98.25 I-0.25 J0
G1 X28
G0 Z5
Y97.75
Z-6.5
G1 Z-8 F1000
X28.25
G3 X28.5 Y98 I0 J0.25
X27.5 Y98 I-0.5 J0
X28.5 Y98 I0.5 J0
X28.25 Y98.25 I-0.25 J0
G1 X28
G0 Z5
X18 Y97.75
Z-2.5
G1 Z-4 F1000
X18.25
G3 X18.5 Y98 I0 J0.25
X17.5 Y98 I-0.5 J0
X18.5 Y98 I0.5 J0
X18.25 Y98.25 I-0.25 J0
G1 X18
G0 Z5
Y97.75
Z-6.5
G1 Z-8 F1000
X18.25
G3 X18.5 Y98 I0 J0.25
X17.5 Y98 I-0.5 J0
X18.5 Y98 I0.5 J0
X18.25 Y98.25 I-0.25 J0
G1 X18
G0 Z5
X8 Y97.75
Z-2.5
G1 Z-4 F1000
X8.25
G3 X8.5 Y98 I0 J0.25
X7.5 Y98 I-0.5 J0
X8.5 Y98 I0.5 J0
X8.25 Y98.25 I-0.25 J0
G1 X8
G0 Z5
Y97.75
Z-6.5
G1 Z-8 F1000
X8.25
G3 X8.5 Y98 I0 J0.25
X7.5 Y98 I-0.5 J0
X8.5 Y98 I0.5 J0
X8.25 Y98.25 I-0.25 J0
G1 X8
G0 Z5
X38 Y107.75
Z-2.5
G1 Z-4 F1000
X38.25
G3 X38.5 Y108 I0 J0.25
X37.5 Y108 I-0.5 J0
X38.5 Y108 I0.5 J0
X38.25 Y108.25 I-0.25 J0
G1 X38
G0 Z5
Y107.75
Z-6.5
G1 Z-8 F1000
X38.25
G3 X38.5 Y108 I0 J0.25
X37.5 Y108 I-0.5 J0
X38.5 Y108 I0.5 J0
X38.25 Y108.25 I-0.25 J0
G1 X38
G0 Z5
X28 Y107.75
Z-2.5
G1 Z-4 F1000
X28.25
G3 X28.5 Y108 I0 J0.25
X27.5 Y108 I-0.5 J0
X28.5 Y108 I0.5 J0
X28.25 Y108.25 I-0.25 J0
G1 X28
G0 Z5
Y107.75
Z-6.5
G1 Z-8 F1000
X28.25
G3 X28.5 Y108 I0 J0.25
X27.5 Y108 I-0.5 J0
X28.5 Y108 I0.5 J0
X28.25 Y108.25 I-0.25 J0
G1 X28
G0 Z5
X18 Y107.75
Z-2.5
G1 Z-4 F1000
X18.25
G3 X18.5 Y108 I0 J0.25
X17.5 Y108 I-0.5 J0
X18.5 Y108 I0.5 J0
X18.25 Y108.25 I-0.25 J0
G1 X18
G0 Z5
Y107.75
Z-6.5
G1 Z-8 F1000
X18.25
G3 X18.5 Y108 I0 J0.25
X17.5 Y108 I-0.5 J0
X18.5 Y108 I0.5 J0
X18.25 Y108.25 I-0.25 J0
G1 X18
G0 Z5
X8 Y107.75
Z-2.5
G1 Z-4 F1000
X8.25
G3 X8.5 Y108 I0 J0.25
X7.5 Y108 I-0.5 J0
X8.5 Y108 I0.5 J0
X8.25 Y108.25 I-0.25 J0
G1 X8
G0 Z5
Y107.75
Z-6.5
G1 Z-8 F1000
X8.25
G3 X8.5 Y108 I0 J0.25
X7.5 Y108 I-0.5 J0
X8.5 Y108 I0.5 J0
X8.25 Y108.25 I-0.25 J0
G1 X8
G0 Z5
Y117.75
Z-2.5
G1 Z-4 F1000
X8.25
G3 X8.5 Y118 I0 J0.25
X7.5 Y118 I-0.5 J0
X8.5 Y118 I0.5 J0
X8.25 Y118.25 I-0.25 J0
G1 X8
G0 Z5
Y117.75
Z-6.5
G1 Z-8 F1000
X8.25
G3 X8.5 Y118 I0 J0.25
X7.5 Y118 I-0.5 J0
X8.5 Y118 I0.5 J0
X8.25 Y118.25 I-0.25 J0
G1 X8
G0 Z5
X18 Y117.75
Z-2.5
G1 Z-4 F1000
X18.25
G3 X18.5 Y118 I0 J0.25
X17.5 Y118 I-0.5 J0
X18.5 Y118 I0.5 J0
X18.25 Y118.25 I-0.25 J0
G1 X18
G0 Z5
Y117.75
Z-6.5
G1 Z-8 F1000
X18.25
G3 X18.5 Y118 I0 J0.25
X17.5 Y118 I-0.5 J0
X18.5 Y118 I0.5 J0
X18.25 Y118.25 I-0.25 J0
G1 X18
G0 Z5
X28 Y117.75
Z-2.5
G1 Z-4 F1000
X28.25
G3 X28.5 Y118 I0 J0.25
X27.5 Y118 I-0.5 J0
X28.5 Y118 I0.5 J0
X28.25 Y118.25 I-0.25 J0
G1 X28
G0 Z5
Y117.75
Z-6.5
G1 Z-8 F1000
X28.25
G3 X28.5 Y118 I0 J0.25
X27.5 Y118 I-0.5 J0
X28.5 Y118 I0.5 J0
X28.25 Y118.25 I-0.25 J0
G1 X28
G0 Z5
X38 Y117.75
Z-2.5
G1 Z-4 F1000
X38.25
G3 X38.5 Y118 I0 J0.25
X37.5 Y118 I-0.5 J0
X38.5 Y118 I0.5 J0
X38.25 Y118.25 I-0.25 J0
G1 X38
G0 Z5
Y117.75
Z-6.5
G1 Z-8 F1000
X38.25
G3 X38.5 Y118 I0 J0.25
X37.5 Y118 I-0.5 J0
X38.5 Y118 I0.5 J0
X38.25 Y118.25 I-0.25 J0
G1 X38
G0 Z5
X8 Y127.75
Z-2.5
G1 Z-4 F1000
X8.25
G3 X8.5 Y128 I0 J0.25
X7.5 Y128 I-0.5 J0
X8.5 Y128 I0.5 J0
X8.25 Y128.25 I-0.25 J0
G1 X8
G0 Z5
Y127.75
Z-6.5
G1 Z-8 F1000
X8.25
G3 X8.5 Y128 I0 J0.25
X7.5 Y128 I-0.5 J0
X8.5 Y128 I0.5 J0
X8.25 Y128.25 I-0.25 J0
G1 X8
G0 Z5
X18 Y127.75
Z-2.5
G1 Z-4 F1000
X18.25
G3 X18.5 Y128 I0 J0.25
X17.5 Y128 I-0.5 J0
X18.5 Y128 I0.5 J0
X18.25 Y128.25 I-0.25 J0
G1 X18
G0 Z5
Y127.75
Z-6.5
G1 Z-8 F1000
X18.25
G3 X18.5 Y128 I0 J0.25
X17.5 Y128 I-0.5 J0
X18.5 Y128 I0.5 J0
X18.25 Y128.25 I-0.25 J0
G1 X18
G0 Z5
X28 Y127.75
Z-2.5
G1 Z-4 F1000
X28.25
G3 X28.5 Y128 I0 J0.25
X27.5 Y128 I-0.5 J0
X28.5 Y128 I0.5 J0
X28.25 Y128.25 I-0.25 J0
G1 X28
G0 Z5
Y127.75
Z-6.5
G1 Z-8 F1000
X28.25
G3 X28.5 Y128 I0 J0.25
X27.5 Y128 I-0.5 J0
X28.5 Y128 I0.5 J0
X28.25 Y128.25 I-0.25 J0
G1 X28
G0 Z5
X38 Y127.75
Z-2.5
G1 Z-4 F1000
X38.25
G3 X38.5 Y128 I0 J0.25
X37.5 Y128 I-0.5 J0
X38.5 Y128 I0.5 J0
X38.25 Y128.25 I-0.25 J0
G1 X38
G0 Z5
Y127.75
Z-6.5
G1 Z-8 F1000
X38.25
G3 X38.5 Y128 I0 J0.25
X37.5 Y128 I-0.5 J0
X38.5 Y128 I0.5 J0
X38.25 Y128.25 I-0.25 J0
G1 X38
G0 Z5
Y137.75
Z-2.5
G1 Z-4 F1000
X38.25
G3 X38.5 Y138 I0 J0.25
X37.5 Y138 I-0.5 J0
X38.5 Y138 I0.5 J0
X38.25 Y138.25 I-0.25 J0
G1 X38
G0 Z5
Y137.75
Z-6.5
G1 Z-8 F1000
X38.25
G3 X38.5 Y138 I0 J0.25
X37.5 Y138 I-0.5 J0
X38.5 Y138 I0.5 J0
X38.25 Y138.25 I-0.25 J0
G1 X38
G0 Z5
X28 Y137.75
Z-2.5
G1 Z-4 F1000
X28.25
G3 X28.5 Y138 I0 J0.25
X27.5 Y138 I-0.5 J0
X28.5 Y138 I0.5 J0
X28.25 Y138.25 I-0.25 J0
G1 X28
G0 Z5
Y137.75
Z-6.5
G1 Z-8 F1000
X28.25
G3 X28.5 Y138 I0 J0.25
X27.5 Y138 I-0.5 J0
X28.5 Y138 I0.5 J0
X28.25 Y138.25 I-0.25 J0
G1 X28
G0 Z5
X18 Y137.75
Z-2.5
G1 Z-4 F1000
X18.25
G3 X18.5 Y138 I0 J0.25
X17.5 Y138 I-0.5 J0
X18.5 Y138 I0.5 J0
X18.25 Y138.25 I-0.25 J0
G1 X18
G0 Z5
Y137.75
Z-6.5
G1 Z-8 F1000
X18.25
G3 X18.5 Y138 I0 J0.25
X17.5 Y138 I-0.5 J0
X18.5 Y138 I0.5 J0
X18.25 Y138.25 I-0.25 J0
G1 X18
G0 Z5
X8 Y137.75
Z-2.5
G1 Z-4 F1000
X8.25
G3 X8.5 Y138 I0 J0.25
X7.5 Y138 I-0.5 J0
X8.5 Y138 I0.5 J0
X8.25 Y138.25 I-0.25 J0
G1 X8
G0 Z5
Y137.75
Z-6.5
G1 Z-8 F1000
X8.25
G3 X8.5 Y138 I0 J0.25
X7.5 Y138 I-0.5 J0
X8.5 Y138 I0.5 J0
X8.25 Y138.25 I-0.25 J0
G1 X8
G0 Z5
Y147.75
Z-2.5
G1 Z-4 F1000
X8.25
G3 X8.5 Y148 I0 J0.25
X7.5 Y148 I-0.5 J0
X8.5 Y148 I0.5 J0
X8.25 Y148.25 I-0.25 J0
G1 X8
G0 Z5
Y147.75
Z-6.5
G1 Z-8 F1000
X8.25
G3 X8.5 Y148 I0 J0.25
X7.5 Y148 I-0.5 J0
X8.5 Y148 I0.5 J0
X8.25 Y148.25 I-0.25 J0
G1 X8
G0 Z5
X18 Y147.75
Z-2.5
G1 Z-4 F1000
X18.25
G3 X18.5 Y148 I0 J0.25
X17.5 Y148 I-0.5 J0
X18.5 Y148 I0.5 J0
X18.25 Y148.25 I-0.25 J0
G1 X18
G0 Z5
Y147.75
Z-6.5
G1 Z-8 F1000
X18.25
G3 X18.5 Y148 I0 J0.25
X17.5 Y148 I-0.5 J0
X18.5 Y148 I0.5 J0
X18.25 Y148.25 I-0.25 J0
G1 X18
G0 Z5
X28 Y147.75
Z-2.5
G1 Z-4 F1000
X28.25
G3 X28.5 Y148 I0 J0.25
X27.5 Y148 I-0.5 J0
X28.5 Y148 I0.5 J0
X28.25 Y148.25 I-0.25 J0
G1 X28
G0 Z5
Y147.75
Z-6.5
G1 Z-8 F1000
X28.25
G3 X28.5 Y148 I0 J0.25
X27.5 Y148 I-0.5 J0
X28.5 Y148 I0.5 J0
X28.25 Y148.25 I-0.25 J0
G1 X28
G0 Z5
X38 Y147.75
Z-2.5
G1 Z-4 F1000
X38.25
G3 X38.5 Y148 I0 J0.25
X37.5 Y148 I-0.5 J0
X38.5 Y148 I0.5 J0
X38.25 Y148.25 I-0.25 J0
G1 X38
G0 Z5
Y147.75
Z-6.5
G1 Z-8 F1000
X38.25
G3 X38.5 Y148 I0 J0.25
X37.5 Y148 I-0.5 J0
X38.5 Y148 I0.5 J0
X38.25 Y148.25 I-0.25 J0
G1 X38
G0 Z5
Y157.75
Z-2.5
G1 Z-4 F1000
X38.25
G3 X38.5 Y158 I0 J0.25
X37.5 Y158 I-0.5 J0
X38.5 Y158 I0.5 J0
X38.25 Y158.25 I-0.25 J0
G1 X38
G0 Z5
Y157.75
Z-6.5
G1 Z-8 F1000
X38.25
G3 X38.5 Y158 I0 J0.25
X37.5 Y158 I-0.5 J0
X38.5 Y158 I0.5 J0
X38.25 Y158.25 I-0.25 J0
G1 X38
G0 Z5
X28 Y157.75
Z-2.5
G1 Z-4 F1000
X28.25
G3 X28.5 Y158 I0 J0.25
X27.5 Y158 I-0.5 J0
X28.5 Y158 I0.5 J0
X28.25 Y158.25 I-0.25 J0
G1 X28
G0 Z5
Y157.75
Z-6.5
G1 Z-8 F1000
X28.25
G3 X28.5 Y158 I0 J0.25
X27.5 Y158 I-0.5 J0
X28.5 Y158 I0.5 J0
X28.25 Y158.25 I-0.25 J0
G1 X28
G0 Z5
X18 Y157.75
Z-2.5
G1 Z-4 F1000
X18.25
G3 X18.5 Y158 I0 J0.25
X17.5 Y158 I-0.5 J0
X18.5 Y158 I0.5 J0
X18.25 Y158.25 I-0.25 J0
G1 X18
G0 Z5
Y157.75
Z-6.5
G1 Z-8 F1000
X18.25
G3 X18.5 Y158 I0 J0.25
X17.5 Y158 I-0.5 J0
X18.5 Y158 I0.5 J0
X18.25 Y158.25 I-0.25 J0
G1 X18
G0 Z5
X8 Y157.75
Z-2.5
G1 Z-4 F1000
X8.25
G3 X8.5 Y158 I0 J0.25
X7.5 Y158 I-0.5 J0
X8.5 Y158 I0.5 J0
X8.25 Y158.25 I-0.25 J0
G1 X8
G0 Z5
Y157.75
Z-6.5
G1 Z-8 F1000
X8.25
G3 X8.5 Y158 I0 J0.25
X7.5 Y158 I-0.5 J0
X8.5 Y158 I0.5 J0
X8.25 Y158.25 I-0.25 J0
G1 X8
G0 Z5
Y167.75
Z-2.5
G1 Z-4 F1000
X8.25
G3 X8.5 Y168 I0 J0.25
X7.5 Y168 I-0.5 J0
X8.5 Y168 I0.5 J0
X8.25 Y168.25 I-0.25 J0
G1 X8
G0 Z5
Y167.75
Z-6.5
G1 Z-8 F1000
X8.25
G3 X8.5 Y168 I0 J0.25
X7.5 Y168 I-0.5 J0
X8.5 Y168 I0.5 J0
X8.25 Y168.25 I-0.25 J0
G1 X8
G0 Z5
X18 Y167.75
Z-2.5
G1 Z-4 F1000
X18.25
G3 X18.5 Y168 I0 J0.25
X17.5 Y168 I-0.5 J0
X18.5 Y168 I0.5 J0
X18.25 Y168.25 I-0.25 J0
G1 X18
G0 Z5
Y167.75
Z-6.5
G1 Z-8 F1000
X18.25
G3 X18.5 Y168 I0 J0.25
X17.5 Y168 I-0.5 J0
X18.5 Y168 I0.5 J0
X18.25 Y168.25 I-0.25 J0
G1 X18
G0 Z5
X28 Y167.75
Z-2.5
G1 Z-4 F1000
X28.25
G3 X28.5 Y168 I0 J0.25
X27.5 Y168 I-0.5 J0
X28.5 Y168 I0.5 J0
X28.25 Y168.25 I-0.25 J0
G1 X28
G0 Z5
Y167.75
Z-6.5
G1 Z-8 F1000
X28.25
G3 X28.5 Y168 I0 J0.25
X27.5 Y168 I-0.5 J0
X28.5 Y168 I0.5 J0
X28.25 Y168.25 I-0.25 J0
G1 X28
G0 Z5
X38 Y167.75
Z-2.5
G1 Z-4 F1000
X38.25
G3 X38.5 Y168 I0 J0.25
X37.5 Y168 I-0.5 J0
X38.5 Y168 I0.5 J0
X38.25 Y168.25 I-0.25 J0
G1 X38
G0 Z5
Y167.75
Z-6.5
G1 Z-8 F1000
X38.25
G3 X38.5 Y168 I0 J0.25
X37.5 Y168 I-0.5 J0
X38.5 Y168 I0.5 J0
X38.25 Y168.25 I-0.25 J0
G1 X38
G0 Z5
Y177.75
Z-2.5
G1 Z-4 F1000
X38.25
G3 X38.5 Y178 I0 J0.25
X37.5 Y178 I-0.5 J0
X38.5 Y178 I0.5 J0
X38.25 Y178.25 I-0.25 J0
G1 X38
G0 Z5
Y177.75
Z-6.5
G1 Z-8 F1000
X38.25
G3 X38.5 Y178 I0 J0.25
X37.5 Y178 I-0.5 J0
X38.5 Y178 I0.5 J0
X38.25 Y178.25 I-0.25 J0
G1 X38
G0 Z5
X28 Y177.75
Z-2.5
G1 Z-4 F1000
X28.25
G3 X28.5 Y178 I0 J0.25
X27.5 Y178 I-0.5 J0
X28.5 Y178 I0.5 J0
X28.25 Y178.25 I-0.25 J0
G1 X28
G0 Z5
Y177.75
Z-6.5
G1 Z-8 F1000
X28.25
G3 X28.5 Y178 I0 J0.25
X27.5 Y178 I-0.5 J0
X28.5 Y178 I0.5 J0
X28.25 Y178.25 I-0.25 J0
G1 X28
G0 Z5
X18 Y177.75
Z-2.5
G1 Z-4 F1000
X18.25
G3 X18.5 Y178 I0 J0.25
X17.5 Y178 I-0.5 J0
X18.5 Y178 I0.5 J0
X18.25 Y178.25 I-0.25 J0
G1 X18
G0 Z5
Y177.75
Z-6.5
G1 Z-8 F1000
X18.25
G3 X18.5 Y178 I0 J0.25
X17.5 Y178 I-0.5 J0
X18.5 Y178 I0.5 J0
X18.25 Y178.25 I-0.25 J0
G1 X18
G0 Z5
X8 Y177.75
Z-2.5
G1 Z-4 F1000
X8.25
G3 X8.5 Y178 I0 J0.25
X7.5 Y178 I-0.5 J0
X8.5 Y178 I0.5 J0
X8.25 Y178.25 I-0.25 J0
G1 X8
G0 Z5
Y177.75
Z-6.5
G1 Z-8 F1000
X8.25
G3 X8.5 Y178 I0 J0.25
X7.5 Y178 I-0.5 J0
X8.5 Y178 I0.5 J0
X8.25 Y178.25 I-0.25 J0
G1 X8
G0 Z5
Y187.75
Z-2.5
G1 Z-4 F1000
X8.25
G3 X8.5 Y188 I0 J0.25
X7.5 Y188 I-0.5 J0
X8.5 Y188 I0.5 J0
X8.25 Y188.25 I-0.25 J0
G1 X8
G0 Z5
Y187.75
Z-6.5
G1 Z-8 F1000
X8.25
G3 X8.5 Y188 I0 J0.25
X7.5 Y188 I-0.5 J0
X8.5 Y188 I0.5 J0
X8.25 Y188.25 I-0.25 J0
G1 X8
G0 Z5
X18 Y187.75
Z-2.5
G1 Z-4 F1000
X18.25
G3 X18.5 Y188 I0 J0.25
X17.5 Y188 I-0.5 J0
X18.5 Y188 I0.5 J0
X18.25 Y188.25 I-0.25 J0
G1 X18
G0 Z5
Y187.75
Z-6.5
G1 Z-8 F1000
X18.25
G3 X18.5 Y188 I0 J0.25
X17.5 Y188 I-0.5 J0
X18.5 Y188 I0.5 J0
X18.25 Y188.25 I-0.25 J0
G1 X18
G0 Z5
X28 Y187.75
Z-2.5
G1 Z-4 F1000
X28.25
G3 X28.5 Y188 I0 J0.25
X27.5 Y188 I-0.5 J0
X28.5 Y188 I0.5 J0
X28.25 Y188.25 I-0.25 J0
G1 X28
G0 Z5
Y187.75
Z-6.5
G1 Z-8 F1000
X28.25
G3 X28.5 Y188 I0 J0.25
X27.5 Y188 I-0.5 J0
X28.5 Y188 I0.5 J0
X28.25 Y188.25 I-0.25 J0
G1 X28
G0 Z5
X38 Y187.75
Z-2.5
G1 Z-4 F1000
X38.25
G3 X38.5 Y188 I0 J0.25
X37.5 Y188 I-0.5 J0
X38.5 Y188 I0.5 J0
X38.25 Y188.25 I-0.25 J0
G1 X38
G0 Z5
Y187.75
Z-6.5
G1 Z-8 F1000
X38.25
G3 X38.5 Y188 I0 J0.25
X37.5 Y188 I-0.5 J0
X38.5 Y188 I0.5 J0
X38.25 Y188.25 I-0.25 J0
G1 X38
G0 Z5
X8 Y197.75
Z-2.5
G1 Z-4 F1000
X8.25
G3 X8.5 Y198 I0 J0.25
X7.5 Y198 I-0.5 J0
X8.5 Y198 I0.5 J0
X8.25 Y198.25 I-0.25 J0
G1 X8
G0 Z5
Y197.75
Z-6.5
G1 Z-8 F1000
X8.25
G3 X8.5 Y198 I0 J0.25
X7.5 Y198 I-0.5 J0
X8.5 Y198 I0.5 J0
X8.25 Y198.25 I-0.25 J0
G1 X8
G0 Z5
X18 Y197.75
Z-2.5
G1 Z-4 F1000
X18.25
G3 X18.5 Y198 I0 J0.25
X17.5 Y198 I-0.5 J0
X18.5 Y198 I0.5 J0
X18.25 Y198.25 I-0.25 J0
G1 X18
G0 Z5
Y197.75
Z-6.5
G1 Z-8 F1000
X18.25
G3 X18.5 Y198 I0 J0.25
X17.5 Y198 I-0.5 J0
X18.5 Y198 I0.5 J0
X18.25 Y198.25 I-0.25 J0
G1 X18
G0 Z5
X28 Y197.75
Z-2.5
G1 Z-4 F1000
X28.25
G3 X28.5 Y198 I0 J0.25
X27.5 Y198 I-0.5 J0
X28.5 Y198 I0.5 J0
X28.25 Y198.25 I-0.25 J0
G1 X28
G0 Z5
Y197.75
Z-6.5
G1 Z-8 F1000
X28.25
G3 X28.5 Y198 I0 J0.25
X27.5 Y198 I-0.5 J0
X28.5 Y198 I0.5 J0
X28.25 Y198.25 I-0.25 J0
G1 X28
G0 Z5
X38 Y197.75
Z-2.5
G1 Z-4 F1000
X38.25
G3 X38.5 Y198 I0 J0.25
X37.5 Y198 I-0.5 J0
X38.5 Y198 I0.5 J0
X38.25 Y198.25 I-0.25 J0
G1 X38
G0 Z5
Y197.75
Z-6.5
G1 Z-8 F1000
X38.25
G3 X38.5 Y198 I0 J0.25
X37.5 Y198 I-0.5 J0
X38.5 Y198 I0.5 J0
X38.25 Y198.25 I-0.25 J0
G1 X38
G0 Z5
Y207.75
Z-2.5
G1 Z-4 F1000
X38.25
G3 X38.5 Y208 I0 J0.25
X37.5 Y208 I-0.5 J0
X38.5 Y208 I0.5 J0
X38.25 Y208.25 I-0.25 J0
G1 X38
G0 Z5
Y207.75
Z-6.5
G1 Z-8 F1000
X38.25
G3 X38.5 Y208 I0 J0.25
X37.5 Y208 I-0.5 J0
X38.5 Y208 I0.5 J0
X38.25 Y208.25 I-0.25 J0
G1 X38
G0 Z5
X28 Y207.75
Z-2.5
G1 Z-4 F1000
X28.25
G3 X28.5 Y208 I0 J0.25
X27.5 Y208 I-0.5 J0
X28.5 Y208 I0.5 J0
X28.25 Y208.25 I-0.25 J0
G1 X28
G0 Z5
Y207.75
Z-6.5
G1 Z-8 F1000
X28.25
G3 X28.5 Y208 I0 J0.25
X27.5 Y208 I-0.5 J0
X28.5 Y208 I0.5 J0
X28.25 Y208.25 I-0.25 J0
G1 X28
G0 Z5
X18 Y207.75
Z-2.5
G1 Z-4 F1000
X18.25
G3 X18.5 Y208 I0 J0.25
X17.5 Y208 I-0.5 J0
X18.5 Y208 I0.5 J0
X18.25 Y208.25 I-0.25 J0
G1 X18
G0 Z5
Y207.75
Z-6.5
G1 Z-8 F1000
X18.25
G3 X18.5 Y208 I0 J0.25
X17.5 Y208 I-0.5 J0
X18.5 Y208 I0.5 J0
X18.25 Y208.25 I-0.25 J0
G1 X18
G0 Z5
X8 Y207.75
Z-2.5
G1 Z-4 F1000
X8.25
G3 X8.5 Y208 I0 J0.25
X7.5 Y208 I-0.5 J0
X8.5 Y208 I0.5 J0
X8.25 Y208.25 I-0.25 J0
G1 X8
G0 Z5
Y207.75
Z-6.5
G1 Z-8 F1000
X8.25
G3 X8.5 Y208 I0 J0.25
X7.5 Y208 I-0.5 J0
X8.5 Y208 I0.5 J0
X8.25 Y208.25 I-0.25 J0
G1 X8
G0 Z5
Y217.75
Z-2.5
G1 Z-4 F1000
X8.25
G3 X8.5 Y218 I0 J0.25
X7.5 Y218 I-0.5 J0
X8.5 Y218 I0.5 J0
X8.25 Y218.25 I-0.25 J0
G1 X8
G0 Z5
Y217.75
Z-6.5
G1 Z-8 F1000
X8.25
G3 X8.5 Y218 I0 J0.25
X7.5 Y218 I-0.5 J0
X8.5 Y218 I0.5 J0
X8.25 Y218.25 I-0.25 J0
G1 X8
G0 Z5
X18 Y217.75
Z-2.5
G1 Z-4 F1000
X18.25
G3 X18.5 Y218 I0 J0.25
X17.5 Y218 I-0.5 J0
X18.5 Y218 I0.5 J0
X18.25 Y218.25 I-0.25 J0
G1 X18
G0 Z5
Y217.75
Z-6.5
G1 Z-8 F1000
X18.25
G3 X18.5 Y218 I0 J0.25
X17.5 Y218 I-0.5 J0
X18.5 Y218 I0.5 J0
X18.25 Y218.25 I-0.25 J0
G1 X18
G0 Z5
X28 Y217.75
Z-2.5
G1 Z-4 F1000
X28.25
G3 X28.5 Y218 I0 J0.25
X27.5 Y218 I-0.5 J0
X28.5 Y218 I0.5 J0
X28.25 Y218.25 I-0.25 J0
G1 X28
G0 Z5
Y217.75
Z-6.5
G1 Z-8 F1000
X28.25
G3 X28.5 Y218 I0 J0.25
X27.5 Y218 I-0.5 J0
X28.5 Y218 I0.5 J0
X28.25 Y218.25 I-0.25 J0
G1 X28
G0 Z5
X38 Y217.75
Z-2.5
G1 Z-4 F1000
X38.25
G3 X38.5 Y218 I0 J0.25
X37.5 Y218 I-0.5 J0
X38.5 Y218 I0.5 J0
X38.25 Y218.25 I-0.25 J0
G1 X38
G0 Z5
Y217.75
Z-6.5
G1 Z-8 F1000
X38.25
G3 X38.5 Y218 I0 J0.25
X37.5 Y218 I-0.5 J0
X38.5 Y218 I0.5 J0
X38.25 Y218.25 I-0.25 J0
G1 X38
G0 Z5
Y227.75
Z-2.5
G1 Z-4 F1000
X38.25
G3 X38.5 Y228 I0 J0.25
X37.5 Y228 I-0.5 J0
X38.5 Y228 I0.5 J0
X38.25 Y228.25 I-0.25 J0
G1 X38
G0 Z5
Y227.75
Z-6.5
G1 Z-8 F1000
X38.25
G3 X38.5 Y228 I0 J0.25
X37.5 Y228 I-0.5 J0
X38.5 Y228 I0.5 J0
X38.25 Y228.25 I-0.25 J0
G1 X38
G0 Z5
X28 Y227.75
Z-2.5
G1 Z-4 F1000
X28.25
G3 X28.5 Y228 I0 J0.25
X27.5 Y228 I-0.5 J0
X28.5 Y228 I0.5 J0
X28.25 Y228.25 I-0.25 J0
G1 X28
G0 Z5
Y227.75
Z-6.5
G1 Z-8 F1000
X28.25
G3 X28.5 Y228 I0 J0.25
X27.5 Y228 I-0.5 J0
X28.5 Y228 I0.5 J0
X28.25 Y228.25 I-0.25 J0
G1 X28
G0 Z5
X18 Y227.75
Z-2.5
G1 Z-4 F1000
X18.25
G3 X18.5 Y228 I0 J0.25
X17.5 Y228 I-0.5 J0
X18.5 Y228 I0.5 J0
X18.25 Y228.25 I-0.25 J0
G1 X18
G0 Z5
Y227.75
Z-6.5
G1 Z-8 F1000
X18.25
G3 X18.5 Y228 I0 J0.25
X17.5 Y228 I-0.5 J0
X18.5 Y228 I0.5 J0
X18.25 Y228.25 I-0.25 J0
G1 X18
G0 Z5
X8 Y227.75
Z-2.5
G1 Z-4 F1000
X8.25
G3 X8.5 Y228 I0 J0.25
X7.5 Y228 I-0.5 J0
X8.5 Y228 I0.5 J0
X8.25 Y228.25 I-0.25 J0
G1 X8
G0 Z5
Y227.75
Z-6.5
G1 Z-8 F1000
X8.25
G3 X8.5 Y228 I0 J0.25
X7.5 Y228 I-0.5 J0
X8.5 Y228 I0.5 J0
X8.25 Y228.25 I-0.25 J0
G1 X8
G0 Z5
Y237.75
Z-2.5
G1 Z-4 F1000
X8.25
G3 X8.5 Y238 I0 J0.25
X7.5 Y238 I-0.5 J0
X8.5 Y238 I0.5 J0
X8.25 Y238.25 I-0.25 J0
G1 X8
G0 Z5
Y237.75
Z-6.5
G1 Z-8 F1000
X8.25
G3 X8.5 Y238 I0 J0.25
X7.5 Y238 I-0.5 J0
X8.5 Y238 I0.5 J0
X8.25 Y238.25 I-0.25 J0
G1 X8
G0 Z5
X18 Y237.75
Z-2.5
G1 Z-4 F1000
X18.25
G3 X18.5 Y238 I0 J0.25
X17.5 Y238 I-0.5 J0
X18.5 Y238 I0.5 J0
X18.25 Y238.25 I-0.25 J0
G1 X18
G0 Z5
Y237.75
Z-6.5
G1 Z-8 F1000
X18.25
G3 X18.5 Y238 I0 J0.25
X17.5 Y238 I-0.5 J0
X18.5 Y238 I0.5 J0
X18.25 Y238.25 I-0.25 J0
G1 X18
G0 Z5
X28 Y237.75
Z-2.5
G1 Z-4 F1000
X28.25
G3 X28.5 Y238 I0 J0.25
X27.5 Y238 I-0.5 J0
X28.5 Y238 I0.5 J0
X28.25 Y238.25 I-0.25 J0
G1 X28
G0 Z5
Y237.75
Z-6.5
G1 Z-8 F1000
X28.25
G3 X28.5 Y238 I0 J0.25
X27.5 Y238 I-0.5 J0
X28.5 Y238 I0.5 J0
X28.25 Y238.25 I-0.25 J0
G1 X28
G0 Z5
X38 Y237.75
Z-2.5
G1 Z-4 F1000
X38.25
G3 X38.5 Y238 I0 J0.25
X37.5 Y238 I-0.5 J0
X38.5 Y238 I0.5 J0
X38.25 Y238.25 I-0.25 J0
G1 X38
G0 Z5
Y237.75
Z-6.5
G1 Z-8 F1000
X38.25
G3 X38.5 Y238 I0 J0.25
X37.5 Y238 I-0.5 J0
X38.5 Y238 I0.5 J0
X38.25 Y238.25 I-0.25 J0
G1 X38
G0 Z5
Y247.75
Z-2.5
G1 Z-4 F1000
X38.25
G3 X38.5 Y248 I0 J0.25
X37.5 Y248 I-0.5 J0
X38.5 Y248 I0.5 J0
X38.25 Y248.25 I-0.25 J0
G1 X38
G0 Z5
Y247.75
Z-6.5
G1 Z-8 F1000
X38.25
G3 X38.5 Y248 I0 J0.25
X37.5 Y248 I-0.5 J0
X38.5 Y248 I0.5 J0
X38.25 Y248.25 I-0.25 J0
G1 X38
G0 Z5
X28 Y247.75
Z-2.5
G1 Z-4 F1000
X28.25
G3 X28.5 Y248 I0 J0.25
X27.5 Y248 I-0.5 J0
X28.5 Y248 I0.5 J0
X28.25 Y248.25 I-0.25 J0
G1 X28
G0 Z5
Y247.75
Z-6.5
G1 Z-8 F1000
X28.25
G3 X28.5 Y248 I0 J0.25
X27.5 Y248 I-0.5 J0
X28.5 Y248 I0.5 J0
X28.25 Y248.25 I-0.25 J0
G1 X28
G0 Z5
X18 Y247.75
Z-2.5
G1 Z-4 F1000
X18.25
G3 X18.5 Y248 I0 J0.25
X17.5 Y248 I-0.5 J0
X18.5 Y248 I0.5 J0
X18.25 Y248.25 I-0.25 J0
G1 X18
G0 Z5
Y247.75
Z-6.5
G1 Z-8 F1000
X18.25
G3 X18.5 Y248 I0 J0.25
X17.5 Y248 I-0.5 J0
X18.5 Y248 I0.5 J0
X18.25 Y248.25 I-0.25 J0
G1 X18
G0 Z5
X8 Y247.75
Z-2.5
G1 Z-4 F1000
X8.25
G3 X8.5 Y248 I0 J0.25
X7.5 Y248 I-0.5 J0
X8.5 Y248 I0.5 J0
X8.25 Y248.25 I-0.25 J0
G1 X8
G0 Z5
Y247.75
Z-6.5
G1 Z-8 F1000
X8.25
G3 X8.5 Y248 I0 J0.25
X7.5 Y248 I-0.5 J0
X8.5 Y248 I0.5 J0
X8.25 Y248.25 I-0.25 J0
G1 X8
G0 Z5
Y257.75
Z-2.5
G1 Z-4 F1000
X8.25
G3 X8.5 Y258 I0 J0.25
X7.5 Y258 I-0.5 J0
X8.5 Y258 I0.5 J0
X8.25 Y258.25 I-0.25 J0
G1 X8
G0 Z5
Y257.75
Z-6.5
G1 Z-8 F1000
X8.25
G3 X8.5 Y258 I0 J0.25
X7.5 Y258 I-0.5 J0
X8.5 Y258 I0.5 J0
X8.25 Y258.25 I-0.25 J0
G1 X8
G0 Z5
X18 Y257.75
Z-2.5
G1 Z-4 F1000
X18.25
G3 X18.5 Y258 I0 J0.25
X17.5 Y258 I-0.5 J0
X18.5 Y258 I0.5 J0
X18.25 Y258.25 I-0.25 J0
G1 X18
G0 Z5
Y257.75
Z-6.5
G1 Z-8 F1000
X18.25
G3 X18.5 Y258 I0 J0.25
X17.5 Y258 I-0.5 J0
X18.5 Y258 I0.5 J0
X18.25 Y258.25 I-0.25 J0
G1 X18
G0 Z5
X28 Y257.75
Z-2.5
G1 Z-4 F1000
X28.25
G3 X28.5 Y258 I0 J0.25
X27.5 Y258 I-0.5 J0
X28.5 Y258 I0.5 J0
X28.25 Y258.25 I-0.25 J0
G1 X28
G0 Z5
Y257.75
Z-6.5
G1 Z-8 F1000
X28.25
G3 X28.5 Y258 I0 J0.25
X27.5 Y258 I-0.5 J0
X28.5 Y258 I0.5 J0
X28.25 Y258.25 I-0.25 J0
G1 X28
G0 Z5
X38 Y257.75
Z-2.5
G1 Z-4 F1000
X38.25
G3 X38.5 Y258 I0 J0.25
X37.5 Y258 I-0.5 J0
X38.5 Y258 I0.5 J0
X38.25 Y258.25 I-0.25 J0
G1 X38
G0 Z5
Y257.75
Z-6.5
G1 Z-8 F1000
X38.25
G3 X38.5 Y258 I0 J0.25
X37.5 Y258 I-0.5 J0
X38.5 Y258 I0.5 J0
X38.25 Y258.25 I-0.25 J0
G1 X38
G0 Z5
Y267.75
Z-2.5
G1 Z-4 F1000
X38.25
G3 X38.5 Y268 I0 J0.25
X37.5 Y268 I-0.5 J0
X38.5 Y268 I0.5 J0
X38.25 Y268.25 I-0.25 J0
G1 X38
G0 Z5
Y267.75
Z-6.5
G1 Z-8 F1000
X38.25
G3 X38.5 Y268 I0 J0.25
X37.5 Y268 I-0.5 J0
X38.5 Y268 I0.5 J0
X38.25 Y268.25 I-0.25 J0
G1 X38
G0 Z5
X28 Y267.75
Z-2.5
G1 Z-4 F1000
X28.25
G3 X28.5 Y268 I0 J0.25
X27.5 Y268 I-0.5 J0
X28.5 Y268 I0.5 J0
X28.25 Y268.25 I-0.25 J0
G1 X28
G0 Z5
Y267.75
Z-6.5
G1 Z-8 F1000
X28.25
G3 X28.5 Y268 I0 J0.25
X27.5 Y268 I-0.5 J0
X28.5 Y268 I0.5 J0
X28.25 Y268.25 I-0.25 J0
G1 X28
G0 Z5
X18 Y267.75
Z-2.5
G1 Z-4 F1000
X18.25
G3 X18.5 Y268 I0 J0.25
X17.5 Y268 I-0.5 J0
X18.5 Y268 I0.5 J0
X18.25 Y268.25 I-0.25 J0
G1 X18
G0 Z5
Y267.75
Z-6.5
G1 Z-8 F1000
X18.25
G3 X18.5 Y268 I0 J0.25
X17.5 Y268 I-0.5 J0
X18.5 Y268 I0.5 J0
X18.25 Y268.25 I-0.25 J0
G1 X18
G0 Z5
X8 Y267.75
Z-2.5
G1 Z-4 F1000
X8.25
G3 X8.5 Y268 I0 J0.25
X7.5 Y268 I-0.5 J0
X8.5 Y268 I0.5 J0
X8.25 Y268.25 I-0.25 J0
G1 X8
G0 Z5
Y267.75
Z-6.5
G1 Z-8 F1000
X8.25
G3 X8.5 Y268 I0 J0.25
X7.5 Y268 I-0.5 J0
X8.5 Y268 I0.5 J0
X8.25 Y268.25 I-0.25 J0
G1 X8
G0 Z5
Y277.75
Z-2.5
G1 Z-4 F1000
X8.25
G3 X8.5 Y278 I0 J0.25
X7.5 Y278 I-0.5 J0
X8.5 Y278 I0.5 J0
X8.25 Y278.25 I-0.25 J0
G1 X8
G0 Z5
Y277.75
Z-6.5
G1 Z-8 F1000
X8.25
G3 X8.5 Y278 I0 J0.25
X7.5 Y278 I-0.5 J0
X8.5 Y278 I0.5 J0
X8.25 Y278.25 I-0.25 J0
G1 X8
G0 Z5
X18 Y277.75
Z-2.5
G1 Z-4 F1000
X18.25
G3 X18.5 Y278 I0 J0.25
X17.5 Y278 I-0.5 J0
X18.5 Y278 I0.5 J0
X18.25 Y278.25 I-0.25 J0
G1 X18
G0 Z5
Y277.75
Z-6.5
G1 Z-8 F1000
X18.25
G3 X18.5 Y278 I0 J0.25
X17.5 Y278 I-0.5 J0
X18.5 Y278 I0.5 J0
X18.25 Y278.25 I-0.25 J0
G1 X18
G0 Z5
X28 Y277.75
Z-2.5
G1 Z-4 F1000
X28.25
G3 X28.5 Y278 I0 J0.25
X27.5 Y278 I-0.5 J0
X28.5 Y278 I0.5 J0
X28.25 Y278.25 I-0.25 J0
G1 X28
G0 Z5
Y277.75
Z-6.5
G1 Z-8 F1000
X28.25
G3 X28.5 Y278 I0 J0.25
X27.5 Y278 I-0.5 J0
X28.5 Y278 I0.5 J0
X28.25 Y278.25 I-0.25 J0
G1 X28
G0 Z5
X38 Y277.75
Z-2.5
G1 Z-4 F1000
X38.25
G3 X38.5 Y278 I0 J0.25
X37.5 Y278 I-0.5 J0
X38.5 Y278 I0.5 J0
X38.25 Y278.25 I-0.25 J0
G1 X38
G0 Z5
Y277.75
Z-6.5
G1 Z-8 F1000
X38.25
G3 X38.5 Y278 I0 J0.25
X37.5 Y278 I-0.5 J0
X38.5 Y278 I0.5 J0
X38.25 Y278.25 I-0.25 J0
G1 X38
G0 Z5
Y287.75
Z-2.5
G1 Z-4 F1000
X38.25
G3 X38.5 Y288 I0 J0.25
X37.5 Y288 I-0.5 J0
X38.5 Y288 I0.5 J0
X38.25 Y288.25 I-0.25 J0
G1 X38
G0 Z5
Y287.75
Z-6.5
G1 Z-8 F1000
X38.25
G3 X38.5 Y288 I0 J0.25
X37.5 Y288 I-0.5 J0
X38.5 Y288 I0.5 J0
X38.25 Y288.25 I-0.25 J0
G1 X38
G0 Z5
X28 Y287.75
Z-2.5
G1 Z-4 F1000
X28.25
G3 X28.5 Y288 I0 J0.25
X27.5 Y288 I-0.5 J0
X28.5 Y288 I0.5 J0
X28.25 Y288.25 I-0.25 J0
G1 X28
G0 Z5
Y287.75
Z-6.5
G1 Z-8 F1000
X28.25
G3 X28.5 Y288 I0 J0.25
X27.5 Y288 I-0.5 J0
X28.5 Y288 I0.5 J0
X28.25 Y288.25 I-0.25 J0
G1 X28
G0 Z5
X18 Y287.75
Z-2.5
G1 Z-4 F1000
X18.25
G3 X18.5 Y288 I0 J0.25
X17.5 Y288 I-0.5 J0
X18.5 Y288 I0.5 J0
X18.25 Y288.25 I-0.25 J0
G1 X18
G0 Z5
Y287.75
Z-6.5
G1 Z-8 F1000
X18.25
G3 X18.5 Y288 I0 J0.25
X17.5 Y288 I-0.5 J0
X18.5 Y288 I0.5 J0
X18.25 Y288.25 I-0.25 J0
G1 X18
G0 Z5
X8 Y287.75
Z-2.5
G1 Z-4 F1000
X8.25
G3 X8.5 Y288 I0 J0.25
X7.5 Y288 I-0.5 J0
X8.5 Y288 I0.5 J0
X8.25 Y288.25 I-0.25 J0
G1 X8
G0 Z5
Y287.75
Z-6.5
G1 Z-8 F1000
X8.25
G3 X8.5 Y288 I0 J0.25
X7.5 Y288 I-0.5 J0
X8.5 Y288 I0.5 J0
X8.25 Y288.25 I-0.25 J0
G1 X8
G0 Z5
Y297.75
Z-2.5
G1 Z-4 F1000
X8.25
G3 X8.5 Y298 I0 J0.25
X7.5 Y298 I-0.5 J0
X8.5 Y298 I0.5 J0
X8.25 Y298.25 I-0.25 J0
G1 X8
G0 Z5
Y297.75
Z-6.5
G1 Z-8 F1000
X8.25
G3 X8.5 Y298 I0 J0.25
X7.5 Y298 I-0.5 J0
X8.5 Y298 I0.5 J0
X8.25 Y298.25 I-0.25 J0
G1 X8
G0 Z5
X18 Y297.75
Z-2.5
G1 Z-4 F1000
X18.25
G3 X18.5 Y298 I0 J0.25
X17.5 Y298 I-0.5 J0
X18.5 Y298 I0.5 J0
X18.25 Y298.25 I-0.25 J0
G1 X18
G0 Z5
Y297.75
Z-6.5
G1 Z-8 F1000
X18.25
G3 X18.5 Y298 I0 J0.25
X17.5 Y298 I-0.5 J0
X18.5 Y298 I0.5 J0
X18.25 Y298.25 I-0.25 J0
G1 X18
G0 Z5
X28 Y297.75
Z-2.5
G1 Z-4 F1000
X28.25
G3 X28.5 Y298 I0 J0.25
X27.5 Y298 I-0.5 J0
X28.5 Y298 I0.5 J0
X28.25 Y298.25 I-0.25 J0
G1 X28
G0 Z5
Y297.75
Z-6.5
G1 Z-8 F1000
X28.25
G3 X28.5 Y298 I0 J0.25
X27.5 Y298 I-0.5 J0
X28.5 Y298 I0.5 J0
X28.25 Y298.25 I-0.25 J0
G1 X28
G0 Z5
X38 Y297.75
Z-2.5
G1 Z-4 F1000
X38.25
G3 X38.5 Y298 I0 J0.25
X37.5 Y298 I-0.5 J0
X38.5 Y298 I0.5 J0
X38.25 Y298.25 I-0.25 J0
G1 X38
G0 Z5
Y297.75
Z-6.5
G1 Z-8 F1000
X38.25
G3 X38.5 Y298 I0 J0.25
X37.5 Y298 I-0.5 J0
X38.5 Y298 I0.5 J0
X38.25 Y298.25 I-0.25 J0
G1 X38
G0 Z5
Y307.75
Z-2.5
G1 Z-4 F1000
X38.25
G3 X38.5 Y308 I0 J0.25
X37.5 Y308 I-0.5 J0
X38.5 Y308 I0.5 J0
X38.25 Y308.25 I-0.25 J0
G1 X38
G0 Z5
Y307.75
Z-6.5
G1 Z-8 F1000
X38.25
G3 X38.5 Y308 I0 J0.25
X37.5 Y308 I-0.5 J0
X38.5 Y308 I0.5 J0
X38.25 Y308.25 I-0.25 J0
G1 X38
G0 Z5
X28 Y307.75
Z-2.5
G1 Z-4 F1000
X28.25
G3 X28.5 Y308 I0 J0.25
X27.5 Y308 I-0.5 J0
X28.5 Y308 I0.5 J0
X28.25 Y308.25 I-0.25 J0
G1 X28
G0 Z5
Y307.75
Z-6.5
G1 Z-8 F1000
X28.25
G3 X28.5 Y308 I0 J0.25
X27.5 Y308 I-0.5 J0
X28.5 Y308 I0.5 J0
X28.25 Y308.25 I-0.25 J0
G1 X28
G0 Z5
X18 Y307.75
Z-2.5
G1 Z-4 F1000
X18.25
G3 X18.5 Y308 I0 J0.25
X17.5 Y308 I-0.5 J0
X18.5 Y308 I0.5 J0
X18.25 Y308.25 I-0.25 J0
G1 X18
G0 Z5
Y307.75
Z-6.5
G1 Z-8 F1000
X18.25
G3 X18.5 Y308 I0 J0.25
X17.5 Y308 I-0.5 J0
X18.5 Y308 I0.5 J0
X18.25 Y308.25 I-0.25 J0
G1 X18
G0 Z5
X8 Y307.75
Z-2.5
G1 Z-4 F1000
X8.25
G3 X8.5 Y308 I0 J0.25
X7.5 Y308 I-0.5 J0
X8.5 Y308 I0.5 J0
X8.25 Y308.25 I-0.25 J0
G1 X8
G0 Z5
Y307.75
Z-6.5
G1 Z-8 F1000
X8.25
G3 X8.5 Y308 I0 J0.25
X7.5 Y308 I-0.5 J0
X8.5 Y308 I0.5 J0
X8.25 Y308.25 I-0.25 J0
G1 X8
G0 Z5
Y317.75
Z-2.5
G1 Z-4 F1000
X8.25
G3 X8.5 Y318 I0 J0.25
X7.5 Y318 I-0.5 J0
X8.5 Y318 I0.5 J0
X8.25 Y318.25 I-0.25 J0
G1 X8
G0 Z5
Y317.75
Z-6.5
G1 Z-8 F1000
X8.25
G3 X8.5 Y318 I0 J0.25
X7.5 Y318 I-0.5 J0
X8.5 Y318 I0.5 J0
X8.25 Y318.25 I-0.25 J0
G1 X8
G0 Z5
X18 Y317.75
Z-2.5
G1 Z-4 F1000
X18.25
G3 X18.5 Y318 I0 J0.25
X17.5 Y318 I-0.5 J0
X18.5 Y318 I0.5 J0
X18.25 Y318.25 I-0.25 J0
G1 X18
G0 Z5
Y317.75
Z-6.5
G1 Z-8 F1000
X18.25
G3 X18.5 Y318 I0 J0.25
X17.5 Y318 I-0.5 J0
X18.5 Y318 I0.5 J0
X18.25 Y318.25 I-0.25 J0
G1 X18
G0 Z5
X28 Y317.75
Z-2.5
G1 Z-4 F1000
X28.25
G3 X28.5 Y318 I0 J0.25
X27.5 Y318 I-0.5 J0
X28.5 Y318 I0.5 J0
X28.25 Y318.25 I-0.25 J0
G1 X28
G0 Z5
Y317.75
Z-6.5
G1 Z-8 F1000
X28.25
G3 X28.5 Y318 I0 J0.25
X27.5 Y318 I-0.5 J0
X28.5 Y318 I0.5 J0
X28.25 Y318.25 I-0.25 J0
G1 X28
G0 Z5
X38 Y317.75
Z-2.5
G1 Z-4 F1000
X38.25
G3 X38.5 Y318 I0 J0.25
X37.5 Y318 I-0.5 J0
X38.5 Y318 I0.5 J0
X38.25 Y318.25 I-0.25 J0
G1 X38
G0 Z5
Y317.75
Z-6.5
G1 Z-8 F1000
X38.25
G3 X38.5 Y318 I0 J0.25
X37.5 Y318 I-0.5 J0
X38.5 Y318 I0.5 J0
X38.25 Y318.25 I-0.25 J0
G1 X38
G0 Z5
Y327.75
Z-2.5
G1 Z-4 F1000
X38.25
G3 X38.5 Y328 I0 J0.25
X37.5 Y328 I-0.5 J0
X38.5 Y328 I0.5 J0
X38.25 Y328.25 I-0.25 J0
G1 X38
G0 Z5
Y327.75
Z-6.5
G1 Z-8 F1000
X38.25
G3 X38.5 Y328 I0 J0.25
X37.5 Y328 I-0.5 J0
X38.5 Y328 I0.5 J0
X38.25 Y328.25 I-0.25 J0
G1 X38
G0 Z5
X28 Y327.75
Z-2.5
G1 Z-4 F1000
X28.25
G3 X28.5 Y328 I0 J0.25
X27.5 Y328 I-0.5 J0
X28.5 Y328 I0.5 J0
X28.25 Y328.25 I-0.25 J0
G1 X28
G0 Z5
Y327.75
Z-6.5
G1 Z-8 F1000
X28.25
G3 X28.5 Y328 I0 J0.25
X27.5 Y328 I-0.5 J0
X28.5 Y328 I0.5 J0
X28.25 Y328.25 I-0.25 J0
G1 X28
G0 Z5
X18 Y327.75
Z-2.5
G1 Z-4 F1000
X18.25
G3 X18.5 Y328 I0 J0.25
X17.5 Y328 I-0.5 J0
X18.5 Y328 I0.5 J0
X18.25 Y328.25 I-0.25 J0
G1 X18
G0 Z5
Y327.75
Z-6.5
G1 Z-8 F1000
X18.25
G3 X18.5 Y328 I0 J0.25
X17.5 Y328 I-0.5 J0
X18.5 Y328 I0.5 J0
X18.25 Y328.25 I-0.25 J0
G1 X18
G0 Z5
X8 Y327.75
Z-2.5
G1 Z-4 F1000
X8.25
G3 X8.5 Y328 I0 J0.25
X7.5 Y328 I-0.5 J0
X8.5 Y328 I0.5 J0
X8.25 Y328.25 I-0.25 J0
G1 X8
G0 Z5
Y327.75
Z-6.5
G1 Z-8 F1000
X8.25
G3 X8.5 Y328 I0 J0.25
X7.5 Y328 I-0.5 J0
X8.5 Y328 I0.5 J0
X8.25 Y328.25 I-0.25 J0
G1 X8
G0 Z5
Y337.75
Z-2.5
G1 Z-4 F1000
X8.25
G3 X8.5 Y338 I0 J0.25
X7.5 Y338 I-0.5 J0
X8.5 Y338 I0.5 J0
X8.25 Y338.25 I-0.25 J0
G1 X8
G0 Z5
Y337.75
Z-6.5
G1 Z-8 F1000
X8.25
G3 X8.5 Y338 I0 J0.25
X7.5 Y338 I-0.5 J0
X8.5 Y338 I0.5 J0
X8.25 Y338.25 I-0.25 J0
G1 X8
G0 Z5
X18 Y337.75
Z-2.5
G1 Z-4 F1000
X18.25
G3 X18.5 Y338 I0 J0.25
X17.5 Y338 I-0.5 J0
X18.5 Y338 I0.5 J0
X18.25 Y338.25 I-0.25 J0
G1 X18
G0 Z5
Y337.75
Z-6.5
G1 Z-8 F1000
X18.25
G3 X18.5 Y338 I0 J0.25
X17.5 Y338 I-0.5 J0
X18.5 Y338 I0.5 J0
X18.25 Y338.25 I-0.25 J0
G1 X18
G0 Z5
X28 Y337.75
Z-2.5
G1 Z-4 F1000
X28.25
G3 X28.5 Y338 I0 J0.25
X27.5 Y338 I-0.5 J0
X28.5 Y338 I0.5 J0
X28.25 Y338.25 I-0.25 J0
G1 X28
G0 Z5
Y337.75
Z-6.5
G1 Z-8 F1000
X28.25
G3 X28.5 Y338 I0 J0.25
X27.5 Y338 I-0.5 J0
X28.5 Y338 I0.5 J0
X28.25 Y338.25 I-0.25 J0
G1 X28
G0 Z5
X38 Y337.75
Z-2.5
G1 Z-4 F1000
X38.25
G3 X38.5 Y338 I0 J0.25
X37.5 Y338 I-0.5 J0
X38.5 Y338 I0.5 J0
X38.25 Y338.25 I-0.25 J0
G1 X38
G0 Z5
Y337.75
Z-6.5
G1 Z-8 F1000
X38.25
G3 X38.5 Y338 I0 J0.25
X37.5 Y338 I-0.5 J0
X38.5 Y338 I0.5 J0
X38.25 Y338.25 I-0.25 J0
G1 X38
G0 Z5
X8 Y347.75
Z-2.5
G1 Z-4 F1000
X8.25
G3 X8.5 Y348 I0 J0.25
X7.5 Y348 I-0.5 J0
X8.5 Y348 I0.5 J0
X8.25 Y348.25 I-0.25 J0
G1 X8
G0 Z5
Y347.75
Z-6.5
G1 Z-8 F1000
X8.25
G3 X8.5 Y348 I0 J0.25
X7.5 Y348 I-0.5 J0
X8.5 Y348 I0.5 J0
X8.25 Y348.25 I-0.25 J0
G1 X8
G0 Z5
X18 Y347.75
Z-2.5
G1 Z-4 F1000
X18.25
G3 X18.5 Y348 I0 J0.25
X17.5 Y348 I-0.5 J0
X18.5 Y348 I0.5 J0
X18.25 Y348.25 I-0.25 J0
G1 X18
G0 Z5
Y347.75
Z-6.5
G1 Z-8 F1000
X18.25
G3 X18.5 Y348 I0 J0.25
X17.5 Y348 I-0.5 J0
X18.5 Y348 I0.5 J0
X18.25 Y348.25 I-0.25 J0
G1 X18
G0 Z5
X28 Y347.75
Z-2.5
G1 Z-4 F1000
X28.25
G3 X28.5 Y348 I0 J0.25
X27.5 Y348 I-0.5 J0
X28.5 Y348 I0.5 J0
X28.25 Y348.25 I-0.25 J0
G1 X28
G0 Z5
Y347.75
Z-6.5
G1 Z-8 F1000
X28.25
G3 X28.5 Y348 I0 J0.25
X27.5 Y348 I-0.5 J0
X28.5 Y348 I0.5 J0
X28.25 Y348.25 I-0.25 J0
G1 X28
G0 Z5
X38 Y347.75
Z-2.5
G1 Z-4 F1000
X38.25
G3 X38.5 Y348 I0 J0.25
X37.5 Y348 I-0.5 J0
X38.5 Y348 I0.5 J0
X38.25 Y348.25 I-0.25 J0
G1 X38
G0 Z5
Y347.75
Z-6.5
G1 Z-8 F1000
X38.25
G3 X38.5 Y348 I0 J0.25
X37.5 Y348 I-0.5 J0
X38.5 Y348 I0.5 J0
X38.25 Y348.25 I-0.25 J0
G1 X38
G0 Z5
Y357.75
Z-2.5
G1 Z-4 F1000
X38.25
G3 X38.5 Y358 I0 J0.25
X37.5 Y358 I-0.5 J0
X38.5 Y358 I0.5 J0
X38.25 Y358.25 I-0.25 J0
G1 X38
G0 Z5
Y357.75
Z-6.5
G1 Z-8 F1000
X38.25
G3 X38.5 Y358 I0 J0.25
X37.5 Y358 I-0.5 J0
X38.5 Y358 I0.5 J0
X38.25 Y358.25 I-0.25 J0
G1 X38
G0 Z5
X28 Y357.75
Z-2.5
G1 Z-4 F1000
X28.25
G3 X28.5 Y358 I0 J0.25
X27.5 Y358 I-0.5 J0
X28.5 Y358 I0.5 J0
X28.25 Y358.25 I-0.25 J0
G1 X28
G0 Z5
Y357.75
Z-6.5
G1 Z-8 F1000
X28.25
G3 X28.5 Y358 I0 J0.25
X27.5 Y358 I-0.5 J0
X28.5 Y358 I0.5 J0
X28.25 Y358.25 I-0.25 J0
G1 X28
G0 Z5
X18 Y357.75
Z-2.5
G1 Z-4 F1000
X18.25
G3 X18.5 Y358 I0 J0.25
X17.5 Y358 I-0.5 J0
X18.5 Y358 I0.5 J0
X18.25 Y358.25 I-0.25 J0
G1 X18
G0 Z5
Y357.75
Z-6.5
G1 Z-8 F1000
X18.25
G3 X18.5 Y358 I0 J0.25
X17.5 Y358 I-0.5 J0
X18.5 Y358 I0.5 J0
X18.25 Y358.25 I-0.25 J0
G1 X18
G0 Z5
X8 Y357.75
Z-2.5
G1 Z-4 F1000
X8.25
G3 X8.5 Y358 I0 J0.25
X7.5 Y358 I-0.5 J0
X8.5 Y358 I0.5 J0
X8.25 Y358.25 I-0.25 J0
G1 X8
G0 Z5
Y357.75
Z-6.5
G1 Z-8 F1000
X8.25
G3 X8.5 Y358 I0 J0.25
X7.5 Y358 I-0.5 J0
X8.5 Y358 I0.5 J0
X8.25 Y358.25 I-0.25 J0
G1 X8
G0 Z5
Y367.75
Z-2.5
G1 Z-4 F1000
X8.25
G3 X8.5 Y368 I0 J0.25
X7.5 Y368 I-0.5 J0
X8.5 Y368 I0.5 J0
X8.25 Y368.25 I-0.25 J0
G1 X8
G0 Z5
Y367.75
Z-6.5
G1 Z-8 F1000
X8.25
G3 X8.5 Y368 I0 J0.25
X7.5 Y368 I-0.5 J0
X8.5 Y368 I0.5 J0
X8.25 Y368.25 I-0.25 J0
G1 X8
G0 Z5
X18 Y367.75
Z-2.5
G1 Z-4 F1000
X18.25
G3 X18.5 Y368 I0 J0.25
X17.5 Y368 I-0.5 J0
X18.5 Y368 I0.5 J0
X18.25 Y368.25 I-0.25 J0
G1 X18
G0 Z5
Y367.75
Z-6.5
G1 Z-8 F1000
X18.25
G3 X18.5 Y368 I0 J0.25
X17.5 Y368 I-0.5 J0
X18.5 Y368 I0.5 J0
X18.25 Y368.25 I-0.25 J0
G1 X18
G0 Z5
X28 Y367.75
Z-2.5
G1 Z-4 F1000
X28.25
G3 X28.5 Y368 I0 J0.25
X27.5 Y368 I-0.5 J0
X28.5 Y368 I0.5 J0
X28.25 Y368.25 I-0.25 J0
G1 X28
G0 Z5
Y367.75
Z-6.5
G1 Z-8 F1000
X28.25
G3 X28.5 Y368 I0 J0.25
X27.5 Y368 I-0.5 J0
X28.5 Y368 I0.5 J0
X28.25 Y368.25 I-0.25 J0
G1 X28
G0 Z5
X38 Y367.75
Z-2.5
G1 Z-4 F1000
X38.25
G3 X38.5 Y368 I0 J0.25
X37.5 Y368 I-0.5 J0
X38.5 Y368 I0.5 J0
X38.25 Y368.25 I-0.25 J0
G1 X38
G0 Z5
Y367.75
Z-6.5
G1 Z-8 F1000
X38.25
G3 X38.5 Y368 I0 J0.25
X37.5 Y368 I-0.5 J0
X38.5 Y368 I0.5 J0
X38.25 Y368.25 I-0.25 J0
G1 X38
G0 Z5
Y377.75
Z-2.5
G1 Z-4 F1000
X38.25
G3 X38.5 Y378 I0 J0.25
X37.5 Y378 I-0.5 J0
X38.5 Y378 I0.5 J0
X38.25 Y378.25 I-0.25 J0
G1 X38
G0 Z5
Y377.75
Z-6.5
G1 Z-8 F1000
X38.25
G3 X38.5 Y378 I0 J0.25
X37.5 Y378 I-0.5 J0
X38.5 Y378 I0.5 J0
X38.25 Y378.25 I-0.25 J0
G1 X38
G0 Z5
X28 Y377.75
Z-2.5
G1 Z-4 F1000
X28.25
G3 X28.5 Y378 I0 J0.25
X27.5 Y378 I-0.5 J0
X28.5 Y378 I0.5 J0
X28.25 Y378.25 I-0.25 J0
G1 X28
G0 Z5
Y377.75
Z-6.5
G1 Z-8 F1000
X28.25
G3 X28.5 Y378 I0 J0.25
X27.5 Y378 I-0.5 J0
X28.5 Y378 I0.5 J0
X28.25 Y378.25 I-0.25 J0
G1 X28
G0 Z5
X18 Y377.75
Z-2.5
G1 Z-4 F1000
X18.25
G3 X18.5 Y378 I0 J0.25
X17.5 Y378 I-0.5 J0
X18.5 Y378 I0.5 J0
X18.25 Y378.25 I-0.25 J0
G1 X18
G0 Z5
Y377.75
Z-6.5
G1 Z-8 F1000
X18.25
G3 X18.5 Y378 I0 J0.25
X17.5 Y378 I-0.5 J0
X18.5 Y378 I0.5 J0
X18.25 Y378.25 I-0.25 J0
G1 X18
G0 Z5
X8 Y377.75
Z-2.5
G1 Z-4 F1000
X8.25
G3 X8.5 Y378 I0 J0.25
X7.5 Y378 I-0.5 J0
X8.5 Y378 I0.5 J0
X8.25 Y378.25 I-0.25 J0
G1 X8
G0 Z5
Y377.75
Z-6.5
G1 Z-8 F1000
X8.25
G3 X8.5 Y378 I0 J0.25
X7.5 Y378 I-0.5 J0
X8.5 Y378 I0.5 J0
X8.25 Y378.25 I-0.25 J0
G1 X8
G0 Z5
Y387.75
Z-2.5
G1 Z-4 F1000
X8.25
G3 X8.5 Y388 I0 J0.25
X7.5 Y388 I-0.5 J0
X8.5 Y388 I0.5 J0
X8.25 Y388.25 I-0.25 J0
G1 X8
G0 Z5
Y387.75
Z-6.5
G1 Z-8 F1000
X8.25
G3 X8.5 Y388 I0 J0.25
X7.5 Y388 I-0.5 J0
X8.5 Y388 I0.5 J0
X8.25 Y388.25 I-0.25 J0
G1 X8
G0 Z5
X18 Y387.75
Z-2.5
G1 Z-4 F1000
X18.25
G3 X18.5 Y388 I0 J0.25
X17.5 Y388 I-0.5 J0
X18.5 Y388 I0.5 J0
X18.25 Y388.25 I-0.25 J0
G1 X18
G0 Z5
Y387.75
Z-6.5
G1 Z-8 F1000
X18.25
G3 X18.5 Y388 I0 J0.25
X17.5 Y388 I-0.5 J0
X18.5 Y388 I0.5 J0
X18.25 Y388.25 I-0.25 J0
G1 X18
G0 Z5
X28 Y387.75
Z-2.5
G1 Z-4 F1000
X28.25
G3 X28.5 Y388 I0 J0.25
X27.5 Y388 I-0.5 J0
X28.5 Y388 I0.5 J0
X28.25 Y388.25 I-0.25 J0
G1 X28
G0 Z5
Y387.75
Z-6.5
G1 Z-8 F1000
X28.25
G3 X28.5 Y388 I0 J0.25
X27.5 Y388 I-0.5 J0
X28.5 Y388 I0.5 J0
X28.25 Y388.25 I-0.25 J0
G1 X28
G0 Z5
X38 Y387.75
Z-2.5
G1 Z-4 F1000
X38.25
G3 X38.5 Y388 I0 J0.25
X37.5 Y388 I-0.5 J0
X38.5 Y388 I0.5 J0
X38.25 Y388.25 I-0.25 J0
G1 X38
G0 Z5
Y387.75
Z-6.5
G1 Z-8 F1000
X38.25
G3 X38.5 Y388 I0 J0.25
X37.5 Y388 I-0.5 J0
X38.5 Y388 I0.5 J0
X38.25 Y388.25 I-0.25 J0
G1 X38
G0 Z5
Y397.75
Z-2.5
G1 Z-4 F1000
X38.25
G3 X38.5 Y398 I0 J0.25
X37.5 Y398 I-0.5 J0
X38.5 Y398 I0.5 J0
X38.25 Y398.25 I-0.25 J0
G1 X38
G0 Z5
Y397.75
Z-6.5
G1 Z-8 F1000
X38.25
G3 X38.5 Y398 I0 J0.25
X37.5 Y398 I-0.5 J0
X38.5 Y398 I0.5 J0
X38.25 Y398.25 I-0.25 J0
G1 X38
G0 Z5
X28 Y397.75
Z-2.5
G1 Z-4 F1000
X28.25
G3 X28.5 Y398 I0 J0.25
X27.5 Y398 I-0.5 J0
X28.5 Y398 I0.5 J0
X28.25 Y398.25 I-0.25 J0
G1 X28
G0 Z5
Y397.75
Z-6.5
G1 Z-8 F1000
X28.25
G3 X28.5 Y398 I0 J0.25
X27.5 Y398 I-0.5 J0
X28.5 Y398 I0.5 J0
X28.25 Y398.25 I-0.25 J0
G1 X28
G0 Z5
X18 Y397.75
Z-2.5
G1 Z-4 F1000
X18.25
G3 X18.5 Y398 I0 J0.25
X17.5 Y398 I-0.5 J0
X18.5 Y398 I0.5 J0
X18.25 Y398.25 I-0.25 J0
G1 X18
G0 Z5
Y397.75
Z-6.5
G1 Z-8 F1000
X18.25
G3 X18.5 Y398 I0 J0.25
X17.5 Y398 I-0.5 J0
X18.5 Y398 I0.5 J0
X18.25 Y398.25 I-0.25 J0
G1 X18
G0 Z5
X8 Y397.75
Z-2.5
G1 Z-4 F1000
X8.25
G3 X8.5 Y398 I0 J0.25
X7.5 Y398 I-0.5 J0
X8.5 Y398 I0.5 J0
X8.25 Y398.25 I-0.25 J0
G1 X8
G0 Z5
Y397.75
Z-6.5
G1 Z-8 F1000
X8.25
G3 X8.5 Y398 I0 J0.25
X7.5 Y398 I-0.5 J0
X8.5 Y398 I0.5 J0
X8.25 Y398.25 I-0.25 J0
G1 X8
G0 Z5
Y407.75
Z-2.5
G1 Z-4 F1000
X8.25
G3 X8.5 Y408 I0 J0.25
X7.5 Y408 I-0.5 J0
X8.5 Y408 I0.5 J0
X8.25 Y408.25 I-0.25 J0
G1 X8
G0 Z5
Y407.75
Z-6.5
G1 Z-8 F1000
X8.25
G3 X8.5 Y408 I0 J0.25
X7.5 Y408 I-0.5 J0
X8.5 Y408 I0.5 J0
X8.25 Y408.25 I-0.25 J0
G1 X8
G0 Z5
X18 Y407.75
Z-2.5
G1 Z-4 F1000
X18.25
G3 X18.5 Y408 I0 J0.25
X17.5 Y408 I-0.5 J0
X18.5 Y408 I0.5 J0
X18.25 Y408.25 I-0.25 J0
G1 X18
G0 Z5
Y407.75
Z-6.5
G1 Z-8 F1000
X18.25
G3 X18.5 Y408 I0 J0.25
X17.5 Y408 I-0.5 J0
X18.5 Y408 I0.5 J0
X18.25 Y408.25 I-0.25 J0
G1 X18
G0 Z5
X28 Y407.75
Z-2.5
G1 Z-4 F1000
X28.25
G3 X28.5 Y408 I0 J0.25
X27.5 Y408 I-0.5 J0
X28.5 Y408 I0.5 J0
X28.25 Y408.25 I-0.25 J0
G1 X28
G0 Z5
Y407.75
Z-6.5
G1 Z-8 F1000
X28.25
G3 X28.5 Y408 I0 J0.25
X27.5 Y408 I-0.5 J0
X28.5 Y408 I0.5 J0
X28.25 Y408.25 I-0.25 J0
G1 X28
G0 Z5
X38 Y407.75
Z-2.5
G1 Z-4 F1000
X38.25
G3 X38.5 Y408 I0 J0.25
X37.5 Y408 I-0.5 J0
X38.5 Y408 I0.5 J0
X38.25 Y408.25 I-0.25 J0
G1 X38
G0 Z5
Y407.75
Z-6.5
G1 Z-8 F1000
X38.25
G3 X38.5 Y408 I0 J0.25
X37.5 Y408 I-0.5 J0
X38.5 Y408 I0.5 J0
X38.25 Y408.25 I-0.25 J0
G1 X38
G0 Z5
Y417.75
Z-2.5
G1 Z-4 F1000
X38.25
G3 X38.5 Y418 I0 J0.25
X37.5 Y418 I-0.5 J0
X38.5 Y418 I0.5 J0
X38.25 Y418.25 I-0.25 J0
G1 X38
G0 Z5
Y417.75
Z-6.5
G1 Z-8 F1000
X38.25
G3 X38.5 Y418 I0 J0.25
X37.5 Y418 I-0.5 J0
X38.5 Y418 I0.5 J0
X38.25 Y418.25 I-0.25 J0
G1 X38
G0 Z5
X28 Y417.75
Z-2.5
G1 Z-4 F1000
X28.25
G3 X28.5 Y418 I0 J0.25
X27.5 Y418 I-0.5 J0
X28.5 Y418 I0.5 J0
X28.25 Y418.25 I-0.25 J0
G1 X28
G0 Z5
Y417.75
Z-6.5
G1 Z-8 F1000
X28.25
G3 X28.5 Y418 I0 J0.25
X27.5 Y418 I-0.5 J0
X28.5 Y418 I0.5 J0
X28.25 Y418.25 I-0.25 J0
G1 X28
G0 Z5
X18 Y417.75
Z-2.5
G1 Z-4 F1000
X18.25
G3 X18.5 Y418 I0 J0.25
X17.5 Y418 I-0.5 J0
X18.5 Y418 I0.5 J0
X18.25 Y418.25 I-0.25 J0
G1 X18
G0 Z5
Y417.75
Z-6.5
G1 Z-8 F1000
X18.25
G3 X18.5 Y418 I0 J0.25
X17.5 Y418 I-0.5 J0
X18.5 Y418 I0.5 J0
X18.25 Y418.25 I-0.25 J0
G1 X18
G0 Z5
X8 Y417.75
Z-2.5
G1 Z-4 F1000
X8.25
G3 X8.5 Y418 I0 J0.25
X7.5 Y418 I-0.5 J0
X8.5 Y418 I0.5 J0
X8.25 Y418.25 I-0.25 J0
G1 X8
G0 Z5
Y417.75
Z-6.5
G1 Z-8 F1000
X8.25
G3 X8.5 Y418 I0 J0.25
X7.5 Y418 I-0.5 J0
X8.5 Y418 I0.5 J0
X8.25 Y418.25 I-0.25 J0
G1 X8
G0 Z5
Y427.75
Z-2.5
G1 Z-4 F1000
X8.25
G3 X8.5 Y428 I0 J0.25
X7.5 Y428 I-0.5 J0
X8.5 Y428 I0.5 J0
X8.25 Y428.25 I-0.25 J0
G1 X8
G0 Z5
Y427.75
Z-6.5
G1 Z-8 F1000
X8.25
G3 X8.5 Y428 I0 J0.25
X7.5 Y428 I-0.5 J0
X8.5 Y428 I0.5 J0
X8.25 Y428.25 I-0.25 J0
G1 X8
G0 Z5
X18 Y427.75
Z-2.5
G1 Z-4 F1000
X18.25
G3 X18.5 Y428 I0 J0.25
X17.5 Y428 I-0.5 J0
X18.5 Y428 I0.5 J0
X18.25 Y428.25 I-0.25 J0
G1 X18
G0 Z5
Y427.75
Z-6.5
G1 Z-8 F1000
X18.25
G3 X18.5 Y428 I0 J0.25
X17.5 Y428 I-0.5 J0
X18.5 Y428 I0.5 J0
X18.25 Y428.25 I-0.25 J0
G1 X18
G0 Z5
X28 Y427.75
Z-2.5
G1 Z-4 F1000
X28.25
G3 X28.5 Y428 I0 J0.25
X27.5 Y428 I-0.5 J0
X28.5 Y428 I0.5 J0
X28.25 Y428.25 I-0.25 J0
G1 X28
G0 Z5
Y427.75
Z-6.5
G1 Z-8 F1000
X28.25
G3 X28.5 Y428 I0 J0.25
X27.5 Y428 I-0.5 J0
X28.5 Y428 I0.5 J0
X28.25 Y428.25 I-0.25 J0
G1 X28
G0 Z5
X38 Y427.75
Z-2.5
G1 Z-4 F1000
X38.25
G3 X38.5 Y428 I0 J0.25
X37.5 Y428 I-0.5 J0
X38.5 Y428 I0.5 J0
X38.25 Y428.25 I-0.25 J0
G1 X38
G0 Z5
Y427.75
Z-6.5
G1 Z-8 F1000
X38.25
G3 X38.5 Y428 I0 J0.25
X37.5 Y428 I-0.5 J0
X38.5 Y428 I0.5 J0
X38.25 Y428.25 I-0.25 J0
G1 X38
G0 Z5
Y437.75
Z-2.5
G1 Z-4 F1000
X38.25
G3 X38.5 Y438 I0 J0.25
X37.5 Y438 I-0.5 J0
X38.5 Y438 I0.5 J0
X38.25 Y438.25 I-0.25 J0
G1 X38
G0 Z5
Y437.75
Z-6.5
G1 Z-8 F1000
X38.25
G3 X38.5 Y438 I0 J0.25
X37.5 Y438 I-0.5 J0
X38.5 Y438 I0.5 J0
X38.25 Y438.25 I-0.25 J0
G1 X38
G0 Z5
X28 Y437.75
Z-2.5
G1 Z-4 F1000
X28.25
G3 X28.5 Y438 I0 J0.25
X27.5 Y438 I-0.5 J0
X28.5 Y438 I0.5 J0
X28.25 Y438.25 I-0.25 J0
G1 X28
G0 Z5
Y437.75
Z-6.5
G1 Z-8 F1000
X28.25
G3 X28.5 Y438 I0 J0.25
X27.5 Y438 I-0.5 J0
X28.5 Y438 I0.5 J0
X28.25 Y438.25 I-0.25 J0
G1 X28
G0 Z5
X18 Y437.75
Z-2.5
G1 Z-4 F1000
X18.25
G3 X18.5 Y438 I0 J0.25
X17.5 Y438 I-0.5 J0
X18.5 Y438 I0.5 J0
X18.25 Y438.25 I-0.25 J0
G1 X18
G0 Z5
Y437.75
Z-6.5
G1 Z-8 F1000
X18.25
G3 X18.5 Y438 I0 J0.25
X17.5 Y438 I-0.5 J0
X18.5 Y438 I0.5 J0
X18.25 Y438.25 I-0.25 J0
G1 X18
G0 Z5
X8 Y437.75
Z-2.5
G1 Z-4 F1000
X8.25
G3 X8.5 Y438 I0 J0.25
X7.5 Y438 I-0.5 J0
X8.5 Y438 I0.5 J0
X8.25 Y438.25 I-0.25 J0
G1 X8
G0 Z5
Y437.75
Z-6.5
G1 Z-8 F1000
X8.25
G3 X8.5 Y438 I0 J0.25
X7.5 Y438 I-0.5 J0
X8.5 Y438 I0.5 J0
X8.25 Y438.25 I-0.25 J0
G1 X8
G0 Z5
Y447.75
Z-2.5
G1 Z-4 F1000
X8.25
G3 X8.5 Y448 I0 J0.25
X7.5 Y448 I-0.5 J0
X8.5 Y448 I0.5 J0
X8.25 Y448.25 I-0.25 J0
G1 X8
G0 Z5
Y447.75
Z-6.5
G1 Z-8 F1000
X8.25
G3 X8.5 Y448 I0 J0.25
X7.5 Y448 I-0.5 J0
X8.5 Y448 I0.5 J0
X8.25 Y448.25 I-0.25 J0
G1 X8
G0 Z5
X18 Y447.75
Z-2.5
G1 Z-4 F1000
X18.25
G3 X18.5 Y448 I0 J0.25
X17.5 Y448 I-0.5 J0
X18.5 Y448 I0.5 J0
X18.25 Y448.25 I-0.25 J0
G1 X18
G0 Z5
Y447.75
Z-6.5
G1 Z-8 F1000
X18.25
G3 X18.5 Y448 I0 J0.25
X17.5 Y448 I-0.5 J0
X18.5 Y448 I0.5 J0
X18.25 Y448.25 I-0.25 J0
G1 X18
G0 Z5
X28 Y447.75
Z-2.5
G1 Z-4 F1000
X28.25
G3 X28.5 Y448 I0 J0.25
X27.5 Y448 I-0.5 J0
X28.5 Y448 I0.5 J0
X28.25 Y448.25 I-0.25 J0
G1 X28
G0 Z5
Y447.75
Z-6.5
G1 Z-8 F1000
X28.25
G3 X28.5 Y448 I0 J0.25
X27.5 Y448 I-0.5 J0
X28.5 Y448 I0.5 J0
X28.25 Y448.25 I-0.25 J0
G1 X28
G0 Z5
X38 Y447.75
Z-2.5
G1 Z-4 F1000
X38.25
G3 X38.5 Y448 I0 J0.25
X37.5 Y448 I-0.5 J0
X38.5 Y448 I0.5 J0
X38.25 Y448.25 I-0.25 J0
G1 X38
G0 Z5
Y447.75
Z-6.5
G1 Z-8 F1000
X38.25
G3 X38.5 Y448 I0 J0.25
X37.5 Y448 I-0.5 J0
X38.5 Y448 I0.5 J0
X38.25 Y448.25 I-0.25 J0
G1 X38
G0 Z5
Y457.75
Z-2.5
G1 Z-4 F1000
X38.25
G3 X38.5 Y458 I0 J0.25
X37.5 Y458 I-0.5 J0
X38.5 Y458 I0.5 J0
X38.25 Y458.25 I-0.25 J0
G1 X38
G0 Z5
Y457.75
Z-6.5
G1 Z-8 F1000
X38.25
G3 X38.5 Y458 I0 J0.25
X37.5 Y458 I-0.5 J0
X38.5 Y458 I0.5 J0
X38.25 Y458.25 I-0.25 J0
G1 X38
G0 Z5
X28 Y457.75
Z-2.5
G1 Z-4 F1000
X28.25
G3 X28.5 Y458 I0 J0.25
X27.5 Y458 I-0.5 J0
X28.5 Y458 I0.5 J0
X28.25 Y458.25 I-0.25 J0
G1 X28
G0 Z5
Y457.75
Z-6.5
G1 Z-8 F1000
X28.25
G3 X28.5 Y458 I0 J0.25
X27.5 Y458 I-0.5 J0
X28.5 Y458 I0.5 J0
X28.25 Y458.25 I-0.25 J0
G1 X28
G0 Z5
X18 Y457.75
Z-2.5
G1 Z-4 F1000
X18.25
G3 X18.5 Y458 I0 J0.25
X17.5 Y458 I-0.5 J0
X18.5 Y458 I0.5 J0
X18.25 Y458.25 I-0.25 J0
G1 X18
G0 Z5
Y457.75
Z-6.5
G1 Z-8 F1000
X18.25
G3 X18.5 Y458 I0 J0.25
X17.5 Y458 I-0.5 J0
X18.5 Y458 I0.5 J0
X18.25 Y458.25 I-0.25 J0
G1 X18
G0 Z5
X8 Y457.75
Z-2.5
G1 Z-4 F1000
X8.25
G3 X8.5 Y458 I0 J0.25
X7.5 Y458 I-0.5 J0
X8.5 Y458 I0.5 J0
X8.25 Y458.25 I-0.25 J0
G1 X8
G0 Z5
Y457.75
Z-6.5
G1 Z-8 F1000
X8.25
G3 X8.5 Y458 I0 J0.25
X7.5 Y458 I-0.5 J0
X8.5 Y458 I0.5 J0
X8.25 Y458.25 I-0.25 J0
G1 X8
G0 Z5
Y467.75
Z-2.5
G1 Z-4 F1000
X8.25
G3 X8.5 Y468 I0 J0.25
X7.5 Y468 I-0.5 J0
X8.5 Y468 I0.5 J0
X8.25 Y468.25 I-0.25 J0
G1 X8
G0 Z5
Y467.75
Z-6.5
G1 Z-8 F1000
X8.25
G3 X8.5 Y468 I0 J0.25
X7.5 Y468 I-0.5 J0
X8.5 Y468 I0.5 J0
X8.25 Y468.25 I-0.25 J0
G1 X8
G0 Z5
X18 Y467.75
Z-2.5
G1 Z-4 F1000
X18.25
G3 X18.5 Y468 I0 J0.25
X17.5 Y468 I-0.5 J0
X18.5 Y468 I0.5 J0
X18.25 Y468.25 I-0.25 J0
G1 X18
G0 Z5
Y467.75
Z-6.5
G1 Z-8 F1000
X18.25
G3 X18.5 Y468 I0 J0.25
X17.5 Y468 I-0.5 J0
X18.5 Y468 I0.5 J0
X18.25 Y468.25 I-0.25 J0
G1 X18
G0 Z5
X28 Y467.75
Z-2.5
G1 Z-4 F1000
X28.25
G3 X28.5 Y468 I0 J0.25
X27.5 Y468 I-0.5 J0
X28.5 Y468 I0.5 J0
X28.25 Y468.25 I-0.25 J0
G1 X28
G0 Z5
Y467.75
Z-6.5
G1 Z-8 F1000
X28.25
G3 X28.5 Y468 I0 J0.25
X27.5 Y468 I-0.5 J0
X28.5 Y468 I0.5 J0
X28.25 Y468.25 I-0.25 J0
G1 X28
G0 Z5
X38 Y467.75
Z-2.5
G1 Z-4 F1000
X38.25
G3 X38.5 Y468 I0 J0.25
X37.5 Y468 I-0.5 J0
X38.5 Y468 I0.5 J0
X38.25 Y468.25 I-0.25 J0
G1 X38
G0 Z5
Y467.75
Z-6.5
G1 Z-8 F1000
X38.25
G3 X38.5 Y468 I0 J0.25
X37.5 Y468 I-0.5 J0
X38.5 Y468 I0.5 J0
X38.25 Y468.25 I-0.25 J0
G1 X38
G0 Z5
Y477.75
Z-2.5
G1 Z-4 F1000
X38.25
G3 X38.5 Y478 I0 J0.25
X37.5 Y478 I-0.5 J0
X38.5 Y478 I0.5 J0
X38.25 Y478.25 I-0.25 J0
G1 X38
G0 Z5
Y477.75
Z-6.5
G1 Z-8 F1000
X38.25
G3 X38.5 Y478 I0 J0.25
X37.5 Y478 I-0.5 J0
X38.5 Y478 I0.5 J0
X38.25 Y478.25 I-0.25 J0
G1 X38
G0 Z5
X28 Y477.75
Z-2.5
G1 Z-4 F1000
X28.25
G3 X28.5 Y478 I0 J0.25
X27.5 Y478 I-0.5 J0
X28.5 Y478 I0.5 J0
X28.25 Y478.25 I-0.25 J0
G1 X28
G0 Z5
Y477.75
Z-6.5
G1 Z-8 F1000
X28.25
G3 X28.5 Y478 I0 J0.25
X27.5 Y478 I-0.5 J0
X28.5 Y478 I0.5 J0
X28.25 Y478.25 I-0.25 J0
G1 X28
G0 Z5
X18 Y477.75
Z-2.5
G1 Z-4 F1000
X18.25
G3 X18.5 Y478 I0 J0.25
X17.5 Y478 I-0.5 J0
X18.5 Y478 I0.5 J0
X18.25 Y478.25 I-0.25 J0
G1 X18
G0 Z5
Y477.75
Z-6.5
G1 Z-8 F1000
X18.25
G3 X18.5 Y478 I0 J0.25
X17.5 Y478 I-0.5 J0
X18.5 Y478 I0.5 J0
X18.25 Y478.25 I-0.25 J0
G1 X18
G0 Z5
X8 Y477.75
Z-2.5
G1 Z-4 F1000
X8.25
G3 X8.5 Y478 I0 J0.25
X7.5 Y478 I-0.5 J0
X8.5 Y478 I0.5 J0
X8.25 Y478.25 I-0.25 J0
G1 X8
G0 Z5
Y477.75
Z-6.5
G1 Z-8 F1000
X8.25
G3 X8.5 Y478 I0 J0.25
X7.5 Y478 I-0.5 J0
X8.5 Y478 I0.5 J0
X8.25 Y478.25 I-0.25 J0
G1 X8
G0 Z5
Y487.75
Z-2.5
G1 Z-4 F1000
X8.25
G3 X8.5 Y488 I0 J0.25
X7.5 Y488 I-0.5 J0
X8.5 Y488 I0.5 J0
X8.25 Y488.25 I-0.25 J0
G1 X8
G0 Z5
Y487.75
Z-6.5
G1 Z-8 F1000
X8.25
G3 X8.5 Y488 I0 J0.25
X7.5 Y488 I-0.5 J0
X8.5 Y488 I0.5 J0
X8.25 Y488.25 I-0.25 J0
G1 X8
G0 Z5
X18 Y487.75
Z-2.5
G1 Z-4 F1000
X18.25
G3 X18.5 Y488 I0 J0.25
X17.5 Y488 I-0.5 J0
X18.5 Y488 I0.5 J0
X18.25 Y488.25 I-0.25 J0
G1 X18
G0 Z5
Y487.75
Z-6.5
G1 Z-8 F1000
X18.25
G3 X18.5 Y488 I0 J0.25
X17.5 Y488 I-0.5 J0
X18.5 Y488 I0.5 J0
X18.25 Y488.25 I-0.25 J0
G1 X18
G0 Z5
X28 Y487.75
Z-2.5
G1 Z-4 F1000
X28.25
G3 X28.5 Y488 I0 J0.25
X27.5 Y488 I-0.5 J0
X28.5 Y488 I0.5 J0
X28.25 Y488.25 I-0.25 J0
G1 X28
G0 Z5
Y487.75
Z-6.5
G1 Z-8 F1000
X28.25
G3 X28.5 Y488 I0 J0.25
X27.5 Y488 I-0.5 J0
X28.5 Y488 I0.5 J0
X28.25 Y488.25 I-0.25 J0
G1 X28
G0 Z5
X38 Y487.75
Z-2.5
G1 Z-4 F1000
X38.25
G3 X38.5 Y488 I0 J0.25
X37.5 Y488 I-0.5 J0
X38.5 Y488 I0.5 J0
X38.25 Y488.25 I-0.25 J0
G1 X38
G0 Z5
Y487.75
Z-6.5
G1 Z-8 F1000
X38.25
G3 X38.5 Y488 I0 J0.25
X37.5 Y488 I-0.5 J0
X38.5 Y488 I0.5 J0
X38.25 Y488.25 I-0.25 J0
G1 X38
G0 Z5
Y497.75
Z-2.5
G1 Z-4 F1000
X38.25
G3 X38.5 Y498 I0 J0.25
X37.5 Y498 I-0.5 J0
X38.5 Y498 I0.5 J0
X38.25 Y498.25 I-0.25 J0
G1 X38
G0 Z5
Y497.75
Z-6.5
G1 Z-8 F1000
X38.25
G3 X38.5 Y498 I0 J0.25
X37.5 Y498 I-0.5 J0
X38.5 Y498 I0.5 J0
X38.25 Y498.25 I-0.25 J0
G1 X38
G0 Z5
X28 Y497.75
Z-2.5
G1 Z-4 F1000
X28.25
G3 X28.5 Y498 I0 J0.25
X27.5 Y498 I-0.5 J0
X28.5 Y498 I0.5 J0
X28.25 Y498.25 I-0.25 J0
G1 X28
G0 Z5
Y497.75
Z-6.5
G1 Z-8 F1000
X28.25
G3 X28.5 Y498 I0 J0.25
X27.5 Y498 I-0.5 J0
X28.5 Y498 I0.5 J0
X28.25 Y498.25 I-0.25 J0
G1 X28
G0 Z5
X18 Y497.75
Z-2.5
G1 Z-4 F1000
X18.25
G3 X18.5 Y498 I0 J0.25
X17.5 Y498 I-0.5 J0
X18.5 Y498 I0.5 J0
X18.25 Y498.25 I-0.25 J0
G1 X18
G0 Z5
Y497.75
Z-6.5
G1 Z-8 F1000
X18.25
G3 X18.5 Y498 I0 J0.25
X17.5 Y498 I-0.5 J0
X18.5 Y498 I0.5 J0
X18.25 Y498.25 I-0.25 J0
G1 X18
G0 Z5
X8 Y497.75
Z-2.5
G1 Z-4 F1000
X8.25
G3 X8.5 Y498 I0 J0.25
X7.5 Y498 I-0.5 J0
X8.5 Y498 I0.5 J0
X8.25 Y498.25 I-0.25 J0
G1 X8
G0 Z5
Y497.75
Z-6.5
G1 Z-8 F1000
X8.25
G3 X8.5 Y498 I0 J0.25
X7.5 Y498 I-0.5 J0
X8.5 Y498 I0.5 J0
X8.25 Y498.25 I-0.25 J0
G1 X8
G0 Z5
Y507.75
Z-2.5
G1 Z-4 F1000
X8.25
G3 X8.5 Y508 I0 J0.25
X7.5 Y508 I-0.5 J0
X8.5 Y508 I0.5 J0
X8.25 Y508.25 I-0.25 J0
G1 X8
G0 Z5
Y507.75
Z-6.5
G1 Z-8 F1000
X8.25
G3 X8.5 Y508 I0 J0.25
X7.5 Y508 I-0.5 J0
X8.5 Y508 I0.5 J0
X8.25 Y508.25 I-0.25 J0
G1 X8
G0 Z5
X18 Y507.75
Z-2.5
G1 Z-4 F1000
X18.25
G3 X18.5 Y508 I0 J0.25
X17.5 Y508 I-0.5 J0
X18.5 Y508 I0.5 J0
X18.25 Y508.25 I-0.25 J0
G1 X18
G0 Z5
Y507.75
Z-6.5
G1 Z-8 F1000
X18.25
G3 X18.5 Y508 I0 J0.25
X17.5 Y508 I-0.5 J0
X18.5 Y508 I0.5 J0
X18.25 Y508.25 I-0.25 J0
G1 X18
G0 Z5
X28 Y507.75
Z-2.5
G1 Z-4 F1000
X28.25
G3 X28.5 Y508 I0 J0.25
X27.5 Y508 I-0.5 J0
X28.5 Y508 I0.5 J0
X28.25 Y508.25 I-0.25 J0
G1 X28
G0 Z5
Y507.75
Z-6.5
G1 Z-8 F1000
X28.25
G3 X28.5 Y508 I0 J0.25
X27.5 Y508 I-0.5 J0
X28.5 Y508 I0.5 J0
X28.25 Y508.25 I-0.25 J0
G1 X28
G0 Z5
X38 Y507.75
Z-2.5
G1 Z-4 F1000
X38.25
G3 X38.5 Y508 I0 J0.25
X37.5 Y508 I-0.5 J0
X38.5 Y508 I0.5 J0
X38.25 Y508.25 I-0.25 J0
G1 X38
G0 Z5
Y507.75
Z-6.5
G1 Z-8 F1000
X38.25
G3 X38.5 Y508 I0 J0.25
X37.5 Y508 I-0.5 J0
X38.5 Y508 I0.5 J0
X38.25 Y508.25 I-0.25 J0
G1 X38
G0 Z5
Y517.75
Z-2.5
G1 Z-4 F1000
X38.25
G3 X38.5 Y518 I0 J0.25
X37.5 Y518 I-0.5 J0
X38.5 Y518 I0.5 J0
X38.25 Y518.25 I-0.25 J0
G1 X38
G0 Z5
Y517.75
Z-6.5
G1 Z-8 F1000
X38.25
G3 X38.5 Y518 I0 J0.25
X37.5 Y518 I-0.5 J0
X38.5 Y518 I0.5 J0
X38.25 Y518.25 I-0.25 J0
G1 X38
G0 Z5
X28 Y517.75
Z-2.5
G1 Z-4 F1000
X28.25
G3 X28.5 Y518 I0 J0.25
X27.5 Y518 I-0.5 J0
X28.5 Y518 I0.5 J0
X28.25 Y518.25 I-0.25 J0
G1 X28
G0 Z5
Y517.75
Z-6.5
G1 Z-8 F1000
X28.25
G3 X28.5 Y518 I0 J0.25
X27.5 Y518 I-0.5 J0
X28.5 Y518 I0.5 J0
X28.25 Y518.25 I-0.25 J0
G1 X28
G0 Z5
X18 Y517.75
Z-2.5
G1 Z-4 F1000
X18.25
G3 X18.5 Y518 I0 J0.25
X17.5 Y518 I-0.5 J0
X18.5 Y518 I0.5 J0
X18.25 Y518.25 I-0.25 J0
G1 X18
G0 Z5
Y517.75
Z-6.5
G1 Z-8 F1000
X18.25
G3 X18.5 Y518 I0 J0.25
X17.5 Y518 I-0.5 J0
X18.5 Y518 I0.5 J0
X18.25 Y518.25 I-0.25 J0
G1 X18
G0 Z5
X8 Y517.75
Z-2.5
G1 Z-4 F1000
X8.25
G3 X8.5 Y518 I0 J0.25
X7.5 Y518 I-0.5 J0
X8.5 Y518 I0.5 J0
X8.25 Y518.25 I-0.25 J0
G1 X8
G0 Z5
Y517.75
Z-6.5
G1 Z-8 F1000
X8.25
G3 X8.5 Y518 I0 J0.25
X7.5 Y518 I-0.5 J0
X8.5 Y518 I0.5 J0
X8.25 Y518.25 I-0.25 J0
G1 X8
G0 Z5
X38 Y527.75
Z-2.5
G1 Z-4 F1000
X38.25
G3 X38.5 Y528 I0 J0.25
X37.5 Y528 I-0.5 J0
X38.5 Y528 I0.5 J0
X38.25 Y528.25 I-0.25 J0
G1 X38
G0 Z5
Y527.75
Z-6.5
G1 Z-8 F1000
X38.25
G3 X38.5 Y528 I0 J0.25
X37.5 Y528 I-0.5 J0
X38.5 Y528 I0.5 J0
X38.25 Y528.25 I-0.25 J0
G1 X38
G0 Z5
X28 Y527.75
Z-2.5
G1 Z-4 F1000
X28.25
G3 X28.5 Y528 I0 J0.25
X27.5 Y528 I-0.5 J0
X28.5 Y528 I0.5 J0
X28.25 Y528.25 I-0.25 J0
G1 X28
G0 Z5
Y527.75
Z-6.5
G1 Z-8 F1000
X28.25
G3 X28.5 Y528 I0 J0.25
X27.5 Y528 I-0.5 J0
X28.5 Y528 I0.5 J0
X28.25 Y528.25 I-0.25 J0
G1 X28
G0 Z5
X18 Y527.75
Z-2.5
G1 Z-4 F1000
X18.25
G3 X18.5 Y528 I0 J0.25
X17.5 Y528 I-0.5 J0
X18.5 Y528 I0.5 J0
X18.25 Y528.25 I-0.25 J0
G1 X18
G0 Z5
Y527.75
Z-6.5
G1 Z-8 F1000
X18.25
G3 X18.5 Y528 I0 J0.25
X17.5 Y528 I-0.5 J0
X18.5 Y528 I0.5 J0
X18.25 Y528.25 I-0.25 J0
G1 X18
G0 Z5
X8 Y527.75
Z-2.5
G1 Z-4 F1000
X8.25
G3 X8.5 Y528 I0 J0.25
X7.5 Y528 I-0.5 J0
X8.5 Y528 I0.5 J0
X8.25 Y528.25 I-0.25 J0
G1 X8
G0 Z5
Y527.75
Z-6.5
G1 Z-8 F1000
X8.25
G3 X8.5 Y528 I0 J0.25
X7.5 Y528 I-0.5 J0
X8.5 Y528 I0.5 J0
X8.25 Y528.25 I-0.25 J0
G1 X8
G0 Z5
Y537.75
Z-2.5
G1 Z-4 F1000
X8.25
G3 X8.5 Y538 I0 J0.25
X7.5 Y538 I-0.5 J0
X8.5 Y538 I0.5 J0
X8.25 Y538.25 I-0.25 J0
G1 X8
G0 Z5
Y537.75
Z-6.5
G1 Z-8 F1000
X8.25
G3 X8.5 Y538 I0 J0.25
X7.5 Y538 I-0.5 J0
X8.5 Y538 I0.5 J0
X8.25 Y538.25 I-0.25 J0
G1 X8
G0 Z5
X18 Y537.75
Z-2.5
G1 Z-4 F1000
X18.25
G3 X18.5 Y538 I0 J0.25
X17.5 Y538 I-0.5 J0
X18.5 Y538 I0.5 J0
X18.25 Y538.25 I-0.25 J0
G1 X18
G0 Z5
Y537.75
Z-6.5
G1 Z-8 F1000
X18.25
G3 X18.5 Y538 I0 J0.25
X17.5 Y538 I-0.5 J0
X18.5 Y538 I0.5 J0
X18.25 Y538.25 I-0.25 J0
G1 X18
G0 Z5
X28 Y537.75
Z-2.5
G1 Z-4 F1000
X28.25
G3 X28.5 Y538 I0 J0.25
X27.5 Y538 I-0.5 J0
X28.5 Y538 I0.5 J0
X28.25 Y538.25 I-0.25 J0
G1 X28
G0 Z5
Y537.75
Z-6.5
G1 Z-8 F1000
X28.25
G3 X28.5 Y538 I0 J0.25
X27.5 Y538 I-0.5 J0
X28.5 Y538 I0.5 J0
X28.25 Y538.25 I-0.25 J0
G1 X28
G0 Z5
X38 Y537.75
Z-2.5
G1 Z-4 F1000
X38.25
G3 X38.5 Y538 I0 J0.25
X37.5 Y538 I-0.5 J0
X38.5 Y538 I0.5 J0
X38.25 Y538.25 I-0.25 J0
G1 X38
G0 Z5
Y537.75
Z-6.5
G1 Z-8 F1000
X38.25
G3 X38.5 Y538 I0 J0.25
X37.5 Y538 I-0.5 J0
X38.5 Y538 I0.5 J0
X38.25 Y538.25 I-0.25 J0
G1 X38
G0 Z5
Y547.75
Z-2.5
G1 Z-4 F1000
X38.25
G3 X38.5 Y548 I0 J0.25
X37.5 Y548 I-0.5 J0
X38.5 Y548 I0.5 J0
X38.25 Y548.25 I-0.25 J0
G1 X38
G0 Z5
Y547.75
Z-6.5
G1 Z-8 F1000
X38.25
G3 X38.5 Y548 I0 J0.25
X37.5 Y548 I-0.5 J0
X38.5 Y548 I0.5 J0
X38.25 Y548.25 I-0.25 J0
G1 X38
G0 Z5
X28 Y547.75
Z-2.5
G1 Z-4 F1000
X28.25
G3 X28.5 Y548 I0 J0.25
X27.5 Y548 I-0.5 J0
X28.5 Y548 I0.5 J0
X28.25 Y548.25 I-0.25 J0
G1 X28
G0 Z5
Y547.75
Z-6.5
G1 Z-8 F1000
X28.25
G3 X28.5 Y548 I0 J0.25
X27.5 Y548 I-0.5 J0
X28.5 Y548 I0.5 J0
X28.25 Y548.25 I-0.25 J0
G1 X28
G0 Z5
X18 Y547.75
Z-2.5
G1 Z-4 F1000
X18.25
G3 X18.5 Y548 I0 J0.25
X17.5 Y548 I-0.5 J0
X18.5 Y548 I0.5 J0
X18.25 Y548.25 I-0.25 J0
G1 X18
G0 Z5
Y547.75
Z-6.5
G1 Z-8 F1000
X18.25
G3 X18.5 Y548 I0 J0.25
X17.5 Y548 I-0.5 J0
X18.5 Y548 I0.5 J0
X18.25 Y548.25 I-0.25 J0
G1 X18
G0 Z5
X8 Y547.75
Z-2.5
G1 Z-4 F1000
X8.25
G3 X8.5 Y548 I0 J0.25
X7.5 Y548 I-0.5 J0
X8.5 Y548 I0.5 J0
X8.25 Y548.25 I-0.25 J0
G1 X8
G0 Z5
Y547.75
Z-6.5
G1 Z-8 F1000
X8.25
G3 X8.5 Y548 I0 J0.25
X7.5 Y548 I-0.5 J0
X8.5 Y548 I0.5 J0
X8.25 Y548.25 I-0.25 J0
G1 X8
G0 Z5
Y557.75
Z-2.5
G1 Z-4 F1000
X8.25
G3 X8.5 Y558 I0 J0.25
X7.5 Y558 I-0.5 J0
X8.5 Y558 I0.5 J0
X8.25 Y558.25 I-0.25 J0
G1 X8
G0 Z5
Y557.75
Z-6.5
G1 Z-8 F1000
X8.25
G3 X8.5 Y558 I0 J0.25
X7.5 Y558 I-0.5 J0
X8.5 Y558 I0.5 J0
X8.25 Y558.25 I-0.25 J0
G1 X8
G0 Z5
X18 Y557.75
Z-2.5
G1 Z-4 F1000
X18.25
G3 X18.5 Y558 I0 J0.25
X17.5 Y558 I-0.5 J0
X18.5 Y558 I0.5 J0
X18.25 Y558.25 I-0.25 J0
G1 X18
G0 Z5
Y557.75
Z-6.5
G1 Z-8 F1000
X18.25
G3 X18.5 Y558 I0 J0.25
X17.5 Y558 I-0.5 J0
X18.5 Y558 I0.5 J0
X18.25 Y558.25 I-0.25 J0
G1 X18
G0 Z5
X28 Y557.75
Z-2.5
G1 Z-4 F1000
X28.25
G3 X28.5 Y558 I0 J0.25
X27.5 Y558 I-0.5 J0
X28.5 Y558 I0.5 J0
X28.25 Y558.25 I-0.25 J0
G1 X28
G0 Z5
Y557.75
Z-6.5
G1 Z-8 F1000
X28.25
G3 X28.5 Y558 I0 J0.25
X27.5 Y558 I-0.5 J0
X28.5 Y558 I0.5 J0
X28.25 Y558.25 I-0.25 J0
G1 X28
G0 Z5
X38 Y557.75
Z-2.5
G1 Z-4 F1000
X38.25
G3 X38.5 Y558 I0 J0.25
X37.5 Y558 I-0.5 J0
X38.5 Y558 I0.5 J0
X38.25 Y558.25 I-0.25 J0
G1 X38
G0 Z5
Y557.75
Z-6.5
G1 Z-8 F1000
X38.25
G3 X38.5 Y558 I0 J0.25
X37.5 Y558 I-0.5 J0
X38.5 Y558 I0.5 J0
X38.25 Y558.25 I-0.25 J0
G1 X38
G0 Z5
X8 Y567.75
Z-2.5
G1 Z-4 F1000
X8.25
G3 X8.5 Y568 I0 J0.25
X7.5 Y568 I-0.5 J0
X8.5 Y568 I0.5 J0
X8.25 Y568.25 I-0.25 J0
G1 X8
G0 Z5
Y567.75
Z-6.5
G1 Z-8 F1000
X8.25
G3 X8.5 Y568 I0 J0.25
X7.5 Y568 I-0.5 J0
X8.5 Y568 I0.5 J0
X8.25 Y568.25 I-0.25 J0
G1 X8
G0 Z5
X18 Y567.75
Z-2.5
G1 Z-4 F1000
X18.25
G3 X18.5 Y568 I0 J0.25
X17.5 Y568 I-0.5 J0
X18.5 Y568 I0.5 J0
X18.25 Y568.25 I-0.25 J0
G1 X18
G0 Z5
Y567.75
Z-6.5
G1 Z-8 F1000
X18.25
G3 X18.5 Y568 I0 J0.25
X17.5 Y568 I-0.5 J0
X18.5 Y568 I0.5 J0
X18.25 Y568.25 I-0.25 J0
G1 X18
G0 Z5
X28 Y567.75
Z-2.5
G1 Z-4 F1000
X28.25
G3 X28.5 Y568 I0 J0.25
X27.5 Y568 I-0.5 J0
X28.5 Y568 I0.5 J0
X28.25 Y568.25 I-0.25 J0
G1 X28
G0 Z5
Y567.75
Z-6.5
G1 Z-8 F1000
X28.25
G3 X28.5 Y568 I0 J0.25
X27.5 Y568 I-0.5 J0
X28.5 Y568 I0.5 J0
X28.25 Y568.25 I-0.25 J0
G1 X28
G0 Z5
X38 Y567.75
Z-2.5
G1 Z-4 F1000
X38.25
G3 X38.5 Y568 I0 J0.25
X37.5 Y568 I-0.5 J0
X38.5 Y568 I0.5 J0
X38.25 Y568.25 I-0.25 J0
G1 X38
G0 Z5
Y567.75
Z-6.5
G1 Z-8 F1000
X38.25
G3 X38.5 Y568 I0 J0.25
X37.5 Y568 I-0.5 J0
X38.5 Y568 I0.5 J0
X38.25 Y568.25 I-0.25 J0
G1 X38
G0 Z5
Y577.75
Z-2.5
G1 Z-4 F1000
X38.25
G3 X38.5 Y578 I0 J0.25
X37.5 Y578 I-0.5 J0
X38.5 Y578 I0.5 J0
X38.25 Y578.25 I-0.25 J0
G1 X38
G0 Z5
Y577.75
Z-6.5
G1 Z-8 F1000
X38.25
G3 X38.5 Y578 I0 J0.25
X37.5 Y578 I-0.5 J0
X38.5 Y578 I0.5 J0
X38.25 Y578.25 I-0.25 J0
G1 X38
G0 Z5
X28 Y577.75
Z-2.5
G1 Z-4 F1000
X28.25
G3 X28.5 Y578 I0 J0.25
X27.5 Y578 I-0.5 J0
X28.5 Y578 I0.5 J0
X28.25 Y578.25 I-0.25 J0
G1 X28
G0 Z5
Y577.75
Z-6.5
G1 Z-8 F1000
X28.25
G3 X28.5 Y578 I0 J0.25
X27.5 Y578 I-0.5 J0
X28.5 Y578 I0.5 J0
X28.25 Y578.25 I-0.25 J0
G1 X28
G0 Z5
X18 Y577.75
Z-2.5
G1 Z-4 F1000
X18.25
G3 X18.5 Y578 I0 J0.25
X17.5 Y578 I-0.5 J0
X18.5 Y578 I0.5 J0
X18.25 Y578.25 I-0.25 J0
G1 X18
G0 Z5
Y577.75
Z-6.5
G1 Z-8 F1000
X18.25
G3 X18.5 Y578 I0 J0.25
X17.5 Y578 I-0.5 J0
X18.5 Y578 I0.5 J0
X18.25 Y578.25 I-0.25 J0
G1 X18
G0 Z5
X8 Y577.75
Z-2.5
G1 Z-4 F1000
X8.25
G3 X8.5 Y578 I0 J0.25
X7.5 Y578 I-0.5 J0
X8.5 Y578 I0.5 J0
X8.25 Y578.25 I-0.25 J0
G1 X8
G0 Z5
Y577.75
Z-6.5
G1 Z-8 F1000
X8.25
G3 X8.5 Y578 I0 J0.25
X7.5 Y578 I-0.5 J0
X8.5 Y578 I0.5 J0
X8.25 Y578.25 I-0.25 J0
G1 X8
G0 Z5
Y587.75
Z-2.5
G1 Z-4 F1000
X8.25
G3 X8.5 Y588 I0 J0.25
X7.5 Y588 I-0.5 J0
X8.5 Y588 I0.5 J0
X8.25 Y588.25 I-0.25 J0
G1 X8
G0 Z5
Y587.75
Z-6.5
G1 Z-8 F1000
X8.25
G3 X8.5 Y588 I0 J0.25
X7.5 Y588 I-0.5 J0
X8.5 Y588 I0.5 J0
X8.25 Y588.25 I-0.25 J0
G1 X8
G0 Z5
X18 Y587.75
Z-2.5
G1 Z-4 F1000
X18.25
G3 X18.5 Y588 I0 J0.25
X17.5 Y588 I-0.5 J0
X18.5 Y588 I0.5 J0
X18.25 Y588.25 I-0.25 J0
G1 X18
G0 Z5
Y587.75
Z-6.5
G1 Z-8 F1000
X18.25
G3 X18.5 Y588 I0 J0.25
X17.5 Y588 I-0.5 J0
X18.5 Y588 I0.5 J0
X18.25 Y588.25 I-0.25 J0
G1 X18
G0 Z5
X28 Y587.75
Z-2.5
G1 Z-4 F1000
X28.25
G3 X28.5 Y588 I0 J0.25
X27.5 Y588 I-0.5 J0
X28.5 Y588 I0.5 J0
X28.25 Y588.25 I-0.25 J0
G1 X28
G0 Z5
Y587.75
Z-6.5
G1 Z-8 F1000
X28.25
G3 X28.5 Y588 I0 J0.25
X27.5 Y588 I-0.5 J0
X28.5 Y588 I0.5 J0
X28.25 Y588.25 I-0.25 J0
G1 X28
G0 Z5
X38 Y587.75
Z-2.5
G1 Z-4 F1000
X38.25
G3 X38.5 Y588 I0 J0.25
X37.5 Y588 I-0.5 J0
X38.5 Y588 I0.5 J0
X38.25 Y588.25 I-0.25 J0
G1 X38
G0 Z5
Y587.75
Z-6.5
G1 Z-8 F1000
X38.25
G3 X38.5 Y588 I0 J0.25
X37.5 Y588 I-0.5 J0
X38.5 Y588 I0.5 J0
X38.25 Y588.25 I-0.25 J0
G1 X38
G0 Z5
X8 Y597.75
Z-2.5
G1 Z-4 F1000
X8.25
G3 X8.5 Y598 I0 J0.25
X7.5 Y598 I-0.5 J0
X8.5 Y598 I0.5 J0
X8.25 Y598.25 I-0.25 J0
G1 X8
G0 Z5
Y597.75
Z-6.5
G1 Z-8 F1000
X8.25
G3 X8.5 Y598 I0 J0.25
X7.5 Y598 I-0.5 J0
X8.5 Y598 I0.5 J0
X8.25 Y598.25 I-0.25 J0
G1 X8
G0 Z5
X18 Y597.75
Z-2.5
G1 Z-4 F1000
X18.25
G3 X18.5 Y598 I0 J0.25
X17.5 Y598 I-0.5 J0
X18.5 Y598 I0.5 J0
X18.25 Y598.25 I-0.25 J0
G1 X18
G0 Z5
Y597.75
Z-6.5
G1 Z-8 F1000
X18.25
G3 X18.5 Y598 I0 J0.25
X17.5 Y598 I-0.5 J0
X18.5 Y598 I0.5 J0
X18.25 Y598.25 I-0.25 J0
G1 X18
G0 Z5
X28 Y597.75
Z-2.5
G1 Z-4 F1000
X28.25
G3 X28.5 Y598 I0 J0.25
X27.5 Y598 I-0.5 J0
X28.5 Y598 I0.5 J0
X28.25 Y598.25 I-0.25 J0
G1 X28
G0 Z5
Y597.75
Z-6.5
G1 Z-8 F1000
X28.25
G3 X28.5 Y598 I0 J0.25
X27.5 Y598 I-0.5 J0
X28.5 Y598 I0.5 J0
X28.25 Y598.25 I-0.25 J0
G1 X28
G0 Z5
X38 Y597.75
Z-2.5
G1 Z-4 F1000
X38.25
G3 X38.5 Y598 I0 J0.25
X37.5 Y598 I-0.5 J0
X38.5 Y598 I0.5 J0
X38.25 Y598.25 I-0.25 J0
G1 X38
G0 Z5
Y597.75
Z-6.5
G1 Z-8 F1000
X38.25
G3 X38.5 Y598 I0 J0.25
X37.5 Y598 I-0.5 J0
X38.5 Y598 I0.5 J0
X38.25 Y598.25 I-0.25 J0
G1 X38
G0 Z5
Y607.75
Z-2.5
G1 Z-4 F1000
X38.25
G3 X38.5 Y608 I0 J0.25
X37.5 Y608 I-0.5 J0
X38.5 Y608 I0.5 J0
X38.25 Y608.25 I-0.25 J0
G1 X38
G0 Z5
Y607.75
Z-6.5
G1 Z-8 F1000
X38.25
G3 X38.5 Y608 I0 J0.25
X37.5 Y608 I-0.5 J0
X38.5 Y608 I0.5 J0
X38.25 Y608.25 I-0.25 J0
G1 X38
G0 Z5
X28 Y607.75
Z-2.5
G1 Z-4 F1000
X28.25
G3 X28.5 Y608 I0 J0.25
X27.5 Y608 I-0.5 J0
X28.5 Y608 I0.5 J0
X28.25 Y608.25 I-0.25 J0
G1 X28
G0 Z5
Y607.75
Z-6.5
G1 Z-8 F1000
X28.25
G3 X28.5 Y608 I0 J0.25
X27.5 Y608 I-0.5 J0
X28.5 Y608 I0.5 J0
X28.25 Y608.25 I-0.25 J0
G1 X28
G0 Z5
X18 Y607.75
Z-2.5
G1 Z-4 F1000
X18.25
G3 X18.5 Y608 I0 J0.25
X17.5 Y608 I-0.5 J0
X18.5 Y608 I0.5 J0
X18.25 Y608.25 I-0.25 J0
G1 X18
G0 Z5
Y607.75
Z-6.5
G1 Z-8 F1000
X18.25
G3 X18.5 Y608 I0 J0.25
X17.5 Y608 I-0.5 J0
X18.5 Y608 I0.5 J0
X18.25 Y608.25 I-0.25 J0
G1 X18
G0 Z5
X8 Y607.75
Z-2.5
G1 Z-4 F1000
X8.25
G3 X8.5 Y608 I0 J0.25
X7.5 Y608 I-0.5 J0
X8.5 Y608 I0.5 J0
X8.25 Y608.25 I-0.25 J0
G1 X8
G0 Z5
Y607.75
Z-6.5
G1 Z-8 F1000
X8.25
G3 X8.5 Y608 I0 J0.25
X7.5 Y608 I-0.5 J0
X8.5 Y608 I0.5 J0
X8.25 Y608.25 I-0.25 J0
G1 X8
G0 Z5
Y617.75
Z-2.5
G1 Z-4 F1000
X8.25
G3 X8.5 Y618 I0 J0.25
X7.5 Y618 I-0.5 J0
X8.5 Y618 I0.5 J0
X8.25 Y618.25 I-0.25 J0
G1 X8
G0 Z5
Y617.75
Z-6.5
G1 Z-8 F1000
X8.25
G3 X8.5 Y618 I0 J0.25
X7.5 Y618 I-0.5 J0
X8.5 Y618 I0.5 J0
X8.25 Y618.25 I-0.25 J0
G1 X8
G0 Z5
X18 Y617.75
Z-2.5
G1 Z-4 F1000
X18.25
G3 X18.5 Y618 I0 J0.25
X17.5 Y618 I-0.5 J0
X18.5 Y618 I0.5 J0
X18.25 Y618.25 I-0.25 J0
G1 X18
G0 Z5
Y617.75
Z-6.5
G1 Z-8 F1000
X18.25
G3 X18.5 Y618 I0 J0.25
X17.5 Y618 I-0.5 J0
X18.5 Y618 I0.5 J0
X18.25 Y618.25 I-0.25 J0
G1 X18
G0 Z5
X28 Y617.75
Z-2.5
G1 Z-4 F1000
X28.25
G3 X28.5 Y618 I0 J0.25
X27.5 Y618 I-0.5 J0
X28.5 Y618 I0.5 J0
X28.25 Y618.25 I-0.25 J0
G1 X28
G0 Z5
Y617.75
Z-6.5
G1 Z-8 F1000
X28.25
G3 X28.5 Y618 I0 J0.25
X27.5 Y618 I-0.5 J0
X28.5 Y618 I0.5 J0
X28.25 Y618.25 I-0.25 J0
G1 X28
G0 Z5
X38 Y617.75
Z-2.5
G1 Z-4 F1000
X38.25
G3 X38.5 Y618 I0 J0.25
X37.5 Y618 I-0.5 J0
X38.5 Y618 I0.5 J0
X38.25 Y618.25 I-0.25 J0
G1 X38
G0 Z5
Y617.75
Z-6.5
G1 Z-8 F1000
X38.25
G3 X38.5 Y618 I0 J0.25
X37.5 Y618 I-0.5 J0
X38.5 Y618 I0.5 J0
X38.25 Y618.25 I-0.25 J0
G1 X38
G0 Z5
Y627.75
Z-2.5
G1 Z-4 F1000
X38.25
G3 X38.5 Y628 I0 J0.25
X37.5 Y628 I-0.5 J0
X38.5 Y628 I0.5 J0
X38.25 Y628.25 I-0.25 J0
G1 X38
G0 Z5
Y627.75
Z-6.5
G1 Z-8 F1000
X38.25
G3 X38.5 Y628 I0 J0.25
X37.5 Y628 I-0.5 J0
X38.5 Y628 I0.5 J0
X38.25 Y628.25 I-0.25 J0
G1 X38
G0 Z5
X28 Y627.75
Z-2.5
G1 Z-4 F1000
X28.25
G3 X28.5 Y628 I0 J0.25
X27.5 Y628 I-0.5 J0
X28.5 Y628 I0.5 J0
X28.25 Y628.25 I-0.25 J0
G1 X28
G0 Z5
Y627.75
Z-6.5
G1 Z-8 F1000
X28.25
G3 X28.5 Y628 I0 J0.25
X27.5 Y628 I-0.5 J0
X28.5 Y628 I0.5 J0
X28.25 Y628.25 I-0.25 J0
G1 X28
G0 Z5
X18 Y627.75
Z-2.5
G1 Z-4 F1000
X18.25
G3 X18.5 Y628 I0 J0.25
X17.5 Y628 I-0.5 J0
X18.5 Y628 I0.5 J0
X18.25 Y628.25 I-0.25 J0
G1 X18
G0 Z5
Y627.75
Z-6.5
G1 Z-8 F1000
X18.25
G3 X18.5 Y628 I0 J0.25
X17.5 Y628 I-0.5 J0
X18.5 Y628 I0.5 J0
X18.25 Y628.25 I-0.25 J0
G1 X18
G0 Z5
X8 Y627.75
Z-2.5
G1 Z-4 F1000
X8.25
G3 X8.5 Y628 I0 J0.25
X7.5 Y628 I-0.5 J0
X8.5 Y628 I0.5 J0
X8.25 Y628.25 I-0.25 J0
G1 X8
G0 Z5
Y627.75
Z-6.5
G1 Z-8 F1000
X8.25
G3 X8.5 Y628 I0 J0.25
X7.5 Y628 I-0.5 J0
X8.5 Y628 I0.5 J0
X8.25 Y628.25 I-0.25 J0
G1 X8
G0 Z5
Y637.75
Z-2.5
G1 Z-4 F1000
X8.25
G3 X8.5 Y638 I0 J0.25
X7.5 Y638 I-0.5 J0
X8.5 Y638 I0.5 J0
X8.25 Y638.25 I-0.25 J0
G1 X8
G0 Z5
Y637.75
Z-6.5
G1 Z-8 F1000
X8.25
G3 X8.5 Y638 I0 J0.25
X7.5 Y638 I-0.5 J0
X8.5 Y638 I0.5 J0
X8.25 Y638.25 I-0.25 J0
G1 X8
G0 Z5
X18 Y637.75
Z-2.5
G1 Z-4 F1000
X18.25
G3 X18.5 Y638 I0 J0.25
X17.5 Y638 I-0.5 J0
X18.5 Y638 I0.5 J0
X18.25 Y638.25 I-0.25 J0
G1 X18
G0 Z5
Y637.75
Z-6.5
G1 Z-8 F1000
X18.25
G3 X18.5 Y638 I0 J0.25
X17.5 Y638 I-0.5 J0
X18.5 Y638 I0.5 J0
X18.25 Y638.25 I-0.25 J0
G1 X18
G0 Z5
X28 Y637.75
Z-2.5
G1 Z-4 F1000
X28.25
G3 X28.5 Y638 I0 J0.25
X27.5 Y638 I-0.5 J0
X28.5 Y638 I0.5 J0
X28.25 Y638.25 I-0.25 J0
G1 X28
G0 Z5
Y637.75
Z-6.5
G1 Z-8 F1000
X28.25
G3 X28.5 Y638 I0 J0.25
X27.5 Y638 I-0.5 J0
X28.5 Y638 I0.5 J0
X28.25 Y638.25 I-0.25 J0
G1 X28
G0 Z5
X38 Y637.75
Z-2.5
G1 Z-4 F1000
X38.25
G3 X38.5 Y638 I0 J0.25
X37.5 Y638 I-0.5 J0
X38.5 Y638 I0.5 J0
X38.25 Y638.25 I-0.25 J0
G1 X38
G0 Z5
Y637.75
Z-6.5
G1 Z-8 F1000
X38.25
G3 X38.5 Y638 I0 J0.25
X37.5 Y638 I-0.5 J0
X38.5 Y638 I0.5 J0
X38.25 Y638.25 I-0.25 J0
G1 X38
G0 Z5
X8 Y647.75
Z-2.5
G1 Z-4 F1000
X8.25
G3 X8.5 Y648 I0 J0.25
X7.5 Y648 I-0.5 J0
X8.5 Y648 I0.5 J0
X8.25 Y648.25 I-0.25 J0
G1 X8
G0 Z5
Y647.75
Z-6.5
G1 Z-8 F1000
X8.25
G3 X8.5 Y648 I0 J0.25
X7.5 Y648 I-0.5 J0
X8.5 Y648 I0.5 J0
X8.25 Y648.25 I-0.25 J0
G1 X8
G0 Z5
X18 Y647.75
Z-2.5
G1 Z-4 F1000
X18.25
G3 X18.5 Y648 I0 J0.25
X17.5 Y648 I-0.5 J0
X18.5 Y648 I0.5 J0
X18.25 Y648.25 I-0.25 J0
G1 X18
G0 Z5
Y647.75
Z-6.5
G1 Z-8 F1000
X18.25
G3 X18.5 Y648 I0 J0.25
X17.5 Y648 I-0.5 J0
X18.5 Y648 I0.5 J0
X18.25 Y648.25 I-0.25 J0
G1 X18
G0 Z5
X28 Y647.75
Z-2.5
G1 Z-4 F1000
X28.25
G3 X28.5 Y648 I0 J0.25
X27.5 Y648 I-0.5 J0
X28.5 Y648 I0.5 J0
X28.25 Y648.25 I-0.25 J0
G1 X28
G0 Z5
Y647.75
Z-6.5
G1 Z-8 F1000
X28.25
G3 X28.5 Y648 I0 J0.25
X27.5 Y648 I-0.5 J0
X28.5 Y648 I0.5 J0
X28.25 Y648.25 I-0.25 J0
G1 X28
G0 Z5
X38 Y647.75
Z-2.5
G1 Z-4 F1000
X38.25
G3 X38.5 Y648 I0 J0.25
X37.5 Y648 I-0.5 J0
X38.5 Y648 I0.5 J0
X38.25 Y648.25 I-0.25 J0
G1 X38
G0 Z5
Y647.75
Z-6.5
G1 Z-8 F1000
X38.25
G3 X38.5 Y648 I0 J0.25
X37.5 Y648 I-0.5 J0
X38.5 Y648 I0.5 J0
X38.25 Y648.25 I-0.25 J0
G1 X38
G0 Z5
Y657.75
Z-2.5
G1 Z-4 F1000
X38.25
G3 X38.5 Y658 I0 J0.25
X37.5 Y658 I-0.5 J0
X38.5 Y658 I0.5 J0
X38.25 Y658.25 I-0.25 J0
G1 X38
G0 Z5
Y657.75
Z-6.5
G1 Z-8 F1000
X38.25
G3 X38.5 Y658 I0 J0.25
X37.5 Y658 I-0.5 J0
X38.5 Y658 I0.5 J0
X38.25 Y658.25 I-0.25 J0
G1 X38
G0 Z5
X28 Y657.75
Z-2.5
G1 Z-4 F1000
X28.25
G3 X28.5 Y658 I0 J0.25
X27.5 Y658 I-0.5 J0
X28.5 Y658 I0.5 J0
X28.25 Y658.25 I-0.25 J0
G1 X28
G0 Z5
Y657.75
Z-6.5
G1 Z-8 F1000
X28.25
G3 X28.5 Y658 I0 J0.25
X27.5 Y658 I-0.5 J0
X28.5 Y658 I0.5 J0
X28.25 Y658.25 I-0.25 J0
G1 X28
G0 Z5
X18 Y657.75
Z-2.5
G1 Z-4 F1000
X18.25
G3 X18.5 Y658 I0 J0.25
X17.5 Y658 I-0.5 J0
X18.5 Y658 I0.5 J0
X18.25 Y658.25 I-0.25 J0
G1 X18
G0 Z5
Y657.75
Z-6.5
G1 Z-8 F1000
X18.25
G3 X18.5 Y658 I0 J0.25
X17.5 Y658 I-0.5 J0
X18.5 Y658 I0.5 J0
X18.25 Y658.25 I-0.25 J0
G1 X18
G0 Z5
X8 Y657.75
Z-2.5
G1 Z-4 F1000
X8.25
G3 X8.5 Y658 I0 J0.25
X7.5 Y658 I-0.5 J0
X8.5 Y658 I0.5 J0
X8.25 Y658.25 I-0.25 J0
G1 X8
G0 Z5
Y657.75
Z-6.5
G1 Z-8 F1000
X8.25
G3 X8.5 Y658 I0 J0.25
X7.5 Y658 I-0.5 J0
X8.5 Y658 I0.5 J0
X8.25 Y658.25 I-0.25 J0
G1 X8
G0 Z5
Y667.75
Z-2.5
G1 Z-4 F1000
X8.25
G3 X8.5 Y668 I0 J0.25
X7.5 Y668 I-0.5 J0
X8.5 Y668 I0.5 J0
X8.25 Y668.25 I-0.25 J0
G1 X8
G0 Z5
Y667.75
Z-6.5
G1 Z-8 F1000
X8.25
G3 X8.5 Y668 I0 J0.25
X7.5 Y668 I-0.5 J0
X8.5 Y668 I0.5 J0
X8.25 Y668.25 I-0.25 J0
G1 X8
G0 Z5
X18 Y667.75
Z-2.5
G1 Z-4 F1000
X18.25
G3 X18.5 Y668 I0 J0.25
X17.5 Y668 I-0.5 J0
X18.5 Y668 I0.5 J0
X18.25 Y668.25 I-0.25 J0
G1 X18
G0 Z5
Y667.75
Z-6.5
G1 Z-8 F1000
X18.25
G3 X18.5 Y668 I0 J0.25
X17.5 Y668 I-0.5 J0
X18.5 Y668 I0.5 J0
X18.25 Y668.25 I-0.25 J0
G1 X18
G0 Z5
X28 Y667.75
Z-2.5
G1 Z-4 F1000
X28.25
G3 X28.5 Y668 I0 J0.25
X27.5 Y668 I-0.5 J0
X28.5 Y668 I0.5 J0
X28.25 Y668.25 I-0.25 J0
G1 X28
G0 Z5
Y667.75
Z-6.5
G1 Z-8 F1000
X28.25
G3 X28.5 Y668 I0 J0.25
X27.5 Y668 I-0.5 J0
X28.5 Y668 I0.5 J0
X28.25 Y668.25 I-0.25 J0
G1 X28
G0 Z5
X38 Y667.75
Z-2.5
G1 Z-4 F1000
X38.25
G3 X38.5 Y668 I0 J0.25
X37.5 Y668 I-0.5 J0
X38.5 Y668 I0.5 J0
X38.25 Y668.25 I-0.25 J0
G1 X38
G0 Z5
Y667.75
Z-6.5
G1 Z-8 F1000
X38.25
G3 X38.5 Y668 I0 J0.25
X37.5 Y668 I-0.5 J0
X38.5 Y668 I0.5 J0
X38.25 Y668.25 I-0.25 J0
G1 X38
G0 Z5
Y677.75
Z-2.5
G1 Z-4 F1000
X38.25
G3 X38.5 Y678 I0 J0.25
X37.5 Y678 I-0.5 J0
X38.5 Y678 I0.5 J0
X38.25 Y678.25 I-0.25 J0
G1 X38
G0 Z5
Y677.75
Z-6.5
G1 Z-8 F1000
X38.25
G3 X38.5 Y678 I0 J0.25
X37.5 Y678 I-0.5 J0
X38.5 Y678 I0.5 J0
X38.25 Y678.25 I-0.25 J0
G1 X38
G0 Z5
X28 Y677.75
Z-2.5
G1 Z-4 F1000
X28.25
G3 X28.5 Y678 I0 J0.25
X27.5 Y678 I-0.5 J0
X28.5 Y678 I0.5 J0
X28.25 Y678.25 I-0.25 J0
G1 X28
G0 Z5
Y677.75
Z-6.5
G1 Z-8 F1000
X28.25
G3 X28.5 Y678 I0 J0.25
X27.5 Y678 I-0.5 J0
X28.5 Y678 I0.5 J0
X28.25 Y678.25 I-0.25 J0
G1 X28
G0 Z5
X18 Y677.75
Z-2.5
G1 Z-4 F1000
X18.25
G3 X18.5 Y678 I0 J0.25
X17.5 Y678 I-0.5 J0
X18.5 Y678 I0.5 J0
X18.25 Y678.25 I-0.25 J0
G1 X18
G0 Z5
Y677.75
Z-6.5
G1 Z-8 F1000
X18.25
G3 X18.5 Y678 I0 J0.25
X17.5 Y678 I-0.5 J0
X18.5 Y678 I0.5 J0
X18.25 Y678.25 I-0.25 J0
G1 X18
G0 Z5
X8 Y677.75
Z-2.5
G1 Z-4 F1000
X8.25
G3 X8.5 Y678 I0 J0.25
X7.5 Y678 I-0.5 J0
X8.5 Y678 I0.5 J0
X8.25 Y678.25 I-0.25 J0
G1 X8
G0 Z5
Y677.75
Z-6.5
G1 Z-8 F1000
X8.25
G3 X8.5 Y678 I0 J0.25
X7.5 Y678 I-0.5 J0
X8.5 Y678 I0.5 J0
X8.25 Y678.25 I-0.25 J0
G1 X8
G0 Z5
Y687.75
Z-2.5
G1 Z-4 F1000
X8.25
G3 X8.5 Y688 I0 J0.25
X7.5 Y688 I-0.5 J0
X8.5 Y688 I0.5 J0
X8.25 Y688.25 I-0.25 J0
G1 X8
G0 Z5
Y687.75
Z-6.5
G1 Z-8 F1000
X8.25
G3 X8.5 Y688 I0 J0.25
X7.5 Y688 I-0.5 J0
X8.5 Y688 I0.5 J0
X8.25 Y688.25 I-0.25 J0
G1 X8
G0 Z5
X18 Y687.75
Z-2.5
G1 Z-4 F1000
X18.25
G3 X18.5 Y688 I0 J0.25
X17.5 Y688 I-0.5 J0
X18.5 Y688 I0.5 J0
X18.25 Y688.25 I-0.25 J0
G1 X18
G0 Z5
Y687.75
Z-6.5
G1 Z-8 F1000
X18.25
G3 X18.5 Y688 I0 J0.25
X17.5 Y688 I-0.5 J0
X18.5 Y688 I0.5 J0
X18.25 Y688.25 I-0.25 J0
G1 X18
G0 Z5
X28 Y687.75
Z-2.5
G1 Z-4 F1000
X28.25
G3 X28.5 Y688 I0 J0.25
X27.5 Y688 I-0.5 J0
X28.5 Y688 I0.5 J0
X28.25 Y688.25 I-0.25 J0
G1 X28
G0 Z5
Y687.75
Z-6.5
G1 Z-8 F1000
X28.25
G3 X28.5 Y688 I0 J0.25
X27.5 Y688 I-0.5 J0
X28.5 Y688 I0.5 J0
X28.25 Y688.25 I-0.25 J0
G1 X28
G0 Z5
X38 Y687.75
Z-2.5
G1 Z-4 F1000
X38.25
G3 X38.5 Y688 I0 J0.25
X37.5 Y688 I-0.5 J0
X38.5 Y688 I0.5 J0
X38.25 Y688.25 I-0.25 J0
G1 X38
G0 Z5
Y687.75
Z-6.5
G1 Z-8 F1000
X38.25
G3 X38.5 Y688 I0 J0.25
X37.5 Y688 I-0.5 J0
X38.5 Y688 I0.5 J0
X38.25 Y688.25 I-0.25 J0
G1 X38
G0 Z5
Y697.75
Z-2.5
G1 Z-4 F1000
X38.25
G3 X38.5 Y698 I0 J0.25
X37.5 Y698 I-0.5 J0
X38.5 Y698 I0.5 J0
X38.25 Y698.25 I-0.25 J0
G1 X38
G0 Z5
Y697.75
Z-6.5
G1 Z-8 F1000
X38.25
G3 X38.5 Y698 I0 J0.25
X37.5 Y698 I-0.5 J0
X38.5 Y698 I0.5 J0
X38.25 Y698.25 I-0.25 J0
G1 X38
G0 Z5
X28 Y697.75
Z-2.5
G1 Z-4 F1000
X28.25
G3 X28.5 Y698 I0 J0.25
X27.5 Y698 I-0.5 J0
X28.5 Y698 I0.5 J0
X28.25 Y698.25 I-0.25 J0
G1 X28
G0 Z5
Y697.75
Z-6.5
G1 Z-8 F1000
X28.25
G3 X28.5 Y698 I0 J0.25
X27.5 Y698 I-0.5 J0
X28.5 Y698 I0.5 J0
X28.25 Y698.25 I-0.25 J0
G1 X28
G0 Z5
X18 Y697.75
Z-2.5
G1 Z-4 F1000
X18.25
G3 X18.5 Y698 I0 J0.25
X17.5 Y698 I-0.5 J0
X18.5 Y698 I0.5 J0
X18.25 Y698.25 I-0.25 J0
G1 X18
G0 Z5
Y697.75
Z-6.5
G1 Z-8 F1000
X18.25
G3 X18.5 Y698 I0 J0.25
X17.5 Y698 I-0.5 J0
X18.5 Y698 I0.5 J0
X18.25 Y698.25 I-0.25 J0
G1 X18
G0 Z5
X8 Y697.75
Z-2.5
G1 Z-4 F1000
X8.25
G3 X8.5 Y698 I0 J0.25
X7.5 Y698 I-0.5 J0
X8.5 Y698 I0.5 J0
X8.25 Y698.25 I-0.25 J0
G1 X8
G0 Z5
Y697.75
Z-6.5
G1 Z-8 F1000
X8.25
G3 X8.5 Y698 I0 J0.25
X7.5 Y698 I-0.5 J0
X8.5 Y698 I0.5 J0
X8.25 Y698.25 I-0.25 J0
G1 X8
G0 Z5
Y707.75
Z-2.5
G1 Z-4 F1000
X8.25
G3 X8.5 Y708 I0 J0.25
X7.5 Y708 I-0.5 J0
X8.5 Y708 I0.5 J0
X8.25 Y708.25 I-0.25 J0
G1 X8
G0 Z5
Y707.75
Z-6.5
G1 Z-8 F1000
X8.25
G3 X8.5 Y708 I0 J0.25
X7.5 Y708 I-0.5 J0
X8.5 Y708 I0.5 J0
X8.25 Y708.25 I-0.25 J0
G1 X8
G0 Z5
X18 Y707.75
Z-2.5
G1 Z-4 F1000
X18.25
G3 X18.5 Y708 I0 J0.25
X17.5 Y708 I-0.5 J0
X18.5 Y708 I0.5 J0
X18.25 Y708.25 I-0.25 J0
G1 X18
G0 Z5
Y707.75
Z-6.5
G1 Z-8 F1000
X18.25
G3 X18.5 Y708 I0 J0.25
X17.5 Y708 I-0.5 J0
X18.5 Y708 I0.5 J0
X18.25 Y708.25 I-0.25 J0
G1 X18
G0 Z5
X28 Y707.75
Z-2.5
G1 Z-4 F1000
X28.25
G3 X28.5 Y708 I0 J0.25
X27.5 Y708 I-0.5 J0
X28.5 Y708 I0.5 J0
X28.25 Y708.25 I-0.25 J0
G1 X28
G0 Z5
Y707.75
Z-6.5
G1 Z-8 F1000
X28.25
G3 X28.5 Y708 I0 J0.25
X27.5 Y708 I-0.5 J0
X28.5 Y708 I0.5 J0
X28.25 Y708.25 I-0.25 J0
G1 X28
G0 Z5
X38 Y707.75
Z-2.5
G1 Z-4 F1000
X38.25
G3 X38.5 Y708 I0 J0.25
X37.5 Y708 I-0.5 J0
X38.5 Y708 I0.5 J0
X38.25 Y708.25 I-0.25 J0
G1 X38
G0 Z5
Y707.75
Z-6.5
G1 Z-8 F1000
X38.25
G3 X38.5 Y708 I0 J0.25
X37.5 Y708 I-0.5 J0
X38.5 Y708 I0.5 J0
X38.25 Y708.25 I-0.25 J0
G1 X38
G0 Z5
Y717.75
Z-2.5
G1 Z-4 F1000
X38.25
G3 X38.5 Y718 I0 J0.25
X37.5 Y718 I-0.5 J0
X38.5 Y718 I0.5 J0
X38.25 Y718.25 I-0.25 J0
G1 X38
G0 Z5
Y717.75
Z-6.5
G1 Z-8 F1000
X38.25
G3 X38.5 Y718 I0 J0.25
X37.5 Y718 I-0.5 J0
X38.5 Y718 I0.5 J0
X38.25 Y718.25 I-0.25 J0
G1 X38
G0 Z5
X28 Y717.75
Z-2.5
G1 Z-4 F1000
X28.25
G3 X28.5 Y718 I0 J0.25
X27.5 Y718 I-0.5 J0
X28.5 Y718 I0.5 J0
X28.25 Y718.25 I-0.25 J0
G1 X28
G0 Z5
Y717.75
Z-6.5
G1 Z-8 F1000
X28.25
G3 X28.5 Y718 I0 J0.25
X27.5 Y718 I-0.5 J0
X28.5 Y718 I0.5 J0
X28.25 Y718.25 I-0.25 J0
G1 X28
G0 Z5
X18 Y717.75
Z-2.5
G1 Z-4 F1000
X18.25
G3 X18.5 Y718 I0 J0.25
X17.5 Y718 I-0.5 J0
X18.5 Y718 I0.5 J0
X18.25 Y718.25 I-0.25 J0
G1 X18
G0 Z5
Y717.75
Z-6.5
G1 Z-8 F1000
X18.25
G3 X18.5 Y718 I0 J0.25
X17.5 Y718 I-0.5 J0
X18.5 Y718 I0.5 J0
X18.25 Y718.25 I-0.25 J0
G1 X18
G0 Z5
X8 Y717.75
Z-2.5
G1 Z-4 F1000
X8.25
G3 X8.5 Y718 I0 J0.25
X7.5 Y718 I-0.5 J0
X8.5 Y718 I0.5 J0
X8.25 Y718.25 I-0.25 J0
G1 X8
G0 Z5
Y717.75
Z-6.5
G1 Z-8 F1000
X8.25
G3 X8.5 Y718 I0 J0.25
X7.5 Y718 I-0.5 J0
X8.5 Y718 I0.5 J0
X8.25 Y718.25 I-0.25 J0
G1 X8
G0 Z5
Y727.75
Z-2.5
G1 Z-4 F1000
X8.25
G3 X8.5 Y728 I0 J0.25
X7.5 Y728 I-0.5 J0
X8.5 Y728 I0.5 J0
X8.25 Y728.25 I-0.25 J0
G1 X8
G0 Z5
Y727.75
Z-6.5
G1 Z-8 F1000
X8.25
G3 X8.5 Y728 I0 J0.25
X7.5 Y728 I-0.5 J0
X8.5 Y728 I0.5 J0
X8.25 Y728.25 I-0.25 J0
G1 X8
G0 Z5
X18 Y727.75
Z-2.5
G1 Z-4 F1000
X18.25
G3 X18.5 Y728 I0 J0.25
X17.5 Y728 I-0.5 J0
X18.5 Y728 I0.5 J0
X18.25 Y728.25 I-0.25 J0
G1 X18
G0 Z5
Y727.75
Z-6.5
G1 Z-8 F1000
X18.25
G3 X18.5 Y728 I0 J0.25
X17.5 Y728 I-0.5 J0
X18.5 Y728 I0.5 J0
X18.25 Y728.25 I-0.25 J0
G1 X18
G0 Z5
X28 Y727.75
Z-2.5
G1 Z-4 F1000
X28.25
G3 X28.5 Y728 I0 J0.25
X27.5 Y728 I-0.5 J0
X28.5 Y728 I0.5 J0
X28.25 Y728.25 I-0.25 J0
G1 X28
G0 Z5
Y727.75
Z-6.5
G1 Z-8 F1000
X28.25
G3 X28.5 Y728 I0 J0.25
X27.5 Y728 I-0.5 J0
X28.5 Y728 I0.5 J0
X28.25 Y728.25 I-0.25 J0
G1 X28
G0 Z5
X38 Y727.75
Z-2.5
G1 Z-4 F1000
X38.25
G3 X38.5 Y728 I0 J0.25
X37.5 Y728 I-0.5 J0
X38.5 Y728 I0.5 J0
X38.25 Y728.25 I-0.25 J0
G1 X38
G0 Z5
Y727.75
Z-6.5
G1 Z-8 F1000
X38.25
G3 X38.5 Y728 I0 J0.25
X37.5 Y728 I-0.5 J0
X38.5 Y728 I0.5 J0
X38.25 Y728.25 I-0.25 J0
G1 X38
G0 Z5
Y737.75
Z-2.5
G1 Z-4 F1000
X38.25
G3 X38.5 Y738 I0 J0.25
X37.5 Y738 I-0.5 J0
X38.5 Y738 I0.5 J0
X38.25 Y738.25 I-0.25 J0
G1 X38
G0 Z5
Y737.75
Z-6.5
G1 Z-8 F1000
X38.25
G3 X38.5 Y738 I0 J0.25
X37.5 Y738 I-0.5 J0
X38.5 Y738 I0.5 J0
X38.25 Y738.25 I-0.25 J0
G1 X38
G0 Z5
X28 Y737.75
Z-2.5
G1 Z-4 F1000
X28.25
G3 X28.5 Y738 I0 J0.25
X27.5 Y738 I-0.5 J0
X28.5 Y738 I0.5 J0
X28.25 Y738.25 I-0.25 J0
G1 X28
G0 Z5
Y737.75
Z-6.5
G1 Z-8 F1000
X28.25
G3 X28.5 Y738 I0 J0.25
X27.5 Y738 I-0.5 J0
X28.5 Y738 I0.5 J0
X28.25 Y738.25 I-0.25 J0
G1 X28
G0 Z5
X18 Y737.75
Z-2.5
G1 Z-4 F1000
X18.25
G3 X18.5 Y738 I0 J0.25
X17.5 Y738 I-0.5 J0
X18.5 Y738 I0.5 J0
X18.25 Y738.25 I-0.25 J0
G1 X18
G0 Z5
Y737.75
Z-6.5
G1 Z-8 F1000
X18.25
G3 X18.5 Y738 I0 J0.25
X17.5 Y738 I-0.5 J0
X18.5 Y738 I0.5 J0
X18.25 Y738.25 I-0.25 J0
G1 X18
G0 Z5
X8 Y737.75
Z-2.5
G1 Z-4 F1000
X8.25
G3 X8.5 Y738 I0 J0.25
X7.5 Y738 I-0.5 J0
X8.5 Y738 I0.5 J0
X8.25 Y738.25 I-0.25 J0
G1 X8
G0 Z5
Y737.75
Z-6.5
G1 Z-8 F1000
X8.25
G3 X8.5 Y738 I0 J0.25
X7.5 Y738 I-0.5 J0
X8.5 Y738 I0.5 J0
X8.25 Y738.25 I-0.25 J0
G1 X8
G0 Z5
Y747.75
Z-2.5
G1 Z-4 F1000
X8.25
G3 X8.5 Y748 I0 J0.25
X7.5 Y748 I-0.5 J0
X8.5 Y748 I0.5 J0
X8.25 Y748.25 I-0.25 J0
G1 X8
G0 Z5
Y747.75
Z-6.5
G1 Z-8 F1000
X8.25
G3 X8.5 Y748 I0 J0.25
X7.5 Y748 I-0.5 J0
X8.5 Y748 I0.5 J0
X8.25 Y748.25 I-0.25 J0
G1 X8
G0 Z5
X18 Y747.75
Z-2.5
G1 Z-4 F1000
X18.25
G3 X18.5 Y748 I0 J0.25
X17.5 Y748 I-0.5 J0
X18.5 Y748 I0.5 J0
X18.25 Y748.25 I-0.25 J0
G1 X18
G0 Z5
Y747.75
Z-6.5
G1 Z-8 F1000
X18.25
G3 X18.5 Y748 I0 J0.25
X17.5 Y748 I-0.5 J0
X18.5 Y748 I0.5 J0
X18.25 Y748.25 I-0.25 J0
G1 X18
G0 Z5
X28 Y747.75
Z-2.5
G1 Z-4 F1000
X28.25
G3 X28.5 Y748 I0 J0.25
X27.5 Y748 I-0.5 J0
X28.5 Y748 I0.5 J0
X28.25 Y748.25 I-0.25 J0
G1 X28
G0 Z5
Y747.75
Z-6.5
G1 Z-8 F1000
X28.25
G3 X28.5 Y748 I0 J0.25
X27.5 Y748 I-0.5 J0
X28.5 Y748 I0.5 J0
X28.25 Y748.25 I-0.25 J0
G1 X28
G0 Z5
X38 Y747.75
Z-2.5
G1 Z-4 F1000
X38.25
G3 X38.5 Y748 I0 J0.25
X37.5 Y748 I-0.5 J0
X38.5 Y748 I0.5 J0
X38.25 Y748.25 I-0.25 J0
G1 X38
G0 Z5
Y747.75
Z-6.5
G1 Z-8 F1000
X38.25
G3 X38.5 Y748 I0 J0.25
X37.5 Y748 I-0.5 J0
X38.5 Y748 I0.5 J0
X38.25 Y748.25 I-0.25 J0
G1 X38
G0 Z5
Y757.75
Z-2.5
G1 Z-4 F1000
X38.25
G3 X38.5 Y758 I0 J0.25
X37.5 Y758 I-0.5 J0
X38.5 Y758 I0.5 J0
X38.25 Y758.25 I-0.25 J0
G1 X38
G0 Z5
Y757.75
Z-6.5
G1 Z-8 F1000
X38.25
G3 X38.5 Y758 I0 J0.25
X37.5 Y758 I-0.5 J0
X38.5 Y758 I0.5 J0
X38.25 Y758.25 I-0.25 J0
G1 X38
G0 Z5
X28 Y757.75
Z-2.5
G1 Z-4 F1000
X28.25
G3 X28.5 Y758 I0 J0.25
X27.5 Y758 I-0.5 J0
X28.5 Y758 I0.5 J0
X28.25 Y758.25 I-0.25 J0
G1 X28
G0 Z5
Y757.75
Z-6.5
G1 Z-8 F1000
X28.25
G3 X28.5 Y758 I0 J0.25
X27.5 Y758 I-0.5 J0
X28.5 Y758 I0.5 J0
X28.25 Y758.25 I-0.25 J0
G1 X28
G0 Z5
X18 Y757.75
Z-2.5
G1 Z-4 F1000
X18.25
G3 X18.5 Y758 I0 J0.25
X17.5 Y758 I-0.5 J0
X18.5 Y758 I0.5 J0
X18.25 Y758.25 I-0.25 J0
G1 X18
G0 Z5
Y757.75
Z-6.5
G1 Z-8 F1000
X18.25
G3 X18.5 Y758 I0 J0.25
X17.5 Y758 I-0.5 J0
X18.5 Y758 I0.5 J0
X18.25 Y758.25 I-0.25 J0
G1 X18
G0 Z5
X8 Y757.75
Z-2.5
G1 Z-4 F1000
X8.25
G3 X8.5 Y758 I0 J0.25
X7.5 Y758 I-0.5 J0
X8.5 Y758 I0.5 J0
X8.25 Y758.25 I-0.25 J0
G1 X8
G0 Z5
Y757.75
Z-6.5
G1 Z-8 F1000
X8.25
G3 X8.5 Y758 I0 J0.25
X7.5 Y758 I-0.5 J0
X8.5 Y758 I0.5 J0
X8.25 Y758.25 I-0.25 J0
G1 X8
G0 Z5
Y767.75
Z-2.5
G1 Z-4 F1000
X8.25
G3 X8.5 Y768 I0 J0.25
X7.5 Y768 I-0.5 J0
X8.5 Y768 I0.5 J0
X8.25 Y768.25 I-0.25 J0
G1 X8
G0 Z5
Y767.75
Z-6.5
G1 Z-8 F1000
X8.25
G3 X8.5 Y768 I0 J0.25
X7.5 Y768 I-0.5 J0
X8.5 Y768 I0.5 J0
X8.25 Y768.25 I-0.25 J0
G1 X8
G0 Z5
X18 Y767.75
Z-2.5
G1 Z-4 F1000
X18.25
G3 X18.5 Y768 I0 J0.25
X17.5 Y768 I-0.5 J0
X18.5 Y768 I0.5 J0
X18.25 Y768.25 I-0.25 J0
G1 X18
G0 Z5
Y767.75
Z-6.5
G1 Z-8 F1000
X18.25
G3 X18.5 Y768 I0 J0.25
X17.5 Y768 I-0.5 J0
X18.5 Y768 I0.5 J0
X18.25 Y768.25 I-0.25 J0
G1 X18
G0 Z5
X28 Y767.75
Z-2.5
G1 Z-4 F1000
X28.25
G3 X28.5 Y768 I0 J0.25
X27.5 Y768 I-0.5 J0
X28.5 Y768 I0.5 J0
X28.25 Y768.25 I-0.25 J0
G1 X28
G0 Z5
Y767.75
Z-6.5
G1 Z-8 F1000
X28.25
G3 X28.5 Y768 I0 J0.25
X27.5 Y768 I-0.5 J0
X28.5 Y768 I0.5 J0
X28.25 Y768.25 I-0.25 J0
G1 X28
G0 Z5
X38 Y767.75
Z-2.5
G1 Z-4 F1000
X38.25
G3 X38.5 Y768 I0 J0.25
X37.5 Y768 I-0.5 J0
X38.5 Y768 I0.5 J0
X38.25 Y768.25 I-0.25 J0
G1 X38
G0 Z5
Y767.75
Z-6.5
G1 Z-8 F1000
X38.25
G3 X38.5 Y768 I0 J0.25
X37.5 Y768 I-0.5 J0
X38.5 Y768 I0.5 J0
X38.25 Y768.25 I-0.25 J0
G1 X38
G0 Z5
Y777.75
Z-2.5
G1 Z-4 F1000
X38.25
G3 X38.5 Y778 I0 J0.25
X37.5 Y778 I-0.5 J0
X38.5 Y778 I0.5 J0
X38.25 Y778.25 I-0.25 J0
G1 X38
G0 Z5
Y777.75
Z-6.5
G1 Z-8 F1000
X38.25
G3 X38.5 Y778 I0 J0.25
X37.5 Y778 I-0.5 J0
X38.5 Y778 I0.5 J0
X38.25 Y778.25 I-0.25 J0
G1 X38
G0 Z5
X28 Y777.75
Z-2.5
G1 Z-4 F1000
X28.25
G3 X28.5 Y778 I0 J0.25
X27.5 Y778 I-0.5 J0
X28.5 Y778 I0.5 J0
X28.25 Y778.25 I-0.25 J0
G1 X28
G0 Z5
Y777.75
Z-6.5
G1 Z-8 F1000
X28.25
G3 X28.5 Y778 I0 J0.25
X27.5 Y778 I-0.5 J0
X28.5 Y778 I0.5 J0
X28.25 Y778.25 I-0.25 J0
G1 X28
G0 Z5
X18 Y777.75
Z-2.5
G1 Z-4 F1000
X18.25
G3 X18.5 Y778 I0 J0.25
X17.5 Y778 I-0.5 J0
X18.5 Y778 I0.5 J0
X18.25 Y778.25 I-0.25 J0
G1 X18
G0 Z5
Y777.75
Z-6.5
G1 Z-8 F1000
X18.25
G3 X18.5 Y778 I0 J0.25
X17.5 Y778 I-0.5 J0
X18.5 Y778 I0.5 J0
X18.25 Y778.25 I-0.25 J0
G1 X18
G0 Z5
X8 Y777.75
Z-2.5
G1 Z-4 F1000
X8.25
G3 X8.5 Y778 I0 J0.25
X7.5 Y778 I-0.5 J0
X8.5 Y778 I0.5 J0
X8.25 Y778.25 I-0.25 J0
G1 X8
G0 Z5
Y777.75
Z-6.5
G1 Z-8 F1000
X8.25
G3 X8.5 Y778 I0 J0.25
X7.5 Y778 I-0.5 J0
X8.5 Y778 I0.5 J0
X8.25 Y778.25 I-0.25 J0
G1 X8
G0 Z5
X38 Y787.75
Z-2.5
G1 Z-4 F1000
X38.25
G3 X38.5 Y788 I0 J0.25
X37.5 Y788 I-0.5 J0
X38.5 Y788 I0.5 J0
X38.25 Y788.25 I-0.25 J0
G1 X38
G0 Z5
Y787.75
Z-6.5
G1 Z-8 F1000
X38.25
G3 X38.5 Y788 I0 J0.25
X37.5 Y788 I-0.5 J0
X38.5 Y788 I0.5 J0
X38.25 Y788.25 I-0.25 J0
G1 X38
G0 Z5
X28 Y787.75
Z-2.5
G1 Z-4 F1000
X28.25
G3 X28.5 Y788 I0 J0.25
X27.5 Y788 I-0.5 J0
X28.5 Y788 I0.5 J0
X28.25 Y788.25 I-0.25 J0
G1 X28
G0 Z5
Y787.75
Z-6.5
G1 Z-8 F1000
X28.25
G3 X28.5 Y788 I0 J0.25
X27.5 Y788 I-0.5 J0
X28.5 Y788 I0.5 J0
X28.25 Y788.25 I-0.25 J0
G1 X28
G0 Z5
X18 Y787.75
Z-2.5
G1 Z-4 F1000
X18.25
G3 X18.5 Y788 I0 J0.25
X17.5 Y788 I-0.5 J0
X18.5 Y788 I0.5 J0
X18.25 Y788.25 I-0.25 J0
G1 X18
G0 Z5
Y787.75
Z-6.5
G1 Z-8 F1000
X18.25
G3 X18.5 Y788 I0 J0.25
X17.5 Y788 I-0.5 J0
X18.5 Y788 I0.5 J0
X18.25 Y788.25 I-0.25 J0
G1 X18
G0 Z5
X8 Y787.75
Z-2.5
G1 Z-4 F1000
X8.25
G3 X8.5 Y788 I0 J0.25
X7.5 Y788 I-0.5 J0
X8.5 Y788 I0.5 J0
X8.25 Y788.25 I-0.25 J0
G1 X8
G0 Z5
Y787.75
Z-6.5
G1 Z-8 F1000
X8.25
G3 X8.5 Y788 I0 J0.25
X7.5 Y788 I-0.5 J0
X8.5 Y788 I0.5 J0
X8.25 Y788.25 I-0.25 J0
G1 X8
G0 Z5
Y797.75
Z-2.5
G1 Z-4 F1000
X8.25
G3 X8.5 Y798 I0 J0.25
X7.5 Y798 I-0.5 J0
X8.5 Y798 I0.5 J0
X8.25 Y798.25 I-0.25 J0
G1 X8
G0 Z5
Y797.75
Z-6.5
G1 Z-8 F1000
X8.25
G3 X8.5 Y798 I0 J0.25
X7.5 Y798 I-0.5 J0
X8.5 Y798 I0.5 J0
X8.25 Y798.25 I-0.25 J0
G1 X8
G0 Z5
X18 Y797.75
Z-2.5
G1 Z-4 F1000
X18.25
G3 X18.5 Y798 I0 J0.25
X17.5 Y798 I-0.5 J0
X18.5 Y798 I0.5 J0
X18.25 Y798.25 I-0.25 J0
G1 X18
G0 Z5
Y797.75
Z-6.5
G1 Z-8 F1000
X18.25
G3 X18.5 Y798 I0 J0.25
X17.5 Y798 I-0.5 J0
X18.5 Y798 I0.5 J0
X18.25 Y798.25 I-0.25 J0
G1 X18
G0 Z5
X28 Y797.75
Z-2.5
G1 Z-4 F1000
X28.25
G3 X28.5 Y798 I0 J0.25
X27.5 Y798 I-0.5 J0
X28.5 Y798 I0.5 J0
X28.25 Y798.25 I-0.25 J0
G1 X28
G0 Z5
Y797.75
Z-6.5
G1 Z-8 F1000
X28.25
G3 X28.5 Y798 I0 J0.25
X27.5 Y798 I-0.5 J0
X28.5 Y798 I0.5 J0
X28.25 Y798.25 I-0.25 J0
G1 X28
G0 Z5
X38 Y797.75
Z-2.5
G1 Z-4 F1000
X38.25
G3 X38.5 Y798 I0 J0.25
X37.5 Y798 I-0.5 J0
X38.5 Y798 I0.5 J0
X38.25 Y798.25 I-0.25 J0
G1 X38
G0 Z5
Y797.75
Z-6.5
G1 Z-8 F1000
X38.25
G3 X38.5 Y798 I0 J0.25
X37.5 Y798 I-0.5 J0
X38.5 Y798 I0.5 J0
X38.25 Y798.25 I-0.25 J0
G1 X38
G0 Z5
Y807.75
Z-2.5
G1 Z-4 F1000
X38.25
G3 X38.5 Y808 I0 J0.25
X37.5 Y808 I-0.5 J0
X38.5 Y808 I0.5 J0
X38.25 Y808.25 I-0.25 J0
G1 X38
G0 Z5
Y807.75
Z-6.5
G1 Z-8 F1000
X38.25
G3 X38.5 Y808 I0 J0.25
X37.5 Y808 I-0.5 J0
X38.5 Y808 I0.5 J0
X38.25 Y808.25 I-0.25 J0
G1 X38
G0 Z5
X28 Y807.75
Z-2.5
G1 Z-4 F1000
X28.25
G3 X28.5 Y808 I0 J0.25
X27.5 Y808 I-0.5 J0
X28.5 Y808 I0.5 J0
X28.25 Y808.25 I-0.25 J0
G1 X28
G0 Z5
Y807.75
Z-6.5
G1 Z-8 F1000
X28.25
G3 X28.5 Y808 I0 J0.25
X27.5 Y808 I-0.5 J0
X28.5 Y808 I0.5 J0
X28.25 Y808.25 I-0.25 J0
G1 X28
G0 Z5
X18 Y807.75
Z-2.5
G1 Z-4 F1000
X18.25
G3 X18.5 Y808 I0 J0.25
X17.5 Y808 I-0.5 J0
X18.5 Y808 I0.5 J0
X18.25 Y808.25 I-0.25 J0
G1 X18
G0 Z5
Y807.75
Z-6.5
G1 Z-8 F1000
X18.25
G3 X18.5 Y808 I0 J0.25
X17.5 Y808 I-0.5 J0
X18.5 Y808 I0.5 J0
X18.25 Y808.25 I-0.25 J0
G1 X18
G0 Z5
X8 Y807.75
Z-2.5
G1 Z-4 F1000
X8.25
G3 X8.5 Y808 I0 J0.25
X7.5 Y808 I-0.5 J0
X8.5 Y808 I0.5 J0
X8.25 Y808.25 I-0.25 J0
G1 X8
G0 Z5
Y807.75
Z-6.5
G1 Z-8 F1000
X8.25
G3 X8.5 Y808 I0 J0.25
X7.5 Y808 I-0.5 J0
X8.5 Y808 I0.5 J0
X8.25 Y808.25 I-0.25 J0
G1 X8
G0 Z5
Y817.75
Z-2.5
G1 Z-4 F1000
X8.25
G3 X8.5 Y818 I0 J0.25
X7.5 Y818 I-0.5 J0
X8.5 Y818 I0.5 J0
X8.25 Y818.25 I-0.25 J0
G1 X8
G0 Z5
Y817.75
Z-6.5
G1 Z-8 F1000
X8.25
G3 X8.5 Y818 I0 J0.25
X7.5 Y818 I-0.5 J0
X8.5 Y818 I0.5 J0
X8.25 Y818.25 I-0.25 J0
G1 X8
G0 Z5
X18 Y817.75
Z-2.5
G1 Z-4 F1000
X18.25
G3 X18.5 Y818 I0 J0.25
X17.5 Y818 I-0.5 J0
X18.5 Y818 I0.5 J0
X18.25 Y818.25 I-0.25 J0
G1 X18
G0 Z5
Y817.75
Z-6.5
G1 Z-8 F1000
X18.25
G3 X18.5 Y818 I0 J0.25
X17.5 Y818 I-0.5 J0
X18.5 Y818 I0.5 J0
X18.25 Y818.25 I-0.25 J0
G1 X18
G0 Z5
X28 Y817.75
Z-2.5
G1 Z-4 F1000
X28.25
G3 X28.5 Y818 I0 J0.25
X27.5 Y818 I-0.5 J0
X28.5 Y818 I0.5 J0
X28.25 Y818.25 I-0.25 J0
G1 X28
G0 Z5
Y817.75
Z-6.5
G1 Z-8 F1000
X28.25
G3 X28.5 Y818 I0 J0.25
X27.5 Y818 I-0.5 J0
X28.5 Y818 I0.5 J0
X28.25 Y818.25 I-0.25 J0
G1 X28
G0 Z5
X38 Y817.75
Z-2.5
G1 Z-4 F1000
X38.25
G3 X38.5 Y818 I0 J0.25
X37.5 Y818 I-0.5 J0
X38.5 Y818 I0.5 J0
X38.25 Y818.25 I-0.25 J0
G1 X38
G0 Z5
Y817.75
Z-6.5
G1 Z-8 F1000
X38.25
G3 X38.5 Y818 I0 J0.25
X37.5 Y818 I-0.5 J0
X38.5 Y818 I0.5 J0
X38.25 Y818.25 I-0.25 J0
G1 X38
G0 Z5
X8 Y827.75
Z-2.5
G1 Z-4 F1000
X8.25
G3 X8.5 Y828 I0 J0.25
X7.5 Y828 I-0.5 J0
X8.5 Y828 I0.5 J0
X8.25 Y828.25 I-0.25 J0
G1 X8
G0 Z5
Y827.75
Z-6.5
G1 Z-8 F1000
X8.25
G3 X8.5 Y828 I0 J0.25
X7.5 Y828 I-0.5 J0
X8.5 Y828 I0.5 J0
X8.25 Y828.25 I-0.25 J0
G1 X8
G0 Z5
X18 Y827.75
Z-2.5
G1 Z-4 F1000
X18.25
G3 X18.5 Y828 I0 J0.25
X17.5 Y828 I-0.5 J0
X18.5 Y828 I0.5 J0
X18.25 Y828.25 I-0.25 J0
G1 X18
G0 Z5
Y827.75
Z-6.5
G1 Z-8 F1000
X18.25
G3 X18.5 Y828 I0 J0.25
X17.5 Y828 I-0.5 J0
X18.5 Y828 I0.5 J0
X18.25 Y828.25 I-0.25 J0
G1 X18
G0 Z5
X28 Y827.75
Z-2.5
G1 Z-4 F1000
X28.25
G3 X28.5 Y828 I0 J0.25
X27.5 Y828 I-0.5 J0
X28.5 Y828 I0.5 J0
X28.25 Y828.25 I-0.25 J0
G1 X28
G0 Z5
Y827.75
Z-6.5
G1 Z-8 F1000
X28.25
G3 X28.5 Y828 I0 J0.25
X27.5 Y828 I-0.5 J0
X28.5 Y828 I0.5 J0
X28.25 Y828.25 I-0.25 J0
G1 X28
G0 Z5
X38 Y827.75
Z-2.5
G1 Z-4 F1000
X38.25
G3 X38.5 Y828 I0 J0.25
X37.5 Y828 I-0.5 J0
X38.5 Y828 I0.5 J0
X38.25 Y828.25 I-0.25 J0
G1 X38
G0 Z5
Y827.75
Z-6.5
G1 Z-8 F1000
X38.25
G3 X38.5 Y828 I0 J0.25
X37.5 Y828 I-0.5 J0
X38.5 Y828 I0.5 J0
X38.25 Y828.25 I-0.25 J0
G1 X38
G0 Z5
Y837.75
Z-2.5
G1 Z-4 F1000
X38.25
G3 X38.5 Y838 I0 J0.25
X37.5 Y838 I-0.5 J0
X38.5 Y838 I0.5 J0
X38.25 Y838.25 I-0.25 J0
G1 X38
G0 Z5
Y837.75
Z-6.5
G1 Z-8 F1000
X38.25
G3 X38.5 Y838 I0 J0.25
X37.5 Y838 I-0.5 J0
X38.5 Y838 I0.5 J0
X38.25 Y838.25 I-0.25 J0
G1 X38
G0 Z5
X28 Y837.75
Z-2.5
G1 Z-4 F1000
X28.25
G3 X28.5 Y838 I0 J0.25
X27.5 Y838 I-0.5 J0
X28.5 Y838 I0.5 J0
X28.25 Y838.25 I-0.25 J0
G1 X28
G0 Z5
Y837.75
Z-6.5
G1 Z-8 F1000
X28.25
G3 X28.5 Y838 I0 J0.25
X27.5 Y838 I-0.5 J0
X28.5 Y838 I0.5 J0
X28.25 Y838.25 I-0.25 J0
G1 X28
G0 Z5
X18 Y837.75
Z-2.5
G1 Z-4 F1000
X18.25
G3 X18.5 Y838 I0 J0.25
X17.5 Y838 I-0.5 J0
X18.5 Y838 I0.5 J0
X18.25 Y838.25 I-0.25 J0
G1 X18
G0 Z5
Y837.75
Z-6.5
G1 Z-8 F1000
X18.25
G3 X18.5 Y838 I0 J0.25
X17.5 Y838 I-0.5 J0
X18.5 Y838 I0.5 J0
X18.25 Y838.25 I-0.25 J0
G1 X18
G0 Z5
X8 Y837.75
Z-2.5
G1 Z-4 F1000
X8.25
G3 X8.5 Y838 I0 J0.25
X7.5 Y838 I-0.5 J0
X8.5 Y838 I0.5 J0
X8.25 Y838.25 I-0.25 J0
G1 X8
G0 Z5
Y837.75
Z-6.5
G1 Z-8 F1000
X8.25
G3 X8.5 Y838 I0 J0.25
X7.5 Y838 I-0.5 J0
X8.5 Y838 I0.5 J0
X8.25 Y838.25 I-0.25 J0
G1 X8
G0 Z15

(2D Contour1)
G0 X49.996 Y846.531
Z15
Z5
G1 Z3 F333.3
Z-1.5
X49.988 Z-1.587 F1000
X49.966 Z-1.671
X49.929 Y846.53 Z-1.75
X49.879 Z-1.821
X49.817 Z-1.883
X49.746 Y846.529 Z-1.933
X49.667 Y846.528 Z-1.97
X49.583 Z-1.992
X49.496 Y846.527 Z-2
X48.996 Y846.523
G3 X48.5 Y846.019 I0.004 J-0.5
G1 X48.523 Y843.086
X48.546 Y840.141
X48.569 Y837.18
X48.592 Y834.205
X48.616 Y831.217
X48.64 Y828.214
X48.665 Y825.198
X48.689 Y822.167
X48.714 Y819.122
X48.739 Y816.065
X48.765 Y812.992
X48.79 Y809.905
X48.816 Y806.805
X48.843 Y803.69
X48.869 Y800.561
X48.896 Y797.418
X48.923 Y794.262
X48.951 Y791.091
X48.978 Y787.905
X49.006 Y784.706
X49.034 Y781.492
X49.063 Y778.265
X49.091 Y775.023
X49.12 Y771.767
X49.15 Y768.497
X49.179 Y765.214
X49.209 Y761.915
X49.239 Y758.603
X49.27 Y755.276
X49.3 Y751.935
X49.331 Y748.58
X49.362 Y745.21
X49.394 Y741.827
X49.426 Y738.429
X49.458 Y735.018
X49.49 Y731.592
X49.523 Y728.151
X49.555 Y724.697
X49.588 Y721.228
X49.622 Y717.745
X49.655 Y714.248
X49.689 Y710.737
X49.723 Y707.212
X49.758 Y703.672
X49.792 Y700.119
X49.827 Y696.551
X49.862 Y692.971
X49.898 Y689.375
X49.933 Y685.765
X49.969 Y682.141
X50.005 Y678.504
X50.041 Y674.852
X50.078 Y671.186
X50.115 Y667.507
X50.152 Y663.813
X50.189 Y660.106
X50.226 Y656.385
X50.264 Y652.65
X50.302 Y648.901
X50.34 Y645.139
X50.378 Y641.363
X50.417 Y637.574
X50.456 Y633.771
X50.495 Y629.956
X50.534 Y626.126
X50.573 Y622.283
X50.612 Y618.427
X50.652 Y614.557
X50.692 Y610.675
X50.732 Y606.779
X50.772 Y602.871
X50.812 Y598.949
X50.853 Y595.015
X50.893 Y591.068
X50.934 Y587.109
X50.975 Y583.137
X51.016 Y579.153
X51.057 Y575.157
X51.098 Y571.149
X51.139 Y567.129
X51.181 Y563.097
X51.222 Y559.054
X51.264 Y554.999
X51.305 Y550.932
X51.347 Y546.854
X51.389 Y542.766
X51.43 Y538.667
X51.472 Y534.557
X51.514 Y530.437
X51.555 Y526.306
X51.639 Y518.015
X51.722 Y509.686
X51.805 Y501.32
X51.887 Y492.919
X51.969 Y484.483
X52.051 Y476.018
X52.132 Y467.523
X52.212 Y459.001
X52.291 Y450.454
X52.369 Y441.885
X52.446 Y433.295
X52.522 Y424.688
X52.597 Y416.067
X52.741 Y398.789
Y398.788
X52.878 Y381.489
Y381.488
X53.006 Y364.195
Y364.193
X53.067 Y355.558
X53.124 Y346.937
X53.179 Y338.334
X53.23 Y329.754
X53.277 Y321.203
Y321.202
X53.321 Y312.685
X53.341 Y308.44
X53.361 Y304.206
X53.379 Y299.984
X53.396 Y295.772
X53.412 Y291.574
X53.426 Y287.389
X53.44 Y283.218
X53.452 Y279.061
X53.463 Y274.921
X53.472 Y270.795
X53.481 Y266.687
X53.487 Y262.596
X53.493 Y258.524
X53.497 Y254.471
X53.499 Y250.438
X53.5 Y246.425
X53.499 Y242.433
Y242.432
X53.497 Y238.463
X53.493 Y234.515
Y234.514
X53.488 Y230.591
Y230.59
X53.481 Y226.691
Y226.689
X53.472 Y222.814
Y222.813
X53.462 Y218.963
Y218.962
X53.45 Y215.138
Y215.137
X53.436 Y211.34
Y211.339
X53.421 Y207.569
Y207.568
X53.404 Y203.825
Y203.823
X53.385 Y200.109
Y200.108
X53.364 Y196.423
Y196.422
X53.342 Y192.766
Y192.764
X53.318 Y189.138
Y189.137
X53.292 Y185.542
Y185.541
X53.265 Y181.976
Y181.974
X53.235 Y178.441
Y178.44
X53.204 Y174.938
Y174.936
X53.171 Y171.467
Y171.466
X53.137 Y168.03
Y168.028
X53.1 Y164.624
Y164.623
X53.062 Y161.253
Y161.251
X53.023 Y157.915
Y157.914
X52.981 Y154.611
Y154.609
X52.938 Y151.341
Y151.34
X52.894 Y148.106
Y148.104
X52.847 Y144.904
Y144.902
X52.8 Y141.738
Y141.737
X52.75 Y138.607
Y138.605
X52.7 Y135.51
Y135.508
X52.647 Y132.448
Y132.447
X52.594 Y129.423
Y129.421
X52.539 Y126.432
Y126.43
X52.483 Y123.476
Y123.475
X52.425 Y120.556
Y120.554
X52.366 Y117.67
Y117.668
X52.306 Y114.82
Y114.819
X52.245 Y112.006
Y112.004
X52.183 Y109.226
Y109.224
X52.119 Y106.481
Y106.48
X52.055 Y103.772
Y103.77
X51.99 Y101.097
Y101.095
X51.924 Y98.457
Y98.455
X51.857 Y95.851
Y95.85
X51.79 Y93.281
X51.789 Y93.279
X51.721 Y90.744
Y90.743
X51.652 Y88.242
Y88.241
X51.583 Y85.774
Y85.773
X51.512 Y83.34
Y83.339
X51.442 Y80.94
Y80.939
X51.371 Y78.574
Y78.572
X51.299 Y76.24
Y76.239
X51.228 Y73.941
Y73.939
X51.156 Y71.674
Y71.673
X51.084 Y69.44
Y69.439
X51.011 Y67.24
Y67.238
X50.939 Y65.071
Y65.07
X50.867 Y62.936
Y62.934
X50.794 Y60.832
Y60.831
X50.722 Y58.761
Y58.759
X50.65 Y56.721
Y56.72
X50.578 Y54.713
Y54.712
X50.506 Y52.736
Y52.735
X50.435 Y50.791
Y50.79
X50.364 Y48.877
X50.294 Y46.994
X50.224 Y45.141
X50.223 Y45.14
X50.154 Y43.319
X50.085 Y41.527
X50.017 Y39.765
X49.949 Y38.034
X49.882 Y36.331
X49.816 Y34.659
X49.75 Y33.015
X49.686 Y31.4
X49.622 Y29.815
X49.56 Y28.258
X49.498 Y26.73
X49.437 Y25.229
X49.378 Y23.757
X49.32 Y22.313
X49.262 Y20.897
X49.206 Y19.508
X49.152 Y18.146
X49.098 Y16.812
X49.046 Y15.505
X48.995 Y14.224
X48.946 Y12.971
X48.898 Y11.744
X48.851 Y10.543
X48.806 Y9.369
X48.762 Y8.221
X48.72 Y7.099
X48.679 Y6.004
X48.64 Y4.934
X48.602 Y3.891
X48.566 Y2.873
X48.532 Y1.881
X48.499 Y0.915
G2 X46 Y-1.5 I-2.499 J0.085
G1 X1
G2 X-1.5 Y1 I0 J2.5
G1 Y846
G2 X1 Y848.5 I2.5 J0
G1 X46
G2 X48.5 Y846.019 I0 J-2.5
G3 X49.004 Y845.523 I0.5 J0.004
G1 X49.504 Y845.527
X49.591 Y845.528 Z-1.992
X49.675 Z-1.97
X49.754 Y845.529 Z-1.933
X49.825 Y845.53 Z-1.883
X49.887 Z-1.821
X49.937 Z-1.75
X49.974 Y845.531 Z-1.671
X49.996 Z-1.587
X50.004 Z-1.5
X49.996 Y846.531
Z-3.5 F333.3
X49.988 Z-3.587 F1000
X49.966 Z-3.671
X49.929 Y846.53 Z-3.75
X49.879 Z-3.821
X49.817 Z-3.883
X49.746 Y846.529 Z-3.933
X49.667 Y846.528 Z-3.97
X49.583 Z-3.992
X49.496 Y846.527 Z-4
X48.996 Y846.523
G3 X48.5 Y846.019 I0.004 J-0.5
G1 X48.523 Y843.086
X48.546 Y840.141
X48.569 Y837.18
X48.592 Y834.205
X48.616 Y831.217
X48.64 Y828.214
X48.665 Y825.198
X48.689 Y822.167
X48.714 Y819.122
X48.739 Y816.065
X48.765 Y812.992
X48.79 Y809.905
X48.816 Y806.805
X48.843 Y803.69
X48.869 Y800.561
X48.896 Y797.418
X48.923 Y794.262
X48.951 Y791.091
X48.978 Y787.905
X49.006 Y784.706
X49.034 Y781.492
X49.063 Y778.265
X49.091 Y775.023
X49.12 Y771.767
X49.15 Y768.497
X49.179 Y765.214
X49.209 Y761.915
X49.239 Y758.603
X49.27 Y755.276
X49.3 Y751.935
X49.331 Y748.58
X49.362 Y745.21
X49.394 Y741.827
X49.426 Y738.429
X49.458 Y735.018
X49.49 Y731.592
X49.523 Y728.151
X49.555 Y724.697
X49.588 Y721.228
X49.622 Y717.745
X49.655 Y714.248
X49.689 Y710.737
X49.723 Y707.212
X49.758 Y703.672
X49.792 Y700.119
X49.827 Y696.551
X49.862 Y692.971
X49.898 Y689.375
X49.933 Y685.765
X49.969 Y682.141
X50.005 Y678.504
X50.041 Y674.852
X50.078 Y671.186
X50.115 Y667.507
X50.152 Y663.813
X50.189 Y660.106
X50.226 Y656.385
X50.264 Y652.65
X50.302 Y648.901
X50.34 Y645.139
X50.378 Y641.363
X50.417 Y637.574
X50.456 Y633.771
X50.495 Y629.956
X50.534 Y626.126
X50.573 Y622.283
X50.612 Y618.427
X50.652 Y614.557
X50.692 Y610.675
X50.732 Y606.779
X50.772 Y602.871
X50.812 Y598.949
X50.853 Y595.015
X50.893 Y591.068
X50.934 Y587.109
X50.975 Y583.137
X51.016 Y579.153
X51.057 Y575.157
X51.098 Y571.149
X51.139 Y567.129
X51.181 Y563.097
X51.222 Y559.054
X51.264 Y554.999
X51.305 Y550.932
X51.347 Y546.854
X51.389 Y542.766
X51.43 Y538.667
X51.472 Y534.557
X51.514 Y530.437
X51.555 Y526.306
X51.639 Y518.015
X51.722 Y509.686
X51.805 Y501.32
X51.887 Y492.919
X51.969 Y484.483
X52.051 Y476.018
X52.132 Y467.523
X52.212 Y459.001
X52.291 Y450.454
X52.369 Y441.885
X52.446 Y433.295
X52.522 Y424.688
X52.597 Y416.067
X52.741 Y398.789
Y398.788
X52.878 Y381.489
Y381.488
X53.006 Y364.195
Y364.193
X53.067 Y355.558
X53.124 Y346.937
X53.179 Y338.334
X53.23 Y329.754
X53.277 Y321.203
Y321.202
X53.321 Y312.685
X53.341 Y308.44
X53.361 Y304.206
X53.379 Y299.984
X53.396 Y295.772
X53.412 Y291.574
X53.426 Y287.389
X53.44 Y283.218
X53.452 Y279.061
X53.463 Y274.921
X53.472 Y270.795
X53.481 Y266.687
X53.487 Y262.596
X53.493 Y258.524
X53.497 Y254.471
X53.499 Y250.438
X53.5 Y246.425
X53.499 Y242.433
Y242.432
X53.497 Y238.463
X53.493 Y234.515
Y234.514
X53.488 Y230.591
Y230.59
X53.481 Y226.691
Y226.689
X53.472 Y222.814
Y222.813
X53.462 Y218.963
Y218.962
X53.45 Y215.138
Y215.137
X53.436 Y211.34
Y211.339
X53.421 Y207.569
Y207.568
X53.404 Y203.825
Y203.823
X53.385 Y200.109
Y200.108
X53.364 Y196.423
Y196.422
X53.342 Y192.766
Y192.764
X53.318 Y189.138
Y189.137
X53.292 Y185.542
Y185.541
X53.265 Y181.976
Y181.974
X53.235 Y178.441
Y178.44
X53.204 Y174.938
Y174.936
X53.171 Y171.467
Y171.466
X53.137 Y168.03
Y168.028
X53.1 Y164.624
Y164.623
X53.062 Y161.253
Y161.251
X53.023 Y157.915
Y157.914
X52.981 Y154.611
Y154.609
X52.938 Y151.341
Y151.34
X52.894 Y148.106
Y148.104
X52.847 Y144.904
Y144.902
X52.8 Y141.738
Y141.737
X52.75 Y138.607
Y138.605
X52.7 Y135.51
Y135.508
X52.647 Y132.448
Y132.447
X52.594 Y129.423
Y129.421
X52.539 Y126.432
Y126.43
X52.483 Y123.476
Y123.475
X52.425 Y120.556
Y120.554
X52.366 Y117.67
Y117.668
X52.306 Y114.82
Y114.819
X52.245 Y112.006
Y112.004
X52.183 Y109.226
Y109.224
X52.119 Y106.481
Y106.48
X52.055 Y103.772
Y103.77
X51.99 Y101.097
Y101.095
X51.924 Y98.457
Y98.455
X51.857 Y95.851
Y95.85
X51.79 Y93.281
X51.789 Y93.279
X51.721 Y90.744
Y90.743
X51.652 Y88.242
Y88.241
X51.583 Y85.774
Y85.773
X51.512 Y83.34
Y83.339
X51.442 Y80.94
Y80.939
X51.371 Y78.574
Y78.572
X51.299 Y76.24
Y76.239
X51.228 Y73.941
Y73.939
X51.156 Y71.674
Y71.673
X51.084 Y69.44
Y69.439
X51.011 Y67.24
Y67.238
X50.939 Y65.071
Y65.07
X50.867 Y62.936
Y62.934
X50.794 Y60.832
Y60.831
X50.722 Y58.761
Y58.759
X50.65 Y56.721
Y56.72
X50.578 Y54.713
Y54.712
X50.506 Y52.736
Y52.735
X50.435 Y50.791
Y50.79
X50.364 Y48.877
X50.294 Y46.994
X50.224 Y45.141
X50.223 Y45.14
X50.154 Y43.319
X50.085 Y41.527
X50.017 Y39.765
X49.949 Y38.034
X49.882 Y36.331
X49.816 Y34.659
X49.75 Y33.015
X49.686 Y31.4
X49.622 Y29.815
X49.56 Y28.258
X49.498 Y26.73
X49.437 Y25.229
X49.378 Y23.757
X49.32 Y22.313
X49.262 Y20.897
X49.206 Y19.508
X49.152 Y18.146
X49.098 Y16.812
X49.046 Y15.505
X48.995 Y14.224
X48.946 Y12.971
X48.898 Y11.744
X48.851 Y10.543
X48.806 Y9.369
X48.762 Y8.221
X48.72 Y7.099
X48.679 Y6.004
X48.64 Y4.934
X48.602 Y3.891
X48.566 Y2.873
X48.532 Y1.881
X48.499 Y0.915
G2 X46 Y-1.5 I-2.499 J0.085
G1 X1
G2 X-1.5 Y1 I0 J2.5
G1 Y846
G2 X1 Y848.5 I2.5 J0
G1 X46
G2 X48.5 Y846.019 I0 J-2.5
G3 X49.004 Y845.523 I0.5 J0.004
G1 X49.504 Y845.527
X49.591 Y845.528 Z-3.992
X49.675 Z-3.97
X49.754 Y845.529 Z-3.933
X49.825 Y845.53 Z-3.883
X49.887 Z-3.821
X49.937 Z-3.75
X49.974 Y845.531 Z-3.671
X49.996 Z-3.587
X50.004 Z-3.5
X49.996 Y846.531
Z-5.5 F333.3
X49.988 Z-5.587 F1000
X49.966 Z-5.671
