(CamperSchubladenverriegelungBasis)
(T4 D=5 CR=0 - ZMIN=-9 - flat end mill)
G90 G94
G17
G21
(-Attention- Property Safe Retracts is set to Clearance Height.)
(Ensure the clearance height will clear the part and or fixtures.)
(Raise the Z-axis to a safe height before starting the program.)

(2D Contour1)
T4
S5000 M3
G17 G90 G94
G54
M8
G0 X9.05 Y341
Z15
G0 Z5
G1 Z4 F333.3
Z-3
Y356 F1000
X9.043 Y356.025
X9.025 Y356.043
X9 Y356.05
X8.975 Y356.043
X8.957 Y356.025
X8.95 Y356
Y341
X8.957 Y340.975
X8.975 Y340.957
X9 Y340.95
X9.025 Y340.957
X9.043 Y340.975
X9.05 Y341
Z-6 F333.3
Y356 F1000
X9.043 Y356.025
X9.025 Y356.043
X9 Y356.05
X8.975 Y356.043
X8.957 Y356.025
X8.95 Y356
Y341
X8.957 Y340.975
X8.975 Y340.957
X9 Y340.95
X9.025 Y340.957
X9.043 Y340.975
X9.05 Y341
Z-9 F333.3
Y356 F1000
X9.043 Y356.025
X9.025 Y356.043
X9 Y356.05
X8.975 Y356.043
X8.957 Y356.025
X8.95 Y356
Y341
X8.957 Y340.975
X8.975 Y340.957
X9 Y340.95
X9.025 Y340.957
X9.043 Y340.975
X9.05 Y341
G0 Z5
Y143.5
G1 Z4 F333.3
Z-3
Y158.5 F1000
X9.043 Y158.525
X9.025 Y158.543
X9 Y158.55
X8.975 Y158.543
X8.957 Y158.525
X8.95 Y158.5
Y143.5
X8.957 Y143.475
X8.975 Y143.457
X9 Y143.45
X9.025 Y143.457
X9.043 Y143.475
X9.05 Y143.5
Z-6 F333.3
Y158.5 F1000
X9.043 Y158.525
X9.025 Y158.543
X9 Y158.55
X8.975 Y158.543
X8.957 Y158.525
X8.95 Y158.5
Y143.5
X8.957 Y143.475
X8.975 Y143.457
X9 Y143.45
X9.025 Y143.457
X9.043 Y143.475
X9.05 Y143.5
Z-9 F333.3
Y158.5 F1000
X9.043 Y158.525
X9.025 Y158.543
X9 Y158.55
X8.975 Y158.543
X8.957 Y158.525
X8.95 Y158.5
Y143.5
X8.957 Y143.475
X8.975 Y143.457
X9 Y143.45
X9.025 Y143.457
X9.043 Y143.475
X9.05 Y143.5
G0 Z5
Y19.75
G1 Z4 F333.3
Z-3
Y34.75 F1000
X9.043 Y34.775
X9.025 Y34.793
X9 Y34.8
X8.975 Y34.793
X8.957 Y34.775
X8.95 Y34.75
Y19.75
X8.957 Y19.725
X8.975 Y19.707
X9 Y19.7
X9.025 Y19.707
X9.043 Y19.725
X9.05 Y19.75
Z-6 F333.3
Y34.75 F1000
X9.043 Y34.775
X9.025 Y34.793
X9 Y34.8
X8.975 Y34.793
X8.957 Y34.775
X8.95 Y34.75
Y19.75
X8.957 Y19.725
X8.975 Y19.707
X9 Y19.7
X9.025 Y19.707
X9.043 Y19.725
X9.05 Y19.75
Z-9 F333.3
Y34.75 F1000
X9.043 Y34.775
X9.025 Y34.793
X9 Y34.8
X8.975 Y34.793
X8.957 Y34.775
X8.95 Y34.75
Y19.75
X8.957 Y19.725
X8.975 Y19.707
X9 Y19.7
X9.025 Y19.707
X9.043 Y19.725
X9.05 Y19.75
G0 Z5
X24 Y13.5
G1 Z4 F333.3
Z-3
X36.5 F1000
Y18.5
X21.5
Y13.5
X24
Z-6 F333.3
X36.5 F1000
Y18.5
X21.5
Y13.5
X24
Z-9 F333.3
X36.5 F1000
Y18.5
X21.5
Y13.5
X24
G0 Z5
X9.05 Y588.5
G1 Z4 F333.3
Z-3
X9.043 Y588.525 F1000
X9.025 Y588.543
X9 Y588.55
X8.975 Y588.543
X8.957 Y588.525
X8.95 Y588.5
Y573.5
X8.957 Y573.475
X8.975 Y573.457
X9 Y573.45
X9.025 Y573.457
X9.043 Y573.475
X9.05 Y573.5
Y588.5
Z-6 F333.3
X9.043 Y588.525 F1000
X9.025 Y588.543
X9 Y588.55
X8.975 Y588.543
X8.957 Y588.525
X8.95 Y588.5
Y573.5
X8.957 Y573.475
X8.975 Y573.457
X9 Y573.45
X9.025 Y573.457
X9.043 Y573.475
X9.05 Y573.5
Y588.5
Z-9 F333.3
X9.043 Y588.525 F1000
X9.025 Y588.543
X9 Y588.55
X8.975 Y588.543
X8.957 Y588.525
X8.95 Y588.5
Y573.5
X8.957 Y573.475
X8.975 Y573.457
X9 Y573.45
X9.025 Y573.457
X9.043 Y573.475
X9.05 Y573.5
Y588.5
G0 Z5
Y763.5
G1 Z4 F333.3
Z-3
X9.043 Y763.525 F1000
X9.025 Y763.543
X9 Y763.55
X8.975 Y763.543
X8.957 Y763.525
X8.95 Y763.5
Y748.5
X8.957 Y748.475
X8.975 Y748.457
X9 Y748.45
X9.025 Y748.457
X9.043 Y748.475
X9.05 Y748.5
Y763.5
Z-6 F333.3
X9.043 Y763.525 F1000
X9.025 Y763.543
X9 Y763.55
X8.975 Y763.543
X8.957 Y763.525
X8.95 Y763.5
Y748.5
X8.957 Y748.475
X8.975 Y748.457
X9 Y748.45
X9.025 Y748.457
X9.043 Y748.475
X9.05 Y748.5
Y763.5
Z-9 F333.3
X9.043 Y763.525 F1000
X9.025 Y763.543
X9 Y763.55
X8.975 Y763.543
X8.957 Y763.525
X8.95 Y763.5
Y748.5
X8.957 Y748.475
X8.975 Y748.457
X9 Y748.45
X9.025 Y748.457
X9.043 Y748.475
X9.05 Y748.5
Y763.5
G0 Z15

(2D Contour2)
G0 X23.5 Y807
Z15
Z5
G1 Z4 F333.3
Z-3
Y35 F1000
G3 X25 Y33.5 I1.5 J0
G1 X42
G2 X48.5 Y27 I0 J-6.5
G1 Y5
G2 X42 Y-1.5 I-6.5 J0
G1 X5
G2 X-1.5 Y5 I0 J6.5
G1 Y53.5
G2 X1 Y56 I2.5 J0
G1 X8.5
Y76
X1
G2 X-1.5 Y78.5 I0 J2.5
G1 Y223.5
G2 X1 Y226 I2.5 J0
G1 X8.5
Y246
X1
G2 X-1.5 Y248.5 I0 J2.5
G1 Y448.5
G2 X1 Y451 I2.5 J0
G1 X8.5
Y471
X1
G2 X-1.5 Y473.5 I0 J2.5
G1 Y688.5
G2 X1 Y691 I2.5 J0
G1 X8.5
Y711
X1
G2 X-1.5 Y713.5 I0 J2.5
G1 Y807
G2 X5 Y813.5 I6.5 J0
G1 X17
G2 X23.5 Y807 I0 J-6.5
G1 Z-6 F333.3
Y35 F1000
G3 X25 Y33.5 I1.5 J0
G1 X42
G2 X48.5 Y27 I0 J-6.5
G1 Y5
G2 X42 Y-1.5 I-6.5 J0
G1 X5
G2 X-1.5 Y5 I0 J6.5
G1 Y53.5
G2 X1 Y56 I2.5 J0
G1 X8.5
Y76
X1
G2 X-1.5 Y78.5 I0 J2.5
G1 Y223.5
G2 X1 Y226 I2.5 J0
G1 X8.5
Y246
X1
G2 X-1.5 Y248.5 I0 J2.5
G1 Y448.5
G2 X1 Y451 I2.5 J0
G1 X8.5
Y471
X1
G2 X-1.5 Y473.5 I0 J2.5
G1 Y688.5
G2 X1 Y691 I2.5 J0
G1 X8.5
Y711
X1
G2 X-1.5 Y713.5 I0 J2.5
G1 Y807
G2 X5 Y813.5 I6.5 J0
G1 X17
G2 X23.5 Y807 I0 J-6.5
G1 Z-9 F333.3
Y35 F1000
G3 X25 Y33.5 I1.5 J0
G1 X42
G2 X48.5 Y27 I0 J-6.5
G1 Y5
G2 X42 Y-1.5 I-6.5 J0
G1 X5
G2 X-1.5 Y5 I0 J6.5
G1 Y53.5
G2 X1 Y56 I2.5 J0
G1 X8.5
Y76
X1
G2 X-1.5 Y78.5 I0 J2.5
G1 Y223.5
G2 X1 Y226 I2.5 J0
G1 X8.5
Y246
X1
G2 X-1.5 Y248.5 I0 J2.5
G1 Y448.5
G2 X1 Y451 I2.5 J0
G1 X8.5
Y471
X1
G2 X-1.5 Y473.5 I0 J2.5
G1 Y688.5
G2 X1 Y691 I2.5 J0
G1 X8.5
Y711
X1
G2 X-1.5 Y713.5 I0 J2.5
G1 Y807
G2 X5 Y813.5 I6.5 J0
G1 X17
G2 X23.5 Y807 I0 J-6.5
G0 Z15
M9
M5
M30
