(CamperGaskastenMuelleimerSeitenwandLinks)
(T4  D=5 CR=0 - ZMIN=-9 - flat end mill)
G90 G94
G17
G21

(2D Pocket9)
T4
S5000 M3
G54
M8
G0 X76.756 Y114.803
Z15
Z5
G1 Z2.97 F333.3
X76.746 Y114.782 Z2.819
X76.717 Y114.722 Z2.683
X76.675 Y114.625 Z2.573
X76.629 Y114.5 Z2.5
G3 X81.124 Y112.966 Z-0.216 I2.248 J-0.767
X81.251 Y113.733 Z-0.5 I-2.248 J0.767
X77.293 Y113.733 I-1.979 J0
X78.293 Y113.733 I0.5 J0 F1000
X74.293 Y113.733 I-2 J0
X81.293 Y113.733 I3.5 J0
X71.293 Y113.733 I-5 J0
X81.293 Y113.733 I5 J0
G1 X81.288 Y113.797 Z-0.487
X81.276 Y113.859 Z-0.475
X81.256 Y113.92 Z-0.462
X81.22 Y113.992 Z-0.408
X81.173 Y114.058 Z-0.354
X81.135 Y114.097 Z-0.272
X81.094 Y114.132 Z-0.191
X81.063 Y114.154 Z0
G0 Z15
X28.882 Y209.178
Z5
G1 Z2.97 F333.3
X28.872 Y209.157 Z2.819
X28.843 Y209.097 Z2.683
X28.801 Y209 Z2.573
X28.755 Y208.875 Z2.5
G3 X33.25 Y207.341 Z-0.216 I2.248 J-0.767
X33.377 Y208.108 Z-0.5 I-2.248 J0.767
X29.418 Y208.108 I-1.979 J0
X30.418 Y208.108 I0.5 J0 F1000
X26.418 Y208.108 I-2 J0
X33.418 Y208.108 I3.5 J0
X23.418 Y208.108 I-5 J0
X33.418 Y208.108 I5 J0
G1 X33.414 Y208.172 Z-0.487
X33.402 Y208.234 Z-0.475
X33.382 Y208.295 Z-0.462
X33.346 Y208.367 Z-0.408
X33.298 Y208.433 Z-0.354
X33.261 Y208.472 Z-0.272
X33.22 Y208.507 Z-0.191
X33.188 Y208.529 Z0
G0 Z15

(2D Contour10)
X147.473 Y405.029
Z15
Z5
G1 Z-4.5 F333.3
X147.466 Y405.026 Z-4.587 F1000
X147.446 Y405.015 Z-4.671
X147.413 Y404.999 Z-4.75
X147.369 Y404.976 Z-4.821
X147.314 Y404.948 Z-4.883
X147.25 Y404.916 Z-4.933
X147.179 Y404.881 Z-4.97
X147.104 Y404.843 Z-4.992
X147.027 Y404.804 Z-5
X146.58 Y404.579
G3 X146.359 Y403.907 I0.225 J-0.446
G2 X146.627 Y402.781 I-2.232 J-1.126
G1 Y0
G2 X144.127 Y-2.5 I-2.5 J0
G1 X0
G2 X-2.5 Y0 I0 J2.5
G1 Y426.48
G2 X-0.718 Y428.875 I2.5 J0
X117.925 Y448.006 I131.779 J-439.782
G1 X117.997 Y448.007
X121.102
G2 X130.602 Y438.507 I0 J-9.5
G1 Y405.281
X144.127
G2 X146.359 Y403.907 I0 J-2.5
G3 X147.031 Y403.686 I0.446 J0.225
G1 X147.477 Y403.911
X147.555 Y403.95 Z-4.992
X147.63 Y403.988 Z-4.97
X147.7 Y404.024 Z-4.933
X147.764 Y404.056 Z-4.883
X147.819 Y404.083 Z-4.821
X147.864 Y404.106 Z-4.75
X147.897 Y404.123 Z-4.671
X147.917 Y404.133 Z-4.587
X147.924 Y404.136 Z-4.5
G0 Z5
X147.473 Y405.029
G1 Z0 F333.3
Z-8.5
X147.466 Y405.026 Z-8.587 F1000
X147.446 Y405.015 Z-8.671
X147.413 Y404.999 Z-8.75
X147.369 Y404.976 Z-8.821
X147.314 Y404.948 Z-8.883
X147.25 Y404.916 Z-8.933
X147.179 Y404.881 Z-8.97
X147.104 Y404.843 Z-8.992
X147.027 Y404.804 Z-9
X146.58 Y404.579
G3 X146.359 Y403.907 I0.225 J-0.446
G2 X146.627 Y402.781 I-2.232 J-1.126
G1 Y0
G2 X144.127 Y-2.5 I-2.5 J0
G1 X0
G2 X-2.5 Y0 I0 J2.5
G1 Y426.48
G2 X-0.718 Y428.875 I2.5 J0
X117.925 Y448.006 I131.779 J-439.782
G1 X117.997 Y448.007
X121.102
G2 X130.602 Y438.507 I0 J-9.5
G1 Y405.281
X144.127
G2 X146.359 Y403.907 I0 J-2.5
G3 X147.031 Y403.686 I0.446 J0.225
G1 X147.477 Y403.911
X147.555 Y403.95 Z-8.992
X147.63 Y403.988 Z-8.97
X147.7 Y404.024 Z-8.933
X147.764 Y404.056 Z-8.883
X147.819 Y404.083 Z-8.821
X147.864 Y404.106 Z-8.75
X147.897 Y404.123 Z-8.671
X147.917 Y404.133 Z-8.587
X147.924 Y404.136 Z-8.5
G0 Z15
M9
M5
M30
