(CamperTischabrundung)
(T4 D=5 CR=0 - ZMIN=-21 - flat end mill)
G90 G94
G17
G21
(-Attention- Property Safe Retracts is set to Clearance Height.)
(Ensure the clearance height will clear the part and or fixtures.)
(Raise the Z-axis to a safe height before starting the program.)

(2D Contour1)
T4
S5000 M3
G17 G90 G94
G54
M8
G0 X310.317 Y153.415
Z15
G0 Z5
G1 Z4 F333.3
Z-2.5
X310.313 Y153.408 Z-2.587 F1000
X310.302 Y153.389 Z-2.671
X310.283 Y153.357 Z-2.75
X310.258 Y153.314 Z-2.821
X310.228 Y153.26 Z-2.883
X310.192 Y153.199 Z-2.933
X310.152 Y153.13 Z-2.97
X310.11 Y153.057 Z-2.992
X310.067 Y152.982 Z-3
X309.067 Y151.25
G3 X309 Y151 I0.433 J-0.25
G2 X156.5 Y-1.5 I-152.5 J0
G1 X-156.5
G2 X-309 Y151 I0 J152.5
G3 X-309.067 Y151.25 I-0.5 J0
G1 X-310.067 Y152.982
X-310.11 Y153.057 Z-2.992
X-310.152 Y153.13 Z-2.97
X-310.192 Y153.199 Z-2.933
X-310.228 Y153.26 Z-2.883
X-310.258 Y153.314 Z-2.821
X-310.283 Y153.357 Z-2.75
X-310.302 Y153.389 Z-2.671
X-310.313 Y153.408 Z-2.587
X-310.317 Y153.415 Z-2.5
G0 Z5
X310.317
G1 Z1 F333.3
Z-5.5
X310.313 Y153.408 Z-5.587 F1000
X310.302 Y153.389 Z-5.671
X310.283 Y153.357 Z-5.75
X310.258 Y153.314 Z-5.821
X310.228 Y153.26 Z-5.883
X310.192 Y153.199 Z-5.933
X310.152 Y153.13 Z-5.97
X310.11 Y153.057 Z-5.992
X310.067 Y152.982 Z-6
X309.067 Y151.25
G3 X309 Y151 I0.433 J-0.25
G2 X156.5 Y-1.5 I-152.5 J0
G1 X-156.5
G2 X-309 Y151 I0 J152.5
G3 X-309.067 Y151.25 I-0.5 J0
G1 X-310.067 Y152.982
X-310.11 Y153.057 Z-5.992
X-310.152 Y153.13 Z-5.97
X-310.192 Y153.199 Z-5.933
X-310.228 Y153.26 Z-5.883
X-310.258 Y153.314 Z-5.821
X-310.283 Y153.357 Z-5.75
X-310.302 Y153.389 Z-5.671
X-310.313 Y153.408 Z-5.587
X-310.317 Y153.415 Z-5.5
G0 Z5
X310.317
G1 Z-2 F333.3
Z-8.5
X310.313 Y153.408 Z-8.587 F1000
X310.302 Y153.389 Z-8.671
X310.283 Y153.357 Z-8.75
X310.258 Y153.314 Z-8.821
X310.228 Y153.26 Z-8.883
X310.192 Y153.199 Z-8.933
X310.152 Y153.13 Z-8.97
X310.11 Y153.057 Z-8.992
X310.067 Y152.982 Z-9
X309.067 Y151.25
G3 X309 Y151 I0.433 J-0.25
G2 X156.5 Y-1.5 I-152.5 J0
G1 X-156.5
G2 X-309 Y151 I0 J152.5
G3 X-309.067 Y151.25 I-0.5 J0
G1 X-310.067 Y152.982
X-310.11 Y153.057 Z-8.992
X-310.152 Y153.13 Z-8.97
X-310.192 Y153.199 Z-8.933
X-310.228 Y153.26 Z-8.883
X-310.258 Y153.314 Z-8.821
X-310.283 Y153.357 Z-8.75
X-310.302 Y153.389 Z-8.671
X-310.313 Y153.408 Z-8.587
X-310.317 Y153.415 Z-8.5
G0 Z5
X310.317
G1 Z-5 F333.3
Z-11.5
X310.313 Y153.408 Z-11.587 F1000
X310.302 Y153.389 Z-11.671
X310.283 Y153.357 Z-11.75
X310.258 Y153.314 Z-11.821
X310.228 Y153.26 Z-11.883
X310.192 Y153.199 Z-11.933
X310.152 Y153.13 Z-11.97
X310.11 Y153.057 Z-11.992
X310.067 Y152.982 Z-12
X309.067 Y151.25
G3 X309 Y151 I0.433 J-0.25
G2 X156.5 Y-1.5 I-152.5 J0
G1 X-156.5
G2 X-309 Y151 I0 J152.5
G3 X-309.067 Y151.25 I-0.5 J0
G1 X-310.067 Y152.982
X-310.11 Y153.057 Z-11.992
X-310.152 Y153.13 Z-11.97
X-310.192 Y153.199 Z-11.933
X-310.228 Y153.26 Z-11.883
X-310.258 Y153.314 Z-11.821
X-310.283 Y153.357 Z-11.75
X-310.302 Y153.389 Z-11.671
X-310.313 Y153.408 Z-11.587
X-310.317 Y153.415 Z-11.5
G0 Z5
X310.317
G1 Z-8 F333.3
Z-14.5
X310.313 Y153.408 Z-14.587 F1000
X310.302 Y153.389 Z-14.671
X310.283 Y153.357 Z-14.75
X310.258 Y153.314 Z-14.821
X310.228 Y153.26 Z-14.883
X310.192 Y153.199 Z-14.933
X310.152 Y153.13 Z-14.97
X310.11 Y153.057 Z-14.992
X310.067 Y152.982 Z-15
X309.067 Y151.25
G3 X309 Y151 I0.433 J-0.25
G2 X156.5 Y-1.5 I-152.5 J0
G1 X-156.5
G2 X-309 Y151 I0 J152.5
G3 X-309.067 Y151.25 I-0.5 J0
G1 X-310.067 Y152.982
X-310.11 Y153.057 Z-14.992
X-310.152 Y153.13 Z-14.97
X-310.192 Y153.199 Z-14.933
X-310.228 Y153.26 Z-14.883
X-310.258 Y153.314 Z-14.821
X-310.283 Y153.357 Z-14.75
X-310.302 Y153.389 Z-14.671
X-310.313 Y153.408 Z-14.587
X-310.317 Y153.415 Z-14.5
G0 Z5
X310.317
G1 Z-11 F333.3
Z-17.5
X310.313 Y153.408 Z-17.587 F1000
X310.302 Y153.389 Z-17.671
X310.283 Y153.357 Z-17.75
X310.258 Y153.314 Z-17.821
X310.228 Y153.26 Z-17.883
X310.192 Y153.199 Z-17.933
X310.152 Y153.13 Z-17.97
X310.11 Y153.057 Z-17.992
X310.067 Y152.982 Z-18
X309.067 Y151.25
G3 X309 Y151 I0.433 J-0.25
G2 X156.5 Y-1.5 I-152.5 J0
G1 X-156.5
G2 X-309 Y151 I0 J152.5
G3 X-309.067 Y151.25 I-0.5 J0
G1 X-310.067 Y152.982
X-310.11 Y153.057 Z-17.992
X-310.152 Y153.13 Z-17.97
X-310.192 Y153.199 Z-17.933
X-310.228 Y153.26 Z-17.883
X-310.258 Y153.314 Z-17.821
X-310.283 Y153.357 Z-17.75
X-310.302 Y153.389 Z-17.671
X-310.313 Y153.408 Z-17.587
X-310.317 Y153.415 Z-17.5
G0 Z5
X310.317
G1 Z-14 F333.3
Z-20.5
X310.313 Y153.408 Z-20.587 F1000
X310.302 Y153.389 Z-20.671
X310.283 Y153.357 Z-20.75
X310.258 Y153.314 Z-20.821
X310.228 Y153.26 Z-20.883
X310.192 Y153.199 Z-20.933
X310.152 Y153.13 Z-20.97
X310.11 Y153.057 Z-20.992
X310.067 Y152.982 Z-21
X309.067 Y151.25
G3 X309 Y151 I0.433 J-0.25
G2 X156.5 Y-1.5 I-152.5 J0
G1 X-156.5
G2 X-309 Y151 I0 J152.5
G3 X-309.067 Y151.25 I-0.5 J0
G1 X-310.067 Y152.982
X-310.11 Y153.057 Z-20.992
X-310.152 Y153.13 Z-20.97
X-310.192 Y153.199 Z-20.933
X-310.228 Y153.26 Z-20.883
X-310.258 Y153.314 Z-20.821
X-310.283 Y153.357 Z-20.75
X-310.302 Y153.389 Z-20.671
X-310.313 Y153.408 Z-20.587
X-310.317 Y153.415 Z-20.5
G0 Z15
M9
M5
M30
