(CamperGaskastenMuelleimerSeitenwandKurz)
(T4  D=5 CR=0 - ZMIN=-9 - flat end mill)
G90 G94
G17
G21

(2D Pocket4)
T4
S5000 M3
G54
M8
G0 X153.19 Y-0.824
Z15
Z5
G1 Z-4 F333.3
G18 G3 X152.69 Z-4.5 I-0.5 K0 F1000
G1 X152.156
X-2.15
X-2.17
G3 X-2.67 Z-4 I0 K0.5
G0 Z5
X153.395 Y1.929
G1 Z-4.05 F333.3
X153.389 Y1.93 Z-4.128 F1000
X153.368 Y1.933 Z-4.204
X153.336 Y1.938 Z-4.275
X153.291 Y1.945 Z-4.339
X153.237 Y1.954 Z-4.395
X153.173 Y1.964 Z-4.44
X153.103 Y1.975 Z-4.473
X153.028 Y1.987 Z-4.493
X152.951 Y1.999 Z-4.5
X152.472 Y2.075
X152.394 Y2.081
X-2.395
X-2.474 Y2.075
X-2.898 Y2.008
X-2.984 Y1.994 Z-4.492
X-3.067 Y1.981 Z-4.47
X-3.145 Y1.969 Z-4.433
X-3.215 Y1.957 Z-4.383
X-3.276 Y1.948 Z-4.321
X-3.326 Y1.94 Z-4.25
X-3.362 Y1.934 Z-4.171
X-3.384 Y1.931 Z-4.087
X-3.392 Y1.93 Z-4
G0 Z15
X-3.159 Y280.824
Z5
G1 Z-4 F333.3
G2 X-2.659 Z-4.5 I0.5 K0 F1000
G1 X-2.156
X152.15
X152.17
G2 X152.67 Z-4 I0 K0.5
G0 Z5
X-3.403 Y278.073
G1 Z-4.05 F333.3
X-3.396 Y278.071 Z-4.128 F1000
X-3.376 Y278.068 Z-4.204
X-3.343 Y278.063 Z-4.275
X-3.299 Y278.056 Z-4.339
X-3.244 Y278.047 Z-4.395
X-3.181 Y278.037 Z-4.44
X-3.111 Y278.026 Z-4.473
X-3.036 Y278.014 Z-4.493
X-2.959 Y278.002 Z-4.5
X-2.472 Y277.925
X-2.394 Y277.919
X152.395
X152.474 Y277.925
X152.898 Y277.992
X152.984 Y278.006 Z-4.492
X153.067 Y278.019 Z-4.47
X153.145 Y278.031 Z-4.433
X153.215 Y278.043 Z-4.383
X153.276 Y278.052 Z-4.321
X153.326 Y278.06 Z-4.25
X153.362 Y278.066 Z-4.171
X153.384 Y278.069 Z-4.087
X153.392 Y278.071 Z-4
G0 Z15
G17

(2D Contour5)
G0 X152.5 Y279.919
Z15
Z5
G1 Z-5 F333.3
Y0.081 F1000
G2 X150 Y-2.419 I-2.5 J0
G1 X0
G2 X-2.5 Y0.081 I0 J2.5
G1 Y279.919
G2 X0 Y282.419 I2.5 J0
G1 X150
G2 X152.5 Y279.919 I0 J-2.5
G1 Z-9 F333.3
Y0.081 F1000
G2 X150 Y-2.419 I-2.5 J0
G1 X0
G2 X-2.5 Y0.081 I0 J2.5
G1 Y279.919
G2 X0 Y282.419 I2.5 J0
G1 X150
G2 X152.5 Y279.919 I0 J-2.5
G0 Z15
M9
M5
M30
