(CamperSchubladeKuechenzeileWaende)
(T1  D=5 CR=0 - ZMIN=-12.5 - flat end mill)
G90 G94
G17
G21
G28 G91 Z0
G90

(2D Pocket1)
T1
S5000 M3
G54
M8
G0 X489.555 Y114.986
Z15
Z5
G1 Z1 F333.3
Z-6.25 F1000
Y114.966
Y-1.223
Y-1.242
G0 Z5
X486.655 Y116.169
G1 Z1 F333.3
Z-6.25 F1000
Y116.149
Y-2.391
Y-2.411
G0 Z5
X483.752 Y116.186
G1 Z1 F333.3
Z-6.25 F1000
X483.75 Y116.147
Y0
Y-2.395
G0 Z15
X563.105 Y259.986
Z5
G1 Z1 F333.3
Z-6.25 F1000
Y259.966
Y143.777
Y143.758
G0 Z5
X560.205 Y261.169
G1 Z1 F333.3
Z-6.25 F1000
Y261.149
Y142.609
Y142.589
G0 Z5
X557.302 Y261.186
G1 Z1 F333.3
Z-6.25 F1000
X557.3 Y261.147
Y145
Y142.605
G0 Z15
X453.105 Y609.986
Z5
G1 Z1 F333.3
Z-6.25 F1000
Y609.967
Y433.785
Y433.766
G0 Z5
X450.205 Y611.169
G1 Z1 F333.3
Z-6.25 F1000
Y611.149
Y432.606
Y432.586
G0 Z5
X447.302 Y611.186
G1 Z1 F333.3
Z-6.25 F1000
X447.3 Y611.147
Y435
Y432.605
G0 Z15
X489.577 Y409.964
Z5
G1 Z1 F333.3
Z-6.25 F1000
Y409.944
X489.6 Y295
Y293.884
Y293.865
G0 Z5
X486.655 Y411.169
G1 Z1 F333.3
Z-6.25 F1000
Y411.149
Y292.609
Y292.589
G0 Z5
X483.752 Y411.186
G1 Z1 F333.3
Z-6.25 F1000
X483.75 Y411.147
Y295
Y292.605
G0 Z15
X14.395 Y433.764
Z5
G1 Z1 F333.3
Z-6.25 F1000
Y433.783
Y609.965
Y609.984
G0 Z5
X17.295 Y432.581
G1 Z1 F333.3
Z-6.25 F1000
Y432.601
Y611.144
Y611.164
G0 Z5
X20.198 Y432.564
G1 Z1 F333.3
Z-6.25 F1000
X20.2 Y432.603
Y608.75
Y611.145
G0 Z15
X-2.055 Y233.764
Z5
G1 Z1 F333.3
Z-6.25 F1000
Y233.784
Y409.965
Y409.984
G0 Z5
X0.845 Y232.581
G1 Z1 F333.3
Z-6.25 F1000
Y232.601
Y411.144
Y411.164
G0 Z5
X3.748 Y232.564
G1 Z1 F333.3
Z-6.25 F1000
X3.75 Y232.603
Y408.75
Y411.145
G0 Z15
X124.395 Y143.764
Z5
G1 Z1 F333.3
Z-6.25 F1000
Y143.784
Y259.973
Y259.992
G0 Z5
X127.295 Y142.581
G1 Z1 F333.3
Z-6.25 F1000
Y142.601
Y261.142
Y261.161
G0 Z5
X130.198 Y142.564
G1 Z1 F333.3
Z-6.25 F1000
X130.2 Y142.603
Y258.75
Y261.145
G0 Z15
X-2.055 Y-1.236
Z5
G1 Z1 F333.3
Z-6.25 F1000
Y-1.217
Y174.965
Y174.984
G0 Z5
X0.845 Y-2.419
G1 Z1 F333.3
Z-6.25 F1000
Y-2.399
Y176.144
Y176.164
G0 Z5
X3.748 Y-2.436
G1 Z1 F333.3
Z-6.25 F1000
X3.75 Y-2.397
Y173.75
Y176.145
G0 Z15

(2D Contour1)
X487 Y292
Z15
Z5
G1 Z-4.5 F333.3
G18 G2 X487.5 Z-5 I0.5 K0 F1000
G1 X488
G17 G3 X487.5 Y292.5 I-0.5 J0
G1 X162.51
X161.409 Y292.491
X160.329 Y292.464
X159.259 Y292.419
X158.199 Y292.357
X157.152 Y292.276
X156.112 Y292.177
X155.082 Y292.062
X154.065 Y291.929
X153.056 Y291.778
X152.056 Y291.61
X151.066 Y291.426
X150.086 Y291.224
X149.113 Y291.006
X148.152 Y290.771
X147.199 Y290.52
X146.253 Y290.251
X145.316 Y289.968
X144.389 Y289.668
X143.469 Y289.352
X142.556 Y289.021
X141.652 Y288.675
X140.755 Y288.314
X139.865 Y287.938
X138.982 Y287.546
X138.106 Y287.141
X137.236 Y286.722
X136.375 Y286.289
X135.518 Y285.841
X134.667 Y285.38
X133.824 Y284.907
X132.985 Y284.42
X132.152 Y283.92
X131.324 Y283.408
X130.503 Y282.885
X129.686 Y282.349
X128.874 Y281.802
X128.066 Y281.242
X127.262 Y280.672
X126.464 Y280.093
X125.669 Y279.503
X124.878 Y278.902
X124.096 Y278.296
X122.529 Y277.046
X120.98 Y275.766
X119.442 Y274.453
X117.912 Y273.112
X116.392 Y271.747
X114.88 Y270.36
X113.372 Y268.953
X111.868 Y267.531
X110.367 Y266.097
X104.349 Y260.299
X104.341 Y260.291
X102.831 Y258.849
X102.822 Y258.841
X101.307 Y257.409
X101.295 Y257.397
X99.773 Y255.977
X99.757 Y255.962
X98.227 Y254.559
X98.208 Y254.542
X96.668 Y253.158
X96.646 Y253.139
X95.093 Y251.777
X95.067 Y251.754
X93.501 Y250.418
X93.471 Y250.393
X91.889 Y249.086
X91.856 Y249.059
X90.258 Y247.784
X90.229 Y247.761
X89.423 Y247.137
X89.405 Y247.123
X88.594 Y246.507
X88.572 Y246.491
X87.757 Y245.885
X87.734 Y245.869
X86.913 Y245.273
X86.891 Y245.257
X86.064 Y244.671
X86.041 Y244.655
X85.209 Y244.079
X85.184 Y244.061
X84.346 Y243.496
X84.319 Y243.478
X83.475 Y242.925
X83.449 Y242.908
X82.599 Y242.366
X82.569 Y242.347
X81.712 Y241.818
X81.685 Y241.802
X80.822 Y241.284
X80.791 Y241.265
X79.922 Y240.76
X79.89 Y240.742
X79.014 Y240.25
X78.979 Y240.231
X78.096 Y239.753
X78.065 Y239.737
X77.175 Y239.271
X77.138 Y239.252
X76.24 Y238.801
X76.204 Y238.783
X75.299 Y238.346
X75.261 Y238.329
X74.348 Y237.907
X74.312 Y237.89
X73.391 Y237.482
X73.352 Y237.466
X72.423 Y237.073
X72.382 Y237.056
X71.445 Y236.679
X71.406 Y236.663
X70.461 Y236.301
X70.419 Y236.286
X69.465 Y235.94
X69.424 Y235.925
X68.462 Y235.595
X68.42 Y235.581
X67.449 Y235.267
X67.403 Y235.253
X66.423 Y234.957
X66.383 Y234.945
X65.395 Y234.664
X65.348 Y234.652
X64.351 Y234.389
X64.307 Y234.377
X63.3 Y234.131
X63.254 Y234.121
X62.238 Y233.893
X62.194 Y233.883
X61.169 Y233.672
X61.123 Y233.663
X60.089 Y233.47
X60.043 Y233.462
X58.999 Y233.287
X58.957 Y233.281
X57.903 Y233.123
X57.856 Y233.116
X56.793 Y232.977
X56.746 Y232.971
X55.673 Y232.851
X55.632 Y232.847
X54.549 Y232.744
X54.504 Y232.74
X53.411 Y232.656
X53.367 Y232.653
X52.264 Y232.588
X52.223 Y232.586
X51.11 Y232.539
X51.067 Y232.538
X49.945 Y232.51
X49.902 Y232.509
X48.77 Y232.5
X48.75
X0
G2 X-2.5 Y235 I0 J2.5
G1 Y408.75
G2 X0 Y411.25 I2.5 J0
G1 X487.5
G2 X490 Y408.75 I0 J-2.5
G1 Y295
G2 X487.5 Y292.5 I-2.5 J0
G1 X487 Y292
Z-9.5 F333.3
G18 G2 X487.5 Z-10 I0.5 K0 F1000
G1 X488
G17 G3 X487.5 Y292.5 I-0.5 J0
G1 X162.51
X161.409 Y292.491
X160.329 Y292.464
X159.259 Y292.419
X158.199 Y292.357
X157.152 Y292.276
X156.112 Y292.177
X155.082 Y292.062
X154.065 Y291.929
X153.056 Y291.778
X152.056 Y291.61
X151.066 Y291.426
X150.086 Y291.224
X149.113 Y291.006
X148.152 Y290.771
X147.199 Y290.52
X146.253 Y290.251
X145.316 Y289.968
X144.389 Y289.668
X143.469 Y289.352
X142.556 Y289.021
X141.652 Y288.675
X140.755 Y288.314
X139.865 Y287.938
X138.982 Y287.546
X138.106 Y287.141
X137.236 Y286.722
X136.375 Y286.289
X135.518 Y285.841
X134.667 Y285.38
X133.824 Y284.907
X132.985 Y284.42
X132.152 Y283.92
X131.324 Y283.408
X130.503 Y282.885
X129.686 Y282.349
X128.874 Y281.802
X128.066 Y281.242
X127.262 Y280.672
X126.464 Y280.093
X125.669 Y279.503
X124.878 Y278.902
X124.096 Y278.296
X122.529 Y277.046
X120.98 Y275.766
X119.442 Y274.453
X117.912 Y273.112
X116.392 Y271.747
X114.88 Y270.36
X113.372 Y268.953
X111.868 Y267.531
X110.367 Y266.097
X104.349 Y260.299
X104.341 Y260.291
X102.831 Y258.849
X102.822 Y258.841
X101.307 Y257.409
X101.295 Y257.397
X99.773 Y255.977
X99.757 Y255.962
X98.227 Y254.559
X98.208 Y254.542
X96.668 Y253.158
X96.646 Y253.139
X95.093 Y251.777
X95.067 Y251.754
X93.501 Y250.418
X93.471 Y250.393
X91.889 Y249.086
X91.856 Y249.059
X90.258 Y247.784
X90.229 Y247.761
X89.423 Y247.137
X89.405 Y247.123
X88.594 Y246.507
X88.572 Y246.491
X87.757 Y245.885
X87.734 Y245.869
X86.913 Y245.273
X86.891 Y245.257
X86.064 Y244.671
X86.041 Y244.655
X85.209 Y244.079
X85.184 Y244.061
X84.346 Y243.496
X84.319 Y243.478
X83.475 Y242.925
X83.449 Y242.908
X82.599 Y242.366
X82.569 Y242.347
X81.712 Y241.818
X81.685 Y241.802
X80.822 Y241.284
X80.791 Y241.265
X79.922 Y240.76
X79.89 Y240.742
X79.014 Y240.25
X78.979 Y240.231
X78.096 Y239.753
X78.065 Y239.737
X77.175 Y239.271
X77.138 Y239.252
X76.24 Y238.801
X76.204 Y238.783
X75.299 Y238.346
X75.261 Y238.329
X74.348 Y237.907
X74.312 Y237.89
X73.391 Y237.482
X73.352 Y237.466
X72.423 Y237.073
X72.382 Y237.056
X71.445 Y236.679
X71.406 Y236.663
X70.461 Y236.301
X70.419 Y236.286
X69.465 Y235.94
X69.424 Y235.925
X68.462 Y235.595
X68.42 Y235.581
X67.449 Y235.267
X67.403 Y235.253
X66.423 Y234.957
X66.383 Y234.945
X65.395 Y234.664
X65.348 Y234.652
X64.351 Y234.389
X64.307 Y234.377
X63.3 Y234.131
X63.254 Y234.121
X62.238 Y233.893
X62.194 Y233.883
X61.169 Y233.672
X61.123 Y233.663
X60.089 Y233.47
X60.043 Y233.462
X58.999 Y233.287
X58.957 Y233.281
X57.903 Y233.123
X57.856 Y233.116
X56.793 Y232.977
X56.746 Y232.971
X55.673 Y232.851
X55.632 Y232.847
X54.549 Y232.744
X54.504 Y232.74
X53.411 Y232.656
X53.367 Y232.653
X52.264 Y232.588
X52.223 Y232.586
X51.11 Y232.539
X51.067 Y232.538
X49.945 Y232.51
X49.902 Y232.509
X48.77 Y232.5
X48.75
X0
G2 X-2.5 Y235 I0 J2.5
G1 Y408.75
G2 X0 Y411.25 I2.5 J0
G1 X487.5
G2 X490 Y408.75 I0 J-2.5
G1 Y295
G2 X487.5 Y292.5 I-2.5 J0
G1 X487 Y292
Z-12 F333.3
G18 G2 X487.5 Z-12.5 I0.5 K0 F1000
G1 X488
G17 G3 X487.5 Y292.5 I-0.5 J0
G1 X162.51
X161.409 Y292.491
X160.329 Y292.464
X159.259 Y292.419
X158.199 Y292.357
X157.152 Y292.276
X156.112 Y292.177
X155.082 Y292.062
X154.065 Y291.929
X153.056 Y291.778
X152.056 Y291.61
X151.066 Y291.426
X150.086 Y291.224
X149.113 Y291.006
X148.152 Y290.771
X147.199 Y290.52
X146.253 Y290.251
X145.316 Y289.968
X144.389 Y289.668
X143.469 Y289.352
X142.556 Y289.021
X141.652 Y288.675
X140.755 Y288.314
X139.865 Y287.938
X138.982 Y287.546
X138.106 Y287.141
X137.236 Y286.722
X136.375 Y286.289
X135.518 Y285.841
X134.667 Y285.38
X133.824 Y284.907
X132.985 Y284.42
X132.152 Y283.92
X131.324 Y283.408
X130.503 Y282.885
X129.686 Y282.349
X128.874 Y281.802
X128.066 Y281.242
X127.262 Y280.672
X126.464 Y280.093
X125.669 Y279.503
X124.878 Y278.902
X124.096 Y278.296
X122.529 Y277.046
X120.98 Y275.766
X119.442 Y274.453
X117.912 Y273.112
X116.392 Y271.747
X114.88 Y270.36
X113.372 Y268.953
X111.868 Y267.531
X110.367 Y266.097
X104.349 Y260.299
X104.341 Y260.291
X102.831 Y258.849
X102.822 Y258.841
X101.307 Y257.409
X101.295 Y257.397
X99.773 Y255.977
X99.757 Y255.962
X98.227 Y254.559
X98.208 Y254.542
X96.668 Y253.158
X96.646 Y253.139
X95.093 Y251.777
X95.067 Y251.754
X93.501 Y250.418
X93.471 Y250.393
X91.889 Y249.086
X91.856 Y249.059
X90.258 Y247.784
X90.229 Y247.761
X89.423 Y247.137
X89.405 Y247.123
X88.594 Y246.507
X88.572 Y246.491
X87.757 Y245.885
X87.734 Y245.869
X86.913 Y245.273
X86.891 Y245.257
X86.064 Y244.671
X86.041 Y244.655
X85.209 Y244.079
X85.184 Y244.061
X84.346 Y243.496
X84.319 Y243.478
X83.475 Y242.925
X83.449 Y242.908
X82.599 Y242.366
X82.569 Y242.347
X81.712 Y241.818
X81.685 Y241.802
X80.822 Y241.284
X80.791 Y241.265
X79.922 Y240.76
X79.89 Y240.742
X79.014 Y240.25
X78.979 Y240.231
X78.096 Y239.753
X78.065 Y239.737
X77.175 Y239.271
X77.138 Y239.252
X76.24 Y238.801
X76.204 Y238.783
X75.299 Y238.346
X75.261 Y238.329
X74.348 Y237.907
X74.312 Y237.89
X73.391 Y237.482
X73.352 Y237.466
X72.423 Y237.073
X72.382 Y237.056
X71.445 Y236.679
X71.406 Y236.663
X70.461 Y236.301
X70.419 Y236.286
X69.465 Y235.94
X69.424 Y235.925
X68.462 Y235.595
X68.42 Y235.581
X67.449 Y235.267
X67.403 Y235.253
X66.423 Y234.957
X66.383 Y234.945
X65.395 Y234.664
X65.348 Y234.652
X64.351 Y234.389
X64.307 Y234.377
X63.3 Y234.131
X63.254 Y234.121
X62.238 Y233.893
X62.194 Y233.883
X61.169 Y233.672
X61.123 Y233.663
X60.089 Y233.47
X60.043 Y233.462
X58.999 Y233.287
X58.957 Y233.281
X57.903 Y233.123
X57.856 Y233.116
X56.793 Y232.977
X56.746 Y232.971
X55.673 Y232.851
X55.632 Y232.847
X54.549 Y232.744
X54.504 Y232.74
X53.411 Y232.656
X53.367 Y232.653
X52.264 Y232.588
X52.223 Y232.586
X51.11 Y232.539
X51.067 Y232.538
X49.945 Y232.51
X49.902 Y232.509
X48.77 Y232.5
X48.75
X0
G2 X-2.5 Y235 I0 J2.5
G1 Y408.75
G2 X0 Y411.25 I2.5 J0
G1 X487.5
G2 X490 Y408.75 I0 J-2.5
G1 Y295
G2 X487.5 Y292.5 I-2.5 J0
G0 Z5
X561.55 Y261.75
G1 Z-4.5 F333.3
G18 G3 X561.05 Z-5 I-0.5 K0 F1000
G1 X560.55
G17 G3 X561.05 Y261.25 I0.5 J0
G2 X563.55 Y258.75 I0 J-2.5
G1 Y145
G2 X561.05 Y142.5 I-2.5 J0
G1 X126.45
G2 X123.95 Y145 I0 J2.5
G1 Y258.75
G2 X126.45 Y261.25 I2.5 J0
G1 X487.5
X561.05
X561.55 Y261.75
Z-9.5 F333.3
G18 G3 X561.05 Z-10 I-0.5 K0 F1000
G1 X560.55
G17 G3 X561.05 Y261.25 I0.5 J0
G2 X563.55 Y258.75 I0 J-2.5
G1 Y145
G2 X561.05 Y142.5 I-2.5 J0
G1 X126.45
G2 X123.95 Y145 I0 J2.5
G1 Y258.75
G2 X126.45 Y261.25 I2.5 J0
G1 X487.5
X561.05
X561.55 Y261.75
Z-12 F333.3
G18 G3 X561.05 Z-12.5 I-0.5 K0 F1000
G1 X560.55
G17 G3 X561.05 Y261.25 I0.5 J0
G2 X563.55 Y258.75 I0 J-2.5
G1 Y145
G2 X561.05 Y142.5 I-2.5 J0
G1 X126.45
G2 X123.95 Y145 I0 J2.5
G1 Y258.75
G2 X126.45 Y261.25 I2.5 J0
G1 X487.5
X561.05
G0 Z5
X490.5 Y113.25
G1 Z-4.5 F333.3
G19 G3 Y113.75 Z-5 J0.5 K0 F1000
G1 Y114.25
G17 G3 X490 Y113.75 I0 J-0.5
G1 Y0
G2 X487.5 Y-2.5 I-2.5 J0
G1 X0
G2 X-2.5 Y0 I0 J2.5
G1 Y173.75
G2 X0 Y176.25 I2.5 J0
G1 X48.75
X48.77
X49.902 Y176.241
X49.945 Y176.24
X51.067 Y176.212
X51.11 Y176.211
X52.223 Y176.164
X52.264 Y176.162
X53.367 Y176.097
X53.411 Y176.094
X54.504 Y176.01
X54.549 Y176.006
X55.632 Y175.903
X55.673 Y175.899
X56.746 Y175.779
X56.793 Y175.773
X57.856 Y175.634
X57.903 Y175.627
X58.957 Y175.469
X58.999 Y175.463
X60.043 Y175.288
X60.089 Y175.28
X61.123 Y175.087
X61.169 Y175.078
X62.194 Y174.867
X62.238 Y174.857
X63.254 Y174.629
X63.3 Y174.619
X64.307 Y174.373
X64.351 Y174.361
X65.348 Y174.098
X65.395 Y174.086
X66.383 Y173.805
X66.423 Y173.793
X67.403 Y173.497
X67.449 Y173.483
X68.42 Y173.169
X68.462 Y173.155
X69.424 Y172.825
X69.465 Y172.81
X70.419 Y172.464
X70.461 Y172.449
X71.406 Y172.087
X71.445 Y172.071
X72.382 Y171.694
X72.423 Y171.677
X73.352 Y171.284
X73.391 Y171.268
X74.312 Y170.86
X74.348 Y170.843
X75.261 Y170.421
X75.299 Y170.404
X76.204 Y169.967
X76.24 Y169.949
X77.138 Y169.498
X77.175 Y169.479
X78.065 Y169.013
X78.096 Y168.997
X78.979 Y168.519
X79.014 Y168.5
X79.89 Y168.008
X79.922 Y167.99
X80.791 Y167.485
X80.822 Y167.466
X81.685 Y166.948
X81.712 Y166.932
X82.569 Y166.403
X82.599 Y166.384
X83.449 Y165.842
X83.475 Y165.825
X84.319 Y165.272
X84.346 Y165.254
X85.184 Y164.689
X85.209 Y164.671
X86.041 Y164.095
X86.064 Y164.079
X86.891 Y163.493
X86.913 Y163.477
X87.734 Y162.881
X87.757 Y162.865
X88.572 Y162.259
X88.594 Y162.243
X89.405 Y161.627
X89.423 Y161.613
X90.229 Y160.989
X90.258 Y160.966
X91.856 Y159.691
X91.889 Y159.664
X93.471 Y158.357
X93.501 Y158.332
X95.067 Y156.996
X95.093 Y156.973
X96.646 Y155.611
X96.668 Y155.592
X98.208 Y154.208
X98.227 Y154.191
X99.757 Y152.788
X99.773 Y152.773
X101.295 Y151.353
X101.307 Y151.341
X102.822 Y149.91
X102.831 Y149.901
X104.341 Y148.459
X104.349 Y148.451
X107.36 Y145.55
X110.367 Y142.653
X111.868 Y141.219
X113.372 Y139.797
X114.88 Y138.39
X116.392 Y137.003
X117.912 Y135.638
X119.442 Y134.297
X120.98 Y132.984
X122.529 Y131.704
X124.096 Y130.454
X124.878 Y129.848
X125.669 Y129.247
X126.464 Y128.657
X127.262 Y128.078
X128.066 Y127.508
X128.874 Y126.948
X129.686 Y126.401
X130.503 Y125.865
X131.324 Y125.342
X132.152 Y124.83
X132.985 Y124.33
X133.824 Y123.843
X134.667 Y123.37
X135.518 Y122.909
X136.375 Y122.461
X137.236 Y122.028
X138.106 Y121.609
X138.982 Y121.204
X139.865 Y120.812
X140.755 Y120.436
X141.652 Y120.075
X142.556 Y119.729
X143.469 Y119.398
X144.389 Y119.082
X145.316 Y118.782
X146.253 Y118.499
X147.199 Y118.23
X148.152 Y117.979
X149.113 Y117.744
X150.086 Y117.526
X151.066 Y117.324
X152.056 Y117.14
X153.056 Y116.972
X154.065 Y116.821
X155.082 Y116.688
X156.112 Y116.573
X157.152 Y116.474
X158.199 Y116.393
X159.259 Y116.331
X160.329 Y116.286
X161.409 Y116.259
X162.51 Y116.25
X487.5
G2 X490 Y113.75 I0 J-2.5
G1 X490.5 Y113.25
Z-9.5 F333.3
G19 G3 Y113.75 Z-10 J0.5 K0 F1000
G1 Y114.25
G17 G3 X490 Y113.75 I0 J-0.5
G1 Y0
G2 X487.5 Y-2.5 I-2.5 J0
G1 X0
G2 X-2.5 Y0 I0 J2.5
G1 Y173.75
G2 X0 Y176.25 I2.5 J0
G1 X48.75
X48.77
X49.902 Y176.241
X49.945 Y176.24
X51.067 Y176.212
X51.11 Y176.211
X52.223 Y176.164
X52.264 Y176.162
X53.367 Y176.097
X53.411 Y176.094
X54.504 Y176.01
X54.549 Y176.006
X55.632 Y175.903
X55.673 Y175.899
X56.746 Y175.779
X56.793 Y175.773
X57.856 Y175.634
X57.903 Y175.627
X58.957 Y175.469
X58.999 Y175.463
X60.043 Y175.288
X60.089 Y175.28
X61.123 Y175.087
X61.169 Y175.078
X62.194 Y174.867
X62.238 Y174.857
X63.254 Y174.629
X63.3 Y174.619
X64.307 Y174.373
X64.351 Y174.361
X65.348 Y174.098
X65.395 Y174.086
X66.383 Y173.805
X66.423 Y173.793
X67.403 Y173.497
X67.449 Y173.483
X68.42 Y173.169
X68.462 Y173.155
X69.424 Y172.825
X69.465 Y172.81
X70.419 Y172.464
X70.461 Y172.449
X71.406 Y172.087
X71.445 Y172.071
X72.382 Y171.694
X72.423 Y171.677
X73.352 Y171.284
X73.391 Y171.268
X74.312 Y170.86
X74.348 Y170.843
X75.261 Y170.421
X75.299 Y170.404
X76.204 Y169.967
X76.24 Y169.949
X77.138 Y169.498
X77.175 Y169.479
X78.065 Y169.013
X78.096 Y168.997
X78.979 Y168.519
X79.014 Y168.5
X79.89 Y168.008
X79.922 Y167.99
X80.791 Y167.485
X80.822 Y167.466
X81.685 Y166.948
X81.712 Y166.932
X82.569 Y166.403
X82.599 Y166.384
X83.449 Y165.842
X83.475 Y165.825
X84.319 Y165.272
X84.346 Y165.254
X85.184 Y164.689
X85.209 Y164.671
X86.041 Y164.095
X86.064 Y164.079
X86.891 Y163.493
X86.913 Y163.477
X87.734 Y162.881
X87.757 Y162.865
X88.572 Y162.259
X88.594 Y162.243
X89.405 Y161.627
X89.423 Y161.613
X90.229 Y160.989
X90.258 Y160.966
X91.856 Y159.691
X91.889 Y159.664
X93.471 Y158.357
X93.501 Y158.332
X95.067 Y156.996
X95.093 Y156.973
X96.646 Y155.611
X96.668 Y155.592
X98.208 Y154.208
X98.227 Y154.191
X99.757 Y152.788
X99.773 Y152.773
X101.295 Y151.353
X101.307 Y151.341
X102.822 Y149.91
X102.831 Y149.901
X104.341 Y148.459
X104.349 Y148.451
X107.36 Y145.55
X110.367 Y142.653
X111.868 Y141.219
X113.372 Y139.797
X114.88 Y138.39
X116.392 Y137.003
X117.912 Y135.638
X119.442 Y134.297
X120.98 Y132.984
X122.529 Y131.704
X124.096 Y130.454
X124.878 Y129.848
X125.669 Y129.247
X126.464 Y128.657
X127.262 Y128.078
X128.066 Y127.508
X128.874 Y126.948
X129.686 Y126.401
X130.503 Y125.865
X131.324 Y125.342
X132.152 Y124.83
X132.985 Y124.33
X133.824 Y123.843
X134.667 Y123.37
X135.518 Y122.909
X136.375 Y122.461
X137.236 Y122.028
X138.106 Y121.609
X138.982 Y121.204
X139.865 Y120.812
X140.755 Y120.436
X141.652 Y120.075
X142.556 Y119.729
X143.469 Y119.398
X144.389 Y119.082
X145.316 Y118.782
X146.253 Y118.499
X147.199 Y118.23
X148.152 Y117.979
X149.113 Y117.744
X150.086 Y117.526
X151.066 Y117.324
X152.056 Y117.14
X153.056 Y116.972
X154.065 Y116.821
X155.082 Y116.688
X156.112 Y116.573
X157.152 Y116.474
X158.199 Y116.393
X159.259 Y116.331
X160.329 Y116.286
X161.409 Y116.259
X162.51 Y116.25
X487.5
G2 X490 Y113.75 I0 J-2.5
G1 X490.5 Y113.25
Z-12 F333.3
G19 G3 Y113.75 Z-12.5 J0.5 K0 F1000
G1 Y114.25
G17 G3 X490 Y113.75 I0 J-0.5
G1 Y0
G2 X487.5 Y-2.5 I-2.5 J0
G1 X0
G2 X-2.5 Y0 I0 J2.5
G1 Y173.75
G2 X0 Y176.25 I2.5 J0
G1 X48.75
X48.77
X49.902 Y176.241
X49.945 Y176.24
X51.067 Y176.212
X51.11 Y176.211
X52.223 Y176.164
X52.264 Y176.162
X53.367 Y176.097
X53.411 Y176.094
X54.504 Y176.01
X54.549 Y176.006
X55.632 Y175.903
X55.673 Y175.899
X56.746 Y175.779
X56.793 Y175.773
X57.856 Y175.634
X57.903 Y175.627
X58.957 Y175.469
X58.999 Y175.463
X60.043 Y175.288
X60.089 Y175.28
X61.123 Y175.087
X61.169 Y175.078
X62.194 Y174.867
X62.238 Y174.857
X63.254 Y174.629
X63.3 Y174.619
X64.307 Y174.373
X64.351 Y174.361
X65.348 Y174.098
X65.395 Y174.086
X66.383 Y173.805
X66.423 Y173.793
X67.403 Y173.497
X67.449 Y173.483
X68.42 Y173.169
X68.462 Y173.155
X69.424 Y172.825
X69.465 Y172.81
X70.419 Y172.464
X70.461 Y172.449
X71.406 Y172.087
X71.445 Y172.071
X72.382 Y171.694
X72.423 Y171.677
X73.352 Y171.284
X73.391 Y171.268
X74.312 Y170.86
X74.348 Y170.843
X75.261 Y170.421
X75.299 Y170.404
X76.204 Y169.967
X76.24 Y169.949
X77.138 Y169.498
X77.175 Y169.479
X78.065 Y169.013
X78.096 Y168.997
X78.979 Y168.519
X79.014 Y168.5
X79.89 Y168.008
X79.922 Y167.99
X80.791 Y167.485
X80.822 Y167.466
X81.685 Y166.948
X81.712 Y166.932
X82.569 Y166.403
X82.599 Y166.384
X83.449 Y165.842
X83.475 Y165.825
X84.319 Y165.272
X84.346 Y165.254
X85.184 Y164.689
X85.209 Y164.671
X86.041 Y164.095
X86.064 Y164.079
X86.891 Y163.493
X86.913 Y163.477
X87.734 Y162.881
X87.757 Y162.865
X88.572 Y162.259
X88.594 Y162.243
X89.405 Y161.627
X89.423 Y161.613
X90.229 Y160.989
X90.258 Y160.966
X91.856 Y159.691
X91.889 Y159.664
X93.471 Y158.357
X93.501 Y158.332
X95.067 Y156.996
X95.093 Y156.973
X96.646 Y155.611
X96.668 Y155.592
X98.208 Y154.208
X98.227 Y154.191
X99.757 Y152.788
X99.773 Y152.773
X101.295 Y151.353
X101.307 Y151.341
X102.822 Y149.91
X102.831 Y149.901
X104.341 Y148.459
X104.349 Y148.451
X107.36 Y145.55
X110.367 Y142.653
X111.868 Y141.219
X113.372 Y139.797
X114.88 Y138.39
X116.392 Y137.003
X117.912 Y135.638
X119.442 Y134.297
X120.98 Y132.984
X122.529 Y131.704
X124.096 Y130.454
X124.878 Y129.848
X125.669 Y129.247
X126.464 Y128.657
X127.262 Y128.078
X128.066 Y127.508
X128.874 Y126.948
X129.686 Y126.401
X130.503 Y125.865
X131.324 Y125.342
X132.152 Y124.83
X132.985 Y124.33
X133.824 Y123.843
X134.667 Y123.37
X135.518 Y122.909
X136.375 Y122.461
X137.236 Y122.028
X138.106 Y121.609
X138.982 Y121.204
X139.865 Y120.812
X140.755 Y120.436
X141.652 Y120.075
X142.556 Y119.729
X143.469 Y119.398
X144.389 Y119.082
X145.316 Y118.782
X146.253 Y118.499
X147.199 Y118.23
X148.152 Y117.979
X149.113 Y117.744
X150.086 Y117.526
X151.066 Y117.324
X152.056 Y117.14
X153.056 Y116.972
X154.065 Y116.821
X155.082 Y116.688
X156.112 Y116.573
X157.152 Y116.474
X158.199 Y116.393
X159.259 Y116.331
X160.329 Y116.286
X161.409 Y116.259
X162.51 Y116.25
X487.5
G2 X490 Y113.75 I0 J-2.5
G0 Z5
X13.45 Y435.5
G1 Z-4.5 F333.3
G19 G2 Y435 Z-5 J-0.5 K0 F1000
G1 Y434.5
G17 G3 X13.95 Y435 I0 J0.5
G1 Y608.75
G2 X16.45 Y611.25 I2.5 J0
G1 X451.05
G2 X453.55 Y608.75 I0 J-2.5
G1 Y435
G2 X451.05 Y432.5 I-2.5 J0
G1 X16.45
G2 X13.95 Y435 I0 J2.5
G1 X13.45 Y435.5
Z-9.5 F333.3
G19 G2 Y435 Z-10 J-0.5 K0 F1000
G1 Y434.5
G17 G3 X13.95 Y435 I0 J0.5
G1 Y608.75
G2 X16.45 Y611.25 I2.5 J0
G1 X451.05
G2 X453.55 Y608.75 I0 J-2.5
G1 Y435
G2 X451.05 Y432.5 I-2.5 J0
G1 X16.45
G2 X13.95 Y435 I0 J2.5
G1 X13.45 Y435.5
Z-12 F333.3
G19 G2 Y435 Z-12.5 J-0.5 K0 F1000
G1 Y434.5
G17 G3 X13.95 Y435 I0 J0.5
G1 Y608.75
G2 X16.45 Y611.25 I2.5 J0
G1 X451.05
G2 X453.55 Y608.75 I0 J-2.5
G1 Y435
G2 X451.05 Y432.5 I-2.5 J0
G1 X16.45
G2 X13.95 Y435 I0 J2.5
G0 Z15
M9
G28 G91 Z0
G90
G28 G91 X0 Y0
G90
M5
M30
