(CamperSitzgruppeSchiene)
(T4 D=5 CR=0 - ZMIN=-20 - flat end mill)
G90 G94
G17
G21
(-Attention- Property Safe Retracts is set to Clearance Height.)
(Ensure the clearance height will clear the part and or fixtures.)
(Raise the Z-axis to a safe height before starting the program.)

(2D Contour1)
T4
S5000 M3
G17 G90 G94
G54
M8
G0 X-86.895 Y-233.045
Z15
G0 Z5
G1 Z-3 F333.3
G2 X-79.5 Y-230 I7.395 J-7.455 F1000
G1 X-75.5
G3 X-70 Y-224.5 I0 J5.5
G1 Y-175.5
G3 X-75.5 Y-170 I-5.5 J0
G1 X-84.5
G2 X-95 Y-159.5 I0 J10.5
G1 Y159.5
G2 X-84.5 Y170 I10.5 J0
G1 X-75.5
G3 X-70 Y175.5 I0 J5.5
G1 Y224.5
G3 X-75.5 Y230 I-5.5 J0
G1 X-79.5
G2 X-90 Y240.5 I0 J10.5
G1 Y265.084
G3 X-91.719 Y269.078 I-5.5 J0
G2 X-95 Y276.703 I7.219 J7.625
G1 Y284.5
G3 X-100.5 Y290 I-5.5 J0
G1 X-134.5
G3 X-140 Y284.5 I0 J-5.5
G1 Y276.703
G2 X-143.281 Y269.078 I-10.5 J-0.001
G3 X-145 Y265.084 I3.781 J-3.994
G1 Y240.5
G2 X-155.5 Y230 I-10.5 J0
G1 X-159.5
G3 X-165 Y224.5 I0 J-5.5
G1 Y175.5
G3 X-159.5 Y170 I5.5 J0
G1 X-150.5
G2 X-140 Y159.5 I0 J-10.5
G1 Y-159.5
G2 X-150.5 Y-170 I-10.5 J0
G1 X-159.5
G3 X-165 Y-175.5 I0 J-5.5
G1 Y-224.5
G3 X-159.5 Y-230 I5.5 J0
G1 X-155.5
G2 X-145 Y-240.5 I0 J-10.5
G1 Y-265.084
G3 X-143.281 Y-269.078 I5.5 J0
G2 X-140 Y-276.703 I-7.219 J-7.625
G1 Y-284.5
G3 X-134.5 Y-290 I5.5 J0
G1 X-100.5
G3 X-95 Y-284.5 I0 J5.5
G1 Y-276.703
G2 X-91.719 Y-269.078 I10.5 J0.001
G3 X-90 Y-265.084 I-3.781 J3.994
G1 Y-240.5
G2 X-86.895 Y-233.045 I10.5 J0
G1 Z-6 F333.3
G2 X-79.5 Y-230 I7.395 J-7.455 F1000
G1 X-75.5
G3 X-70 Y-224.5 I0 J5.5
G1 Y-175.5
G3 X-75.5 Y-170 I-5.5 J0
G1 X-84.5
G2 X-95 Y-159.5 I0 J10.5
G1 Y159.5
G2 X-84.5 Y170 I10.5 J0
G1 X-75.5
G3 X-70 Y175.5 I0 J5.5
G1 Y224.5
G3 X-75.5 Y230 I-5.5 J0
G1 X-79.5
G2 X-90 Y240.5 I0 J10.5
G1 Y265.084
G3 X-91.719 Y269.078 I-5.5 J0
G2 X-95 Y276.703 I7.219 J7.625
G1 Y284.5
G3 X-100.5 Y290 I-5.5 J0
G1 X-134.5
G3 X-140 Y284.5 I0 J-5.5
G1 Y276.703
G2 X-143.281 Y269.078 I-10.5 J-0.001
G3 X-145 Y265.084 I3.781 J-3.994
G1 Y240.5
G2 X-155.5 Y230 I-10.5 J0
G1 X-159.5
G3 X-165 Y224.5 I0 J-5.5
G1 Y175.5
G3 X-159.5 Y170 I5.5 J0
G1 X-150.5
G2 X-140 Y159.5 I0 J-10.5
G1 Y-159.5
G2 X-150.5 Y-170 I-10.5 J0
G1 X-159.5
G3 X-165 Y-175.5 I0 J-5.5
G1 Y-224.5
G3 X-159.5 Y-230 I5.5 J0
G1 X-155.5
G2 X-145 Y-240.5 I0 J-10.5
G1 Y-265.084
G3 X-143.281 Y-269.078 I5.5 J0
G2 X-140 Y-276.703 I-7.219 J-7.625
G1 Y-284.5
G3 X-134.5 Y-290 I5.5 J0
G1 X-100.5
G3 X-95 Y-284.5 I0 J5.5
G1 Y-276.703
G2 X-91.719 Y-269.078 I10.5 J0.001
G3 X-90 Y-265.084 I-3.781 J3.994
G1 Y-240.5
G2 X-86.895 Y-233.045 I10.5 J0
G1 Z-9 F333.3
G2 X-79.5 Y-230 I7.395 J-7.455 F1000
G1 X-75.5
G3 X-70 Y-224.5 I0 J5.5
G1 Y-175.5
G3 X-75.5 Y-170 I-5.5 J0
G1 X-84.5
G2 X-95 Y-159.5 I0 J10.5
G1 Y159.5
G2 X-84.5 Y170 I10.5 J0
G1 X-75.5
G3 X-70 Y175.5 I0 J5.5
G1 Y224.5
G3 X-75.5 Y230 I-5.5 J0
G1 X-79.5
G2 X-90 Y240.5 I0 J10.5
G1 Y265.084
G3 X-91.719 Y269.078 I-5.5 J0
G2 X-95 Y276.703 I7.219 J7.625
G1 Y284.5
G3 X-100.5 Y290 I-5.5 J0
G1 X-134.5
G3 X-140 Y284.5 I0 J-5.5
G1 Y276.703
G2 X-143.281 Y269.078 I-10.5 J-0.001
G3 X-145 Y265.084 I3.781 J-3.994
G1 Y240.5
G2 X-155.5 Y230 I-10.5 J0
G1 X-159.5
G3 X-165 Y224.5 I0 J-5.5
G1 Y175.5
G3 X-159.5 Y170 I5.5 J0
G1 X-150.5
G2 X-140 Y159.5 I0 J-10.5
G1 Y-159.5
G2 X-150.5 Y-170 I-10.5 J0
G1 X-159.5
G3 X-165 Y-175.5 I0 J-5.5
G1 Y-224.5
G3 X-159.5 Y-230 I5.5 J0
G1 X-155.5
G2 X-145 Y-240.5 I0 J-10.5
G1 Y-265.084
G3 X-143.281 Y-269.078 I5.5 J0
G2 X-140 Y-276.703 I-7.219 J-7.625
G1 Y-284.5
G3 X-134.5 Y-290 I5.5 J0
G1 X-100.5
G3 X-95 Y-284.5 I0 J5.5
G1 Y-276.703
G2 X-91.719 Y-269.078 I10.5 J0.001
G3 X-90 Y-265.084 I-3.781 J3.994
G1 Y-240.5
G2 X-86.895 Y-233.045 I10.5 J0
G1 Z-12 F333.3
G2 X-79.5 Y-230 I7.395 J-7.455 F1000
G1 X-75.5
G3 X-70 Y-224.5 I0 J5.5
G1 Y-175.5
G3 X-75.5 Y-170 I-5.5 J0
G1 X-84.5
G2 X-95 Y-159.5 I0 J10.5
G1 Y159.5
G2 X-84.5 Y170 I10.5 J0
G1 X-75.5
G3 X-70 Y175.5 I0 J5.5
G1 Y224.5
G3 X-75.5 Y230 I-5.5 J0
G1 X-79.5
G2 X-90 Y240.5 I0 J10.5
G1 Y265.084
G3 X-91.719 Y269.078 I-5.5 J0
G2 X-95 Y276.703 I7.219 J7.625
G1 Y284.5
G3 X-100.5 Y290 I-5.5 J0
G1 X-134.5
G3 X-140 Y284.5 I0 J-5.5
G1 Y276.703
G2 X-143.281 Y269.078 I-10.5 J-0.001
G3 X-145 Y265.084 I3.781 J-3.994
G1 Y240.5
G2 X-155.5 Y230 I-10.5 J0
G1 X-159.5
G3 X-165 Y224.5 I0 J-5.5
G1 Y175.5
G3 X-159.5 Y170 I5.5 J0
G1 X-150.5
G2 X-140 Y159.5 I0 J-10.5
G1 Y-159.5
G2 X-150.5 Y-170 I-10.5 J0
G1 X-159.5
G3 X-165 Y-175.5 I0 J-5.5
G1 Y-224.5
G3 X-159.5 Y-230 I5.5 J0
G1 X-155.5
G2 X-145 Y-240.5 I0 J-10.5
G1 Y-265.084
G3 X-143.281 Y-269.078 I5.5 J0
G2 X-140 Y-276.703 I-7.219 J-7.625
G1 Y-284.5
G3 X-134.5 Y-290 I5.5 J0
G1 X-100.5
G3 X-95 Y-284.5 I0 J5.5
G1 Y-276.703
G2 X-91.719 Y-269.078 I10.5 J0.001
G3 X-90 Y-265.084 I-3.781 J3.994
G1 Y-240.5
G2 X-86.895 Y-233.045 I10.5 J0
G1 Z-15 F333.3
G2 X-79.5 Y-230 I7.395 J-7.455 F1000
G1 X-75.5
G3 X-70 Y-224.5 I0 J5.5
G1 Y-175.5
G3 X-75.5 Y-170 I-5.5 J0
G1 X-84.5
G2 X-95 Y-159.5 I0 J10.5
G1 Y159.5
G2 X-84.5 Y170 I10.5 J0
G1 X-75.5
G3 X-70 Y175.5 I0 J5.5
G1 Y224.5
G3 X-75.5 Y230 I-5.5 J0
G1 X-79.5
G2 X-90 Y240.5 I0 J10.5
G1 Y265.084
G3 X-91.719 Y269.078 I-5.5 J0
G2 X-95 Y276.703 I7.219 J7.625
G1 Y284.5
G3 X-100.5 Y290 I-5.5 J0
G1 X-134.5
G3 X-140 Y284.5 I0 J-5.5
G1 Y276.703
G2 X-143.281 Y269.078 I-10.5 J-0.001
G3 X-145 Y265.084 I3.781 J-3.994
G1 Y240.5
G2 X-155.5 Y230 I-10.5 J0
G1 X-159.5
G3 X-165 Y224.5 I0 J-5.5
G1 Y175.5
G3 X-159.5 Y170 I5.5 J0
G1 X-150.5
G2 X-140 Y159.5 I0 J-10.5
G1 Y-159.5
G2 X-150.5 Y-170 I-10.5 J0
G1 X-159.5
G3 X-165 Y-175.5 I0 J-5.5
G1 Y-224.5
G3 X-159.5 Y-230 I5.5 J0
G1 X-155.5
G2 X-145 Y-240.5 I0 J-10.5
G1 Y-265.084
G3 X-143.281 Y-269.078 I5.5 J0
G2 X-140 Y-276.703 I-7.219 J-7.625
G1 Y-284.5
G3 X-134.5 Y-290 I5.5 J0
G1 X-100.5
G3 X-95 Y-284.5 I0 J5.5
G1 Y-276.703
G2 X-91.719 Y-269.078 I10.5 J0.001
G3 X-90 Y-265.084 I-3.781 J3.994
G1 Y-240.5
G2 X-86.895 Y-233.045 I10.5 J0
G1 Z-18 F333.3
G2 X-79.5 Y-230 I7.395 J-7.455 F1000
G1 X-75.5
G3 X-70 Y-224.5 I0 J5.5
G1 Y-175.5
G3 X-75.5 Y-170 I-5.5 J0
G1 X-84.5
G2 X-95 Y-159.5 I0 J10.5
G1 Y159.5
G2 X-84.5 Y170 I10.5 J0
G1 X-75.5
G3 X-70 Y175.5 I0 J5.5
G1 Y224.5
G3 X-75.5 Y230 I-5.5 J0
G1 X-79.5
G2 X-90 Y240.5 I0 J10.5
G1 Y265.084
G3 X-91.719 Y269.078 I-5.5 J0
G2 X-95 Y276.703 I7.219 J7.625
G1 Y284.5
G3 X-100.5 Y290 I-5.5 J0
G1 X-134.5
G3 X-140 Y284.5 I0 J-5.5
G1 Y276.703
G2 X-143.281 Y269.078 I-10.5 J-0.001
G3 X-145 Y265.084 I3.781 J-3.994
G1 Y240.5
G2 X-155.5 Y230 I-10.5 J0
G1 X-159.5
G3 X-165 Y224.5 I0 J-5.5
G1 Y175.5
G3 X-159.5 Y170 I5.5 J0
G1 X-150.5
G2 X-140 Y159.5 I0 J-10.5
G1 Y-159.5
G2 X-150.5 Y-170 I-10.5 J0
G1 X-159.5
G3 X-165 Y-175.5 I0 J-5.5
G1 Y-224.5
G3 X-159.5 Y-230 I5.5 J0
G1 X-155.5
G2 X-145 Y-240.5 I0 J-10.5
G1 Y-265.084
G3 X-143.281 Y-269.078 I5.5 J0
G2 X-140 Y-276.703 I-7.219 J-7.625
G1 Y-284.5
G3 X-134.5 Y-290 I5.5 J0
G1 X-100.5
G3 X-95 Y-284.5 I0 J5.5
G1 Y-276.703
G2 X-91.719 Y-269.078 I10.5 J0.001
G3 X-90 Y-265.084 I-3.781 J3.994
G1 Y-240.5
G2 X-86.895 Y-233.045 I10.5 J0
G1 Z-20 F333.3
G2 X-79.5 Y-230 I7.395 J-7.455 F1000
G1 X-75.5
G3 X-70 Y-224.5 I0 J5.5
G1 Y-175.5
G3 X-75.5 Y-170 I-5.5 J0
G1 X-84.5
G2 X-95 Y-159.5 I0 J10.5
G1 Y159.5
G2 X-84.5 Y170 I10.5 J0
G1 X-75.5
G3 X-70 Y175.5 I0 J5.5
G1 Y224.5
G3 X-75.5 Y230 I-5.5 J0
G1 X-79.5
G2 X-90 Y240.5 I0 J10.5
G1 Y265.084
G3 X-91.719 Y269.078 I-5.5 J0
G2 X-95 Y276.703 I7.219 J7.625
G1 Y284.5
G3 X-100.5 Y290 I-5.5 J0
G1 X-134.5
G3 X-140 Y284.5 I0 J-5.5
G1 Y276.703
G2 X-143.281 Y269.078 I-10.5 J-0.001
G3 X-145 Y265.084 I3.781 J-3.994
G1 Y240.5
G2 X-155.5 Y230 I-10.5 J0
G1 X-159.5
G3 X-165 Y224.5 I0 J-5.5
G1 Y175.5
G3 X-159.5 Y170 I5.5 J0
G1 X-150.5
G2 X-140 Y159.5 I0 J-10.5
G1 Y-159.5
G2 X-150.5 Y-170 I-10.5 J0
G1 X-159.5
G3 X-165 Y-175.5 I0 J-5.5
G1 Y-224.5
G3 X-159.5 Y-230 I5.5 J0
G1 X-155.5
G2 X-145 Y-240.5 I0 J-10.5
G1 Y-265.084
G3 X-143.281 Y-269.078 I5.5 J0
G2 X-140 Y-276.703 I-7.219 J-7.625
G1 Y-284.5
G3 X-134.5 Y-290 I5.5 J0
G1 X-100.5
G3 X-95 Y-284.5 I0 J5.5
G1 Y-276.703
G2 X-91.719 Y-269.078 I10.5 J0.001
G3 X-90 Y-265.084 I-3.781 J3.994
G1 Y-240.5
G2 X-86.895 Y-233.045 I10.5 J0
G0 Z5
X148.105
G1 Z-3 F333.3
G2 X155.5 Y-230 I7.395 J-7.455 F1000
G1 X159.5
G3 X165 Y-224.5 I0 J5.5
G1 Y-175.5
G3 X159.5 Y-170 I-5.5 J0
G1 X150.5
G2 X140 Y-159.5 I0 J10.5
G1 Y159.5
G2 X150.5 Y170 I10.5 J0
G1 X159.5
G3 X165 Y175.5 I0 J5.5
G1 Y224.5
G3 X159.5 Y230 I-5.5 J0
G1 X155.5
G2 X145 Y240.5 I0 J10.5
G1 Y265.084
G3 X143.281 Y269.078 I-5.5 J0
G2 X140 Y276.703 I7.219 J7.625
G1 Y284.5
G3 X134.5 Y290 I-5.5 J0
G1 X100.5
G3 X95 Y284.5 I0 J-5.5
G1 Y276.703
G2 X91.719 Y269.078 I-10.5 J-0.001
G3 X90 Y265.084 I3.781 J-3.994
G1 Y240.5
G2 X79.5 Y230 I-10.5 J0
G1 X75.5
G3 X70 Y224.5 I0 J-5.5
G1 Y175.5
G3 X75.5 Y170 I5.5 J0
G1 X84.5
G2 X95 Y159.5 I0 J-10.5
G1 Y-159.5
G2 X84.5 Y-170 I-10.5 J0
G1 X75.5
G3 X70 Y-175.5 I0 J-5.5
G1 Y-224.5
G3 X75.5 Y-230 I5.5 J0
G1 X79.5
G2 X90 Y-240.5 I0 J-10.5
G1 Y-265.084
G3 X91.719 Y-269.078 I5.5 J0
G2 X95 Y-276.703 I-7.219 J-7.625
G1 Y-284.5
G3 X100.5 Y-290 I5.5 J0
G1 X134.5
G3 X140 Y-284.5 I0 J5.5
G1 Y-279.916
G2 X143.281 Y-272.292 I10.5 J0
G3 X145 Y-268.297 I-3.781 J3.994
G1 Y-240.5
G2 X148.105 Y-233.045 I10.5 J0
G1 Z-6 F333.3
G2 X155.5 Y-230 I7.395 J-7.455 F1000
G1 X159.5
G3 X165 Y-224.5 I0 J5.5
G1 Y-175.5
G3 X159.5 Y-170 I-5.5 J0
G1 X150.5
G2 X140 Y-159.5 I0 J10.5
G1 Y159.5
G2 X150.5 Y170 I10.5 J0
G1 X159.5
G3 X165 Y175.5 I0 J5.5
G1 Y224.5
G3 X159.5 Y230 I-5.5 J0
G1 X155.5
G2 X145 Y240.5 I0 J10.5
G1 Y265.084
G3 X143.281 Y269.078 I-5.5 J0
G2 X140 Y276.703 I7.219 J7.625
G1 Y284.5
G3 X134.5 Y290 I-5.5 J0
G1 X100.5
G3 X95 Y284.5 I0 J-5.5
G1 Y276.703
G2 X91.719 Y269.078 I-10.5 J-0.001
G3 X90 Y265.084 I3.781 J-3.994
G1 Y240.5
G2 X79.5 Y230 I-10.5 J0
G1 X75.5
G3 X70 Y224.5 I0 J-5.5
G1 Y175.5
G3 X75.5 Y170 I5.5 J0
G1 X84.5
G2 X95 Y159.5 I0 J-10.5
G1 Y-159.5
G2 X84.5 Y-170 I-10.5 J0
G1 X75.5
G3 X70 Y-175.5 I0 J-5.5
G1 Y-224.5
G3 X75.5 Y-230 I5.5 J0
G1 X79.5
G2 X90 Y-240.5 I0 J-10.5
G1 Y-265.084
G3 X91.719 Y-269.078 I5.5 J0
G2 X95 Y-276.703 I-7.219 J-7.625
G1 Y-284.5
G3 X100.5 Y-290 I5.5 J0
G1 X134.5
G3 X140 Y-284.5 I0 J5.5
G1 Y-279.916
G2 X143.281 Y-272.292 I10.5 J0
G3 X145 Y-268.297 I-3.781 J3.994
G1 Y-240.5
G2 X148.105 Y-233.045 I10.5 J0
G1 Z-9 F333.3
G2 X155.5 Y-230 I7.395 J-7.455 F1000
G1 X159.5
G3 X165 Y-224.5 I0 J5.5
G1 Y-175.5
G3 X159.5 Y-170 I-5.5 J0
G1 X150.5
G2 X140 Y-159.5 I0 J10.5
G1 Y159.5
G2 X150.5 Y170 I10.5 J0
G1 X159.5
G3 X165 Y175.5 I0 J5.5
G1 Y224.5
G3 X159.5 Y230 I-5.5 J0
G1 X155.5
G2 X145 Y240.5 I0 J10.5
G1 Y265.084
G3 X143.281 Y269.078 I-5.5 J0
G2 X140 Y276.703 I7.219 J7.625
G1 Y284.5
G3 X134.5 Y290 I-5.5 J0
G1 X100.5
G3 X95 Y284.5 I0 J-5.5
G1 Y276.703
G2 X91.719 Y269.078 I-10.5 J-0.001
G3 X90 Y265.084 I3.781 J-3.994
G1 Y240.5
G2 X79.5 Y230 I-10.5 J0
G1 X75.5
G3 X70 Y224.5 I0 J-5.5
G1 Y175.5
G3 X75.5 Y170 I5.5 J0
G1 X84.5
G2 X95 Y159.5 I0 J-10.5
G1 Y-159.5
G2 X84.5 Y-170 I-10.5 J0
G1 X75.5
G3 X70 Y-175.5 I0 J-5.5
G1 Y-224.5
G3 X75.5 Y-230 I5.5 J0
G1 X79.5
G2 X90 Y-240.5 I0 J-10.5
G1 Y-265.084
G3 X91.719 Y-269.078 I5.5 J0
G2 X95 Y-276.703 I-7.219 J-7.625
G1 Y-284.5
G3 X100.5 Y-290 I5.5 J0
G1 X134.5
G3 X140 Y-284.5 I0 J5.5
G1 Y-279.916
G2 X143.281 Y-272.292 I10.5 J0
G3 X145 Y-268.297 I-3.781 J3.994
G1 Y-240.5
G2 X148.105 Y-233.045 I10.5 J0
G1 Z-12 F333.3
G2 X155.5 Y-230 I7.395 J-7.455 F1000
G1 X159.5
G3 X165 Y-224.5 I0 J5.5
G1 Y-175.5
G3 X159.5 Y-170 I-5.5 J0
G1 X150.5
G2 X140 Y-159.5 I0 J10.5
G1 Y159.5
G2 X150.5 Y170 I10.5 J0
G1 X159.5
G3 X165 Y175.5 I0 J5.5
G1 Y224.5
G3 X159.5 Y230 I-5.5 J0
G1 X155.5
G2 X145 Y240.5 I0 J10.5
G1 Y265.084
G3 X143.281 Y269.078 I-5.5 J0
G2 X140 Y276.703 I7.219 J7.625
G1 Y284.5
G3 X134.5 Y290 I-5.5 J0
G1 X100.5
G3 X95 Y284.5 I0 J-5.5
G1 Y276.703
G2 X91.719 Y269.078 I-10.5 J-0.001
G3 X90 Y265.084 I3.781 J-3.994
G1 Y240.5
G2 X79.5 Y230 I-10.5 J0
G1 X75.5
G3 X70 Y224.5 I0 J-5.5
G1 Y175.5
G3 X75.5 Y170 I5.5 J0
G1 X84.5
G2 X95 Y159.5 I0 J-10.5
G1 Y-159.5
G2 X84.5 Y-170 I-10.5 J0
G1 X75.5
G3 X70 Y-175.5 I0 J-5.5
G1 Y-224.5
G3 X75.5 Y-230 I5.5 J0
G1 X79.5
G2 X90 Y-240.5 I0 J-10.5
G1 Y-265.084
G3 X91.719 Y-269.078 I5.5 J0
G2 X95 Y-276.703 I-7.219 J-7.625
G1 Y-284.5
G3 X100.5 Y-290 I5.5 J0
G1 X134.5
G3 X140 Y-284.5 I0 J5.5
G1 Y-279.916
G2 X143.281 Y-272.292 I10.5 J0
G3 X145 Y-268.297 I-3.781 J3.994
G1 Y-240.5
G2 X148.105 Y-233.045 I10.5 J0
G1 Z-15 F333.3
G2 X155.5 Y-230 I7.395 J-7.455 F1000
G1 X159.5
G3 X165 Y-224.5 I0 J5.5
G1 Y-175.5
G3 X159.5 Y-170 I-5.5 J0
G1 X150.5
G2 X140 Y-159.5 I0 J10.5
G1 Y159.5
G2 X150.5 Y170 I10.5 J0
G1 X159.5
G3 X165 Y175.5 I0 J5.5
G1 Y224.5
G3 X159.5 Y230 I-5.5 J0
G1 X155.5
G2 X145 Y240.5 I0 J10.5
G1 Y265.084
G3 X143.281 Y269.078 I-5.5 J0
G2 X140 Y276.703 I7.219 J7.625
G1 Y284.5
G3 X134.5 Y290 I-5.5 J0
G1 X100.5
G3 X95 Y284.5 I0 J-5.5
G1 Y276.703
G2 X91.719 Y269.078 I-10.5 J-0.001
G3 X90 Y265.084 I3.781 J-3.994
G1 Y240.5
G2 X79.5 Y230 I-10.5 J0
G1 X75.5
G3 X70 Y224.5 I0 J-5.5
G1 Y175.5
G3 X75.5 Y170 I5.5 J0
G1 X84.5
G2 X95 Y159.5 I0 J-10.5
G1 Y-159.5
G2 X84.5 Y-170 I-10.5 J0
G1 X75.5
G3 X70 Y-175.5 I0 J-5.5
G1 Y-224.5
G3 X75.5 Y-230 I5.5 J0
G1 X79.5
G2 X90 Y-240.5 I0 J-10.5
G1 Y-265.084
G3 X91.719 Y-269.078 I5.5 J0
G2 X95 Y-276.703 I-7.219 J-7.625
G1 Y-284.5
G3 X100.5 Y-290 I5.5 J0
G1 X134.5
G3 X140 Y-284.5 I0 J5.5
G1 Y-279.916
G2 X143.281 Y-272.292 I10.5 J0
G3 X145 Y-268.297 I-3.781 J3.994
G1 Y-240.5
G2 X148.105 Y-233.045 I10.5 J0
G1 Z-18 F333.3
G2 X155.5 Y-230 I7.395 J-7.455 F1000
G1 X159.5
G3 X165 Y-224.5 I0 J5.5
G1 Y-175.5
G3 X159.5 Y-170 I-5.5 J0
G1 X150.5
G2 X140 Y-159.5 I0 J10.5
G1 Y159.5
G2 X150.5 Y170 I10.5 J0
G1 X159.5
G3 X165 Y175.5 I0 J5.5
G1 Y224.5
G3 X159.5 Y230 I-5.5 J0
G1 X155.5
G2 X145 Y240.5 I0 J10.5
G1 Y265.084
G3 X143.281 Y269.078 I-5.5 J0
G2 X140 Y276.703 I7.219 J7.625
G1 Y284.5
G3 X134.5 Y290 I-5.5 J0
G1 X100.5
G3 X95 Y284.5 I0 J-5.5
G1 Y276.703
G2 X91.719 Y269.078 I-10.5 J-0.001
G3 X90 Y265.084 I3.781 J-3.994
G1 Y240.5
G2 X79.5 Y230 I-10.5 J0
G1 X75.5
G3 X70 Y224.5 I0 J-5.5
G1 Y175.5
G3 X75.5 Y170 I5.5 J0
G1 X84.5
G2 X95 Y159.5 I0 J-10.5
G1 Y-159.5
G2 X84.5 Y-170 I-10.5 J0
G1 X75.5
G3 X70 Y-175.5 I0 J-5.5
G1 Y-224.5
G3 X75.5 Y-230 I5.5 J0
G1 X79.5
G2 X90 Y-240.5 I0 J-10.5
G1 Y-265.084
G3 X91.719 Y-269.078 I5.5 J0
G2 X95 Y-276.703 I-7.219 J-7.625
G1 Y-284.5
G3 X100.5 Y-290 I5.5 J0
G1 X134.5
G3 X140 Y-284.5 I0 J5.5
G1 Y-279.916
G2 X143.281 Y-272.292 I10.5 J0
G3 X145 Y-268.297 I-3.781 J3.994
G1 Y-240.5
G2 X148.105 Y-233.045 I10.5 J0
G1 Z-20 F333.3
G2 X155.5 Y-230 I7.395 J-7.455 F1000
G1 X159.5
G3 X165 Y-224.5 I0 J5.5
G1 Y-175.5
G3 X159.5 Y-170 I-5.5 J0
G1 X150.5
G2 X140 Y-159.5 I0 J10.5
G1 Y159.5
G2 X150.5 Y170 I10.5 J0
G1 X159.5
G3 X165 Y175.5 I0 J5.5
G1 Y224.5
G3 X159.5 Y230 I-5.5 J0
G1 X155.5
G2 X145 Y240.5 I0 J10.5
G1 Y265.084
G3 X143.281 Y269.078 I-5.5 J0
G2 X140 Y276.703 I7.219 J7.625
G1 Y284.5
G3 X134.5 Y290 I-5.5 J0
G1 X100.5
G3 X95 Y284.5 I0 J-5.5
G1 Y276.703
G2 X91.719 Y269.078 I-10.5 J-0.001
G3 X90 Y265.084 I3.781 J-3.994
G1 Y240.5
G2 X79.5 Y230 I-10.5 J0
G1 X75.5
G3 X70 Y224.5 I0 J-5.5
G1 Y175.5
G3 X75.5 Y170 I5.5 J0
G1 X84.5
G2 X95 Y159.5 I0 J-10.5
G1 Y-159.5
G2 X84.5 Y-170 I-10.5 J0
G1 X75.5
G3 X70 Y-175.5 I0 J-5.5
G1 Y-224.5
G3 X75.5 Y-230 I5.5 J0
G1 X79.5
G2 X90 Y-240.5 I0 J-10.5
G1 Y-265.084
G3 X91.719 Y-269.078 I5.5 J0
G2 X95 Y-276.703 I-7.219 J-7.625
G1 Y-284.5
G3 X100.5 Y-290 I5.5 J0
G1 X134.5
G3 X140 Y-284.5 I0 J5.5
G1 Y-279.916
G2 X143.281 Y-272.292 I10.5 J0
G3 X145 Y-268.297 I-3.781 J3.994
G1 Y-240.5
G2 X148.105 Y-233.045 I10.5 J0
G0 Z15
M9
M5
M30
