(CamperFlaschenhalterRucksitz_patch)
(T4 D=5 CR=0 - ZMIN=-19 - flat end mill)
G90 G94
G17
G21
(-Attention- Property Safe Retracts is set to Clearance Height.)
(Ensure the clearance height will clear the part and or fixtures.)
(Raise the Z-axis to a safe height before starting the program.)

(2D Contour4 2)
T4
S5000 M3
G17 G90 G94
G54
M8
G0 X175.222 Y430.176
Z15
G0 Z5
G1 Z-3 F333.3
Y1 F1000
G2 X172.722 Y-1.5 I-2.5 J0
G1 X114.222
G2 X53.222 Y59.5 I0 J61
G1 Y59.506
X53.227 Y61.886
Y61.898
X53.244 Y64.251
Y64.263
X53.272 Y66.591
Y66.603
X53.311 Y68.905
Y68.917
X53.361 Y71.192
Y71.205
X53.422 Y73.454
X53.423 Y73.467
X53.494 Y75.691
X53.495 Y75.704
X53.577 Y77.901
X53.578 Y77.915
X53.671 Y80.086
X53.672 Y80.1
X53.776 Y82.246
X53.777 Y82.26
X53.892 Y84.381
X53.893 Y84.395
X54.018 Y86.491
X54.019 Y86.505
X54.155 Y88.576
X54.156 Y88.59
X54.302 Y90.636
X54.303 Y90.65
X54.46 Y92.672
X54.461 Y92.686
X54.627 Y94.683
X54.629 Y94.698
X54.805 Y96.671
X54.807 Y96.686
X54.993 Y98.635
X54.995 Y98.65
X55.191 Y100.575
X55.192 Y100.591
X55.398 Y102.493
X55.4 Y102.508
X55.615 Y104.387
X55.617 Y104.403
X55.841 Y106.259
X55.843 Y106.275
X56.077 Y108.109
X56.079 Y108.125
X56.321 Y109.937
X56.324 Y109.952
X56.575 Y111.742
X56.577 Y111.758
X56.837 Y113.527
X56.839 Y113.543
X57.107 Y115.291
X57.11 Y115.307
X57.386 Y117.034
X57.389 Y117.05
X57.673 Y118.757
X57.676 Y118.773
X57.968 Y120.46
X57.971 Y120.475
X58.27 Y122.143
X58.273 Y122.159
X58.58 Y123.808
X58.583 Y123.823
X58.898 Y125.453
X58.901 Y125.468
X59.222 Y127.081
X59.225 Y127.097
X59.553 Y128.691
X59.556 Y128.706
X59.89 Y130.283
X59.893 Y130.297
X60.234 Y131.858
X60.238 Y131.873
X60.584 Y133.416
X60.588 Y133.43
X60.94 Y134.958
X60.943 Y134.972
X61.301 Y136.485
X61.305 Y136.499
X61.668 Y137.997
X61.672 Y138.01
X62.04 Y139.493
X62.043 Y139.506
X62.417 Y140.975
X62.42 Y140.988
X62.798 Y142.443
X62.801 Y142.454
X63.184 Y143.897
X63.187 Y143.909
X63.573 Y145.339
X63.576 Y145.351
X63.967 Y146.768
X63.97 Y146.778
X64.364 Y148.185
X64.366 Y148.196
X64.764 Y149.591
X64.767 Y149.601
X65.167 Y150.985
X65.171 Y150.998
X65.98 Y153.738
X65.985 Y153.754
X66.803 Y156.457
X66.807 Y156.471
X67.632 Y159.142
X67.636 Y159.153
X68.466 Y161.796
X68.469 Y161.805
X69.303 Y164.424
X69.305 Y164.43
X70.139 Y167.029
X70.14 Y167.033
X70.974 Y169.615
X72.628 Y174.745
X74.251 Y179.852
X75.045 Y182.402
X75.826 Y184.958
X76.592 Y187.523
X77.341 Y190.101
X78.071 Y192.694
X78.782 Y195.308
X79.471 Y197.943
X80.137 Y200.61
X80.461 Y201.949
X80.778 Y203.299
X81.09 Y204.657
X81.395 Y206.023
X81.693 Y207.398
X81.985 Y208.784
X82.269 Y210.178
X82.547 Y211.581
X82.817 Y212.996
X83.081 Y214.42
X83.336 Y215.855
X83.585 Y217.301
X83.826 Y218.758
X84.059 Y220.227
X84.285 Y221.706
X84.503 Y223.199
X84.713 Y224.702
X84.915 Y226.218
X85.109 Y227.746
X85.296 Y229.286
X85.474 Y230.838
X85.644 Y232.403
X85.807 Y233.981
X85.961 Y235.571
X86.108 Y237.174
X86.246 Y238.789
X86.377 Y240.417
X86.5 Y242.058
X86.615 Y243.711
X86.722 Y245.376
X86.821 Y247.054
X86.913 Y248.744
X86.997 Y250.446
X87.074 Y252.159
X87.144 Y253.885
X87.206 Y255.622
X87.261 Y257.371
X87.31 Y259.131
X87.351 Y260.902
X87.387 Y262.684
X87.415 Y264.475
X87.438 Y266.277
X87.455 Y268.088
X87.466 Y269.907
X87.471 Y273.578
X87.457 Y277.28
X87.425 Y281.013
X87.378 Y284.77
X87.317 Y288.551
X87.247 Y292.351
X87.169 Y296.166
X87.086 Y299.994
X86.919 Y307.666
Y307.671
X86.77 Y315.334
Y315.344
X86.71 Y319.164
Y319.174
X86.665 Y322.981
Y322.992
X86.638 Y326.782
Y326.796
X86.632 Y330.567
Y330.584
X86.651 Y334.331
Y334.345
X86.671 Y336.209
Y336.219
X86.699 Y338.077
Y338.088
X86.734 Y339.938
X86.735 Y339.949
X86.778 Y341.791
X86.779 Y341.804
X86.831 Y343.638
X86.832 Y343.651
X86.893 Y345.476
X86.894 Y345.49
X86.966 Y347.307
Y347.321
X87.048 Y349.128
X87.049 Y349.143
X87.141 Y350.941
X87.142 Y350.958
X87.246 Y352.745
X87.247 Y352.762
X87.362 Y354.539
X87.363 Y354.557
X87.491 Y356.324
X87.492 Y356.343
X87.632 Y358.098
X87.633 Y358.117
X87.786 Y359.861
X87.788 Y359.882
X87.954 Y361.613
X87.956 Y361.634
X88.137 Y363.354
X88.139 Y363.377
X88.334 Y365.084
X88.336 Y365.108
X88.546 Y366.802
X88.549 Y366.826
X88.774 Y368.506
X88.777 Y368.532
X89.018 Y370.199
X89.022 Y370.226
X89.278 Y371.878
X89.283 Y371.906
X89.556 Y373.544
X89.561 Y373.572
X89.852 Y375.196
X89.857 Y375.227
X90.166 Y376.835
X90.172 Y376.866
X90.498 Y378.458
X90.505 Y378.49
X90.85 Y380.067
X90.858 Y380.101
X91.222 Y381.661
X91.23 Y381.696
X91.613 Y383.24
X91.623 Y383.276
X92.026 Y384.803
X92.036 Y384.84
X92.46 Y386.349
X92.471 Y386.387
X92.916 Y387.879
X92.928 Y387.919
X93.394 Y389.393
X93.407 Y389.433
X93.895 Y390.889
X93.91 Y390.931
X94.42 Y392.368
X94.436 Y392.411
X94.968 Y393.829
X94.985 Y393.873
X95.541 Y395.272
X95.56 Y395.318
X96.14 Y396.697
X96.159 Y396.743
X96.763 Y398.102
X96.784 Y398.149
X97.413 Y399.488
X97.436 Y399.536
X98.089 Y400.854
X98.113 Y400.901
X98.791 Y402.199
X98.818 Y402.25
X99.522 Y403.526
X99.55 Y403.575
X100.28 Y404.83
X100.31 Y404.88
X101.067 Y406.114
X101.099 Y406.166
X101.883 Y407.377
X101.917 Y407.427
X102.728 Y408.616
X102.763 Y408.666
X103.602 Y409.833
X103.64 Y409.884
X104.507 Y411.028
X104.547 Y411.08
X105.443 Y412.2
X105.483 Y412.249
X106.408 Y413.347
X106.451 Y413.396
X107.405 Y414.47
X107.45 Y414.52
X108.434 Y415.57
X108.48 Y415.617
X109.494 Y416.643
X109.543 Y416.691
X110.588 Y417.692
X110.636 Y417.737
X111.711 Y418.714
X111.748 Y418.748
X112.298 Y419.228
X112.324 Y419.25
X112.881 Y419.723
X112.906 Y419.744
X113.471 Y420.211
X113.499 Y420.234
X114.072 Y420.694
X114.098 Y420.714
X114.679 Y421.168
X114.705 Y421.188
X115.294 Y421.636
X115.319 Y421.655
X115.916 Y422.097
X115.946 Y422.119
X116.552 Y422.554
X116.577 Y422.571
X117.19 Y423
X117.219 Y423.021
X117.841 Y423.443
X117.866 Y423.459
X118.495 Y423.875
X118.522 Y423.893
X119.16 Y424.303
X119.19 Y424.322
X119.837 Y424.725
X119.864 Y424.742
X120.518 Y425.138
X120.545 Y425.154
X121.208 Y425.544
X121.238 Y425.561
X121.91 Y425.944
X121.936 Y425.958
X122.616 Y426.335
X122.644 Y426.351
X123.332 Y426.721
X123.359 Y426.735
X124.056 Y427.099
X124.087 Y427.115
X124.793 Y427.471
X124.816 Y427.483
X125.53 Y427.834
X125.56 Y427.848
X126.282 Y428.191
X126.31 Y428.204
X127.042 Y428.541
X127.069 Y428.553
X127.809 Y428.883
X127.837 Y428.896
X128.586 Y429.219
X128.613 Y429.23
X129.37 Y429.546
X129.396 Y429.557
X130.163 Y429.867
X130.192 Y429.878
X130.967 Y430.18
X130.992 Y430.19
X131.776 Y430.486
X131.803 Y430.496
X132.596 Y430.785
X132.623 Y430.794
X133.425 Y431.076
X133.45 Y431.085
X134.26 Y431.36
X134.285 Y431.368
X135.105 Y431.637
X135.133 Y431.647
X135.962 Y431.908
X135.988 Y431.916
X136.826 Y432.17
X136.848 Y432.176
X137.694 Y432.424
X137.722 Y432.432
X138.578 Y432.672
X138.6 Y432.678
X139.465 Y432.912
X139.493 Y432.92
X140.368 Y433.146
X140.391 Y433.151
X141.274 Y433.37
X141.295 Y433.376
X142.187 Y433.589
X142.214 Y433.595
X143.116 Y433.8
X143.139 Y433.805
X144.05 Y434.003
X144.073 Y434.008
X144.993 Y434.199
X145.015 Y434.203
X145.944 Y434.387
X145.967 Y434.392
X146.906 Y434.569
X146.928 Y434.573
X147.876 Y434.743
X147.897 Y434.747
X148.854 Y434.91
X148.878 Y434.913
X149.845 Y435.068
X149.866 Y435.072
X150.842 Y435.22
X150.863 Y435.223
X151.848 Y435.364
X151.868 Y435.367
X152.863 Y435.501
X152.883 Y435.503
X153.887 Y435.63
X153.907 Y435.633
X154.921 Y435.753
X154.943 Y435.755
X155.966 Y435.867
X155.985 Y435.869
X157.017 Y435.974
X157.036 Y435.976
X158.078 Y436.074
X158.097 Y436.076
X159.149 Y436.167
X159.169 Y436.168
X160.23 Y436.251
X160.246 Y436.253
X161.316 Y436.33
X161.336 Y436.331
X162.416 Y436.4
X162.435 Y436.401
X163.524 Y436.462
X163.539 Y436.463
X164.638 Y436.518
X164.657 Y436.519
X165.765 Y436.566
X165.782
X166.9 Y436.606
X166.916 Y436.607
X168.044 Y436.64
X168.062
X169.199 Y436.665
X169.215 Y436.666
X170.361 Y436.684
X170.376
X171.532 Y436.695
X171.547
X172.713 Y436.699
G2 X175.222 Y434.199 I0.009 J-2.5
G1 Y430.176
Z-6 F333.3
Y1 F1000
G2 X172.722 Y-1.5 I-2.5 J0
G1 X114.222
G2 X53.222 Y59.5 I0 J61
G1 Y59.506
X53.227 Y61.886
Y61.898
X53.244 Y64.251
Y64.263
X53.272 Y66.591
Y66.603
X53.311 Y68.905
Y68.917
X53.361 Y71.192
Y71.205
X53.422 Y73.454
X53.423 Y73.467
X53.494 Y75.691
X53.495 Y75.704
X53.577 Y77.901
X53.578 Y77.915
X53.671 Y80.086
X53.672 Y80.1
X53.776 Y82.246
X53.777 Y82.26
X53.892 Y84.381
X53.893 Y84.395
X54.018 Y86.491
X54.019 Y86.505
X54.155 Y88.576
X54.156 Y88.59
X54.302 Y90.636
X54.303 Y90.65
X54.46 Y92.672
X54.461 Y92.686
X54.627 Y94.683
X54.629 Y94.698
X54.805 Y96.671
X54.807 Y96.686
X54.993 Y98.635
X54.995 Y98.65
X55.191 Y100.575
X55.192 Y100.591
X55.398 Y102.493
X55.4 Y102.508
X55.615 Y104.387
X55.617 Y104.403
X55.841 Y106.259
X55.843 Y106.275
X56.077 Y108.109
X56.079 Y108.125
X56.321 Y109.937
X56.324 Y109.952
X56.575 Y111.742
X56.577 Y111.758
X56.837 Y113.527
X56.839 Y113.543
X57.107 Y115.291
X57.11 Y115.307
X57.386 Y117.034
X57.389 Y117.05
X57.673 Y118.757
X57.676 Y118.773
X57.968 Y120.46
X57.971 Y120.475
X58.27 Y122.143
X58.273 Y122.159
X58.58 Y123.808
X58.583 Y123.823
X58.898 Y125.453
X58.901 Y125.468
X59.222 Y127.081
X59.225 Y127.097
X59.553 Y128.691
X59.556 Y128.706
X59.89 Y130.283
X59.893 Y130.297
X60.234 Y131.858
X60.238 Y131.873
X60.584 Y133.416
X60.588 Y133.43
X60.94 Y134.958
X60.943 Y134.972
X61.301 Y136.485
X61.305 Y136.499
X61.668 Y137.997
X61.672 Y138.01
X62.04 Y139.493
X62.043 Y139.506
X62.417 Y140.975
X62.42 Y140.988
X62.798 Y142.443
X62.801 Y142.454
X63.184 Y143.897
X63.187 Y143.909
X63.573 Y145.339
X63.576 Y145.351
X63.967 Y146.768
X63.97 Y146.778
X64.364 Y148.185
X64.366 Y148.196
X64.764 Y149.591
X64.767 Y149.601
X65.167 Y150.985
X65.171 Y150.998
X65.98 Y153.738
X65.985 Y153.754
X66.803 Y156.457
X66.807 Y156.471
X67.632 Y159.142
X67.636 Y159.153
X68.466 Y161.796
X68.469 Y161.805
X69.303 Y164.424
X69.305 Y164.43
X70.139 Y167.029
X70.14 Y167.033
X70.974 Y169.615
X72.628 Y174.745
X74.251 Y179.852
X75.045 Y182.402
X75.826 Y184.958
X76.592 Y187.523
X77.341 Y190.101
X78.071 Y192.694
X78.782 Y195.308
X79.471 Y197.943
X80.137 Y200.61
X80.461 Y201.949
X80.778 Y203.299
X81.09 Y204.657
X81.395 Y206.023
X81.693 Y207.398
X81.985 Y208.784
X82.269 Y210.178
X82.547 Y211.581
X82.817 Y212.996
X83.081 Y214.42
X83.336 Y215.855
X83.585 Y217.301
X83.826 Y218.758
X84.059 Y220.227
X84.285 Y221.706
X84.503 Y223.199
X84.713 Y224.702
X84.915 Y226.218
X85.109 Y227.746
X85.296 Y229.286
X85.474 Y230.838
X85.644 Y232.403
X85.807 Y233.981
X85.961 Y235.571
X86.108 Y237.174
X86.246 Y238.789
X86.377 Y240.417
X86.5 Y242.058
X86.615 Y243.711
X86.722 Y245.376
X86.821 Y247.054
X86.913 Y248.744
X86.997 Y250.446
X87.074 Y252.159
X87.144 Y253.885
X87.206 Y255.622
X87.261 Y257.371
X87.31 Y259.131
X87.351 Y260.902
X87.387 Y262.684
X87.415 Y264.475
X87.438 Y266.277
X87.455 Y268.088
X87.466 Y269.907
X87.471 Y273.578
X87.457 Y277.28
X87.425 Y281.013
X87.378 Y284.77
X87.317 Y288.551
X87.247 Y292.351
X87.169 Y296.166
X87.086 Y299.994
X86.919 Y307.666
Y307.671
X86.77 Y315.334
Y315.344
X86.71 Y319.164
Y319.174
X86.665 Y322.981
Y322.992
X86.638 Y326.782
Y326.796
X86.632 Y330.567
Y330.584
X86.651 Y334.331
Y334.345
X86.671 Y336.209
Y336.219
X86.699 Y338.077
Y338.088
X86.734 Y339.938
X86.735 Y339.949
X86.778 Y341.791
X86.779 Y341.804
X86.831 Y343.638
X86.832 Y343.651
X86.893 Y345.476
X86.894 Y345.49
X86.966 Y347.307
Y347.321
X87.048 Y349.128
X87.049 Y349.143
X87.141 Y350.941
X87.142 Y350.958
X87.246 Y352.745
X87.247 Y352.762
X87.362 Y354.539
X87.363 Y354.557
X87.491 Y356.324
X87.492 Y356.343
X87.632 Y358.098
X87.633 Y358.117
X87.786 Y359.861
X87.788 Y359.882
X87.954 Y361.613
X87.956 Y361.634
X88.137 Y363.354
X88.139 Y363.377
X88.334 Y365.084
X88.336 Y365.108
X88.546 Y366.802
X88.549 Y366.826
X88.774 Y368.506
X88.777 Y368.532
X89.018 Y370.199
X89.022 Y370.226
X89.278 Y371.878
X89.283 Y371.906
X89.556 Y373.544
X89.561 Y373.572
X89.852 Y375.196
X89.857 Y375.227
X90.166 Y376.835
X90.172 Y376.866
X90.498 Y378.458
X90.505 Y378.49
X90.85 Y380.067
X90.858 Y380.101
X91.222 Y381.661
X91.23 Y381.696
X91.613 Y383.24
X91.623 Y383.276
X92.026 Y384.803
X92.036 Y384.84
X92.46 Y386.349
X92.471 Y386.387
X92.916 Y387.879
X92.928 Y387.919
X93.394 Y389.393
X93.407 Y389.433
X93.895 Y390.889
X93.91 Y390.931
X94.42 Y392.368
X94.436 Y392.411
X94.968 Y393.829
X94.985 Y393.873
X95.541 Y395.272
X95.56 Y395.318
X96.14 Y396.697
X96.159 Y396.743
X96.763 Y398.102
X96.784 Y398.149
X97.413 Y399.488
X97.436 Y399.536
X98.089 Y400.854
X98.113 Y400.901
X98.791 Y402.199
X98.818 Y402.25
X99.522 Y403.526
X99.55 Y403.575
X100.28 Y404.83
X100.31 Y404.88
X101.067 Y406.114
X101.099 Y406.166
X101.883 Y407.377
X101.917 Y407.427
X102.728 Y408.616
X102.763 Y408.666
X103.602 Y409.833
X103.64 Y409.884
X104.507 Y411.028
X104.547 Y411.08
X105.443 Y412.2
X105.483 Y412.249
X106.408 Y413.347
X106.451 Y413.396
X107.405 Y414.47
X107.45 Y414.52
X108.434 Y415.57
X108.48 Y415.617
X109.494 Y416.643
X109.543 Y416.691
X110.588 Y417.692
X110.636 Y417.737
X111.711 Y418.714
X111.748 Y418.748
X112.298 Y419.228
X112.324 Y419.25
X112.881 Y419.723
X112.906 Y419.744
X113.471 Y420.211
X113.499 Y420.234
X114.072 Y420.694
X114.098 Y420.714
X114.679 Y421.168
X114.705 Y421.188
X115.294 Y421.636
X115.319 Y421.655
X115.916 Y422.097
X115.946 Y422.119
X116.552 Y422.554
X116.577 Y422.571
X117.19 Y423
X117.219 Y423.021
X117.841 Y423.443
X117.866 Y423.459
X118.495 Y423.875
X118.522 Y423.893
X119.16 Y424.303
X119.19 Y424.322
X119.837 Y424.725
X119.864 Y424.742
X120.518 Y425.138
X120.545 Y425.154
X121.208 Y425.544
X121.238 Y425.561
X121.91 Y425.944
X121.936 Y425.958
X122.616 Y426.335
X122.644 Y426.351
X123.332 Y426.721
X123.359 Y426.735
X124.056 Y427.099
X124.087 Y427.115
X124.793 Y427.471
X124.816 Y427.483
X125.53 Y427.834
X125.56 Y427.848
X126.282 Y428.191
X126.31 Y428.204
X127.042 Y428.541
X127.069 Y428.553
X127.809 Y428.883
X127.837 Y428.896
X128.586 Y429.219
X128.613 Y429.23
X129.37 Y429.546
X129.396 Y429.557
X130.163 Y429.867
X130.192 Y429.878
X130.967 Y430.18
X130.992 Y430.19
X131.776 Y430.486
X131.803 Y430.496
X132.596 Y430.785
X132.623 Y430.794
X133.425 Y431.076
X133.45 Y431.085
X134.26 Y431.36
X134.285 Y431.368
X135.105 Y431.637
X135.133 Y431.647
X135.962 Y431.908
X135.988 Y431.916
X136.826 Y432.17
X136.848 Y432.176
X137.694 Y432.424
X137.722 Y432.432
X138.578 Y432.672
X138.6 Y432.678
X139.465 Y432.912
X139.493 Y432.92
X140.368 Y433.146
X140.391 Y433.151
X141.274 Y433.37
X141.295 Y433.376
X142.187 Y433.589
X142.214 Y433.595
X143.116 Y433.8
X143.139 Y433.805
X144.05 Y434.003
X144.073 Y434.008
X144.993 Y434.199
X145.015 Y434.203
X145.944 Y434.387
X145.967 Y434.392
X146.906 Y434.569
X146.928 Y434.573
X147.876 Y434.743
X147.897 Y434.747
X148.854 Y434.91
X148.878 Y434.913
X149.845 Y435.068
X149.866 Y435.072
X150.842 Y435.22
X150.863 Y435.223
X151.848 Y435.364
X151.868 Y435.367
X152.863 Y435.501
X152.883 Y435.503
X153.887 Y435.63
X153.907 Y435.633
X154.921 Y435.753
X154.943 Y435.755
X155.966 Y435.867
X155.985 Y435.869
X157.017 Y435.974
X157.036 Y435.976
X158.078 Y436.074
X158.097 Y436.076
X159.149 Y436.167
X159.169 Y436.168
X160.23 Y436.251
X160.246 Y436.253
X161.316 Y436.33
X161.336 Y436.331
X162.416 Y436.4
X162.435 Y436.401
X163.524 Y436.462
X163.539 Y436.463
X164.638 Y436.518
X164.657 Y436.519
X165.765 Y436.566
X165.782
X166.9 Y436.606
X166.916 Y436.607
X168.044 Y436.64
X168.062
X169.199 Y436.665
X169.215 Y436.666
X170.361 Y436.684
X170.376
X171.532 Y436.695
X171.547
X172.713 Y436.699
G2 X175.222 Y434.199 I0.009 J-2.5
G1 Y430.176
Z-9 F333.3
Y1 F1000
G2 X172.722 Y-1.5 I-2.5 J0
G1 X114.222
G2 X53.222 Y59.5 I0 J61
G1 Y59.506
X53.227 Y61.886
Y61.898
X53.244 Y64.251
Y64.263
X53.272 Y66.591
Y66.603
X53.311 Y68.905
Y68.917
X53.361 Y71.192
Y71.205
X53.422 Y73.454
X53.423 Y73.467
X53.494 Y75.691
X53.495 Y75.704
X53.577 Y77.901
X53.578 Y77.915
X53.671 Y80.086
X53.672 Y80.1
X53.776 Y82.246
X53.777 Y82.26
X53.892 Y84.381
X53.893 Y84.395
X54.018 Y86.491
X54.019 Y86.505
X54.155 Y88.576
X54.156 Y88.59
X54.302 Y90.636
X54.303 Y90.65
X54.46 Y92.672
X54.461 Y92.686
X54.627 Y94.683
X54.629 Y94.698
X54.805 Y96.671
X54.807 Y96.686
X54.993 Y98.635
X54.995 Y98.65
X55.191 Y100.575
X55.192 Y100.591
X55.398 Y102.493
X55.4 Y102.508
X55.615 Y104.387
X55.617 Y104.403
X55.841 Y106.259
X55.843 Y106.275
X56.077 Y108.109
X56.079 Y108.125
X56.321 Y109.937
X56.324 Y109.952
X56.575 Y111.742
X56.577 Y111.758
X56.837 Y113.527
X56.839 Y113.543
X57.107 Y115.291
X57.11 Y115.307
X57.386 Y117.034
X57.389 Y117.05
X57.673 Y118.757
X57.676 Y118.773
X57.968 Y120.46
X57.971 Y120.475
X58.27 Y122.143
X58.273 Y122.159
X58.58 Y123.808
X58.583 Y123.823
X58.898 Y125.453
X58.901 Y125.468
X59.222 Y127.081
X59.225 Y127.097
X59.553 Y128.691
X59.556 Y128.706
X59.89 Y130.283
X59.893 Y130.297
X60.234 Y131.858
X60.238 Y131.873
X60.584 Y133.416
X60.588 Y133.43
X60.94 Y134.958
X60.943 Y134.972
X61.301 Y136.485
X61.305 Y136.499
X61.668 Y137.997
X61.672 Y138.01
X62.04 Y139.493
X62.043 Y139.506
X62.417 Y140.975
X62.42 Y140.988
X62.798 Y142.443
X62.801 Y142.454
X63.184 Y143.897
X63.187 Y143.909
X63.573 Y145.339
X63.576 Y145.351
X63.967 Y146.768
X63.97 Y146.778
X64.364 Y148.185
X64.366 Y148.196
X64.764 Y149.591
X64.767 Y149.601
X65.167 Y150.985
X65.171 Y150.998
X65.98 Y153.738
X65.985 Y153.754
X66.803 Y156.457
X66.807 Y156.471
X67.632 Y159.142
X67.636 Y159.153
X68.466 Y161.796
X68.469 Y161.805
X69.303 Y164.424
X69.305 Y164.43
X70.139 Y167.029
X70.14 Y167.033
X70.974 Y169.615
X72.628 Y174.745
X74.251 Y179.852
X75.045 Y182.402
X75.826 Y184.958
X76.592 Y187.523
X77.341 Y190.101
X78.071 Y192.694
X78.782 Y195.308
X79.471 Y197.943
X80.137 Y200.61
X80.461 Y201.949
X80.778 Y203.299
X81.09 Y204.657
X81.395 Y206.023
X81.693 Y207.398
X81.985 Y208.784
X82.269 Y210.178
X82.547 Y211.581
X82.817 Y212.996
X83.081 Y214.42
X83.336 Y215.855
X83.585 Y217.301
X83.826 Y218.758
X84.059 Y220.227
X84.285 Y221.706
X84.503 Y223.199
X84.713 Y224.702
X84.915 Y226.218
X85.109 Y227.746
X85.296 Y229.286
X85.474 Y230.838
X85.644 Y232.403
X85.807 Y233.981
X85.961 Y235.571
X86.108 Y237.174
X86.246 Y238.789
X86.377 Y240.417
X86.5 Y242.058
X86.615 Y243.711
X86.722 Y245.376
X86.821 Y247.054
X86.913 Y248.744
X86.997 Y250.446
X87.074 Y252.159
X87.144 Y253.885
X87.206 Y255.622
X87.261 Y257.371
X87.31 Y259.131
X87.351 Y260.902
X87.387 Y262.684
X87.415 Y264.475
X87.438 Y266.277
X87.455 Y268.088
X87.466 Y269.907
X87.471 Y273.578
X87.457 Y277.28
X87.425 Y281.013
X87.378 Y284.77
X87.317 Y288.551
X87.247 Y292.351
X87.169 Y296.166
X87.086 Y299.994
X86.919 Y307.666
Y307.671
X86.77 Y315.334
Y315.344
X86.71 Y319.164
Y319.174
X86.665 Y322.981
Y322.992
X86.638 Y326.782
Y326.796
X86.632 Y330.567
Y330.584
X86.651 Y334.331
Y334.345
X86.671 Y336.209
Y336.219
X86.699 Y338.077
Y338.088
X86.734 Y339.938
X86.735 Y339.949
X86.778 Y341.791
X86.779 Y341.804
X86.831 Y343.638
X86.832 Y343.651
X86.893 Y345.476
X86.894 Y345.49
X86.966 Y347.307
Y347.321
X87.048 Y349.128
X87.049 Y349.143
X87.141 Y350.941
X87.142 Y350.958
X87.246 Y352.745
X87.247 Y352.762
X87.362 Y354.539
X87.363 Y354.557
X87.491 Y356.324
X87.492 Y356.343
X87.632 Y358.098
X87.633 Y358.117
X87.786 Y359.861
X87.788 Y359.882
X87.954 Y361.613
X87.956 Y361.634
X88.137 Y363.354
X88.139 Y363.377
X88.334 Y365.084
X88.336 Y365.108
X88.546 Y366.802
X88.549 Y366.826
X88.774 Y368.506
X88.777 Y368.532
X89.018 Y370.199
X89.022 Y370.226
X89.278 Y371.878
X89.283 Y371.906
X89.556 Y373.544
X89.561 Y373.572
X89.852 Y375.196
X89.857 Y375.227
X90.166 Y376.835
X90.172 Y376.866
X90.498 Y378.458
X90.505 Y378.49
X90.85 Y380.067
X90.858 Y380.101
X91.222 Y381.661
X91.23 Y381.696
X91.613 Y383.24
X91.623 Y383.276
X92.026 Y384.803
X92.036 Y384.84
X92.46 Y386.349
X92.471 Y386.387
X92.916 Y387.879
X92.928 Y387.919
X93.394 Y389.393
X93.407 Y389.433
X93.895 Y390.889
X93.91 Y390.931
X94.42 Y392.368
X94.436 Y392.411
X94.968 Y393.829
X94.985 Y393.873
X95.541 Y395.272
X95.56 Y395.318
X96.14 Y396.697
X96.159 Y396.743
X96.763 Y398.102
X96.784 Y398.149
X97.413 Y399.488
X97.436 Y399.536
X98.089 Y400.854
X98.113 Y400.901
X98.791 Y402.199
X98.818 Y402.25
X99.522 Y403.526
X99.55 Y403.575
X100.28 Y404.83
X100.31 Y404.88
X101.067 Y406.114
X101.099 Y406.166
X101.883 Y407.377
X101.917 Y407.427
X102.728 Y408.616
X102.763 Y408.666
X103.602 Y409.833
X103.64 Y409.884
X104.507 Y411.028
X104.547 Y411.08
X105.443 Y412.2
X105.483 Y412.249
X106.408 Y413.347
X106.451 Y413.396
X107.405 Y414.47
X107.45 Y414.52
X108.434 Y415.57
X108.48 Y415.617
X109.494 Y416.643
X109.543 Y416.691
X110.588 Y417.692
X110.636 Y417.737
X111.711 Y418.714
X111.748 Y418.748
X112.298 Y419.228
X112.324 Y419.25
X112.881 Y419.723
X112.906 Y419.744
X113.471 Y420.211
X113.499 Y420.234
X114.072 Y420.694
X114.098 Y420.714
X114.679 Y421.168
X114.705 Y421.188
X115.294 Y421.636
X115.319 Y421.655
X115.916 Y422.097
X115.946 Y422.119
X116.552 Y422.554
X116.577 Y422.571
X117.19 Y423
X117.219 Y423.021
X117.841 Y423.443
X117.866 Y423.459
X118.495 Y423.875
X118.522 Y423.893
X119.16 Y424.303
X119.19 Y424.322
X119.837 Y424.725
X119.864 Y424.742
X120.518 Y425.138
X120.545 Y425.154
X121.208 Y425.544
X121.238 Y425.561
X121.91 Y425.944
X121.936 Y425.958
X122.616 Y426.335
X122.644 Y426.351
X123.332 Y426.721
X123.359 Y426.735
X124.056 Y427.099
X124.087 Y427.115
X124.793 Y427.471
X124.816 Y427.483
X125.53 Y427.834
X125.56 Y427.848
X126.282 Y428.191
X126.31 Y428.204
X127.042 Y428.541
X127.069 Y428.553
X127.809 Y428.883
X127.837 Y428.896
X128.586 Y429.219
X128.613 Y429.23
X129.37 Y429.546
X129.396 Y429.557
X130.163 Y429.867
X130.192 Y429.878
X130.967 Y430.18
X130.992 Y430.19
X131.776 Y430.486
X131.803 Y430.496
X132.596 Y430.785
X132.623 Y430.794
X133.425 Y431.076
X133.45 Y431.085
X134.26 Y431.36
X134.285 Y431.368
X135.105 Y431.637
X135.133 Y431.647
X135.962 Y431.908
X135.988 Y431.916
X136.826 Y432.17
X136.848 Y432.176
X137.694 Y432.424
X137.722 Y432.432
X138.578 Y432.672
X138.6 Y432.678
X139.465 Y432.912
X139.493 Y432.92
X140.368 Y433.146
X140.391 Y433.151
X141.274 Y433.37
X141.295 Y433.376
X142.187 Y433.589
X142.214 Y433.595
X143.116 Y433.8
X143.139 Y433.805
X144.05 Y434.003
X144.073 Y434.008
X144.993 Y434.199
X145.015 Y434.203
X145.944 Y434.387
X145.967 Y434.392
X146.906 Y434.569
X146.928 Y434.573
X147.876 Y434.743
X147.897 Y434.747
X148.854 Y434.91
X148.878 Y434.913
X149.845 Y435.068
X149.866 Y435.072
X150.842 Y435.22
X150.863 Y435.223
X151.848 Y435.364
X151.868 Y435.367
X152.863 Y435.501
X152.883 Y435.503
X153.887 Y435.63
X153.907 Y435.633
X154.921 Y435.753
X154.943 Y435.755
X155.966 Y435.867
X155.985 Y435.869
X157.017 Y435.974
X157.036 Y435.976
X158.078 Y436.074
X158.097 Y436.076
X159.149 Y436.167
X159.169 Y436.168
X160.23 Y436.251
X160.246 Y436.253
X161.316 Y436.33
X161.336 Y436.331
X162.416 Y436.4
X162.435 Y436.401
X163.524 Y436.462
X163.539 Y436.463
X164.638 Y436.518
X164.657 Y436.519
X165.765 Y436.566
X165.782
X166.9 Y436.606
X166.916 Y436.607
X168.044 Y436.64
X168.062
X169.199 Y436.665
X169.215 Y436.666
X170.361 Y436.684
X170.376
X171.532 Y436.695
X171.547
X172.713 Y436.699
G2 X175.222 Y434.199 I0.009 J-2.5
G1 Y430.176
Z-12 F333.3
Y1 F1000
G2 X172.722 Y-1.5 I-2.5 J0
G1 X114.222
G2 X53.222 Y59.5 I0 J61
G1 Y59.506
X53.227 Y61.886
Y61.898
X53.244 Y64.251
Y64.263
X53.272 Y66.591
Y66.603
X53.311 Y68.905
Y68.917
X53.361 Y71.192
Y71.205
X53.422 Y73.454
X53.423 Y73.467
X53.494 Y75.691
X53.495 Y75.704
X53.577 Y77.901
X53.578 Y77.915
X53.671 Y80.086
X53.672 Y80.1
X53.776 Y82.246
X53.777 Y82.26
X53.892 Y84.381
X53.893 Y84.395
X54.018 Y86.491
X54.019 Y86.505
X54.155 Y88.576
X54.156 Y88.59
X54.302 Y90.636
X54.303 Y90.65
X54.46 Y92.672
X54.461 Y92.686
X54.627 Y94.683
X54.629 Y94.698
X54.805 Y96.671
X54.807 Y96.686
X54.993 Y98.635
X54.995 Y98.65
X55.191 Y100.575
X55.192 Y100.591
X55.398 Y102.493
X55.4 Y102.508
X55.615 Y104.387
X55.617 Y104.403
X55.841 Y106.259
X55.843 Y106.275
X56.077 Y108.109
X56.079 Y108.125
X56.321 Y109.937
X56.324 Y109.952
X56.575 Y111.742
X56.577 Y111.758
X56.837 Y113.527
X56.839 Y113.543
X57.107 Y115.291
X57.11 Y115.307
X57.386 Y117.034
X57.389 Y117.05
X57.673 Y118.757
X57.676 Y118.773
X57.968 Y120.46
X57.971 Y120.475
X58.27 Y122.143
X58.273 Y122.159
X58.58 Y123.808
X58.583 Y123.823
X58.898 Y125.453
X58.901 Y125.468
X59.222 Y127.081
X59.225 Y127.097
X59.553 Y128.691
X59.556 Y128.706
X59.89 Y130.283
X59.893 Y130.297
X60.234 Y131.858
X60.238 Y131.873
X60.584 Y133.416
X60.588 Y133.43
X60.94 Y134.958
X60.943 Y134.972
X61.301 Y136.485
X61.305 Y136.499
X61.668 Y137.997
X61.672 Y138.01
X62.04 Y139.493
X62.043 Y139.506
X62.417 Y140.975
X62.42 Y140.988
X62.798 Y142.443
X62.801 Y142.454
X63.184 Y143.897
X63.187 Y143.909
X63.573 Y145.339
X63.576 Y145.351
X63.967 Y146.768
X63.97 Y146.778
X64.364 Y148.185
X64.366 Y148.196
X64.764 Y149.591
X64.767 Y149.601
X65.167 Y150.985
X65.171 Y150.998
X65.98 Y153.738
X65.985 Y153.754
X66.803 Y156.457
X66.807 Y156.471
X67.632 Y159.142
X67.636 Y159.153
X68.466 Y161.796
X68.469 Y161.805
X69.303 Y164.424
X69.305 Y164.43
X70.139 Y167.029
X70.14 Y167.033
X70.974 Y169.615
X72.628 Y174.745
X74.251 Y179.852
X75.045 Y182.402
X75.826 Y184.958
X76.592 Y187.523
X77.341 Y190.101
X78.071 Y192.694
X78.782 Y195.308
X79.471 Y197.943
X80.137 Y200.61
X80.461 Y201.949
X80.778 Y203.299
X81.09 Y204.657
X81.395 Y206.023
X81.693 Y207.398
X81.985 Y208.784
X82.269 Y210.178
X82.547 Y211.581
X82.817 Y212.996
X83.081 Y214.42
X83.336 Y215.855
X83.585 Y217.301
X83.826 Y218.758
X84.059 Y220.227
X84.285 Y221.706
X84.503 Y223.199
X84.713 Y224.702
X84.915 Y226.218
X85.109 Y227.746
X85.296 Y229.286
X85.474 Y230.838
X85.644 Y232.403
X85.807 Y233.981
X85.961 Y235.571
X86.108 Y237.174
X86.246 Y238.789
X86.377 Y240.417
X86.5 Y242.058
X86.615 Y243.711
X86.722 Y245.376
X86.821 Y247.054
X86.913 Y248.744
X86.997 Y250.446
X87.074 Y252.159
X87.144 Y253.885
X87.206 Y255.622
X87.261 Y257.371
X87.31 Y259.131
X87.351 Y260.902
X87.387 Y262.684
X87.415 Y264.475
X87.438 Y266.277
X87.455 Y268.088
X87.466 Y269.907
X87.471 Y273.578
X87.457 Y277.28
X87.425 Y281.013
X87.378 Y284.77
X87.317 Y288.551
X87.247 Y292.351
X87.169 Y296.166
X87.086 Y299.994
X86.919 Y307.666
Y307.671
X86.77 Y315.334
Y315.344
X86.71 Y319.164
Y319.174
X86.665 Y322.981
Y322.992
X86.638 Y326.782
Y326.796
X86.632 Y330.567
Y330.584
X86.651 Y334.331
Y334.345
X86.671 Y336.209
Y336.219
X86.699 Y338.077
Y338.088
X86.734 Y339.938
X86.735 Y339.949
X86.778 Y341.791
X86.779 Y341.804
X86.831 Y343.638
X86.832 Y343.651
X86.893 Y345.476
X86.894 Y345.49
X86.966 Y347.307
Y347.321
X87.048 Y349.128
X87.049 Y349.143
X87.141 Y350.941
X87.142 Y350.958
X87.246 Y352.745
X87.247 Y352.762
X87.362 Y354.539
X87.363 Y354.557
X87.491 Y356.324
X87.492 Y356.343
X87.632 Y358.098
X87.633 Y358.117
X87.786 Y359.861
X87.788 Y359.882
X87.954 Y361.613
X87.956 Y361.634
X88.137 Y363.354
X88.139 Y363.377
X88.334 Y365.084
X88.336 Y365.108
X88.546 Y366.802
X88.549 Y366.826
X88.774 Y368.506
X88.777 Y368.532
X89.018 Y370.199
X89.022 Y370.226
X89.278 Y371.878
X89.283 Y371.906
X89.556 Y373.544
X89.561 Y373.572
X89.852 Y375.196
X89.857 Y375.227
X90.166 Y376.835
X90.172 Y376.866
X90.498 Y378.458
X90.505 Y378.49
X90.85 Y380.067
X90.858 Y380.101
X91.222 Y381.661
X91.23 Y381.696
X91.613 Y383.24
X91.623 Y383.276
X92.026 Y384.803
X92.036 Y384.84
X92.46 Y386.349
X92.471 Y386.387
X92.916 Y387.879
X92.928 Y387.919
X93.394 Y389.393
X93.407 Y389.433
X93.895 Y390.889
X93.91 Y390.931
X94.42 Y392.368
X94.436 Y392.411
X94.968 Y393.829
X94.985 Y393.873
X95.541 Y395.272
X95.56 Y395.318
X96.14 Y396.697
X96.159 Y396.743
X96.763 Y398.102
X96.784 Y398.149
X97.413 Y399.488
X97.436 Y399.536
X98.089 Y400.854
X98.113 Y400.901
X98.791 Y402.199
X98.818 Y402.25
X99.522 Y403.526
X99.55 Y403.575
X100.28 Y404.83
X100.31 Y404.88
X101.067 Y406.114
X101.099 Y406.166
X101.883 Y407.377
X101.917 Y407.427
X102.728 Y408.616
X102.763 Y408.666
X103.602 Y409.833
X103.64 Y409.884
X104.507 Y411.028
X104.547 Y411.08
X105.443 Y412.2
X105.483 Y412.249
X106.408 Y413.347
X106.451 Y413.396
X107.405 Y414.47
X107.45 Y414.52
X108.434 Y415.57
X108.48 Y415.617
X109.494 Y416.643
X109.543 Y416.691
X110.588 Y417.692
X110.636 Y417.737
X111.711 Y418.714
X111.748 Y418.748
X112.298 Y419.228
X112.324 Y419.25
X112.881 Y419.723
X112.906 Y419.744
X113.471 Y420.211
X113.499 Y420.234
X114.072 Y420.694
X114.098 Y420.714
X114.679 Y421.168
X114.705 Y421.188
X115.294 Y421.636
X115.319 Y421.655
X115.916 Y422.097
X115.946 Y422.119
X116.552 Y422.554
X116.577 Y422.571
X117.19 Y423
X117.219 Y423.021
X117.841 Y423.443
X117.866 Y423.459
X118.495 Y423.875
X118.522 Y423.893
X119.16 Y424.303
X119.19 Y424.322
X119.837 Y424.725
X119.864 Y424.742
X120.518 Y425.138
X120.545 Y425.154
X121.208 Y425.544
X121.238 Y425.561
X121.91 Y425.944
X121.936 Y425.958
X122.616 Y426.335
X122.644 Y426.351
X123.332 Y426.721
X123.359 Y426.735
X124.056 Y427.099
X124.087 Y427.115
X124.793 Y427.471
X124.816 Y427.483
X125.53 Y427.834
X125.56 Y427.848
X126.282 Y428.191
X126.31 Y428.204
X127.042 Y428.541
X127.069 Y428.553
X127.809 Y428.883
X127.837 Y428.896
X128.586 Y429.219
X128.613 Y429.23
X129.37 Y429.546
X129.396 Y429.557
X130.163 Y429.867
X130.192 Y429.878
X130.967 Y430.18
X130.992 Y430.19
X131.776 Y430.486
X131.803 Y430.496
X132.596 Y430.785
X132.623 Y430.794
X133.425 Y431.076
X133.45 Y431.085
X134.26 Y431.36
X134.285 Y431.368
X135.105 Y431.637
X135.133 Y431.647
X135.962 Y431.908
X135.988 Y431.916
X136.826 Y432.17
X136.848 Y432.176
X137.694 Y432.424
X137.722 Y432.432
X138.578 Y432.672
X138.6 Y432.678
X139.465 Y432.912
X139.493 Y432.92
X140.368 Y433.146
X140.391 Y433.151
X141.274 Y433.37
X141.295 Y433.376
X142.187 Y433.589
X142.214 Y433.595
X143.116 Y433.8
X143.139 Y433.805
X144.05 Y434.003
X144.073 Y434.008
X144.993 Y434.199
X145.015 Y434.203
X145.944 Y434.387
X145.967 Y434.392
X146.906 Y434.569
X146.928 Y434.573
X147.876 Y434.743
X147.897 Y434.747
X148.854 Y434.91
X148.878 Y434.913
X149.845 Y435.068
X149.866 Y435.072
X150.842 Y435.22
X150.863 Y435.223
X151.848 Y435.364
X151.868 Y435.367
X152.863 Y435.501
X152.883 Y435.503
X153.887 Y435.63
X153.907 Y435.633
X154.921 Y435.753
X154.943 Y435.755
X155.966 Y435.867
X155.985 Y435.869
X157.017 Y435.974
X157.036 Y435.976
X158.078 Y436.074
X158.097 Y436.076
X159.149 Y436.167
X159.169 Y436.168
X160.23 Y436.251
X160.246 Y436.253
X161.316 Y436.33
X161.336 Y436.331
X162.416 Y436.4
X162.435 Y436.401
X163.524 Y436.462
X163.539 Y436.463
X164.638 Y436.518
X164.657 Y436.519
X165.765 Y436.566
X165.782
X166.9 Y436.606
X166.916 Y436.607
X168.044 Y436.64
X168.062
X169.199 Y436.665
X169.215 Y436.666
X170.361 Y436.684
X170.376
X171.532 Y436.695
X171.547
X172.713 Y436.699
G2 X175.222 Y434.199 I0.009 J-2.5
G1 Y430.176
Z-15 F333.3
Y1 F1000
G2 X172.722 Y-1.5 I-2.5 J0
G1 X114.222
G2 X53.222 Y59.5 I0 J61
G1 Y59.506
X53.227 Y61.886
Y61.898
X53.244 Y64.251
Y64.263
X53.272 Y66.591
Y66.603
X53.311 Y68.905
Y68.917
X53.361 Y71.192
Y71.205
X53.422 Y73.454
X53.423 Y73.467
X53.494 Y75.691
X53.495 Y75.704
X53.577 Y77.901
X53.578 Y77.915
X53.671 Y80.086
X53.672 Y80.1
X53.776 Y82.246
X53.777 Y82.26
X53.892 Y84.381
X53.893 Y84.395
X54.018 Y86.491
X54.019 Y86.505
X54.155 Y88.576
X54.156 Y88.59
X54.302 Y90.636
X54.303 Y90.65
X54.46 Y92.672
X54.461 Y92.686
X54.627 Y94.683
X54.629 Y94.698
X54.805 Y96.671
X54.807 Y96.686
X54.993 Y98.635
X54.995 Y98.65
X55.191 Y100.575
X55.192 Y100.591
X55.398 Y102.493
X55.4 Y102.508
X55.615 Y104.387
X55.617 Y104.403
X55.841 Y106.259
X55.843 Y106.275
X56.077 Y108.109
X56.079 Y108.125
X56.321 Y109.937
X56.324 Y109.952
X56.575 Y111.742
X56.577 Y111.758
X56.837 Y113.527
X56.839 Y113.543
X57.107 Y115.291
X57.11 Y115.307
X57.386 Y117.034
X57.389 Y117.05
X57.673 Y118.757
X57.676 Y118.773
X57.968 Y120.46
X57.971 Y120.475
X58.27 Y122.143
X58.273 Y122.159
X58.58 Y123.808
X58.583 Y123.823
X58.898 Y125.453
X58.901 Y125.468
X59.222 Y127.081
X59.225 Y127.097
X59.553 Y128.691
X59.556 Y128.706
X59.89 Y130.283
X59.893 Y130.297
X60.234 Y131.858
X60.238 Y131.873
X60.584 Y133.416
X60.588 Y133.43
X60.94 Y134.958
X60.943 Y134.972
X61.301 Y136.485
X61.305 Y136.499
X61.668 Y137.997
X61.672 Y138.01
X62.04 Y139.493
X62.043 Y139.506
X62.417 Y140.975
X62.42 Y140.988
X62.798 Y142.443
X62.801 Y142.454
X63.184 Y143.897
X63.187 Y143.909
X63.573 Y145.339
X63.576 Y145.351
X63.967 Y146.768
X63.97 Y146.778
X64.364 Y148.185
X64.366 Y148.196
X64.764 Y149.591
X64.767 Y149.601
X65.167 Y150.985
X65.171 Y150.998
X65.98 Y153.738
X65.985 Y153.754
X66.803 Y156.457
X66.807 Y156.471
X67.632 Y159.142
X67.636 Y159.153
X68.466 Y161.796
X68.469 Y161.805
X69.303 Y164.424
X69.305 Y164.43
X70.139 Y167.029
X70.14 Y167.033
X70.974 Y169.615
X72.628 Y174.745
X74.251 Y179.852
X75.045 Y182.402
X75.826 Y184.958
X76.592 Y187.523
X77.341 Y190.101
X78.071 Y192.694
X78.782 Y195.308
X79.471 Y197.943
X80.137 Y200.61
X80.461 Y201.949
X80.778 Y203.299
X81.09 Y204.657
X81.395 Y206.023
X81.693 Y207.398
X81.985 Y208.784
X82.269 Y210.178
X82.547 Y211.581
X82.817 Y212.996
X83.081 Y214.42
X83.336 Y215.855
X83.585 Y217.301
X83.826 Y218.758
X84.059 Y220.227
X84.285 Y221.706
X84.503 Y223.199
X84.713 Y224.702
X84.915 Y226.218
X85.109 Y227.746
X85.296 Y229.286
X85.474 Y230.838
X85.644 Y232.403
X85.807 Y233.981
X85.961 Y235.571
X86.108 Y237.174
X86.246 Y238.789
X86.377 Y240.417
X86.5 Y242.058
X86.615 Y243.711
X86.722 Y245.376
X86.821 Y247.054
X86.913 Y248.744
X86.997 Y250.446
X87.074 Y252.159
X87.144 Y253.885
X87.206 Y255.622
X87.261 Y257.371
X87.31 Y259.131
X87.351 Y260.902
X87.387 Y262.684
X87.415 Y264.475
X87.438 Y266.277
X87.455 Y268.088
X87.466 Y269.907
X87.471 Y273.578
X87.457 Y277.28
X87.425 Y281.013
X87.378 Y284.77
X87.317 Y288.551
X87.247 Y292.351
X87.169 Y296.166
X87.086 Y299.994
X86.919 Y307.666
Y307.671
X86.77 Y315.334
Y315.344
X86.71 Y319.164
Y319.174
X86.665 Y322.981
Y322.992
X86.638 Y326.782
Y326.796
X86.632 Y330.567
Y330.584
X86.651 Y334.331
Y334.345
X86.671 Y336.209
Y336.219
X86.699 Y338.077
Y338.088
X86.734 Y339.938
X86.735 Y339.949
X86.778 Y341.791
X86.779 Y341.804
X86.831 Y343.638
X86.832 Y343.651
X86.893 Y345.476
X86.894 Y345.49
X86.966 Y347.307
Y347.321
X87.048 Y349.128
X87.049 Y349.143
X87.141 Y350.941
X87.142 Y350.958
X87.246 Y352.745
X87.247 Y352.762
X87.362 Y354.539
X87.363 Y354.557
X87.491 Y356.324
X87.492 Y356.343
X87.632 Y358.098
X87.633 Y358.117
X87.786 Y359.861
X87.788 Y359.882
X87.954 Y361.613
X87.956 Y361.634
X88.137 Y363.354
X88.139 Y363.377
X88.334 Y365.084
X88.336 Y365.108
X88.546 Y366.802
X88.549 Y366.826
X88.774 Y368.506
X88.777 Y368.532
X89.018 Y370.199
X89.022 Y370.226
X89.278 Y371.878
X89.283 Y371.906
X89.556 Y373.544
X89.561 Y373.572
X89.852 Y375.196
X89.857 Y375.227
X90.166 Y376.835
X90.172 Y376.866
X90.498 Y378.458
X90.505 Y378.49
X90.85 Y380.067
X90.858 Y380.101
X91.222 Y381.661
X91.23 Y381.696
X91.613 Y383.24
X91.623 Y383.276
X92.026 Y384.803
X92.036 Y384.84
X92.46 Y386.349
X92.471 Y386.387
X92.916 Y387.879
X92.928 Y387.919
X93.394 Y389.393
X93.407 Y389.433
X93.895 Y390.889
X93.91 Y390.931
X94.42 Y392.368
X94.436 Y392.411
X94.968 Y393.829
X94.985 Y393.873
X95.541 Y395.272
X95.56 Y395.318
X96.14 Y396.697
X96.159 Y396.743
X96.763 Y398.102
X96.784 Y398.149
X97.413 Y399.488
X97.436 Y399.536
X98.089 Y400.854
X98.113 Y400.901
X98.791 Y402.199
X98.818 Y402.25
X99.522 Y403.526
X99.55 Y403.575
X100.28 Y404.83
X100.31 Y404.88
X101.067 Y406.114
X101.099 Y406.166
X101.883 Y407.377
X101.917 Y407.427
X102.728 Y408.616
X102.763 Y408.666
X103.602 Y409.833
X103.64 Y409.884
X104.507 Y411.028
X104.547 Y411.08
X105.443 Y412.2
X105.483 Y412.249
X106.408 Y413.347
X106.451 Y413.396
X107.405 Y414.47
X107.45 Y414.52
X108.434 Y415.57
X108.48 Y415.617
X109.494 Y416.643
X109.543 Y416.691
X110.588 Y417.692
X110.636 Y417.737
X111.711 Y418.714
X111.748 Y418.748
X112.298 Y419.228
X112.324 Y419.25
X112.881 Y419.723
X112.906 Y419.744
X113.471 Y420.211
X113.499 Y420.234
X114.072 Y420.694
X114.098 Y420.714
X114.679 Y421.168
X114.705 Y421.188
X115.294 Y421.636
X115.319 Y421.655
X115.916 Y422.097
X115.946 Y422.119
X116.552 Y422.554
X116.577 Y422.571
X117.19 Y423
X117.219 Y423.021
X117.841 Y423.443
X117.866 Y423.459
X118.495 Y423.875
X118.522 Y423.893
X119.16 Y424.303
X119.19 Y424.322
X119.837 Y424.725
X119.864 Y424.742
X120.518 Y425.138
X120.545 Y425.154
X121.208 Y425.544
X121.238 Y425.561
X121.91 Y425.944
X121.936 Y425.958
X122.616 Y426.335
X122.644 Y426.351
X123.332 Y426.721
X123.359 Y426.735
X124.056 Y427.099
X124.087 Y427.115
X124.793 Y427.471
X124.816 Y427.483
X125.53 Y427.834
X125.56 Y427.848
X126.282 Y428.191
X126.31 Y428.204
X127.042 Y428.541
X127.069 Y428.553
X127.809 Y428.883
X127.837 Y428.896
X128.586 Y429.219
X128.613 Y429.23
X129.37 Y429.546
X129.396 Y429.557
X130.163 Y429.867
X130.192 Y429.878
X130.967 Y430.18
X130.992 Y430.19
X131.776 Y430.486
X131.803 Y430.496
X132.596 Y430.785
X132.623 Y430.794
X133.425 Y431.076
X133.45 Y431.085
X134.26 Y431.36
X134.285 Y431.368
X135.105 Y431.637
X135.133 Y431.647
X135.962 Y431.908
X135.988 Y431.916
X136.826 Y432.17
X136.848 Y432.176
X137.694 Y432.424
X137.722 Y432.432
X138.578 Y432.672
X138.6 Y432.678
X139.465 Y432.912
X139.493 Y432.92
X140.368 Y433.146
X140.391 Y433.151
X141.274 Y433.37
X141.295 Y433.376
X142.187 Y433.589
X142.214 Y433.595
X143.116 Y433.8
X143.139 Y433.805
X144.05 Y434.003
X144.073 Y434.008
X144.993 Y434.199
X145.015 Y434.203
X145.944 Y434.387
X145.967 Y434.392
X146.906 Y434.569
X146.928 Y434.573
X147.876 Y434.743
X147.897 Y434.747
X148.854 Y434.91
X148.878 Y434.913
X149.845 Y435.068
X149.866 Y435.072
X150.842 Y435.22
X150.863 Y435.223
X151.848 Y435.364
X151.868 Y435.367
X152.863 Y435.501
X152.883 Y435.503
X153.887 Y435.63
X153.907 Y435.633
X154.921 Y435.753
X154.943 Y435.755
X155.966 Y435.867
X155.985 Y435.869
X157.017 Y435.974
X157.036 Y435.976
X158.078 Y436.074
X158.097 Y436.076
X159.149 Y436.167
X159.169 Y436.168
X160.23 Y436.251
X160.246 Y436.253
X161.316 Y436.33
X161.336 Y436.331
X162.416 Y436.4
X162.435 Y436.401
X163.524 Y436.462
X163.539 Y436.463
X164.638 Y436.518
X164.657 Y436.519
X165.765 Y436.566
X165.782
X166.9 Y436.606
X166.916 Y436.607
X168.044 Y436.64
X168.062
X169.199 Y436.665
X169.215 Y436.666
X170.361 Y436.684
X170.376
X171.532 Y436.695
X171.547
X172.713 Y436.699
G2 X175.222 Y434.199 I0.009 J-2.5
G1 Y430.176
Z-18 F333.3
Y1 F1000
G2 X172.722 Y-1.5 I-2.5 J0
G1 X114.222
G2 X53.222 Y59.5 I0 J61
G1 Y59.506
X53.227 Y61.886
Y61.898
X53.244 Y64.251
Y64.263
X53.272 Y66.591
Y66.603
X53.311 Y68.905
Y68.917
X53.361 Y71.192
Y71.205
X53.422 Y73.454
X53.423 Y73.467
X53.494 Y75.691
X53.495 Y75.704
X53.577 Y77.901
X53.578 Y77.915
X53.671 Y80.086
X53.672 Y80.1
X53.776 Y82.246
X53.777 Y82.26
X53.892 Y84.381
X53.893 Y84.395
X54.018 Y86.491
X54.019 Y86.505
X54.155 Y88.576
X54.156 Y88.59
X54.302 Y90.636
X54.303 Y90.65
X54.46 Y92.672
X54.461 Y92.686
X54.627 Y94.683
X54.629 Y94.698
X54.805 Y96.671
X54.807 Y96.686
X54.993 Y98.635
X54.995 Y98.65
X55.191 Y100.575
X55.192 Y100.591
X55.398 Y102.493
X55.4 Y102.508
X55.615 Y104.387
X55.617 Y104.403
X55.841 Y106.259
X55.843 Y106.275
X56.077 Y108.109
X56.079 Y108.125
X56.321 Y109.937
X56.324 Y109.952
X56.575 Y111.742
X56.577 Y111.758
X56.837 Y113.527
X56.839 Y113.543
X57.107 Y115.291
X57.11 Y115.307
X57.386 Y117.034
X57.389 Y117.05
X57.673 Y118.757
X57.676 Y118.773
X57.968 Y120.46
X57.971 Y120.475
X58.27 Y122.143
X58.273 Y122.159
X58.58 Y123.808
X58.583 Y123.823
X58.898 Y125.453
X58.901 Y125.468
X59.222 Y127.081
X59.225 Y127.097
X59.553 Y128.691
X59.556 Y128.706
X59.89 Y130.283
X59.893 Y130.297
X60.234 Y131.858
X60.238 Y131.873
X60.584 Y133.416
X60.588 Y133.43
X60.94 Y134.958
X60.943 Y134.972
X61.301 Y136.485
X61.305 Y136.499
X61.668 Y137.997
X61.672 Y138.01
X62.04 Y139.493
X62.043 Y139.506
X62.417 Y140.975
X62.42 Y140.988
X62.798 Y142.443
X62.801 Y142.454
X63.184 Y143.897
X63.187 Y143.909
X63.573 Y145.339
X63.576 Y145.351
X63.967 Y146.768
X63.97 Y146.778
X64.364 Y148.185
X64.366 Y148.196
X64.764 Y149.591
X64.767 Y149.601
X65.167 Y150.985
X65.171 Y150.998
X65.98 Y153.738
X65.985 Y153.754
X66.803 Y156.457
X66.807 Y156.471
X67.632 Y159.142
X67.636 Y159.153
X68.466 Y161.796
X68.469 Y161.805
X69.303 Y164.424
X69.305 Y164.43
X70.139 Y167.029
X70.14 Y167.033
X70.974 Y169.615
X72.628 Y174.745
X74.251 Y179.852
X75.045 Y182.402
X75.826 Y184.958
X76.592 Y187.523
X77.341 Y190.101
X78.071 Y192.694
X78.782 Y195.308
X79.471 Y197.943
X80.137 Y200.61
X80.461 Y201.949
X80.778 Y203.299
X81.09 Y204.657
X81.395 Y206.023
X81.693 Y207.398
X81.985 Y208.784
X82.269 Y210.178
X82.547 Y211.581
X82.817 Y212.996
X83.081 Y214.42
X83.336 Y215.855
X83.585 Y217.301
X83.826 Y218.758
X84.059 Y220.227
X84.285 Y221.706
X84.503 Y223.199
X84.713 Y224.702
X84.915 Y226.218
X85.109 Y227.746
X85.296 Y229.286
X85.474 Y230.838
X85.644 Y232.403
X85.807 Y233.981
X85.961 Y235.571
X86.108 Y237.174
X86.246 Y238.789
X86.377 Y240.417
X86.5 Y242.058
X86.615 Y243.711
X86.722 Y245.376
X86.821 Y247.054
X86.913 Y248.744
X86.997 Y250.446
X87.074 Y252.159
X87.144 Y253.885
X87.206 Y255.622
X87.261 Y257.371
X87.31 Y259.131
X87.351 Y260.902
X87.387 Y262.684
X87.415 Y264.475
X87.438 Y266.277
X87.455 Y268.088
X87.466 Y269.907
X87.471 Y273.578
X87.457 Y277.28
X87.425 Y281.013
X87.378 Y284.77
X87.317 Y288.551
X87.247 Y292.351
X87.169 Y296.166
X87.086 Y299.994
X86.919 Y307.666
Y307.671
X86.77 Y315.334
Y315.344
X86.71 Y319.164
Y319.174
X86.665 Y322.981
Y322.992
X86.638 Y326.782
Y326.796
X86.632 Y330.567
Y330.584
X86.651 Y334.331
Y334.345
X86.671 Y336.209
Y336.219
X86.699 Y338.077
Y338.088
X86.734 Y339.938
X86.735 Y339.949
X86.778 Y341.791
X86.779 Y341.804
X86.831 Y343.638
X86.832 Y343.651
X86.893 Y345.476
X86.894 Y345.49
X86.966 Y347.307
Y347.321
X87.048 Y349.128
X87.049 Y349.143
X87.141 Y350.941
X87.142 Y350.958
X87.246 Y352.745
X87.247 Y352.762
X87.362 Y354.539
X87.363 Y354.557
X87.491 Y356.324
X87.492 Y356.343
X87.632 Y358.098
X87.633 Y358.117
X87.786 Y359.861
X87.788 Y359.882
X87.954 Y361.613
X87.956 Y361.634
X88.137 Y363.354
X88.139 Y363.377
X88.334 Y365.084
X88.336 Y365.108
X88.546 Y366.802
X88.549 Y366.826
X88.774 Y368.506
X88.777 Y368.532
X89.018 Y370.199
X89.022 Y370.226
X89.278 Y371.878
X89.283 Y371.906
X89.556 Y373.544
X89.561 Y373.572
X89.852 Y375.196
X89.857 Y375.227
X90.166 Y376.835
X90.172 Y376.866
X90.498 Y378.458
X90.505 Y378.49
X90.85 Y380.067
X90.858 Y380.101
X91.222 Y381.661
X91.23 Y381.696
X91.613 Y383.24
X91.623 Y383.276
X92.026 Y384.803
X92.036 Y384.84
X92.46 Y386.349
X92.471 Y386.387
X92.916 Y387.879
X92.928 Y387.919
X93.394 Y389.393
X93.407 Y389.433
X93.895 Y390.889
X93.91 Y390.931
X94.42 Y392.368
X94.436 Y392.411
X94.968 Y393.829
X94.985 Y393.873
X95.541 Y395.272
X95.56 Y395.318
X96.14 Y396.697
X96.159 Y396.743
X96.763 Y398.102
X96.784 Y398.149
X97.413 Y399.488
X97.436 Y399.536
X98.089 Y400.854
X98.113 Y400.901
X98.791 Y402.199
X98.818 Y402.25
X99.522 Y403.526
X99.55 Y403.575
X100.28 Y404.83
X100.31 Y404.88
X101.067 Y406.114
X101.099 Y406.166
X101.883 Y407.377
X101.917 Y407.427
X102.728 Y408.616
X102.763 Y408.666
X103.602 Y409.833
X103.64 Y409.884
X104.507 Y411.028
X104.547 Y411.08
X105.443 Y412.2
X105.483 Y412.249
X106.408 Y413.347
X106.451 Y413.396
X107.405 Y414.47
X107.45 Y414.52
X108.434 Y415.57
X108.48 Y415.617
X109.494 Y416.643
X109.543 Y416.691
X110.588 Y417.692
X110.636 Y417.737
X111.711 Y418.714
X111.748 Y418.748
X112.298 Y419.228
X112.324 Y419.25
X112.881 Y419.723
X112.906 Y419.744
X113.471 Y420.211
X113.499 Y420.234
X114.072 Y420.694
X114.098 Y420.714
X114.679 Y421.168
X114.705 Y421.188
X115.294 Y421.636
X115.319 Y421.655
X115.916 Y422.097
X115.946 Y422.119
X116.552 Y422.554
X116.577 Y422.571
X117.19 Y423
X117.219 Y423.021
X117.841 Y423.443
X117.866 Y423.459
X118.495 Y423.875
X118.522 Y423.893
X119.16 Y424.303
X119.19 Y424.322
X119.837 Y424.725
X119.864 Y424.742
X120.518 Y425.138
X120.545 Y425.154
X121.208 Y425.544
X121.238 Y425.561
X121.91 Y425.944
X121.936 Y425.958
X122.616 Y426.335
X122.644 Y426.351
X123.332 Y426.721
X123.359 Y426.735
X124.056 Y427.099
X124.087 Y427.115
X124.793 Y427.471
X124.816 Y427.483
X125.53 Y427.834
X125.56 Y427.848
X126.282 Y428.191
X126.31 Y428.204
X127.042 Y428.541
X127.069 Y428.553
X127.809 Y428.883
X127.837 Y428.896
X128.586 Y429.219
X128.613 Y429.23
X129.37 Y429.546
X129.396 Y429.557
X130.163 Y429.867
X130.192 Y429.878
X130.967 Y430.18
X130.992 Y430.19
X131.776 Y430.486
X131.803 Y430.496
X132.596 Y430.785
X132.623 Y430.794
X133.425 Y431.076
X133.45 Y431.085
X134.26 Y431.36
X134.285 Y431.368
X135.105 Y431.637
X135.133 Y431.647
X135.962 Y431.908
X135.988 Y431.916
X136.826 Y432.17
X136.848 Y432.176
X137.694 Y432.424
X137.722 Y432.432
X138.578 Y432.672
X138.6 Y432.678
X139.465 Y432.912
X139.493 Y432.92
X140.368 Y433.146
X140.391 Y433.151
X141.274 Y433.37
X141.295 Y433.376
X142.187 Y433.589
X142.214 Y433.595
X143.116 Y433.8
X143.139 Y433.805
X144.05 Y434.003
X144.073 Y434.008
X144.993 Y434.199
X145.015 Y434.203
X145.944 Y434.387
X145.967 Y434.392
X146.906 Y434.569
X146.928 Y434.573
X147.876 Y434.743
X147.897 Y434.747
X148.854 Y434.91
X148.878 Y434.913
X149.845 Y435.068
X149.866 Y435.072
X150.842 Y435.22
X150.863 Y435.223
X151.848 Y435.364
X151.868 Y435.367
X152.863 Y435.501
X152.883 Y435.503
X153.887 Y435.63
X153.907 Y435.633
X154.921 Y435.753
X154.943 Y435.755
X155.966 Y435.867
X155.985 Y435.869
X157.017 Y435.974
X157.036 Y435.976
X158.078 Y436.074
X158.097 Y436.076
X159.149 Y436.167
X159.169 Y436.168
X160.23 Y436.251
X160.246 Y436.253
X161.316 Y436.33
X161.336 Y436.331
X162.416 Y436.4
X162.435 Y436.401
X163.524 Y436.462
X163.539 Y436.463
X164.638 Y436.518
X164.657 Y436.519
X165.765 Y436.566
X165.782
X166.9 Y436.606
X166.916 Y436.607
X168.044 Y436.64
X168.062
X169.199 Y436.665
X169.215 Y436.666
X170.361 Y436.684
X170.376
X171.532 Y436.695
X171.547
X172.713 Y436.699
G2 X175.222 Y434.199 I0.009 J-2.5
G1 Y430.176
Z-19 F333.3
Y1 F1000
G2 X172.722 Y-1.5 I-2.5 J0
G1 X114.222
G2 X53.222 Y59.5 I0 J61
G1 Y59.506
X53.227 Y61.886
Y61.898
X53.244 Y64.251
Y64.263
X53.272 Y66.591
Y66.603
X53.311 Y68.905
Y68.917
X53.361 Y71.192
Y71.205
X53.422 Y73.454
X53.423 Y73.467
X53.494 Y75.691
X53.495 Y75.704
X53.577 Y77.901
X53.578 Y77.915
X53.671 Y80.086
X53.672 Y80.1
X53.776 Y82.246
X53.777 Y82.26
X53.892 Y84.381
X53.893 Y84.395
X54.018 Y86.491
X54.019 Y86.505
X54.155 Y88.576
X54.156 Y88.59
X54.302 Y90.636
X54.303 Y90.65
X54.46 Y92.672
X54.461 Y92.686
X54.627 Y94.683
X54.629 Y94.698
X54.805 Y96.671
X54.807 Y96.686
X54.993 Y98.635
X54.995 Y98.65
X55.191 Y100.575
X55.192 Y100.591
X55.398 Y102.493
X55.4 Y102.508
X55.615 Y104.387
X55.617 Y104.403
X55.841 Y106.259
X55.843 Y106.275
X56.077 Y108.109
X56.079 Y108.125
X56.321 Y109.937
X56.324 Y109.952
X56.575 Y111.742
X56.577 Y111.758
X56.837 Y113.527
X56.839 Y113.543
X57.107 Y115.291
X57.11 Y115.307
X57.386 Y117.034
X57.389 Y117.05
X57.673 Y118.757
X57.676 Y118.773
X57.968 Y120.46
X57.971 Y120.475
X58.27 Y122.143
X58.273 Y122.159
X58.58 Y123.808
X58.583 Y123.823
X58.898 Y125.453
X58.901 Y125.468
X59.222 Y127.081
X59.225 Y127.097
X59.553 Y128.691
X59.556 Y128.706
X59.89 Y130.283
X59.893 Y130.297
X60.234 Y131.858
X60.238 Y131.873
X60.584 Y133.416
X60.588 Y133.43
X60.94 Y134.958
X60.943 Y134.972
X61.301 Y136.485
X61.305 Y136.499
X61.668 Y137.997
X61.672 Y138.01
X62.04 Y139.493
X62.043 Y139.506
X62.417 Y140.975
X62.42 Y140.988
X62.798 Y142.443
X62.801 Y142.454
X63.184 Y143.897
X63.187 Y143.909
X63.573 Y145.339
X63.576 Y145.351
X63.967 Y146.768
X63.97 Y146.778
X64.364 Y148.185
X64.366 Y148.196
X64.764 Y149.591
X64.767 Y149.601
X65.167 Y150.985
X65.171 Y150.998
X65.98 Y153.738
X65.985 Y153.754
X66.803 Y156.457
X66.807 Y156.471
X67.632 Y159.142
X67.636 Y159.153
X68.466 Y161.796
X68.469 Y161.805
X69.303 Y164.424
X69.305 Y164.43
X70.139 Y167.029
X70.14 Y167.033
X70.974 Y169.615
X72.628 Y174.745
X74.251 Y179.852
X75.045 Y182.402
X75.826 Y184.958
X76.592 Y187.523
X77.341 Y190.101
X78.071 Y192.694
X78.782 Y195.308
X79.471 Y197.943
X80.137 Y200.61
X80.461 Y201.949
X80.778 Y203.299
X81.09 Y204.657
X81.395 Y206.023
X81.693 Y207.398
X81.985 Y208.784
X82.269 Y210.178
X82.547 Y211.581
X82.817 Y212.996
X83.081 Y214.42
X83.336 Y215.855
X83.585 Y217.301
X83.826 Y218.758
X84.059 Y220.227
X84.285 Y221.706
X84.503 Y223.199
X84.713 Y224.702
X84.915 Y226.218
X85.109 Y227.746
X85.296 Y229.286
X85.474 Y230.838
X85.644 Y232.403
X85.807 Y233.981
X85.961 Y235.571
X86.108 Y237.174
X86.246 Y238.789
X86.377 Y240.417
X86.5 Y242.058
X86.615 Y243.711
X86.722 Y245.376
X86.821 Y247.054
X86.913 Y248.744
X86.997 Y250.446
X87.074 Y252.159
X87.144 Y253.885
X87.206 Y255.622
X87.261 Y257.371
X87.31 Y259.131
X87.351 Y260.902
X87.387 Y262.684
X87.415 Y264.475
X87.438 Y266.277
X87.455 Y268.088
X87.466 Y269.907
X87.471 Y273.578
X87.457 Y277.28
X87.425 Y281.013
X87.378 Y284.77
X87.317 Y288.551
X87.247 Y292.351
X87.169 Y296.166
X87.086 Y299.994
X86.919 Y307.666
Y307.671
X86.77 Y315.334
Y315.344
X86.71 Y319.164
Y319.174
X86.665 Y322.981
Y322.992
X86.638 Y326.782
Y326.796
X86.632 Y330.567
Y330.584
X86.651 Y334.331
Y334.345
X86.671 Y336.209
Y336.219
X86.699 Y338.077
Y338.088
X86.734 Y339.938
X86.735 Y339.949
X86.778 Y341.791
X86.779 Y341.804
X86.831 Y343.638
X86.832 Y343.651
X86.893 Y345.476
X86.894 Y345.49
X86.966 Y347.307
Y347.321
X87.048 Y349.128
X87.049 Y349.143
X87.141 Y350.941
X87.142 Y350.958
X87.246 Y352.745
X87.247 Y352.762
X87.362 Y354.539
X87.363 Y354.557
X87.491 Y356.324
X87.492 Y356.343
X87.632 Y358.098
X87.633 Y358.117
X87.786 Y359.861
X87.788 Y359.882
X87.954 Y361.613
X87.956 Y361.634
X88.137 Y363.354
X88.139 Y363.377
X88.334 Y365.084
X88.336 Y365.108
X88.546 Y366.802
X88.549 Y366.826
X88.774 Y368.506
X88.777 Y368.532
X89.018 Y370.199
X89.022 Y370.226
X89.278 Y371.878
X89.283 Y371.906
X89.556 Y373.544
X89.561 Y373.572
X89.852 Y375.196
X89.857 Y375.227
X90.166 Y376.835
X90.172 Y376.866
X90.498 Y378.458
X90.505 Y378.49
X90.85 Y380.067
X90.858 Y380.101
X91.222 Y381.661
X91.23 Y381.696
X91.613 Y383.24
X91.623 Y383.276
X92.026 Y384.803
X92.036 Y384.84
X92.46 Y386.349
X92.471 Y386.387
X92.916 Y387.879
X92.928 Y387.919
X93.394 Y389.393
X93.407 Y389.433
X93.895 Y390.889
X93.91 Y390.931
X94.42 Y392.368
X94.436 Y392.411
X94.968 Y393.829
X94.985 Y393.873
X95.541 Y395.272
X95.56 Y395.318
X96.14 Y396.697
X96.159 Y396.743
X96.763 Y398.102
X96.784 Y398.149
X97.413 Y399.488
X97.436 Y399.536
X98.089 Y400.854
X98.113 Y400.901
X98.791 Y402.199
X98.818 Y402.25
X99.522 Y403.526
X99.55 Y403.575
X100.28 Y404.83
X100.31 Y404.88
X101.067 Y406.114
X101.099 Y406.166
X101.883 Y407.377
X101.917 Y407.427
X102.728 Y408.616
X102.763 Y408.666
X103.602 Y409.833
X103.64 Y409.884
X104.507 Y411.028
X104.547 Y411.08
X105.443 Y412.2
X105.483 Y412.249
X106.408 Y413.347
X106.451 Y413.396
X107.405 Y414.47
X107.45 Y414.52
X108.434 Y415.57
X108.48 Y415.617
X109.494 Y416.643
X109.543 Y416.691
X110.588 Y417.692
X110.636 Y417.737
X111.711 Y418.714
X111.748 Y418.748
X112.298 Y419.228
X112.324 Y419.25
X112.881 Y419.723
X112.906 Y419.744
X113.471 Y420.211
X113.499 Y420.234
X114.072 Y420.694
X114.098 Y420.714
X114.679 Y421.168
X114.705 Y421.188
X115.294 Y421.636
X115.319 Y421.655
X115.916 Y422.097
X115.946 Y422.119
X116.552 Y422.554
X116.577 Y422.571
X117.19 Y423
X117.219 Y423.021
X117.841 Y423.443
X117.866 Y423.459
X118.495 Y423.875
X118.522 Y423.893
X119.16 Y424.303
X119.19 Y424.322
X119.837 Y424.725
X119.864 Y424.742
X120.518 Y425.138
X120.545 Y425.154
X121.208 Y425.544
X121.238 Y425.561
X121.91 Y425.944
X121.936 Y425.958
X122.616 Y426.335
X122.644 Y426.351
X123.332 Y426.721
X123.359 Y426.735
X124.056 Y427.099
X124.087 Y427.115
X124.793 Y427.471
X124.816 Y427.483
X125.53 Y427.834
X125.56 Y427.848
X126.282 Y428.191
X126.31 Y428.204
X127.042 Y428.541
X127.069 Y428.553
X127.809 Y428.883
X127.837 Y428.896
X128.586 Y429.219
X128.613 Y429.23
X129.37 Y429.546
X129.396 Y429.557
X130.163 Y429.867
X130.192 Y429.878
X130.967 Y430.18
X130.992 Y430.19
X131.776 Y430.486
X131.803 Y430.496
X132.596 Y430.785
X132.623 Y430.794
X133.425 Y431.076
X133.45 Y431.085
X134.26 Y431.36
X134.285 Y431.368
X135.105 Y431.637
X135.133 Y431.647
X135.962 Y431.908
X135.988 Y431.916
X136.826 Y432.17
X136.848 Y432.176
X137.694 Y432.424
X137.722 Y432.432
X138.578 Y432.672
X138.6 Y432.678
X139.465 Y432.912
X139.493 Y432.92
X140.368 Y433.146
X140.391 Y433.151
X141.274 Y433.37
X141.295 Y433.376
X142.187 Y433.589
X142.214 Y433.595
X143.116 Y433.8
X143.139 Y433.805
X144.05 Y434.003
X144.073 Y434.008
X144.993 Y434.199
X145.015 Y434.203
X145.944 Y434.387
X145.967 Y434.392
X146.906 Y434.569
X146.928 Y434.573
X147.876 Y434.743
X147.897 Y434.747
X148.854 Y434.91
X148.878 Y434.913
X149.845 Y435.068
X149.866 Y435.072
X150.842 Y435.22
X150.863 Y435.223
X151.848 Y435.364
X151.868 Y435.367
X152.863 Y435.501
X152.883 Y435.503
X153.887 Y435.63
X153.907 Y435.633
X154.921 Y435.753
X154.943 Y435.755
X155.966 Y435.867
X155.985 Y435.869
X157.017 Y435.974
X157.036 Y435.976
X158.078 Y436.074
X158.097 Y436.076
X159.149 Y436.167
X159.169 Y436.168
X160.23 Y436.251
X160.246 Y436.253
X161.316 Y436.33
X161.336 Y436.331
X162.416 Y436.4
X162.435 Y436.401
X163.524 Y436.462
X163.539 Y436.463
X164.638 Y436.518
X164.657 Y436.519
X165.765 Y436.566
X165.782
X166.9 Y436.606
X166.916 Y436.607
X168.044 Y436.64
X168.062
X169.199 Y436.665
X169.215 Y436.666
X170.361 Y436.684
X170.376
X171.532 Y436.695
X171.547
X172.713 Y436.699
G2 X175.222 Y434.199 I0.009 J-2.5
G1 Y430.176
G0 Z15
M9
M5
M30
