(CamperHaengeschrankHeckKlein)
(T4 D=5 CR=0 - ZMIN=-18 - flat end mill)
G90 G94
G17
G21
(-Attention- Property Safe Retracts is set to Clearance Height.)
(Ensure the clearance height will clear the part and or fixtures.)
(Raise the Z-axis to a safe height before starting the program.)

(2D Contour1)
T4
S5000 M3
G17 G90 G94
G54
M8
G0 X67.705 Y-2.102
Z15
G0 Z5
G1 Z-4 F333.3
X68.015 Y-1.328 F1000
X68.66 Y0.312
X69.295 Y1.952
X70.54 Y5.246
X71.751 Y8.545
X72.932 Y11.85
X74.086 Y15.162
X75.215 Y18.479
X76.324 Y21.801
X77.413 Y25.128
X78.487 Y28.459
X79.545 Y31.793
X80.591 Y35.131
X81.626 Y38.472
X82.65 Y41.813
X84.673 Y48.507
X86.666 Y55.207
X88.628 Y61.895
X88.878 Y62.804
X89.095 Y63.702
X89.285 Y64.606
X89.446 Y65.514
X89.579 Y66.428
X89.685 Y67.345
X89.762 Y68.265
X89.81 Y69.187
X89.831 Y70.111
X89.822 Y71.036
X89.786 Y71.96
X89.72 Y72.882
X89.627 Y73.8
X89.505 Y74.715
X89.356 Y75.626
X89.178 Y76.532
X88.973 Y77.432
X88.739 Y78.326
X88.479 Y79.213
X88.19 Y80.092
X87.876 Y80.96
X87.535 Y81.818
X87.168 Y82.664
X86.775 Y83.498
X86.357 Y84.319
X85.915 Y85.127
X85.447 Y85.92
X84.956 Y86.7
X84.44 Y87.464
X83.901 Y88.213
X83.338 Y88.945
X82.741 Y89.676
G3 X39.831 Y111.651 I-47.741 J-40.337
G1 X-78.647 Y120.837
G3 X-97.5 Y103.389 I-1.352 J-17.448
G1 Y-103.389
G3 X-78.908 Y-120.856 I17.5 J0
G1 X-76.283 Y-120.065
X-73.427 Y-119.186
X-70.601 Y-118.295
X-67.803 Y-117.393
X-65.035 Y-116.48
X-62.295 Y-115.554
X-59.585 Y-114.617
X-56.903 Y-113.669
X-54.251 Y-112.708
X-51.628 Y-111.738
X-49.034 Y-110.755
X-46.469 Y-109.76
X-43.934 Y-108.754
X-41.428 Y-107.736
X-38.952 Y-106.707
X-36.505 Y-105.667
X-34.088 Y-104.614
X-31.7 Y-103.55
X-29.343 Y-102.474
X-27.014 Y-101.387
X-24.716 Y-100.288
X-22.449 Y-99.178
X-20.21 Y-98.055
X-18.002 Y-96.922
X-15.824 Y-95.777
X-13.676 Y-94.62
X-11.559 Y-93.452
X-9.471 Y-92.272
X-7.414 Y-91.081
X-5.387 Y-89.878
X-3.39 Y-88.664
X-1.424 Y-87.439
X0.513 Y-86.202
X2.419 Y-84.954
X4.294 Y-83.695
X6.14 Y-82.424
X7.956 Y-81.143
X9.742 Y-79.85
X11.498 Y-78.547
X13.224 Y-77.232
X14.92 Y-75.907
X16.587 Y-74.571
X18.225 Y-73.225
X19.833 Y-71.869
X21.413 Y-70.502
X22.963 Y-69.125
X24.485 Y-67.737
X25.979 Y-66.341
X27.445 Y-64.934
X28.884 Y-63.518
X30.294 Y-62.092
X31.678 Y-60.658
X33.035 Y-59.214
X34.365 Y-57.762
X35.669 Y-56.301
X36.947 Y-54.831
X38.2 Y-53.354
X39.428 Y-51.868
X40.631 Y-50.375
X41.809 Y-48.874
X42.964 Y-47.366
X44.095 Y-45.85
X45.203 Y-44.328
X46.289 Y-42.799
X47.352 Y-41.263
X48.393 Y-39.721
X49.413 Y-38.173
X50.411 Y-36.619
X51.39 Y-35.06
X52.348 Y-33.495
X53.286 Y-31.925
X54.206 Y-30.35
X55.106 Y-28.769
X55.989 Y-27.185
X56.853 Y-25.595
X57.7 Y-24.002
X58.531 Y-22.404
X59.345 Y-20.803
X60.143 Y-19.197
X60.926 Y-17.588
X61.694 Y-15.976
X62.447 Y-14.36
X63.187 Y-12.74
X63.913 Y-11.118
X64.626 Y-9.493
X65.327 Y-7.865
X66.016 Y-6.235
X66.693 Y-4.602
X67.359 Y-2.966
X67.705 Y-2.102
Z-8 F333.3
X68.015 Y-1.328 F1000
X68.66 Y0.312
X69.295 Y1.952
X70.54 Y5.246
X71.751 Y8.545
X72.932 Y11.85
X74.086 Y15.162
X75.215 Y18.479
X76.324 Y21.801
X77.413 Y25.128
X78.487 Y28.459
X79.545 Y31.793
X80.591 Y35.131
X81.626 Y38.472
X82.65 Y41.813
X84.673 Y48.507
X86.666 Y55.207
X88.628 Y61.895
X88.878 Y62.804
X89.095 Y63.702
X89.285 Y64.606
X89.446 Y65.514
X89.579 Y66.428
X89.685 Y67.345
X89.762 Y68.265
X89.81 Y69.187
X89.831 Y70.111
X89.822 Y71.036
X89.786 Y71.96
X89.72 Y72.882
X89.627 Y73.8
X89.505 Y74.715
X89.356 Y75.626
X89.178 Y76.532
X88.973 Y77.432
X88.739 Y78.326
X88.479 Y79.213
X88.19 Y80.092
X87.876 Y80.96
X87.535 Y81.818
X87.168 Y82.664
X86.775 Y83.498
X86.357 Y84.319
X85.915 Y85.127
X85.447 Y85.92
X84.956 Y86.7
X84.44 Y87.464
X83.901 Y88.213
X83.338 Y88.945
X82.741 Y89.676
G3 X39.831 Y111.651 I-47.741 J-40.337
G1 X-78.647 Y120.837
G3 X-97.5 Y103.389 I-1.352 J-17.448
G1 Y-103.389
G3 X-78.908 Y-120.856 I17.5 J0
G1 X-76.283 Y-120.065
X-73.427 Y-119.186
X-70.601 Y-118.295
X-67.803 Y-117.393
X-65.035 Y-116.48
X-62.295 Y-115.554
X-59.585 Y-114.617
X-56.903 Y-113.669
X-54.251 Y-112.708
X-51.628 Y-111.738
X-49.034 Y-110.755
X-46.469 Y-109.76
X-43.934 Y-108.754
X-41.428 Y-107.736
X-38.952 Y-106.707
X-36.505 Y-105.667
X-34.088 Y-104.614
X-31.7 Y-103.55
X-29.343 Y-102.474
X-27.014 Y-101.387
X-24.716 Y-100.288
X-22.449 Y-99.178
X-20.21 Y-98.055
X-18.002 Y-96.922
X-15.824 Y-95.777
X-13.676 Y-94.62
X-11.559 Y-93.452
X-9.471 Y-92.272
X-7.414 Y-91.081
X-5.387 Y-89.878
X-3.39 Y-88.664
X-1.424 Y-87.439
X0.513 Y-86.202
X2.419 Y-84.954
X4.294 Y-83.695
X6.14 Y-82.424
X7.956 Y-81.143
X9.742 Y-79.85
X11.498 Y-78.547
X13.224 Y-77.232
X14.92 Y-75.907
X16.587 Y-74.571
X18.225 Y-73.225
X19.833 Y-71.869
X21.413 Y-70.502
X22.963 Y-69.125
X24.485 Y-67.737
X25.979 Y-66.341
X27.445 Y-64.934
X28.884 Y-63.518
X30.294 Y-62.092
X31.678 Y-60.658
X33.035 Y-59.214
X34.365 Y-57.762
X35.669 Y-56.301
X36.947 Y-54.831
X38.2 Y-53.354
X39.428 Y-51.868
X40.631 Y-50.375
X41.809 Y-48.874
X42.964 Y-47.366
X44.095 Y-45.85
X45.203 Y-44.328
X46.289 Y-42.799
X47.352 Y-41.263
X48.393 Y-39.721
X49.413 Y-38.173
X50.411 Y-36.619
X51.39 Y-35.06
X52.348 Y-33.495
X53.286 Y-31.925
X54.206 Y-30.35
X55.106 Y-28.769
X55.989 Y-27.185
X56.853 Y-25.595
X57.7 Y-24.002
X58.531 Y-22.404
X59.345 Y-20.803
X60.143 Y-19.197
X60.926 Y-17.588
X61.694 Y-15.976
X62.447 Y-14.36
X63.187 Y-12.74
X63.913 Y-11.118
X64.626 Y-9.493
X65.327 Y-7.865
X66.016 Y-6.235
X66.693 Y-4.602
X67.359 Y-2.966
X67.705 Y-2.102
Z-12 F333.3
X68.015 Y-1.328 F1000
X68.66 Y0.312
X69.295 Y1.952
X70.54 Y5.246
X71.751 Y8.545
X72.932 Y11.85
X74.086 Y15.162
X75.215 Y18.479
X76.324 Y21.801
X77.413 Y25.128
X78.487 Y28.459
X79.545 Y31.793
X80.591 Y35.131
X81.626 Y38.472
X82.65 Y41.813
X84.673 Y48.507
X86.666 Y55.207
X88.628 Y61.895
X88.878 Y62.804
X89.095 Y63.702
X89.285 Y64.606
X89.446 Y65.514
X89.579 Y66.428
X89.685 Y67.345
X89.762 Y68.265
X89.81 Y69.187
X89.831 Y70.111
X89.822 Y71.036
X89.786 Y71.96
X89.72 Y72.882
X89.627 Y73.8
X89.505 Y74.715
X89.356 Y75.626
X89.178 Y76.532
X88.973 Y77.432
X88.739 Y78.326
X88.479 Y79.213
X88.19 Y80.092
X87.876 Y80.96
X87.535 Y81.818
X87.168 Y82.664
X86.775 Y83.498
X86.357 Y84.319
X85.915 Y85.127
X85.447 Y85.92
X84.956 Y86.7
X84.44 Y87.464
X83.901 Y88.213
X83.338 Y88.945
X82.741 Y89.676
G3 X39.831 Y111.651 I-47.741 J-40.337
G1 X-78.647 Y120.837
G3 X-97.5 Y103.389 I-1.352 J-17.448
G1 Y-103.389
G3 X-78.908 Y-120.856 I17.5 J0
G1 X-76.283 Y-120.065
X-73.427 Y-119.186
X-70.601 Y-118.295
X-67.803 Y-117.393
X-65.035 Y-116.48
X-62.295 Y-115.554
X-59.585 Y-114.617
X-56.903 Y-113.669
X-54.251 Y-112.708
X-51.628 Y-111.738
X-49.034 Y-110.755
X-46.469 Y-109.76
X-43.934 Y-108.754
X-41.428 Y-107.736
X-38.952 Y-106.707
X-36.505 Y-105.667
X-34.088 Y-104.614
X-31.7 Y-103.55
X-29.343 Y-102.474
X-27.014 Y-101.387
X-24.716 Y-100.288
X-22.449 Y-99.178
X-20.21 Y-98.055
X-18.002 Y-96.922
X-15.824 Y-95.777
X-13.676 Y-94.62
X-11.559 Y-93.452
X-9.471 Y-92.272
X-7.414 Y-91.081
X-5.387 Y-89.878
X-3.39 Y-88.664
X-1.424 Y-87.439
X0.513 Y-86.202
X2.419 Y-84.954
X4.294 Y-83.695
X6.14 Y-82.424
X7.956 Y-81.143
X9.742 Y-79.85
X11.498 Y-78.547
X13.224 Y-77.232
X14.92 Y-75.907
X16.587 Y-74.571
X18.225 Y-73.225
X19.833 Y-71.869
X21.413 Y-70.502
X22.963 Y-69.125
X24.485 Y-67.737
X25.979 Y-66.341
X27.445 Y-64.934
X28.884 Y-63.518
X30.294 Y-62.092
X31.678 Y-60.658
X33.035 Y-59.214
X34.365 Y-57.762
X35.669 Y-56.301
X36.947 Y-54.831
X38.2 Y-53.354
X39.428 Y-51.868
X40.631 Y-50.375
X41.809 Y-48.874
X42.964 Y-47.366
X44.095 Y-45.85
X45.203 Y-44.328
X46.289 Y-42.799
X47.352 Y-41.263
X48.393 Y-39.721
X49.413 Y-38.173
X50.411 Y-36.619
X51.39 Y-35.06
X52.348 Y-33.495
X53.286 Y-31.925
X54.206 Y-30.35
X55.106 Y-28.769
X55.989 Y-27.185
X56.853 Y-25.595
X57.7 Y-24.002
X58.531 Y-22.404
X59.345 Y-20.803
X60.143 Y-19.197
X60.926 Y-17.588
X61.694 Y-15.976
X62.447 Y-14.36
X63.187 Y-12.74
X63.913 Y-11.118
X64.626 Y-9.493
X65.327 Y-7.865
X66.016 Y-6.235
X66.693 Y-4.602
X67.359 Y-2.966
X67.705 Y-2.102
Z-16 F333.3
X68.015 Y-1.328 F1000
X68.66 Y0.312
X69.295 Y1.952
X70.54 Y5.246
X71.751 Y8.545
X72.932 Y11.85
X74.086 Y15.162
X75.215 Y18.479
X76.324 Y21.801
X77.413 Y25.128
X78.487 Y28.459
X79.545 Y31.793
X80.591 Y35.131
X81.626 Y38.472
X82.65 Y41.813
X84.673 Y48.507
X86.666 Y55.207
X88.628 Y61.895
X88.878 Y62.804
X89.095 Y63.702
X89.285 Y64.606
X89.446 Y65.514
X89.579 Y66.428
X89.685 Y67.345
X89.762 Y68.265
X89.81 Y69.187
X89.831 Y70.111
X89.822 Y71.036
X89.786 Y71.96
X89.72 Y72.882
X89.627 Y73.8
X89.505 Y74.715
X89.356 Y75.626
X89.178 Y76.532
X88.973 Y77.432
X88.739 Y78.326
X88.479 Y79.213
X88.19 Y80.092
X87.876 Y80.96
X87.535 Y81.818
X87.168 Y82.664
X86.775 Y83.498
X86.357 Y84.319
X85.915 Y85.127
X85.447 Y85.92
X84.956 Y86.7
X84.44 Y87.464
X83.901 Y88.213
X83.338 Y88.945
X82.741 Y89.676
G3 X39.831 Y111.651 I-47.741 J-40.337
G1 X-78.647 Y120.837
G3 X-97.5 Y103.389 I-1.352 J-17.448
G1 Y-103.389
G3 X-78.908 Y-120.856 I17.5 J0
G1 X-76.283 Y-120.065
X-73.427 Y-119.186
X-70.601 Y-118.295
X-67.803 Y-117.393
X-65.035 Y-116.48
X-62.295 Y-115.554
X-59.585 Y-114.617
X-56.903 Y-113.669
X-54.251 Y-112.708
X-51.628 Y-111.738
X-49.034 Y-110.755
X-46.469 Y-109.76
X-43.934 Y-108.754
X-41.428 Y-107.736
X-38.952 Y-106.707
X-36.505 Y-105.667
X-34.088 Y-104.614
X-31.7 Y-103.55
X-29.343 Y-102.474
X-27.014 Y-101.387
X-24.716 Y-100.288
X-22.449 Y-99.178
X-20.21 Y-98.055
X-18.002 Y-96.922
X-15.824 Y-95.777
X-13.676 Y-94.62
X-11.559 Y-93.452
X-9.471 Y-92.272
X-7.414 Y-91.081
X-5.387 Y-89.878
X-3.39 Y-88.664
X-1.424 Y-87.439
X0.513 Y-86.202
X2.419 Y-84.954
X4.294 Y-83.695
X6.14 Y-82.424
X7.956 Y-81.143
X9.742 Y-79.85
X11.498 Y-78.547
X13.224 Y-77.232
X14.92 Y-75.907
X16.587 Y-74.571
X18.225 Y-73.225
X19.833 Y-71.869
X21.413 Y-70.502
X22.963 Y-69.125
X24.485 Y-67.737
X25.979 Y-66.341
X27.445 Y-64.934
X28.884 Y-63.518
X30.294 Y-62.092
X31.678 Y-60.658
X33.035 Y-59.214
X34.365 Y-57.762
X35.669 Y-56.301
X36.947 Y-54.831
X38.2 Y-53.354
X39.428 Y-51.868
X40.631 Y-50.375
X41.809 Y-48.874
X42.964 Y-47.366
X44.095 Y-45.85
X45.203 Y-44.328
X46.289 Y-42.799
X47.352 Y-41.263
X48.393 Y-39.721
X49.413 Y-38.173
X50.411 Y-36.619
X51.39 Y-35.06
X52.348 Y-33.495
X53.286 Y-31.925
X54.206 Y-30.35
X55.106 Y-28.769
X55.989 Y-27.185
X56.853 Y-25.595
X57.7 Y-24.002
X58.531 Y-22.404
X59.345 Y-20.803
X60.143 Y-19.197
X60.926 Y-17.588
X61.694 Y-15.976
X62.447 Y-14.36
X63.187 Y-12.74
X63.913 Y-11.118
X64.626 Y-9.493
X65.327 Y-7.865
X66.016 Y-6.235
X66.693 Y-4.602
X67.359 Y-2.966
X67.705 Y-2.102
Z-18 F333.3
X68.015 Y-1.328 F1000
X68.66 Y0.312
X69.295 Y1.952
X70.54 Y5.246
X71.751 Y8.545
X72.932 Y11.85
X74.086 Y15.162
X75.215 Y18.479
X76.324 Y21.801
X77.413 Y25.128
X78.487 Y28.459
X79.545 Y31.793
X80.591 Y35.131
X81.626 Y38.472
X82.65 Y41.813
X84.673 Y48.507
X86.666 Y55.207
X88.628 Y61.895
X88.878 Y62.804
X89.095 Y63.702
X89.285 Y64.606
X89.446 Y65.514
X89.579 Y66.428
X89.685 Y67.345
X89.762 Y68.265
X89.81 Y69.187
X89.831 Y70.111
X89.822 Y71.036
X89.786 Y71.96
X89.72 Y72.882
X89.627 Y73.8
X89.505 Y74.715
X89.356 Y75.626
X89.178 Y76.532
X88.973 Y77.432
X88.739 Y78.326
X88.479 Y79.213
X88.19 Y80.092
X87.876 Y80.96
X87.535 Y81.818
X87.168 Y82.664
X86.775 Y83.498
X86.357 Y84.319
X85.915 Y85.127
X85.447 Y85.92
X84.956 Y86.7
X84.44 Y87.464
X83.901 Y88.213
X83.338 Y88.945
X82.741 Y89.676
G3 X39.831 Y111.651 I-47.741 J-40.337
G1 X-78.647 Y120.837
G3 X-97.5 Y103.389 I-1.352 J-17.448
G1 Y-103.389
G3 X-78.908 Y-120.856 I17.5 J0
G1 X-76.283 Y-120.065
X-73.427 Y-119.186
X-70.601 Y-118.295
X-67.803 Y-117.393
X-65.035 Y-116.48
X-62.295 Y-115.554
X-59.585 Y-114.617
X-56.903 Y-113.669
X-54.251 Y-112.708
X-51.628 Y-111.738
X-49.034 Y-110.755
X-46.469 Y-109.76
X-43.934 Y-108.754
X-41.428 Y-107.736
X-38.952 Y-106.707
X-36.505 Y-105.667
X-34.088 Y-104.614
X-31.7 Y-103.55
X-29.343 Y-102.474
X-27.014 Y-101.387
X-24.716 Y-100.288
X-22.449 Y-99.178
X-20.21 Y-98.055
X-18.002 Y-96.922
X-15.824 Y-95.777
X-13.676 Y-94.62
X-11.559 Y-93.452
X-9.471 Y-92.272
X-7.414 Y-91.081
X-5.387 Y-89.878
X-3.39 Y-88.664
X-1.424 Y-87.439
X0.513 Y-86.202
X2.419 Y-84.954
X4.294 Y-83.695
X6.14 Y-82.424
X7.956 Y-81.143
X9.742 Y-79.85
X11.498 Y-78.547
X13.224 Y-77.232
X14.92 Y-75.907
X16.587 Y-74.571
X18.225 Y-73.225
X19.833 Y-71.869
X21.413 Y-70.502
X22.963 Y-69.125
X24.485 Y-67.737
X25.979 Y-66.341
X27.445 Y-64.934
X28.884 Y-63.518
X30.294 Y-62.092
X31.678 Y-60.658
X33.035 Y-59.214
X34.365 Y-57.762
X35.669 Y-56.301
X36.947 Y-54.831
X38.2 Y-53.354
X39.428 Y-51.868
X40.631 Y-50.375
X41.809 Y-48.874
X42.964 Y-47.366
X44.095 Y-45.85
X45.203 Y-44.328
X46.289 Y-42.799
X47.352 Y-41.263
X48.393 Y-39.721
X49.413 Y-38.173
X50.411 Y-36.619
X51.39 Y-35.06
X52.348 Y-33.495
X53.286 Y-31.925
X54.206 Y-30.35
X55.106 Y-28.769
X55.989 Y-27.185
X56.853 Y-25.595
X57.7 Y-24.002
X58.531 Y-22.404
X59.345 Y-20.803
X60.143 Y-19.197
X60.926 Y-17.588
X61.694 Y-15.976
X62.447 Y-14.36
X63.187 Y-12.74
X63.913 Y-11.118
X64.626 Y-9.493
X65.327 Y-7.865
X66.016 Y-6.235
X66.693 Y-4.602
X67.359 Y-2.966
X67.705 Y-2.102
G0 Z15
M9
M5
M30
