(CamperGastkastenMuelleimerBoden)
(T4  D=5 CR=0 - ZMIN=-9 - flat end mill)
G90 G94
G17
G21

(2D Pocket10)
T4
S5000 M3
G54
M8
G0 X117.2 Y57.292
Z15
Z5
G1 Z2.974 F333.3
X117.189 Y57.313 Z2.821
X117.155 Y57.375 Z2.682
X117.098 Y57.468 Z2.572
X117.02 Y57.582 Z2.5
G3 X113.178 Y54.79 Z0 I-1.921 J-1.396
X117.02 Y57.582 Z-2.5 I1.921 J1.396
X112.724 Y56.186 Z-4.5 I-1.921 J-1.396
G1 Y30.124 F1000
G3 X113.043 Y29.805 I0.319 J0
G1 X115.795
G3 X116.114 Y30.124 I0 J0.319
G1 Y57.561
G3 X115.795 Y57.881 I-0.319 J0
G1 X113.043
G3 X112.724 Y57.561 I0 J-0.319
G1 Y56.186
G2 X111.274 Y54.011 I-2.356 J0
G3 X109.824 Y51.836 I0.906 J-2.175
G1 Y27.224
G3 X110.143 Y26.905 I0.319 J0
G1 X118.695
G3 X119.014 Y27.224 I0 J0.319
G1 Y60.461
G3 X118.695 Y60.781 I-0.319 J0
G1 X110.143
G3 X109.824 Y60.461 I0 J-0.319
G1 Y51.836
G2 X108.371 Y49.657 I-2.36 J0
G3 X106.919 Y47.478 I0.908 J-2.179
G1 Y24
X121.919
Y63.686
X106.919
Y47.478
G3 X111.669 Y47.478 Z-5.874 I2.375 J0 F333.3
X111.431 Y48.515 Z-6.071 I-2.375 J0
G1 X108.212 Y55.149 Z-7.429
G2 X112.486 Y57.222 Z-8.802 I2.137 J1.037
X112.724 Y56.186 Z-9 I-2.137 J-1.037
G1 Y30.124 F1000
G3 X113.043 Y29.805 I0.319 J0
G1 X115.795
G3 X116.114 Y30.124 I0 J0.319
G1 Y57.561
G3 X115.795 Y57.881 I-0.319 J0
G1 X113.043
G3 X112.724 Y57.561 I0 J-0.319
G1 Y56.186
G2 X111.274 Y54.011 I-2.356 J0
G3 X109.824 Y51.836 I0.906 J-2.175
G1 Y27.224
G3 X110.143 Y26.905 I0.319 J0
G1 X118.695
G3 X119.014 Y27.224 I0 J0.319
G1 Y60.461
G3 X118.695 Y60.781 I-0.319 J0
G1 X110.143
G3 X109.824 Y60.461 I0 J-0.319
G1 Y51.836
G2 X108.371 Y49.657 I-2.36 J0
G3 X106.919 Y47.478 I0.908 J-2.179
G1 Y24
X121.919
Y63.686
X106.919
Y47.478
X106.923 Y47.414 Z-8.987
X106.935 Y47.352 Z-8.975
X106.955 Y47.291 Z-8.962
X106.991 Y47.219 Z-8.908
X107.039 Y47.153 Z-8.854
X107.076 Y47.114 Z-8.772
X107.118 Y47.079 Z-8.691
X107.149 Y47.057 Z-8.5
G0 Z15

(2D Contour11)
X-0.5 Y151.395
Z15
Z5
G1 Z-4.5 F333.3
G19 G2 Y150.895 Z-5 J-0.5 K0 F1000
G1 Y150.395
G17 G3 X0 Y149.895 I0.5 J0
G1 X228.838
G2 X231.338 Y147.395 I0 J-2.5
G1 Y0
G2 X228.838 Y-2.5 I-2.5 J0
G1 X0
G2 X-2.5 Y0 I0 J2.5
G1 Y147.395
G2 X0 Y149.895 I2.5 J0
G3 X0.5 Y150.395 I0 J0.5
G1 Y150.895
G19 G3 Y151.395 Z-4.5 J0 K0.5
G0 Z5
X-0.5
G1 Z0 F333.3
Z-8.5
G2 Y150.895 Z-9 J-0.5 K0 F1000
G1 Y150.395
G17 G3 X0 Y149.895 I0.5 J0
G1 X228.838
G2 X231.338 Y147.395 I0 J-2.5
G1 Y0
G2 X228.838 Y-2.5 I-2.5 J0
G1 X0
G2 X-2.5 Y0 I0 J2.5
G1 Y147.395
G2 X0 Y149.895 I2.5 J0
G3 X0.5 Y150.395 I0 J0.5
G1 Y150.895
G19 G3 Y151.395 Z-8.5 J0 K0.5
G0 Z15
G17
M9
M5
M30
