(CamperSchubladeKuechenzeileBoden)
(T1  D=5 CR=0 - ZMIN=-12.5 - flat end mill)
G90 G94
G17
G21
G28 G91 Z0
G90

(2D Pocket1 2)
T1
S5000 M3
G54
M8
G0 X-1.076 Y-2.118
Z15
Z5
G1 Z1 F333.3
Z-6.25 F1000
X-1.091 Y-2.105
G2 X-2.104 Y-1.092 I13.591 J14.605
G3 X-3.359 Y-1.596 I-0.531 J-0.494
G1 X-3.355 Y-1.918
G3 X-2.632 Y-2.633 I0.725 J0.011
G1 X-1.585 Y-2.635
X-1.51 Y-2.639
X-1.436 Y-2.651
X3.703 Y-3.739
G3 X4.205 Y-2.396 I0.15 J0.709
G2 X-2.398 Y4.209 I8.295 J14.896
G1 X-2.408 Y4.226
G0 Z5
X-2.118 Y435.676
G1 Z1 F333.3
Z-6.25 F1000
X-2.105 Y435.691
G2 X-1.092 Y436.704 I14.605 J-13.591
G3 X-1.596 Y437.959 I-0.494 J0.531
G1 X-1.918 Y437.955
G3 X-2.633 Y437.232 I0.011 J-0.725
G1 X-2.635 Y436.185
X-2.639 Y436.11
X-2.651 Y436.036
X-3.739 Y430.897
G3 X-2.396 Y430.395 I0.709 J-0.15
G2 X4.209 Y436.998 I14.896 J-8.295
G1 X4.226 Y437.008
G0 Z5
X501.076 Y436.718
G1 Z1 F333.3
Z-6.25 F1000
X501.091 Y436.705
G2 X502.104 Y435.692 I-13.591 J-14.605
G3 X503.359 Y436.196 I0.531 J0.494
G1 X503.355 Y436.518
G3 X502.632 Y437.233 I-0.725 J-0.011
G1 X501.585 Y437.235
X501.51 Y437.239
X501.436 Y437.251
X496.297 Y438.339
G3 X495.795 Y436.996 I-0.15 J-0.709
G2 X502.398 Y430.391 I-8.295 J-14.896
G1 X502.408 Y430.374
G0 Z5
X502.118 Y-1.076
G1 Z1 F333.3
Z-6.25 F1000
X502.105 Y-1.091
G2 X501.092 Y-2.104 I-14.605 J13.591
G3 X501.596 Y-3.359 I0.494 J-0.531
G1 X501.918 Y-3.355
G3 X502.633 Y-2.632 I-0.011 J0.725
G1 X502.635 Y-1.585
X502.639 Y-1.51
X502.651 Y-1.436
X503.739 Y3.703
G3 X502.396 Y4.205 I-0.709 J0.15
G2 X495.791 Y-2.398 I-14.896 J8.295
X493.014 Y-2.093 I-1.174 J2.109
G3 X490.317 Y-1.367 I-2.075 J-2.335
G2 X487.5 Y-1.65 I-2.817 J13.867
G1 X12.5
G2 X-1.65 Y12.5 I0 J14.15
G1 Y422.1
G2 X12.5 Y436.25 I14.15 J0
G1 X487.5
G2 X501.65 Y422.1 I0 J-14.15
G1 Y12.5
G2 X490.317 Y-1.367 I-14.15 J0
X487.795 Y-0.182 I-0.465 J2.287
G3 X485.405 Y1.25 I-2.391 J-1.28
G1 X12.5
G2 X1.25 Y12.5 I0 J11.25
G1 Y422.1
G2 X12.5 Y433.35 I11.25 J0
G1 X487.5
G2 X498.75 Y422.1 I0 J-11.25
G1 Y12.5
G2 X487.5 Y1.25 I-11.25 J0
G1 X485.405
G2 X483.23 Y2.7 I0 J2.356
G3 X481.055 Y4.15 I-2.175 J-0.906
G1 X12.5
G2 X4.15 Y12.5 I0 J8.35
G1 Y422.1
G2 X12.5 Y430.45 I8.35 J0
G1 X487.5
G2 X495.85 Y422.1 I0 J-8.35
G1 Y12.5
G2 X487.5 Y4.15 I-8.35 J0
G1 X481.055
G2 X478.88 Y5.6 I0 J2.356
G3 X476.705 Y7.05 I-2.175 J-0.906
G1 X12.5
G2 X7.05 Y12.5 I0 J5.45
G1 Y422.1
G2 X12.5 Y427.55 I5.45 J0
G1 X487.5
G2 X492.95 Y422.1 I0 J-5.45
G1 Y12.5
G2 X487.5 Y7.05 I-5.45 J0
G1 X476.705
G2 X474.492 Y8.525 I0 J2.397
G3 X472.28 Y10 I-2.212 J-0.922
G1 X12.5
G2 X10 Y12.5 I0 J2.5
G1 Y422.1
G2 X12.5 Y424.6 I2.5 J0
G1 X487.5
G2 X490 Y422.1 I0 J-2.5
G1 Y12.5
G2 X487.5 Y10 I-2.5 J0
G1 X472.28
G0 Z15

(2D Contour1 2)
X-3 Y217.8
Z15
Z5
G1 Z-4.5 F333.3
G19 G2 Y217.3 Z-5 J-0.5 K0 F1000
G1 Y216.8
G17 G3 X-2.5 Y217.3 I0 J0.5
G1 Y434.6
G2 X0 Y437.1 I2.5 J0
G1 X500
G2 X502.5 Y434.6 I0 J-2.5
G1 Y0
G2 X500 Y-2.5 I-2.5 J0
G1 X0
G2 X-2.5 Y0 I0 J2.5
G1 Y217.3
X-3 Y217.8
Z-9.5 F333.3
G19 G2 Y217.3 Z-10 J-0.5 K0 F1000
G1 Y216.8
G17 G3 X-2.5 Y217.3 I0 J0.5
G1 Y434.6
G2 X0 Y437.1 I2.5 J0
G1 X500
G2 X502.5 Y434.6 I0 J-2.5
G1 Y0
G2 X500 Y-2.5 I-2.5 J0
G1 X0
G2 X-2.5 Y0 I0 J2.5
G1 Y217.3
X-3 Y217.8
Z-12 F333.3
G19 G2 Y217.3 Z-12.5 J-0.5 K0 F1000
G1 Y216.8
G17 G3 X-2.5 Y217.3 I0 J0.5
G1 Y434.6
G2 X0 Y437.1 I2.5 J0
G1 X500
G2 X502.5 Y434.6 I0 J-2.5
G1 Y0
G2 X500 Y-2.5 I-2.5 J0
G1 X0
G2 X-2.5 Y0 I0 J2.5
G1 Y217.3
G0 Z15
M9
G28 G91 Z0
G90
G28 G91 X0 Y0
G90
M5
M30
