(CamperRohrhalterBoden)
(T4 D=5 CR=0 - ZMIN=-20 - flat end mill)
G90 G94
G17
G21
(-Attention- Property Safe Retracts is set to Clearance Height.)
(Ensure the clearance height will clear the part and or fixtures.)
(Raise the Z-axis to a safe height before starting the program.)

(2D Contour1)
T4
S5000 M3
G17 G90 G94
G54
M8
G0 X113.856 Y32.96
Z15
G0 Z5
G1 Z4 F333.3
Z-3
G2 X113.259 Y31.183 I-4.471 J0.513 F1000
X101.561 Y16.56 I-57.26 J33.816
G3 X85.422 Y-0.598 I131.888 J-140.221
G2 X83.5 Y-1.5 I-1.922 J1.598
G1 X28.5
G2 X26.578 Y-0.598 I0 J2.5
G3 X10.439 Y16.56 I-148.027 J-123.062
G2 X-0.847 Y30.494 I45.561 J48.44
X-1.5 Y32.829 I3.847 J2.335
G1 Y44.024
G2 X7.184 Y45.68 I4.5 J0
G3 X104.973 Y46.081 I48.816 J19.32
G2 X109.169 Y48.96 I4.198 J-1.621
G1 X109.212
G2 X113.712 Y44.531 I0 J-4.5
G1 X113.885 Y33.543
G2 X113.856 Y32.96 I-4.5 J-0.07
G1 Z-6 F333.3
G2 X113.259 Y31.183 I-4.471 J0.513 F1000
X101.561 Y16.56 I-57.26 J33.816
G3 X85.422 Y-0.598 I131.888 J-140.221
G2 X83.5 Y-1.5 I-1.922 J1.598
G1 X28.5
G2 X26.578 Y-0.598 I0 J2.5
G3 X10.439 Y16.56 I-148.027 J-123.062
G2 X-0.847 Y30.494 I45.561 J48.44
X-1.5 Y32.829 I3.847 J2.335
G1 Y44.024
G2 X7.184 Y45.68 I4.5 J0
G3 X104.973 Y46.081 I48.816 J19.32
G2 X109.169 Y48.96 I4.198 J-1.621
G1 X109.212
G2 X113.712 Y44.531 I0 J-4.5
G1 X113.885 Y33.543
G2 X113.856 Y32.96 I-4.5 J-0.07
G1 Z-9 F333.3
G2 X113.259 Y31.183 I-4.471 J0.513 F1000
X101.561 Y16.56 I-57.26 J33.816
G3 X85.422 Y-0.598 I131.888 J-140.221
G2 X83.5 Y-1.5 I-1.922 J1.598
G1 X28.5
G2 X26.578 Y-0.598 I0 J2.5
G3 X10.439 Y16.56 I-148.027 J-123.062
G2 X-0.847 Y30.494 I45.561 J48.44
X-1.5 Y32.829 I3.847 J2.335
G1 Y44.024
G2 X7.184 Y45.68 I4.5 J0
G3 X104.973 Y46.081 I48.816 J19.32
G2 X109.169 Y48.96 I4.198 J-1.621
G1 X109.212
G2 X113.712 Y44.531 I0 J-4.5
G1 X113.885 Y33.543
G2 X113.856 Y32.96 I-4.5 J-0.07
G1 Z-12 F333.3
G2 X113.259 Y31.183 I-4.471 J0.513 F1000
X101.561 Y16.56 I-57.26 J33.816
G3 X85.422 Y-0.598 I131.888 J-140.221
G2 X83.5 Y-1.5 I-1.922 J1.598
G1 X28.5
G2 X26.578 Y-0.598 I0 J2.5
G3 X10.439 Y16.56 I-148.027 J-123.062
G2 X-0.847 Y30.494 I45.561 J48.44
X-1.5 Y32.829 I3.847 J2.335
G1 Y44.024
G2 X7.184 Y45.68 I4.5 J0
G3 X104.973 Y46.081 I48.816 J19.32
G2 X109.169 Y48.96 I4.198 J-1.621
G1 X109.212
G2 X113.712 Y44.531 I0 J-4.5
G1 X113.885 Y33.543
G2 X113.856 Y32.96 I-4.5 J-0.07
G1 Z-15 F333.3
G2 X113.259 Y31.183 I-4.471 J0.513 F1000
X101.561 Y16.56 I-57.26 J33.816
G3 X85.422 Y-0.598 I131.888 J-140.221
G2 X83.5 Y-1.5 I-1.922 J1.598
G1 X28.5
G2 X26.578 Y-0.598 I0 J2.5
G3 X10.439 Y16.56 I-148.027 J-123.062
G2 X-0.847 Y30.494 I45.561 J48.44
X-1.5 Y32.829 I3.847 J2.335
G1 Y44.024
G2 X7.184 Y45.68 I4.5 J0
G3 X104.973 Y46.081 I48.816 J19.32
G2 X109.169 Y48.96 I4.198 J-1.621
G1 X109.212
G2 X113.712 Y44.531 I0 J-4.5
G1 X113.885 Y33.543
G2 X113.856 Y32.96 I-4.5 J-0.07
G1 Z-18 F333.3
G2 X113.259 Y31.183 I-4.471 J0.513 F1000
X101.561 Y16.56 I-57.26 J33.816
G3 X85.422 Y-0.598 I131.888 J-140.221
G2 X83.5 Y-1.5 I-1.922 J1.598
G1 X28.5
G2 X26.578 Y-0.598 I0 J2.5
G3 X10.439 Y16.56 I-148.027 J-123.062
G2 X-0.847 Y30.494 I45.561 J48.44
X-1.5 Y32.829 I3.847 J2.335
G1 Y44.024
G2 X7.184 Y45.68 I4.5 J0
G3 X104.973 Y46.081 I48.816 J19.32
G2 X109.169 Y48.96 I4.198 J-1.621
G1 X109.212
G2 X113.712 Y44.531 I0 J-4.5
G1 X113.885 Y33.543
G2 X113.856 Y32.96 I-4.5 J-0.07
G1 Z-20 F333.3
G2 X113.259 Y31.183 I-4.471 J0.513 F1000
X101.561 Y16.56 I-57.26 J33.816
G3 X85.422 Y-0.598 I131.888 J-140.221
G2 X83.5 Y-1.5 I-1.922 J1.598
G1 X28.5
G2 X26.578 Y-0.598 I0 J2.5
G3 X10.439 Y16.56 I-148.027 J-123.062
G2 X-0.847 Y30.494 I45.561 J48.44
X-1.5 Y32.829 I3.847 J2.335
G1 Y44.024
G2 X7.184 Y45.68 I4.5 J0
G3 X104.973 Y46.081 I48.816 J19.32
G2 X109.169 Y48.96 I4.198 J-1.621
G1 X109.212
G2 X113.712 Y44.531 I0 J-4.5
G1 X113.885 Y33.543
G2 X113.856 Y32.96 I-4.5 J-0.07
G0 Z15
M9
M5
M30
