(CamperSpuelenContourInnen)
(T3  D=3 CR=0 - ZMIN=-28 - flat end mill)
G90 G94
G17
G21

(2D Contour1)
T3
S5000 M3
G54
M8
G0 X-80 Y212.5
Z15
Z5
G1 Z3 F333.3
Z-2
X86 F1000
G2 X97.5 Y201 I0 J-11.5
G1 Y-201
G2 X86 Y-212.5 I-11.5 J0
G1 X-246
G2 X-257.5 Y-201 I0 J11.5
G1 Y201
G2 X-246 Y212.5 I11.5 J0
G1 X-80
Z-4 F333.3
X86 F1000
G2 X97.5 Y201 I0 J-11.5
G1 Y-201
G2 X86 Y-212.5 I-11.5 J0
G1 X-246
G2 X-257.5 Y-201 I0 J11.5
G1 Y201
G2 X-246 Y212.5 I11.5 J0
G1 X-80
Z-6 F333.3
X86 F1000
G2 X97.5 Y201 I0 J-11.5
G1 Y-201
G2 X86 Y-212.5 I-11.5 J0
G1 X-246
G2 X-257.5 Y-201 I0 J11.5
G1 Y201
G2 X-246 Y212.5 I11.5 J0
G1 X-80
Z-8 F333.3
X86 F1000
G2 X97.5 Y201 I0 J-11.5
G1 Y-201
G2 X86 Y-212.5 I-11.5 J0
G1 X-246
G2 X-257.5 Y-201 I0 J11.5
G1 Y201
G2 X-246 Y212.5 I11.5 J0
G1 X-80
Z-10 F333.3
X86 F1000
G2 X97.5 Y201 I0 J-11.5
G1 Y-201
G2 X86 Y-212.5 I-11.5 J0
G1 X-246
G2 X-257.5 Y-201 I0 J11.5
G1 Y201
G2 X-246 Y212.5 I11.5 J0
G1 X-80
Z-12 F333.3
X86 F1000
G2 X97.5 Y201 I0 J-11.5
G1 Y-201
G2 X86 Y-212.5 I-11.5 J0
G1 X-246
G2 X-257.5 Y-201 I0 J11.5
G1 Y201
G2 X-246 Y212.5 I11.5 J0
G1 X-80
Z-14 F333.3
X86 F1000
G2 X97.5 Y201 I0 J-11.5
G1 Y-201
G2 X86 Y-212.5 I-11.5 J0
G1 X-246
G2 X-257.5 Y-201 I0 J11.5
G1 Y201
G2 X-246 Y212.5 I11.5 J0
G1 X-80
Z-16 F333.3
X86 F1000
G2 X97.5 Y201 I0 J-11.5
G1 Y-201
G2 X86 Y-212.5 I-11.5 J0
G1 X-246
G2 X-257.5 Y-201 I0 J11.5
G1 Y201
G2 X-246 Y212.5 I11.5 J0
G1 X-80
Z-18 F333.3
X86 F1000
G2 X97.5 Y201 I0 J-11.5
G1 Y-201
G2 X86 Y-212.5 I-11.5 J0
G1 X-246
G2 X-257.5 Y-201 I0 J11.5
G1 Y201
G2 X-246 Y212.5 I11.5 J0
G1 X-80
Z-20 F333.3
X86 F1000
G2 X97.5 Y201 I0 J-11.5
G1 Y-201
G2 X86 Y-212.5 I-11.5 J0
G1 X-246
G2 X-257.5 Y-201 I0 J11.5
G1 Y201
G2 X-246 Y212.5 I11.5 J0
G1 X-80
Z-22 F333.3
X86 F1000
G2 X97.5 Y201 I0 J-11.5
G1 Y-201
G2 X86 Y-212.5 I-11.5 J0
G1 X-246
G2 X-257.5 Y-201 I0 J11.5
G1 Y201
G2 X-246 Y212.5 I11.5 J0
G1 X-80
Z-24 F333.3
X86 F1000
G2 X97.5 Y201 I0 J-11.5
G1 Y-201
G2 X86 Y-212.5 I-11.5 J0
G1 X-246
G2 X-257.5 Y-201 I0 J11.5
G1 Y201
G2 X-246 Y212.5 I11.5 J0
G1 X-80
Z-26 F333.3
X86 F1000
G2 X97.5 Y201 I0 J-11.5
G1 Y-201
G2 X86 Y-212.5 I-11.5 J0
G1 X-246
G2 X-257.5 Y-201 I0 J11.5
G1 Y201
G2 X-246 Y212.5 I11.5 J0
G1 X-80
Z-28 F333.3
X86 F1000
G2 X97.5 Y201 I0 J-11.5
G1 Y-201
G2 X86 Y-212.5 I-11.5 J0
G1 X-246
G2 X-257.5 Y-201 I0 J11.5
G1 Y201
G2 X-246 Y212.5 I11.5 J0
G1 X-80
G0 Z15
M9
M5
M30
