(CamperGetrankehalterVorneOben)
(T4 D=5 CR=0 - ZMIN=-20 - flat end mill)
G90 G94
G17
G21
(-Attention- Property Safe Retracts is set to Clearance Height.)
(Ensure the clearance height will clear the part and or fixtures.)
(Raise the Z-axis to a safe height before starting the program.)

(2D Contour1)
T4
S5000 M3
G17 G90 G94
G54
M8
G0 X102.304 Y107.09
Z15
G0 Z5
G1 Z4 F333.3
Z-3
G2 X104.243 Y137.072 I17.686 J13.91 F1000
G3 X104.243 Y204.928 I-33.243 J33.928
G2 X104.243 Y237.072 I15.747 J16.072
G3 X37.757 Y304.928 I-33.243 J33.928
X37.757 Y237.072 I33.243 J-33.928
G2 X37.757 Y204.928 I-15.747 J-16.072
G3 X37.757 Y137.072 I33.243 J-33.928
G2 X37.757 Y104.928 I-15.747 J-16.072
G3 X104.243 Y37.072 I33.243 J-33.928
X104.243 Y104.928 I-33.243 J33.928
G2 X102.304 Y107.09 I15.747 J16.072
G1 Z-6 F333.3
G2 X104.243 Y137.072 I17.686 J13.91 F1000
G3 X104.243 Y204.928 I-33.243 J33.928
G2 X104.243 Y237.072 I15.747 J16.072
G3 X37.757 Y304.928 I-33.243 J33.928
X37.757 Y237.072 I33.243 J-33.928
G2 X37.757 Y204.928 I-15.747 J-16.072
G3 X37.757 Y137.072 I33.243 J-33.928
G2 X37.757 Y104.928 I-15.747 J-16.072
G3 X104.243 Y37.072 I33.243 J-33.928
X104.243 Y104.928 I-33.243 J33.928
G2 X102.304 Y107.09 I15.747 J16.072
G1 Z-9 F333.3
G2 X104.243 Y137.072 I17.686 J13.91 F1000
G3 X104.243 Y204.928 I-33.243 J33.928
G2 X104.243 Y237.072 I15.747 J16.072
G3 X37.757 Y304.928 I-33.243 J33.928
X37.757 Y237.072 I33.243 J-33.928
G2 X37.757 Y204.928 I-15.747 J-16.072
G3 X37.757 Y137.072 I33.243 J-33.928
G2 X37.757 Y104.928 I-15.747 J-16.072
G3 X104.243 Y37.072 I33.243 J-33.928
X104.243 Y104.928 I-33.243 J33.928
G2 X102.304 Y107.09 I15.747 J16.072
G1 Z-12 F333.3
G2 X104.243 Y137.072 I17.686 J13.91 F1000
G3 X104.243 Y204.928 I-33.243 J33.928
G2 X104.243 Y237.072 I15.747 J16.072
G3 X37.757 Y304.928 I-33.243 J33.928
X37.757 Y237.072 I33.243 J-33.928
G2 X37.757 Y204.928 I-15.747 J-16.072
G3 X37.757 Y137.072 I33.243 J-33.928
G2 X37.757 Y104.928 I-15.747 J-16.072
G3 X104.243 Y37.072 I33.243 J-33.928
X104.243 Y104.928 I-33.243 J33.928
G2 X102.304 Y107.09 I15.747 J16.072
G1 Z-15 F333.3
G2 X104.243 Y137.072 I17.686 J13.91 F1000
G3 X104.243 Y204.928 I-33.243 J33.928
G2 X104.243 Y237.072 I15.747 J16.072
G3 X37.757 Y304.928 I-33.243 J33.928
X37.757 Y237.072 I33.243 J-33.928
G2 X37.757 Y204.928 I-15.747 J-16.072
G3 X37.757 Y137.072 I33.243 J-33.928
G2 X37.757 Y104.928 I-15.747 J-16.072
G3 X104.243 Y37.072 I33.243 J-33.928
X104.243 Y104.928 I-33.243 J33.928
G2 X102.304 Y107.09 I15.747 J16.072
G1 Z-18 F333.3
G2 X104.243 Y137.072 I17.686 J13.91 F1000
G3 X104.243 Y204.928 I-33.243 J33.928
G2 X104.243 Y237.072 I15.747 J16.072
G3 X37.757 Y304.928 I-33.243 J33.928
X37.757 Y237.072 I33.243 J-33.928
G2 X37.757 Y204.928 I-15.747 J-16.072
G3 X37.757 Y137.072 I33.243 J-33.928
G2 X37.757 Y104.928 I-15.747 J-16.072
G3 X104.243 Y37.072 I33.243 J-33.928
X104.243 Y104.928 I-33.243 J33.928
G2 X102.304 Y107.09 I15.747 J16.072
G1 Z-20 F333.3
G2 X104.243 Y137.072 I17.686 J13.91 F1000
G3 X104.243 Y204.928 I-33.243 J33.928
G2 X104.243 Y237.072 I15.747 J16.072
G3 X37.757 Y304.928 I-33.243 J33.928
X37.757 Y237.072 I33.243 J-33.928
G2 X37.757 Y204.928 I-15.747 J-16.072
G3 X37.757 Y137.072 I33.243 J-33.928
G2 X37.757 Y104.928 I-15.747 J-16.072
G3 X104.243 Y37.072 I33.243 J-33.928
X104.243 Y104.928 I-33.243 J33.928
G2 X102.304 Y107.09 I15.747 J16.072
G0 Z15

(2D Contour4)
G0 X138.5 Y71
Z15
Z5
G1 Z4 F333.3
Z-3
Y338.5 F1000
X71
G3 X3.5 Y271 I0 J-67.5
G1 Y71
G3 X71 Y3.5 I67.5 J0
G1 X138.5
Y71
Z-6 F333.3
Y338.5 F1000
X71
G3 X3.5 Y271 I0 J-67.5
G1 Y71
G3 X71 Y3.5 I67.5 J0
G1 X138.5
Y71
Z-9 F333.3
Y338.5 F1000
X71
G3 X3.5 Y271 I0 J-67.5
G1 Y71
G3 X71 Y3.5 I67.5 J0
G1 X138.5
Y71
Z-12 F333.3
Y338.5 F1000
X71
G3 X3.5 Y271 I0 J-67.5
G1 Y71
G3 X71 Y3.5 I67.5 J0
G1 X138.5
Y71
Z-14 F333.3
Y338.5 F1000
X71
G3 X3.5 Y271 I0 J-67.5
G1 Y71
G3 X71 Y3.5 I67.5 J0
G1 X138.5
Y71
G0 Z15

(2D Contour2)
G0 X137.5 Y335
Z15
Z5
G1 Z4 F333.3
Z-3
Y7 F1000
G2 X135 Y4.5 I-2.5 J0
G1 X71
G2 X4.5 Y71 I0 J66.5
G1 Y271
G2 X71 Y337.5 I66.5 J0
G1 X135
G2 X137.5 Y335 I0 J-2.5
G1 Z-6 F333.3
Y7 F1000
G2 X135 Y4.5 I-2.5 J0
G1 X71
G2 X4.5 Y71 I0 J66.5
G1 Y271
G2 X71 Y337.5 I66.5 J0
G1 X135
G2 X137.5 Y335 I0 J-2.5
G1 Z-9 F333.3
Y7 F1000
G2 X135 Y4.5 I-2.5 J0
G1 X71
G2 X4.5 Y71 I0 J66.5
G1 Y271
G2 X71 Y337.5 I66.5 J0
G1 X135
G2 X137.5 Y335 I0 J-2.5
G1 Z-12 F333.3
Y7 F1000
G2 X135 Y4.5 I-2.5 J0
G1 X71
G2 X4.5 Y71 I0 J66.5
G1 Y271
G2 X71 Y337.5 I66.5 J0
G1 X135
G2 X137.5 Y335 I0 J-2.5
G1 Z-14 F333.3
Y7 F1000
G2 X135 Y4.5 I-2.5 J0
G1 X71
G2 X4.5 Y71 I0 J66.5
G1 Y271
G2 X71 Y337.5 I66.5 J0
G1 X135
G2 X137.5 Y335 I0 J-2.5
G0 Z15

(2D Contour3)
G0 X143.5 Y341
Z15
Z5
G1 Z4 F333.3
Z-3
Y1 F1000
G2 X141 Y-1.5 I-2.5 J0
G1 X71
G2 X-1.5 Y71 I0 J72.5
G1 Y271
G2 X71 Y343.5 I72.5 J0
G1 X141
G2 X143.5 Y341 I0 J-2.5
G1 Z-6 F333.3
Y1 F1000
G2 X141 Y-1.5 I-2.5 J0
G1 X71
G2 X-1.5 Y71 I0 J72.5
G1 Y271
G2 X71 Y343.5 I72.5 J0
G1 X141
G2 X143.5 Y341 I0 J-2.5
G1 Z-9 F333.3
Y1 F1000
G2 X141 Y-1.5 I-2.5 J0
G1 X71
G2 X-1.5 Y71 I0 J72.5
G1 Y271
G2 X71 Y343.5 I72.5 J0
G1 X141
G2 X143.5 Y341 I0 J-2.5
G1 Z-12 F333.3
Y1 F1000
G2 X141 Y-1.5 I-2.5 J0
G1 X71
G2 X-1.5 Y71 I0 J72.5
G1 Y271
G2 X71 Y343.5 I72.5 J0
G1 X141
G2 X143.5 Y341 I0 J-2.5
G1 Z-15 F333.3
Y1 F1000
G2 X141 Y-1.5 I-2.5 J0
G1 X71
G2 X-1.5 Y71 I0 J72.5
G1 Y271
G2 X71 Y343.5 I72.5 J0
G1 X141
G2 X143.5 Y341 I0 J-2.5
G1 Z-18 F333.3
Y1 F1000
G2 X141 Y-1.5 I-2.5 J0
G1 X71
G2 X-1.5 Y71 I0 J72.5
G1 Y271
G2 X71 Y343.5 I72.5 J0
G1 X141
G2 X143.5 Y341 I0 J-2.5
G1 Z-20 F333.3
Y1 F1000
G2 X141 Y-1.5 I-2.5 J0
G1 X71
G2 X-1.5 Y71 I0 J72.5
G1 Y271
G2 X71 Y343.5 I72.5 J0
G1 X141
G2 X143.5 Y341 I0 J-2.5
G0 Z15
M9
M5
M30
