(CamperGaskastenSeitenwandKlein)
(T4  D=5 CR=0 - ZMIN=-9 - flat end mill)
G90 G94
G17
G21

(2D Contour5)
T4
S5000 M3
G54
M8
G0 X152.5 Y279.919
Z15
Z5
G1 Z-5 F333.3
Y0.081 F1000
G2 X150 Y-2.419 I-2.5 J0
G1 X0
G2 X-2.5 Y0.081 I0 J2.5
G1 Y279.919
G2 X0 Y282.419 I2.5 J0
G1 X150
G2 X152.5 Y279.919 I0 J-2.5
G1 Z-9 F333.3
Y0.081 F1000
G2 X150 Y-2.419 I-2.5 J0
G1 X0
G2 X-2.5 Y0.081 I0 J2.5
G1 Y279.919
G2 X0 Y282.419 I2.5 J0
G1 X150
G2 X152.5 Y279.919 I0 J-2.5
G0 Z15
M9
M5
M30
