(Espress_aussen)
(T4 D=5 CR=0 - ZMIN=-13 - flat end mill)
G90 G94
G17
G21
(-Attention- Property Safe Retracts is set to Clearance Height.)
(Ensure the clearance height will clear the part and or fixtures.)
(Raise the Z-axis to a safe height before starting the program.)

(Bore1)
T4
S5000 M3
G17 G90 G94
G54
M8
G0 X109.671 Y40.787
Z15
G0 Z-3.5
G1 Z-5 F1000
X109.746 Y40.712
X109.774 Y40.718
X109.799 Y40.734
X109.815 Y40.758
X109.821 Y40.787
G3 X109.521 Y40.787 Z-5.093 I-0.15 J0
X109.821 Y40.787 Z-5.185 I0.15 J0
X109.521 Y40.787 Z-5.278 I-0.15 J0
X109.821 Y40.787 Z-5.37 I0.15 J0
X109.521 Y40.787 Z-5.463 I-0.15 J0
X109.821 Y40.787 Z-5.555 I0.15 J0
X109.521 Y40.787 Z-5.648 I-0.15 J0
X109.821 Y40.787 Z-5.74 I0.15 J0
X109.521 Y40.787 Z-5.833 I-0.15 J0
X109.821 Y40.787 Z-5.925 I0.15 J0
X109.521 Y40.787 Z-6.018 I-0.15 J0
X109.821 Y40.787 Z-6.11 I0.15 J0
X109.521 Y40.787 Z-6.203 I-0.15 J0
X109.821 Y40.787 Z-6.296 I0.15 J0
X109.521 Y40.787 Z-6.388 I-0.15 J0
X109.821 Y40.787 Z-6.481 I0.15 J0
X109.521 Y40.787 Z-6.573 I-0.15 J0
X109.821 Y40.787 Z-6.666 I0.15 J0
X109.521 Y40.787 Z-6.758 I-0.15 J0
X109.821 Y40.787 Z-6.851 I0.15 J0
X109.521 Y40.787 Z-6.943 I-0.15 J0
X109.821 Y40.787 Z-7.036 I0.15 J0
X109.521 Y40.787 Z-7.128 I-0.15 J0
X109.821 Y40.787 Z-7.221 I0.15 J0
X109.521 Y40.787 Z-7.314 I-0.15 J0
X109.821 Y40.787 Z-7.406 I0.15 J0
X109.521 Y40.787 Z-7.499 I-0.15 J0
X109.821 Y40.787 Z-7.591 I0.15 J0
X109.521 Y40.787 Z-7.684 I-0.15 J0
X109.821 Y40.787 Z-7.776 I0.15 J0
X109.521 Y40.787 Z-7.869 I-0.15 J0
X109.821 Y40.787 Z-7.961 I0.15 J0
X109.521 Y40.787 Z-8.054 I-0.15 J0
X109.821 Y40.787 Z-8.146 I0.15 J0
X109.521 Y40.787 Z-8.239 I-0.15 J0
X109.821 Y40.787 Z-8.331 I0.15 J0
X109.521 Y40.787 Z-8.424 I-0.15 J0
X109.821 Y40.787 Z-8.517 I0.15 J0
X109.521 Y40.787 Z-8.609 I-0.15 J0
X109.821 Y40.787 Z-8.702 I0.15 J0
X109.521 Y40.787 Z-8.794 I-0.15 J0
X109.821 Y40.787 Z-8.887 I0.15 J0
X109.521 Y40.787 Z-8.979 I-0.15 J0
X109.821 Y40.787 Z-9.072 I0.15 J0
X109.521 Y40.787 Z-9.164 I-0.15 J0
X109.821 Y40.787 Z-9.257 I0.15 J0
X109.521 Y40.787 Z-9.349 I-0.15 J0
X109.821 Y40.787 Z-9.442 I0.15 J0
X109.521 Y40.787 Z-9.534 I-0.15 J0
X109.821 Y40.787 Z-9.627 I0.15 J0
X109.521 Y40.787 Z-9.72 I-0.15 J0
X109.821 Y40.787 Z-9.812 I0.15 J0
X109.521 Y40.787 Z-9.905 I-0.15 J0
X109.821 Y40.787 Z-9.997 I0.15 J0
X109.521 Y40.787 Z-10.09 I-0.15 J0
X109.821 Y40.787 Z-10.182 I0.15 J0
X109.521 Y40.787 Z-10.275 I-0.15 J0
X109.821 Y40.787 Z-10.367 I0.15 J0
X109.521 Y40.787 Z-10.46 I-0.15 J0
X109.821 Y40.787 Z-10.552 I0.15 J0
X109.521 Y40.787 Z-10.645 I-0.15 J0
X109.821 Y40.787 Z-10.737 I0.15 J0
X109.521 Y40.787 Z-10.83 I-0.15 J0
X109.821 Y40.787 Z-10.923 I0.15 J0
X109.521 Y40.787 Z-11.015 I-0.15 J0
X109.821 Y40.787 Z-11.108 I0.15 J0
X109.521 Y40.787 Z-11.2 I-0.15 J0
X109.821 Y40.787 Z-11.293 I0.15 J0
X109.521 Y40.787 Z-11.385 I-0.15 J0
X109.821 Y40.787 Z-11.478 I0.15 J0
X109.521 Y40.787 Z-11.57 I-0.15 J0
X109.821 Y40.787 Z-11.663 I0.15 J0
X109.521 Y40.787 Z-11.755 I-0.15 J0
X109.821 Y40.787 Z-11.848 I0.15 J0
X109.521 Y40.787 Z-11.941 I-0.15 J0
X109.821 Y40.787 Z-12.033 I0.15 J0
X109.521 Y40.787 Z-12.126 I-0.15 J0
X109.821 Y40.787 Z-12.218 I0.15 J0
X109.521 Y40.787 Z-12.311 I-0.15 J0
X109.821 Y40.787 Z-12.403 I0.15 J0
X109.521 Y40.787 Z-12.496 I-0.15 J0
X109.821 Y40.787 Z-12.588 I0.15 J0
X109.521 Y40.787 Z-12.681 I-0.15 J0
X109.821 Y40.787 Z-12.773 I0.15 J0
X109.521 Y40.787 Z-12.866 I-0.15 J0
X109.821 Y40.787 Z-12.958 I0.15 J0
X109.694 Y40.935 Z-13 I-0.15 J0
X109.647 Y40.639 I-0.024 J-0.148
X109.694 Y40.935 I0.024 J0.148
G1 X109.665 Y40.934
X109.639 Y40.922
X109.619 Y40.9
X109.608 Y40.873
X109.671 Y40.787
G0 Z5
X22.329
Z-3.5
G1 Z-5 F1000
X22.404 Y40.712
X22.433 Y40.718
X22.457 Y40.734
X22.474 Y40.758
X22.479 Y40.787
G3 X22.179 Y40.787 Z-5.093 I-0.15 J0
X22.479 Y40.787 Z-5.185 I0.15 J0
X22.179 Y40.787 Z-5.278 I-0.15 J0
X22.479 Y40.787 Z-5.37 I0.15 J0
X22.179 Y40.787 Z-5.463 I-0.15 J0
X22.479 Y40.787 Z-5.555 I0.15 J0
X22.179 Y40.787 Z-5.648 I-0.15 J0
X22.479 Y40.787 Z-5.74 I0.15 J0
X22.179 Y40.787 Z-5.833 I-0.15 J0
X22.479 Y40.787 Z-5.925 I0.15 J0
X22.179 Y40.787 Z-6.018 I-0.15 J0
X22.479 Y40.787 Z-6.11 I0.15 J0
X22.179 Y40.787 Z-6.203 I-0.15 J0
X22.479 Y40.787 Z-6.296 I0.15 J0
X22.179 Y40.787 Z-6.388 I-0.15 J0
X22.479 Y40.787 Z-6.481 I0.15 J0
X22.179 Y40.787 Z-6.573 I-0.15 J0
X22.479 Y40.787 Z-6.666 I0.15 J0
X22.179 Y40.787 Z-6.758 I-0.15 J0
X22.479 Y40.787 Z-6.851 I0.15 J0
X22.179 Y40.787 Z-6.943 I-0.15 J0
X22.479 Y40.787 Z-7.036 I0.15 J0
X22.179 Y40.787 Z-7.128 I-0.15 J0
X22.479 Y40.787 Z-7.221 I0.15 J0
X22.179 Y40.787 Z-7.314 I-0.15 J0
X22.479 Y40.787 Z-7.406 I0.15 J0
X22.179 Y40.787 Z-7.499 I-0.15 J0
X22.479 Y40.787 Z-7.591 I0.15 J0
X22.179 Y40.787 Z-7.684 I-0.15 J0
X22.479 Y40.787 Z-7.776 I0.15 J0
X22.179 Y40.787 Z-7.869 I-0.15 J0
X22.479 Y40.787 Z-7.961 I0.15 J0
X22.179 Y40.787 Z-8.054 I-0.15 J0
X22.479 Y40.787 Z-8.146 I0.15 J0
X22.179 Y40.787 Z-8.239 I-0.15 J0
X22.479 Y40.787 Z-8.331 I0.15 J0
X22.179 Y40.787 Z-8.424 I-0.15 J0
X22.479 Y40.787 Z-8.517 I0.15 J0
X22.179 Y40.787 Z-8.609 I-0.15 J0
X22.479 Y40.787 Z-8.702 I0.15 J0
X22.179 Y40.787 Z-8.794 I-0.15 J0
X22.479 Y40.787 Z-8.887 I0.15 J0
X22.179 Y40.787 Z-8.979 I-0.15 J0
X22.479 Y40.787 Z-9.072 I0.15 J0
X22.179 Y40.787 Z-9.164 I-0.15 J0
X22.479 Y40.787 Z-9.257 I0.15 J0
X22.179 Y40.787 Z-9.349 I-0.15 J0
X22.479 Y40.787 Z-9.442 I0.15 J0
X22.179 Y40.787 Z-9.534 I-0.15 J0
X22.479 Y40.787 Z-9.627 I0.15 J0
X22.179 Y40.787 Z-9.72 I-0.15 J0
X22.479 Y40.787 Z-9.812 I0.15 J0
X22.179 Y40.787 Z-9.905 I-0.15 J0
X22.479 Y40.787 Z-9.997 I0.15 J0
X22.179 Y40.787 Z-10.09 I-0.15 J0
X22.479 Y40.787 Z-10.182 I0.15 J0
X22.179 Y40.787 Z-10.275 I-0.15 J0
X22.479 Y40.787 Z-10.367 I0.15 J0
X22.179 Y40.787 Z-10.46 I-0.15 J0
X22.479 Y40.787 Z-10.552 I0.15 J0
X22.179 Y40.787 Z-10.645 I-0.15 J0
X22.479 Y40.787 Z-10.737 I0.15 J0
X22.179 Y40.787 Z-10.83 I-0.15 J0
X22.479 Y40.787 Z-10.923 I0.15 J0
X22.179 Y40.787 Z-11.015 I-0.15 J0
X22.479 Y40.787 Z-11.108 I0.15 J0
X22.179 Y40.787 Z-11.2 I-0.15 J0
X22.479 Y40.787 Z-11.293 I0.15 J0
X22.179 Y40.787 Z-11.385 I-0.15 J0
X22.479 Y40.787 Z-11.478 I0.15 J0
X22.179 Y40.787 Z-11.57 I-0.15 J0
X22.479 Y40.787 Z-11.663 I0.15 J0
X22.179 Y40.787 Z-11.755 I-0.15 J0
X22.479 Y40.787 Z-11.848 I0.15 J0
X22.179 Y40.787 Z-11.941 I-0.15 J0
X22.479 Y40.787 Z-12.033 I0.15 J0
X22.179 Y40.787 Z-12.126 I-0.15 J0
X22.479 Y40.787 Z-12.218 I0.15 J0
X22.179 Y40.787 Z-12.311 I-0.15 J0
X22.479 Y40.787 Z-12.403 I0.15 J0
X22.179 Y40.787 Z-12.496 I-0.15 J0
X22.479 Y40.787 Z-12.588 I0.15 J0
X22.179 Y40.787 Z-12.681 I-0.15 J0
X22.479 Y40.787 Z-12.773 I0.15 J0
X22.179 Y40.787 Z-12.866 I-0.15 J0
X22.479 Y40.787 Z-12.958 I0.15 J0
X22.353 Y40.935 Z-13 I-0.15 J0
X22.306 Y40.639 I-0.024 J-0.148
X22.353 Y40.935 I0.024 J0.148
G1 X22.324 Y40.934
X22.297 Y40.922
X22.278 Y40.9
X22.267 Y40.873
X22.329 Y40.787
G0 Z5
X66 Y116.426
Z-3.5
G1 Z-5 F1000
X66.075 Y116.351
X66.104 Y116.357
X66.128 Y116.373
X66.144 Y116.398
X66.15 Y116.426
G3 X65.85 Y116.426 Z-5.093 I-0.15 J0
X66.15 Y116.426 Z-5.185 I0.15 J0
X65.85 Y116.426 Z-5.278 I-0.15 J0
X66.15 Y116.426 Z-5.37 I0.15 J0
X65.85 Y116.426 Z-5.463 I-0.15 J0
X66.15 Y116.426 Z-5.555 I0.15 J0
X65.85 Y116.426 Z-5.648 I-0.15 J0
X66.15 Y116.426 Z-5.74 I0.15 J0
X65.85 Y116.426 Z-5.833 I-0.15 J0
X66.15 Y116.426 Z-5.925 I0.15 J0
X65.85 Y116.426 Z-6.018 I-0.15 J0
X66.15 Y116.426 Z-6.11 I0.15 J0
X65.85 Y116.426 Z-6.203 I-0.15 J0
X66.15 Y116.426 Z-6.296 I0.15 J0
X65.85 Y116.426 Z-6.388 I-0.15 J0
X66.15 Y116.426 Z-6.481 I0.15 J0
X65.85 Y116.426 Z-6.573 I-0.15 J0
X66.15 Y116.426 Z-6.666 I0.15 J0
X65.85 Y116.426 Z-6.758 I-0.15 J0
X66.15 Y116.426 Z-6.851 I0.15 J0
X65.85 Y116.426 Z-6.943 I-0.15 J0
X66.15 Y116.426 Z-7.036 I0.15 J0
X65.85 Y116.426 Z-7.128 I-0.15 J0
X66.15 Y116.426 Z-7.221 I0.15 J0
X65.85 Y116.426 Z-7.314 I-0.15 J0
X66.15 Y116.426 Z-7.406 I0.15 J0
X65.85 Y116.426 Z-7.499 I-0.15 J0
X66.15 Y116.426 Z-7.591 I0.15 J0
X65.85 Y116.426 Z-7.684 I-0.15 J0
X66.15 Y116.426 Z-7.776 I0.15 J0
X65.85 Y116.426 Z-7.869 I-0.15 J0
X66.15 Y116.426 Z-7.961 I0.15 J0
X65.85 Y116.426 Z-8.054 I-0.15 J0
X66.15 Y116.426 Z-8.146 I0.15 J0
X65.85 Y116.426 Z-8.239 I-0.15 J0
X66.15 Y116.426 Z-8.331 I0.15 J0
X65.85 Y116.426 Z-8.424 I-0.15 J0
X66.15 Y116.426 Z-8.517 I0.15 J0
X65.85 Y116.426 Z-8.609 I-0.15 J0
X66.15 Y116.426 Z-8.702 I0.15 J0
X65.85 Y116.426 Z-8.794 I-0.15 J0
X66.15 Y116.426 Z-8.887 I0.15 J0
X65.85 Y116.426 Z-8.979 I-0.15 J0
X66.15 Y116.426 Z-9.072 I0.15 J0
X65.85 Y116.426 Z-9.164 I-0.15 J0
X66.15 Y116.426 Z-9.257 I0.15 J0
X65.85 Y116.426 Z-9.349 I-0.15 J0
X66.15 Y116.426 Z-9.442 I0.15 J0
X65.85 Y116.426 Z-9.534 I-0.15 J0
X66.15 Y116.426 Z-9.627 I0.15 J0
X65.85 Y116.426 Z-9.72 I-0.15 J0
X66.15 Y116.426 Z-9.812 I0.15 J0
X65.85 Y116.426 Z-9.905 I-0.15 J0
X66.15 Y116.426 Z-9.997 I0.15 J0
X65.85 Y116.426 Z-10.09 I-0.15 J0
X66.15 Y116.426 Z-10.182 I0.15 J0
X65.85 Y116.426 Z-10.275 I-0.15 J0
X66.15 Y116.426 Z-10.367 I0.15 J0
X65.85 Y116.426 Z-10.46 I-0.15 J0
X66.15 Y116.426 Z-10.552 I0.15 J0
X65.85 Y116.426 Z-10.645 I-0.15 J0
X66.15 Y116.426 Z-10.737 I0.15 J0
X65.85 Y116.426 Z-10.83 I-0.15 J0
X66.15 Y116.426 Z-10.923 I0.15 J0
X65.85 Y116.426 Z-11.015 I-0.15 J0
X66.15 Y116.426 Z-11.108 I0.15 J0
X65.85 Y116.426 Z-11.2 I-0.15 J0
X66.15 Y116.426 Z-11.293 I0.15 J0
X65.85 Y116.426 Z-11.385 I-0.15 J0
X66.15 Y116.426 Z-11.478 I0.15 J0
X65.85 Y116.426 Z-11.57 I-0.15 J0
X66.15 Y116.426 Z-11.663 I0.15 J0
X65.85 Y116.426 Z-11.755 I-0.15 J0
X66.15 Y116.426 Z-11.848 I0.15 J0
X65.85 Y116.426 Z-11.941 I-0.15 J0
X66.15 Y116.426 Z-12.033 I0.15 J0
X65.85 Y116.426 Z-12.126 I-0.15 J0
X66.15 Y116.426 Z-12.218 I0.15 J0
X65.85 Y116.426 Z-12.311 I-0.15 J0
X66.15 Y116.426 Z-12.403 I0.15 J0
X65.85 Y116.426 Z-12.496 I-0.15 J0
X66.15 Y116.426 Z-12.588 I0.15 J0
X65.85 Y116.426 Z-12.681 I-0.15 J0
X66.15 Y116.426 Z-12.773 I0.15 J0
X65.85 Y116.426 Z-12.866 I-0.15 J0
X66.15 Y116.426 Z-12.958 I0.15 J0
X66.024 Y116.574 Z-13 I-0.15 J0
X65.976 Y116.278 I-0.024 J-0.148
X66.024 Y116.574 I0.024 J0.148
G1 X65.995 Y116.573
X65.968 Y116.561
X65.948 Y116.54
X65.938 Y116.512
X66 Y116.426
G0 Z15

(2D Contour2)
G0 X128.5 Y66
Z15
Z5
G1 Z1 F333.3
Z-6
G3 X3.5 Y66 I-62.5 J0 F1000
X128.5 Y66 I62.5 J0
G1 Z-9.5 F333.3
G3 X3.5 Y66 I-62.5 J0 F1000
X128.5 Y66 I62.5 J0
G1 Z-13 F333.3
G3 X3.5 Y66 I-62.5 J0 F1000
X128.5 Y66 I62.5 J0
G0 Z15
M9
M5
M30
