(Espresso_innen)
(T4 D=5 CR=0 - ZMIN=-13 - flat end mill)
G90 G94
G17
G21
(-Attention- Property Safe Retracts is set to Clearance Height.)
(Ensure the clearance height will clear the part and or fixtures.)
(Raise the Z-axis to a safe height before starting the program.)

(2D Pocket1)
T4
S5000 M3
G17 G90 G94
G54
M8
G0 X31.193 Y47.169
Z15
G0 Z5
G1 Z-4 F333.3
X31.186 Y47.165 Z-4.087 F1000
X31.167 Y47.153 Z-4.171
X31.135 Y47.135 Z-4.25
X31.092 Y47.11 Z-4.321
X31.038 Y47.079 Z-4.383
X30.976 Y47.044 Z-4.433
X30.908 Y47.004 Z-4.47
X30.835 Y46.962 Z-4.492
X30.76 Y46.919 Z-4.5
X30.331 Y46.671
X20.244 Y40.847
G3 X20.127 Y40.411 I0.16 J-0.277
G1 X20.903 Y39.068
G3 X21.339 Y38.951 I0.277 J0.16
G1 X31.427 Y44.775
G3 X31.523 Y45.108 I-0.125 J0.217
G1 X29.37 Y49.171
G3 X29.024 Y49.271 I-0.221 J-0.117
G1 X27.258 Y48.251
X15.999 Y41.751
X19.999 Y34.823
X31.258 Y41.323
X33.029 Y42.345
X33.094 Y42.39
X33.428 Y42.66
X33.495 Y42.715 Z-4.492
X33.56 Y42.768 Z-4.47
X33.622 Y42.818 Z-4.433
X33.677 Y42.862 Z-4.383
X33.725 Y42.901 Z-4.321
X33.764 Y42.933 Z-4.25
X33.793 Y42.956 Z-4.171
X33.81 Y42.97 Z-4.087
X33.816 Y42.975 Z-4
G0 Z15
X67.095 Y105.547
Z5
G1 Z-4 F333.3
G19 G3 Y106.047 Z-4.5 J0.5 K0 F1000
G1 Y106.558
Y118.202
G17 G3 X66.776 Y118.521 I-0.319 J0
G1 X65.224
G3 X64.905 Y118.202 I0 J-0.319
G1 Y106.553
G3 X65.146 Y106.303 I0.25 J0
G1 X69.741 Y106.135
G3 X70 Y106.385 I0.009 J0.25
G1 Y121.426
X62
Y108.426
Y106.381
X62.006 Y106.302
X62.073 Y105.878
X62.087 Y105.792 Z-4.492
X62.1 Y105.709 Z-4.47
X62.112 Y105.631 Z-4.433
X62.124 Y105.561 Z-4.383
X62.133 Y105.5 Z-4.321
X62.141 Y105.45 Z-4.25
X62.147 Y105.414 Z-4.171
X62.15 Y105.392 Z-4.087
X62.152 Y105.384 Z-4
G0 Z15
X99.703 Y45.277
Z5
G1 Z-4 F333.3
X99.71 Y45.273 Z-4.087 F1000
X99.729 Y45.262 Z-4.171
X99.761 Y45.244 Z-4.25
X99.804 Y45.219 Z-4.321
X99.858 Y45.188 Z-4.383
X99.919 Y45.152 Z-4.433
X99.988 Y45.113 Z-4.47
X100.061 Y45.071 Z-4.492
X100.136 Y45.027 Z-4.5
X100.578 Y44.772
X110.661 Y38.951
G3 X111.097 Y39.068 I0.16 J0.277
G1 X111.873 Y40.411
G3 X111.756 Y40.847 I-0.277 J0.16
G1 X101.668 Y46.671
G3 X101.332 Y46.588 I-0.125 J-0.217
G1 X98.883 Y42.696
G3 X98.97 Y42.346 I0.212 J-0.133
G1 X100.742 Y41.323
X112.001 Y34.823
X116.001 Y41.751
X104.742 Y48.251
X102.971 Y49.274
X102.9 Y49.307
X102.499 Y49.461
X102.418 Y49.492 Z-4.492
X102.339 Y49.523 Z-4.47
X102.265 Y49.551 Z-4.433
X102.199 Y49.577 Z-4.383
X102.141 Y49.599 Z-4.321
X102.095 Y49.617 Z-4.25
X102.06 Y49.63 Z-4.171
X102.039 Y49.638 Z-4.087
X102.032 Y49.641 Z-4
G0 Z15

(Bore1)
G0 X109.671 Y40.787
Z15
Z-3.5
G1 Z-5 F1000
X109.746 Y40.712
X109.774 Y40.718
X109.799 Y40.734
X109.815 Y40.758
X109.821 Y40.787
G3 X109.521 Y40.787 Z-5.093 I-0.15 J0
X109.821 Y40.787 Z-5.185 I0.15 J0
X109.521 Y40.787 Z-5.278 I-0.15 J0
X109.821 Y40.787 Z-5.37 I0.15 J0
X109.521 Y40.787 Z-5.463 I-0.15 J0
X109.821 Y40.787 Z-5.555 I0.15 J0
X109.521 Y40.787 Z-5.648 I-0.15 J0
X109.821 Y40.787 Z-5.74 I0.15 J0
X109.521 Y40.787 Z-5.833 I-0.15 J0
X109.821 Y40.787 Z-5.925 I0.15 J0
X109.521 Y40.787 Z-6.018 I-0.15 J0
X109.821 Y40.787 Z-6.11 I0.15 J0
X109.521 Y40.787 Z-6.203 I-0.15 J0
X109.821 Y40.787 Z-6.296 I0.15 J0
X109.521 Y40.787 Z-6.388 I-0.15 J0
X109.821 Y40.787 Z-6.481 I0.15 J0
X109.521 Y40.787 Z-6.573 I-0.15 J0
X109.821 Y40.787 Z-6.666 I0.15 J0
X109.521 Y40.787 Z-6.758 I-0.15 J0
X109.821 Y40.787 Z-6.851 I0.15 J0
X109.521 Y40.787 Z-6.943 I-0.15 J0
X109.821 Y40.787 Z-7.036 I0.15 J0
X109.521 Y40.787 Z-7.128 I-0.15 J0
X109.821 Y40.787 Z-7.221 I0.15 J0
X109.521 Y40.787 Z-7.314 I-0.15 J0
X109.821 Y40.787 Z-7.406 I0.15 J0
X109.521 Y40.787 Z-7.499 I-0.15 J0
X109.821 Y40.787 Z-7.591 I0.15 J0
X109.521 Y40.787 Z-7.684 I-0.15 J0
X109.821 Y40.787 Z-7.776 I0.15 J0
X109.521 Y40.787 Z-7.869 I-0.15 J0
X109.821 Y40.787 Z-7.961 I0.15 J0
X109.521 Y40.787 Z-8.054 I-0.15 J0
X109.821 Y40.787 Z-8.146 I0.15 J0
X109.521 Y40.787 Z-8.239 I-0.15 J0
X109.821 Y40.787 Z-8.331 I0.15 J0
X109.521 Y40.787 Z-8.424 I-0.15 J0
X109.821 Y40.787 Z-8.517 I0.15 J0
X109.521 Y40.787 Z-8.609 I-0.15 J0
X109.821 Y40.787 Z-8.702 I0.15 J0
X109.521 Y40.787 Z-8.794 I-0.15 J0
X109.821 Y40.787 Z-8.887 I0.15 J0
X109.521 Y40.787 Z-8.979 I-0.15 J0
X109.821 Y40.787 Z-9.072 I0.15 J0
X109.521 Y40.787 Z-9.164 I-0.15 J0
X109.821 Y40.787 Z-9.257 I0.15 J0
X109.521 Y40.787 Z-9.349 I-0.15 J0
X109.821 Y40.787 Z-9.442 I0.15 J0
X109.521 Y40.787 Z-9.534 I-0.15 J0
X109.821 Y40.787 Z-9.627 I0.15 J0
X109.521 Y40.787 Z-9.72 I-0.15 J0
X109.821 Y40.787 Z-9.812 I0.15 J0
X109.521 Y40.787 Z-9.905 I-0.15 J0
X109.821 Y40.787 Z-9.997 I0.15 J0
X109.521 Y40.787 Z-10.09 I-0.15 J0
X109.821 Y40.787 Z-10.182 I0.15 J0
X109.521 Y40.787 Z-10.275 I-0.15 J0
X109.821 Y40.787 Z-10.367 I0.15 J0
X109.521 Y40.787 Z-10.46 I-0.15 J0
X109.821 Y40.787 Z-10.552 I0.15 J0
X109.521 Y40.787 Z-10.645 I-0.15 J0
X109.821 Y40.787 Z-10.737 I0.15 J0
X109.521 Y40.787 Z-10.83 I-0.15 J0
X109.821 Y40.787 Z-10.923 I0.15 J0
X109.521 Y40.787 Z-11.015 I-0.15 J0
X109.821 Y40.787 Z-11.108 I0.15 J0
X109.521 Y40.787 Z-11.2 I-0.15 J0
X109.821 Y40.787 Z-11.293 I0.15 J0
X109.521 Y40.787 Z-11.385 I-0.15 J0
X109.821 Y40.787 Z-11.478 I0.15 J0
X109.521 Y40.787 Z-11.57 I-0.15 J0
X109.821 Y40.787 Z-11.663 I0.15 J0
X109.521 Y40.787 Z-11.755 I-0.15 J0
X109.821 Y40.787 Z-11.848 I0.15 J0
X109.521 Y40.787 Z-11.941 I-0.15 J0
X109.821 Y40.787 Z-12.033 I0.15 J0
X109.521 Y40.787 Z-12.126 I-0.15 J0
X109.821 Y40.787 Z-12.218 I0.15 J0
X109.521 Y40.787 Z-12.311 I-0.15 J0
X109.821 Y40.787 Z-12.403 I0.15 J0
X109.521 Y40.787 Z-12.496 I-0.15 J0
X109.821 Y40.787 Z-12.588 I0.15 J0
X109.521 Y40.787 Z-12.681 I-0.15 J0
X109.821 Y40.787 Z-12.773 I0.15 J0
X109.521 Y40.787 Z-12.866 I-0.15 J0
X109.821 Y40.787 Z-12.958 I0.15 J0
X109.694 Y40.935 Z-13 I-0.15 J0
X109.647 Y40.639 I-0.024 J-0.148
X109.694 Y40.935 I0.024 J0.148
G1 X109.665 Y40.934
X109.639 Y40.922
X109.619 Y40.9
X109.608 Y40.873
X109.671 Y40.787
G0 Z5
X22.329
Z-3.5
G1 Z-5 F1000
X22.404 Y40.712
X22.433 Y40.718
X22.457 Y40.734
X22.474 Y40.758
X22.479 Y40.787
G3 X22.179 Y40.787 Z-5.093 I-0.15 J0
X22.479 Y40.787 Z-5.185 I0.15 J0
X22.179 Y40.787 Z-5.278 I-0.15 J0
X22.479 Y40.787 Z-5.37 I0.15 J0
X22.179 Y40.787 Z-5.463 I-0.15 J0
X22.479 Y40.787 Z-5.555 I0.15 J0
X22.179 Y40.787 Z-5.648 I-0.15 J0
X22.479 Y40.787 Z-5.74 I0.15 J0
X22.179 Y40.787 Z-5.833 I-0.15 J0
X22.479 Y40.787 Z-5.925 I0.15 J0
X22.179 Y40.787 Z-6.018 I-0.15 J0
X22.479 Y40.787 Z-6.11 I0.15 J0
X22.179 Y40.787 Z-6.203 I-0.15 J0
X22.479 Y40.787 Z-6.296 I0.15 J0
X22.179 Y40.787 Z-6.388 I-0.15 J0
X22.479 Y40.787 Z-6.481 I0.15 J0
X22.179 Y40.787 Z-6.573 I-0.15 J0
X22.479 Y40.787 Z-6.666 I0.15 J0
X22.179 Y40.787 Z-6.758 I-0.15 J0
X22.479 Y40.787 Z-6.851 I0.15 J0
X22.179 Y40.787 Z-6.943 I-0.15 J0
X22.479 Y40.787 Z-7.036 I0.15 J0
X22.179 Y40.787 Z-7.128 I-0.15 J0
X22.479 Y40.787 Z-7.221 I0.15 J0
X22.179 Y40.787 Z-7.314 I-0.15 J0
X22.479 Y40.787 Z-7.406 I0.15 J0
X22.179 Y40.787 Z-7.499 I-0.15 J0
X22.479 Y40.787 Z-7.591 I0.15 J0
X22.179 Y40.787 Z-7.684 I-0.15 J0
X22.479 Y40.787 Z-7.776 I0.15 J0
X22.179 Y40.787 Z-7.869 I-0.15 J0
X22.479 Y40.787 Z-7.961 I0.15 J0
X22.179 Y40.787 Z-8.054 I-0.15 J0
X22.479 Y40.787 Z-8.146 I0.15 J0
X22.179 Y40.787 Z-8.239 I-0.15 J0
X22.479 Y40.787 Z-8.331 I0.15 J0
X22.179 Y40.787 Z-8.424 I-0.15 J0
X22.479 Y40.787 Z-8.517 I0.15 J0
X22.179 Y40.787 Z-8.609 I-0.15 J0
X22.479 Y40.787 Z-8.702 I0.15 J0
X22.179 Y40.787 Z-8.794 I-0.15 J0
X22.479 Y40.787 Z-8.887 I0.15 J0
X22.179 Y40.787 Z-8.979 I-0.15 J0
X22.479 Y40.787 Z-9.072 I0.15 J0
X22.179 Y40.787 Z-9.164 I-0.15 J0
X22.479 Y40.787 Z-9.257 I0.15 J0
X22.179 Y40.787 Z-9.349 I-0.15 J0
X22.479 Y40.787 Z-9.442 I0.15 J0
X22.179 Y40.787 Z-9.534 I-0.15 J0
X22.479 Y40.787 Z-9.627 I0.15 J0
X22.179 Y40.787 Z-9.72 I-0.15 J0
X22.479 Y40.787 Z-9.812 I0.15 J0
X22.179 Y40.787 Z-9.905 I-0.15 J0
X22.479 Y40.787 Z-9.997 I0.15 J0
X22.179 Y40.787 Z-10.09 I-0.15 J0
X22.479 Y40.787 Z-10.182 I0.15 J0
X22.179 Y40.787 Z-10.275 I-0.15 J0
X22.479 Y40.787 Z-10.367 I0.15 J0
X22.179 Y40.787 Z-10.46 I-0.15 J0
X22.479 Y40.787 Z-10.552 I0.15 J0
X22.179 Y40.787 Z-10.645 I-0.15 J0
X22.479 Y40.787 Z-10.737 I0.15 J0
X22.179 Y40.787 Z-10.83 I-0.15 J0
X22.479 Y40.787 Z-10.923 I0.15 J0
X22.179 Y40.787 Z-11.015 I-0.15 J0
X22.479 Y40.787 Z-11.108 I0.15 J0
X22.179 Y40.787 Z-11.2 I-0.15 J0
X22.479 Y40.787 Z-11.293 I0.15 J0
X22.179 Y40.787 Z-11.385 I-0.15 J0
X22.479 Y40.787 Z-11.478 I0.15 J0
X22.179 Y40.787 Z-11.57 I-0.15 J0
X22.479 Y40.787 Z-11.663 I0.15 J0
X22.179 Y40.787 Z-11.755 I-0.15 J0
X22.479 Y40.787 Z-11.848 I0.15 J0
X22.179 Y40.787 Z-11.941 I-0.15 J0
X22.479 Y40.787 Z-12.033 I0.15 J0
X22.179 Y40.787 Z-12.126 I-0.15 J0
X22.479 Y40.787 Z-12.218 I0.15 J0
X22.179 Y40.787 Z-12.311 I-0.15 J0
X22.479 Y40.787 Z-12.403 I0.15 J0
X22.179 Y40.787 Z-12.496 I-0.15 J0
X22.479 Y40.787 Z-12.588 I0.15 J0
X22.179 Y40.787 Z-12.681 I-0.15 J0
X22.479 Y40.787 Z-12.773 I0.15 J0
X22.179 Y40.787 Z-12.866 I-0.15 J0
X22.479 Y40.787 Z-12.958 I0.15 J0
X22.353 Y40.935 Z-13 I-0.15 J0
X22.306 Y40.639 I-0.024 J-0.148
X22.353 Y40.935 I0.024 J0.148
G1 X22.324 Y40.934
X22.297 Y40.922
X22.278 Y40.9
X22.267 Y40.873
X22.329 Y40.787
G0 Z5
X66 Y116.426
Z-3.5
G1 Z-5 F1000
X66.075 Y116.351
X66.104 Y116.357
X66.128 Y116.373
X66.144 Y116.398
X66.15 Y116.426
G3 X65.85 Y116.426 Z-5.093 I-0.15 J0
X66.15 Y116.426 Z-5.185 I0.15 J0
X65.85 Y116.426 Z-5.278 I-0.15 J0
X66.15 Y116.426 Z-5.37 I0.15 J0
X65.85 Y116.426 Z-5.463 I-0.15 J0
X66.15 Y116.426 Z-5.555 I0.15 J0
X65.85 Y116.426 Z-5.648 I-0.15 J0
X66.15 Y116.426 Z-5.74 I0.15 J0
X65.85 Y116.426 Z-5.833 I-0.15 J0
X66.15 Y116.426 Z-5.925 I0.15 J0
X65.85 Y116.426 Z-6.018 I-0.15 J0
X66.15 Y116.426 Z-6.11 I0.15 J0
X65.85 Y116.426 Z-6.203 I-0.15 J0
X66.15 Y116.426 Z-6.296 I0.15 J0
X65.85 Y116.426 Z-6.388 I-0.15 J0
X66.15 Y116.426 Z-6.481 I0.15 J0
X65.85 Y116.426 Z-6.573 I-0.15 J0
X66.15 Y116.426 Z-6.666 I0.15 J0
X65.85 Y116.426 Z-6.758 I-0.15 J0
X66.15 Y116.426 Z-6.851 I0.15 J0
X65.85 Y116.426 Z-6.943 I-0.15 J0
X66.15 Y116.426 Z-7.036 I0.15 J0
X65.85 Y116.426 Z-7.128 I-0.15 J0
X66.15 Y116.426 Z-7.221 I0.15 J0
X65.85 Y116.426 Z-7.314 I-0.15 J0
X66.15 Y116.426 Z-7.406 I0.15 J0
X65.85 Y116.426 Z-7.499 I-0.15 J0
X66.15 Y116.426 Z-7.591 I0.15 J0
X65.85 Y116.426 Z-7.684 I-0.15 J0
X66.15 Y116.426 Z-7.776 I0.15 J0
X65.85 Y116.426 Z-7.869 I-0.15 J0
X66.15 Y116.426 Z-7.961 I0.15 J0
X65.85 Y116.426 Z-8.054 I-0.15 J0
X66.15 Y116.426 Z-8.146 I0.15 J0
X65.85 Y116.426 Z-8.239 I-0.15 J0
X66.15 Y116.426 Z-8.331 I0.15 J0
X65.85 Y116.426 Z-8.424 I-0.15 J0
X66.15 Y116.426 Z-8.517 I0.15 J0
X65.85 Y116.426 Z-8.609 I-0.15 J0
X66.15 Y116.426 Z-8.702 I0.15 J0
X65.85 Y116.426 Z-8.794 I-0.15 J0
X66.15 Y116.426 Z-8.887 I0.15 J0
X65.85 Y116.426 Z-8.979 I-0.15 J0
X66.15 Y116.426 Z-9.072 I0.15 J0
X65.85 Y116.426 Z-9.164 I-0.15 J0
X66.15 Y116.426 Z-9.257 I0.15 J0
X65.85 Y116.426 Z-9.349 I-0.15 J0
X66.15 Y116.426 Z-9.442 I0.15 J0
X65.85 Y116.426 Z-9.534 I-0.15 J0
X66.15 Y116.426 Z-9.627 I0.15 J0
X65.85 Y116.426 Z-9.72 I-0.15 J0
X66.15 Y116.426 Z-9.812 I0.15 J0
X65.85 Y116.426 Z-9.905 I-0.15 J0
X66.15 Y116.426 Z-9.997 I0.15 J0
X65.85 Y116.426 Z-10.09 I-0.15 J0
X66.15 Y116.426 Z-10.182 I0.15 J0
X65.85 Y116.426 Z-10.275 I-0.15 J0
X66.15 Y116.426 Z-10.367 I0.15 J0
X65.85 Y116.426 Z-10.46 I-0.15 J0
X66.15 Y116.426 Z-10.552 I0.15 J0
X65.85 Y116.426 Z-10.645 I-0.15 J0
X66.15 Y116.426 Z-10.737 I0.15 J0
X65.85 Y116.426 Z-10.83 I-0.15 J0
X66.15 Y116.426 Z-10.923 I0.15 J0
X65.85 Y116.426 Z-11.015 I-0.15 J0
X66.15 Y116.426 Z-11.108 I0.15 J0
X65.85 Y116.426 Z-11.2 I-0.15 J0
X66.15 Y116.426 Z-11.293 I0.15 J0
X65.85 Y116.426 Z-11.385 I-0.15 J0
X66.15 Y116.426 Z-11.478 I0.15 J0
X65.85 Y116.426 Z-11.57 I-0.15 J0
X66.15 Y116.426 Z-11.663 I0.15 J0
X65.85 Y116.426 Z-11.755 I-0.15 J0
X66.15 Y116.426 Z-11.848 I0.15 J0
X65.85 Y116.426 Z-11.941 I-0.15 J0
X66.15 Y116.426 Z-12.033 I0.15 J0
X65.85 Y116.426 Z-12.126 I-0.15 J0
X66.15 Y116.426 Z-12.218 I0.15 J0
X65.85 Y116.426 Z-12.311 I-0.15 J0
X66.15 Y116.426 Z-12.403 I0.15 J0
X65.85 Y116.426 Z-12.496 I-0.15 J0
X66.15 Y116.426 Z-12.588 I0.15 J0
X65.85 Y116.426 Z-12.681 I-0.15 J0
X66.15 Y116.426 Z-12.773 I0.15 J0
X65.85 Y116.426 Z-12.866 I-0.15 J0
X66.15 Y116.426 Z-12.958 I0.15 J0
X66.024 Y116.574 Z-13 I-0.15 J0
X65.976 Y116.278 I-0.024 J-0.148
X66.024 Y116.574 I0.024 J0.148
G1 X65.995 Y116.573
X65.968 Y116.561
X65.948 Y116.54
X65.938 Y116.512
X66 Y116.426
G0 Z15

(2D Contour1)
G0 X106.5 Y66
Z15
Z5
G1 Z1 F333.3
Z-6
G3 X25.5 Y66 I-40.5 J0 F1000
X106.5 Y66 I40.5 J0
G1 Z-9.5 F333.3
G3 X25.5 Y66 I-40.5 J0 F1000
X106.5 Y66 I40.5 J0
G1 Z-13 F333.3
G3 X25.5 Y66 I-40.5 J0 F1000
X106.5 Y66 I40.5 J0
G0 Z15

(2D Contour2)
G0 X128.5 Y66
Z15
Z5
G1 Z1 F333.3
Z-6
G3 X3.5 Y66 I-62.5 J0 F1000
X128.5 Y66 I62.5 J0
G1 Z-9.5 F333.3
G3 X3.5 Y66 I-62.5 J0 F1000
X128.5 Y66 I62.5 J0
G1 Z-13 F333.3
G3 X3.5 Y66 I-62.5 J0 F1000
X128.5 Y66 I62.5 J0
G0 Z15
M9
M5
M30
