(GaskastenFenster)
(T3  D=3 CR=0 - ZMIN=-10 - flat end mill)
G90 G94
G17
G21

(2D Contour1)
T3
S5000 M3
G54
M8
G0 X387.6 Y556.73
Z15
Z5
G1 Z2.8 F333.3
G18 G2 X387.9 Z2.5 I0.3 K0 F1000
G1 X388.2
G17 G3 X388.5 Y557.03 I0 J0.3
G1 Y580 Z2.445 F333.3
G3 X370 Y598.5 Z2.374 I-18.5 J0
G1 X60 Z1.626
G3 X41.5 Y580 Z1.555 I0 J-18.5
G1 Y120 Z0.445
G3 X60 Y101.5 Z0.374 I18.5 J0
G1 X370 Z-0.374
G3 X388.5 Y120 Z-0.445 I0 J18.5
G1 Y580 Z-1.555
G3 X370 Y598.5 Z-1.626 I-18.5 J0
G1 X60 Z-2.374
G3 X41.5 Y580 Z-2.445 I0 J-18.5
G1 Y120 Z-3.555
G3 X60 Y101.5 Z-3.626 I18.5 J0
G1 X215 Z-4
X370 F1000
G3 X388.5 Y120 I0 J18.5
G1 Y580
G3 X370 Y598.5 I-18.5 J0
G1 X60
G3 X41.5 Y580 I0 J-18.5
G1 Y120
G3 X60 Y101.5 I18.5 J0
G1 X215
X370 Z-4.374 F333.3
G3 X388.5 Y120 Z-4.445 I0 J18.5
G1 Y580 Z-5.555
G3 X370 Y598.5 Z-5.626 I-18.5 J0
G1 X60 Z-6.374
G3 X41.5 Y580 Z-6.445 I0 J-18.5
G1 Y120 Z-7.555
G3 X60 Y101.5 Z-7.626 I18.5 J0
G1 X215 Z-8
X370 F1000
G3 X388.5 Y120 I0 J18.5
G1 Y580
G3 X370 Y598.5 I-18.5 J0
G1 X60
G3 X41.5 Y580 I0 J-18.5
G1 Y120
G3 X60 Y101.5 I18.5 J0
G1 X215
X370 Z-8.374 F333.3
G3 X388.5 Y120 Z-8.445 I0 J18.5
G1 Y580 Z-9.555
G3 X370 Y598.5 Z-9.626 I-18.5 J0
G1 X215 Z-10
X60 F1000
G3 X41.5 Y580 I0 J-18.5
G1 Y120
G3 X60 Y101.5 I18.5 J0
G1 X370
G3 X388.5 Y120 I0 J18.5
G1 Y580
G3 X370 Y598.5 I-18.5 J0
G1 X215
G3 X214.7 Y598.2 I0 J-0.3
G1 Y597.9
G19 G2 Y597.6 Z-9.7 J0 K0.3
G0 Z15
G17
M9
M5
M30
