(Lilly_Kreis_140)
(T4  D=5 CR=0 - ZMIN=-3 - flat end mill)
G90 G94
G17
G21

(2D Contour1 2)
T4
S5000 M3
G54
M8
G0 X-62.492 Y-2.843
Z15
Z5
G1 Z3 F333.3
Z-2
G2 X9.426 Y45.035 I52.492 J-0.895 F1000
G3 X16.242 Y47.424 I2.035 J5.11
G1 X18.238 Y50.932
G2 X33.691 Y54.118 I9.126 J-5.194
X49.351 Y-45.377 I-43.691 J-57.856
X33.666 Y-47.092 I-8.596 J6.03
G1 X30.689 Y-44.367
G3 X23.469 Y-44.187 I-3.713 J-4.057
G2 X-62.492 Y-2.843 I-33.469 J40.448
G1 Z-3 F333.3
G2 X9.426 Y45.035 I52.492 J-0.895 F1000
G3 X16.242 Y47.424 I2.035 J5.11
G1 X18.238 Y50.932
G2 X33.691 Y54.118 I9.126 J-5.194
X49.351 Y-45.377 I-43.691 J-57.856
X33.666 Y-47.092 I-8.596 J6.03
G1 X30.689 Y-44.367
G3 X23.469 Y-44.187 I-3.713 J-4.057
G2 X-62.492 Y-2.843 I-33.469 J40.448
G0 Z15
M9
M5
M30
