(LillyHaus_EtagenKreis)
(T4  D=5 CR=0 - ZMIN=-3 - flat end mill)
G90 G94
G17
G21

(2D Contour1)
T4
S5000 M3
G54
M8
G0 X0 Y-27.5
Z15
Z5
G1 Z3 F333.3
Z2.5
G3 X0 Y27.5 Z1.5 I0 J27.5
X0 Y-27.5 Z0.5 I0 J-27.5
X0 Y27.5 Z-0.5 I0 J27.5
X0 Y-27.5 Z-1.5 I0 J-27.5
X27.5 Y0 Z-2 I0 J27.5
X-27.5 Y0 I-27.5 J0 F1000
X27.5 Y0 I27.5 J0
X-27.5 Y0 Z-3 I-27.5 J0 F333.3
X27.5 Y0 I27.5 J0 F1000
X-27.5 Y0 I-27.5 J0
G0 Z15

(2D Contour1 2)
X52.5 Y0
Z15
Z5
G1 Z3 F333.3
Z2.5
G2 X-52.5 Y0 Z1.5 I-52.5 J0
X52.5 Y0 Z0.5 I52.5 J0
X-52.5 Y0 Z-0.5 I-52.5 J0
X52.5 Y0 Z-1.5 I52.5 J0
X0 Y-52.5 Z-2 I-52.5 J0
X0 Y52.5 I0 J52.5 F1000
X0 Y-52.5 I0 J-52.5
X0 Y52.5 Z-3 I0 J52.5 F333.3
X0 Y-52.5 I0 J-52.5 F1000
X0 Y52.5 I0 J52.5
G0 Z15
M9
M5
M30
