(Lilly_Kreis_180)
(T4  D=5 CR=0 - ZMIN=-3 - flat end mill)
G90 G94
G17
G21

(2D Contour1 2)
T4
S5000 M3
G54
M8
G0 X-72.498 Y2.42
Z15
Z5
G1 Z3 F333.3
Z-2
G2 X-0.574 Y51.675 I52.498 J0.482 F1000
G3 X6.242 Y54.064 I2.035 J5.11
G1 X18.194 Y75.065
G2 X33.378 Y78.447 I9.126 J-5.194
X22.629 Y-79.19 I-53.378 J-75.545
X8.044 Y-73.778 I-4.839 J9.318
G1 X-0.946 Y-51.35
G3 X-7.374 Y-48.057 I-5.105 J-2.046
G2 X-72.498 Y2.42 I-12.626 J50.959
G1 Z-3 F333.3
G2 X-0.574 Y51.675 I52.498 J0.482 F1000
G3 X6.242 Y54.064 I2.035 J5.11
G1 X18.194 Y75.065
G2 X33.378 Y78.447 I9.126 J-5.194
X22.629 Y-79.19 I-53.378 J-75.545
X8.044 Y-73.778 I-4.839 J9.318
G1 X-0.946 Y-51.35
G3 X-7.374 Y-48.057 I-5.105 J-2.046
G2 X-72.498 Y2.42 I-12.626 J50.959
G0 Z15
M9
M5
M30
