(Messschieber)
(T4 D=5 CR=0 - ZMIN=-13 - flat end mill)
G90 G94
G17
G21
(-Attention- Property Safe Retracts is set to Clearance Height.)
(Ensure the clearance height will clear the part and or fixtures.)
(Raise the Z-axis to a safe height before starting the program.)

(2D Contour1)
T4
S5000 M3
G17 G90 G94
G54
M8
G0 X66.5 Y25.026
Z15
G0 Z5
G1 Z1 F333.3
Z-6
Y38.026 F1000
X60.5
Y22.026
X66.5
Y25.026
Z-9.5 F333.3
Y38.026 F1000
X60.5
Y22.026
X66.5
Y25.026
Z-13 F333.3
Y38.026 F1000
X60.5
Y22.026
X66.5
Y25.026
G0 Z15

(2D Adaptive1)
G0 X86.51 Y-2.925
Z15
Z5
Z-5.5
G1 Z-6 F1000
X86.504 Y-2.921 Z-6.087
X86.484 Y-2.909 Z-6.171
X86.453 Y-2.89 Z-6.25
X86.41 Y-2.864 Z-6.321
X86.357 Y-2.832 Z-6.383
X86.296 Y-2.795 Z-6.433
X86.229 Y-2.754 Z-6.47
X86.157 Y-2.71 Z-6.492
X86.083 Y-2.665 Z-6.5
G3 X83.591 Y-1.501 I-6.621 J-10.914
G1 X82.848 Y-1.275
X82.245 Y-1.088
X82.044 Y-1.014
X81.842 Y-0.925
X81.641 Y-0.82
X81.44 Y-0.714
X81.083 Y-0.523
X80.678 Y-0.332
X80.216 Y-0.158
X79.585 Y0.024
X78.716 Y0.2
X77.837 Y0.31
X76.954 Y0.379
X76.069 Y0.423
X75.183 Y0.451
X74.297 Y0.469
X73.411 Y0.48
X72.525 Y0.487
X71.639 Y0.492
X70.753 Y0.495
X68.98 Y0.498
X64.55 Y0.5
X39.575
X39.32 Y0.472
X39.077 Y0.388
X38.858 Y0.254
X38.81 Y0.216
X38.609 Y0.077
X38.408 Y-0.05
X38.206 Y-0.158
X37.603 Y-0.467
X36.707 Y-0.925
X36.598 Y-0.976
X36.245 Y-1.126
X36.196 Y-1.143
X35.577 Y-1.327
X35.391 Y-1.381
G3 X35.073 Y-2.013 I0.157 J-0.475
G1 X35.1 Y-2.095 Z-6.492
X35.126 Y-2.175 Z-6.47
X35.151 Y-2.25 Z-6.433
X35.173 Y-2.318 Z-6.383
X35.193 Y-2.376 Z-6.321
X35.208 Y-2.424 Z-6.25
X35.22 Y-2.459 Z-6.171
X35.227 Y-2.48 Z-6.087
X35.229 Y-2.488 Z-6
G0 Z5
X81.901 Y-1.501
Z-5.5
G1 Z-6 F1000
X81.897 Y-1.495 Z-6.087
X81.886 Y-1.476 Z-6.171
X81.867 Y-1.444 Z-6.25
X81.841 Y-1.401 Z-6.321
X81.809 Y-1.348 Z-6.383
X81.772 Y-1.287 Z-6.433
X81.731 Y-1.22 Z-6.47
X81.688 Y-1.148 Z-6.492
X81.643 Y-1.073 Z-6.5
G3 X81.083 Y-0.523 I-1.355 J-0.818
G1 X80.234 Y-0.069
X79.99 Y0.08
X79.631 Y0.303
X79.429 Y0.459
X78.826 Y0.953
X78.526 Y1.175
X78.251 Y1.347
X77.905 Y1.525
X77.456 Y1.713
X76.867 Y1.905
X76.038 Y2.104
X75.163 Y2.241
X74.281 Y2.33
X73.397 Y2.389
X72.512 Y2.427
X71.626 Y2.452
X70.74 Y2.469
X69.854 Y2.479
X68.968 Y2.487
X68.082 Y2.491
X67.196 Y2.494
X65.424 Y2.498
X61.879 Y2.5
X41.878
X41.631 Y2.474
X41.396 Y2.396
X41.183 Y2.271
X41.001 Y2.103
X40.814 Y1.89
X40.62 Y1.674
X40.413 Y1.488
X40.177 Y1.287
X40.016 Y1.155
X38.858 Y0.254
G3 X38.795 Y-0.45 I0.321 J-0.384
G1 X38.851 Y-0.517 Z-6.492
X38.905 Y-0.581 Z-6.47
X38.956 Y-0.642 Z-6.433
X39.001 Y-0.697 Z-6.383
X39.041 Y-0.744 Z-6.321
X39.073 Y-0.782 Z-6.25
X39.097 Y-0.811 Z-6.171
X39.111 Y-0.828 Z-6.087
X39.116 Y-0.834 Z-6
G0 Z5
X79.438 Y-0.166
Z-5.5
G1 Z-6 F1000
X79.436 Y-0.159 Z-6.087
X79.428 Y-0.138 Z-6.171
X79.416 Y-0.103 Z-6.25
X79.399 Y-0.056 Z-6.321
X79.378 Y0.002 Z-6.383
X79.353 Y0.069 Z-6.433
X79.326 Y0.143 Z-6.47
X79.298 Y0.222 Z-6.492
X79.268 Y0.304 Z-6.5
G3 X78.826 Y0.953 I-1.488 J-0.538
G1 X78.022 Y1.614
X77.94 Y1.689
X77.738 Y1.89
X77.62 Y2.015
X77.226 Y2.493
X77.077 Y2.658
X76.901 Y2.823
X76.685 Y2.994
X76.405 Y3.183
X76.07 Y3.371
X75.631 Y3.574
X75.077 Y3.777
X74.323 Y3.987
X73.453 Y4.155
X72.574 Y4.268
X71.691 Y4.344
X70.806 Y4.395
X69.921 Y4.429
X69.035 Y4.452
X68.149 Y4.468
X67.263 Y4.479
X66.377 Y4.486
X65.491 Y4.49
X64.605 Y4.494
X62.832 Y4.497
X59.288 Y4.499
X44.224 Y4.5
X43.444 Y4.499
X43.204 Y4.474
X42.974 Y4.4
X42.765 Y4.28
X42.584 Y4.12
X42.441 Y3.926
X42.228 Y3.566
X42.182 Y3.499
X42.041 Y3.297
X42.027 Y3.28
X41.696 Y2.895
X41.001 Y2.103
G3 X41.071 Y1.399 I0.387 J-0.317
G1 X41.139 Y1.344 Z-6.492
X41.204 Y1.291 Z-6.47
X41.265 Y1.241 Z-6.433
X41.32 Y1.196 Z-6.383
X41.368 Y1.157 Z-6.321
X41.407 Y1.125 Z-6.25
X41.435 Y1.102 Z-6.171
X41.453 Y1.088 Z-6.087
X41.458 Y1.083 Z-6
G0 Z-5.5
X77.608 Y1.276
G1 Z-6 F1000
X77.607 Y1.283 Z-6.087
X77.604 Y1.306 Z-6.171
X77.598 Y1.342 Z-6.25
X77.591 Y1.392 Z-6.321
X77.582 Y1.453 Z-6.383
X77.571 Y1.523 Z-6.433
X77.559 Y1.601 Z-6.47
X77.546 Y1.684 Z-6.492
X77.533 Y1.77 Z-6.5
G3 X77.226 Y2.493 I-1.565 J-0.238
G1 X76.402 Y3.499
X76.252 Y3.7
X76.212 Y3.757
X76.115 Y3.901
X76.058 Y4.003
X75.967 Y4.15
X75.855 Y4.301
X75.709 Y4.468
X75.517 Y4.655
X75.292 Y4.842
X75.01 Y5.04
X74.655 Y5.249
X74.218 Y5.461
X73.658 Y5.679
X72.914 Y5.902
X72.047 Y6.088
X71.171 Y6.216
X70.289 Y6.304
X69.405 Y6.365
X68.52 Y6.407
X67.634 Y6.436
X66.748 Y6.456
X65.862 Y6.47
X64.976 Y6.48
X64.09 Y6.486
X63.204 Y6.49
X61.432 Y6.496
X58.773 Y6.499
X51.684 Y6.5
X45.481
X44.635 Y6.489
X44.417 Y6.469
X44.163 Y6.416
X43.927 Y6.309
X43.72 Y6.152
X43.553 Y5.953
X43.435 Y5.722
X43.353 Y5.509
X43.246 Y5.308
X43.017 Y4.906
X42.545 Y4.102
X42.441 Y3.926
G3 X42.641 Y3.248 I0.439 J-0.239
G1 X42.717 Y3.206 Z-6.492
X42.791 Y3.166 Z-6.47
X42.861 Y3.128 Z-6.433
X42.923 Y3.094 Z-6.383
X42.977 Y3.064 Z-6.321
X43.021 Y3.041 Z-6.25
X43.054 Y3.023 Z-6.171
X43.073 Y3.012 Z-6.087
X43.08 Y3.009 Z-6
G0 Z-5.5
X76.215 Y2.737
G1 Z-6 F1000
Y2.745 Z-6.087
X76.216 Y2.768 Z-6.171
X76.217 Y2.804 Z-6.25
X76.218 Y2.854 Z-6.321
X76.22 Y2.916 Z-6.383
X76.222 Y2.987 Z-6.433
X76.225 Y3.066 Z-6.47
X76.227 Y3.15 Z-6.492
X76.23 Y3.237 Z-6.5
G3 X76.058 Y4.003 I-1.582 J0.047
G1 X76.003 Y4.102
X75.894 Y4.303
X75.249 Y5.509
X75.143 Y5.71
X75.061 Y5.854
X74.941 Y6.03
X74.786 Y6.222
X74.609 Y6.409
X74.375 Y6.618
X74.089 Y6.836
X73.747 Y7.054
X73.313 Y7.286
X72.774 Y7.52
X72.085 Y7.754
X71.226 Y7.972
X70.353 Y8.127
X69.474 Y8.236
X68.591 Y8.314
X67.707 Y8.369
X66.822 Y8.408
X65.936 Y8.436
X65.05 Y8.455
X64.164 Y8.469
X63.278 Y8.478
X62.392 Y8.485
X61.506 Y8.489
X59.734 Y8.495
X57.075 Y8.498
X50.872 Y8.5
X47.328
X46.442 Y8.497
X45.657 Y8.476
X45.142 Y8.42
X45.003 Y8.394
X44.764 Y8.321
X44.547 Y8.2
X44.36 Y8.034
X44.212 Y7.833
X44.111 Y7.605
X44.083 Y7.52
X44.038 Y7.388
X43.583 Y6.113
X43.435 Y5.722
G3 X43.746 Y5.088 I0.473 J-0.161
G1 X43.828 Y5.06 Z-6.492
X43.908 Y5.033 Z-6.47
X43.983 Y5.007 Z-6.433
X44.05 Y4.984 Z-6.383
X44.109 Y4.964 Z-6.321
X44.156 Y4.948 Z-6.25
X44.191 Y4.936 Z-6.171
X44.212 Y4.929 Z-6.087
X44.219 Y4.926 Z-6
G0 Z-5.5
X75.253 Y4.439
G1 Z-6 F1000
Y4.447 Z-6.087
X75.255 Y4.469 Z-6.171
X75.257 Y4.506 Z-6.25
X75.261 Y4.556 Z-6.321
X75.265 Y4.618 Z-6.383
X75.27 Y4.689 Z-6.433
X75.275 Y4.768 Z-6.47
X75.281 Y4.852 Z-6.492
X75.287 Y4.938 Z-6.5
G3 X75.143 Y5.71 I-1.579 J0.107
G1 X75.042 Y5.912
X74.957 Y6.113
X74.891 Y6.314
X74.766 Y6.716
X74.643 Y7.118
X74.592 Y7.259
X74.515 Y7.429
X74.419 Y7.602
X74.295 Y7.79
X74.127 Y8.004
X73.937 Y8.209
X73.69 Y8.436
X73.382 Y8.677
X73.025 Y8.912
X72.569 Y9.163
X72.01 Y9.414
X71.303 Y9.665
X70.448 Y9.895
X69.577 Y10.062
X68.7 Y10.183
X67.818 Y10.272
X66.934 Y10.336
X66.049 Y10.382
X65.164 Y10.416
X64.278 Y10.44
X63.392 Y10.457
X62.506 Y10.47
X61.62 Y10.479
X60.734 Y10.485
X59.848 Y10.489
X58.075 Y10.495
X55.417 Y10.498
X49.214 Y10.5
X48.328 Y10.499
X47.442 Y10.493
X46.556 Y10.466
X45.976 Y10.409
X45.519 Y10.326
X45.274 Y10.261
X45.023 Y10.163
X44.802 Y10.009
X44.621 Y9.808
X44.492 Y9.572
X44.42 Y9.312
X44.236 Y8.123
X44.196 Y7.922
X44.148 Y7.721
X44.111 Y7.605
G3 X44.455 Y6.988 I0.481 J-0.136
G1 X44.539 Y6.964 Z-6.492
X44.62 Y6.941 Z-6.47
X44.696 Y6.919 Z-6.433
X44.764 Y6.9 Z-6.383
X44.824 Y6.883 Z-6.321
X44.872 Y6.869 Z-6.25
X44.907 Y6.859 Z-6.171
X44.929 Y6.853 Z-6.087
X44.936 Y6.851 Z-6
G0 Z-5.5
X74.53 Y5.847
G1 Z-6 F1000
X74.532 Y5.855 Z-6.087
X74.537 Y5.876 Z-6.171
X74.546 Y5.912 Z-6.25
X74.558 Y5.961 Z-6.321
X74.573 Y6.021 Z-6.383
X74.59 Y6.09 Z-6.433
X74.609 Y6.167 Z-6.47
X74.629 Y6.248 Z-6.492
X74.65 Y6.333 Z-6.5
G3 X74.643 Y7.118 I-1.537 J0.379
G1 X74.338 Y8.123
X74.285 Y8.324
X74.242 Y8.526
X74.224 Y8.636
X74.193 Y8.783
X74.141 Y8.947
X74.073 Y9.113
X73.977 Y9.303
X73.853 Y9.506
X73.701 Y9.715
X73.496 Y9.953
X73.265 Y10.182
X72.967 Y10.433
X72.605 Y10.692
X72.167 Y10.955
X71.632 Y11.219
X70.95 Y11.491
X70.103 Y11.752
X69.238 Y11.947
X68.364 Y12.092
X67.485 Y12.2
X66.602 Y12.28
X65.718 Y12.339
X64.833 Y12.382
X63.947 Y12.415
X63.062 Y12.438
X62.176 Y12.455
X61.29 Y12.468
X60.403 Y12.477
X59.517 Y12.483
X58.631 Y12.488
X56.859 Y12.494
X54.201 Y12.498
X50.656 Y12.499
X49.77
X48.884 Y12.496
X47.998 Y12.484
X47.113 Y12.442
X46.403 Y12.365
X45.936 Y12.276
X45.526 Y12.163
X45.365 Y12.105
X45.123 Y11.983
X44.915 Y11.809
X44.754 Y11.592
X44.646 Y11.343
X44.599 Y11.077
X44.579 Y10.737
X44.537 Y10.134
X44.515 Y9.933
X44.42 Y9.312
G3 X44.858 Y8.756 I0.496 J-0.059
G1 X44.944 Y8.746 Z-6.492
X45.027 Y8.736 Z-6.47
X45.106 Y8.727 Z-6.433
X45.177 Y8.718 Z-6.383
X45.238 Y8.711 Z-6.321
X45.288 Y8.705 Z-6.25
X45.324 Y8.701 Z-6.171
X45.347 Y8.698 Z-6.087
X45.354 Y8.697 Z-6
G0 Z-5.5
X73.941 Y7.392
G1 Z-6 F1000
X73.944 Y7.399 Z-6.087
X73.952 Y7.42 Z-6.171
X73.966 Y7.454 Z-6.25
X73.984 Y7.501 Z-6.321
X74.007 Y7.558 Z-6.383
X74.033 Y7.625 Z-6.433
X74.062 Y7.698 Z-6.47
X74.093 Y7.776 Z-6.492
X74.125 Y7.857 Z-6.5
G3 X74.224 Y8.636 I-1.471 J0.583
G1 X74.21 Y8.727
X74.071 Y10.134
X74.049 Y10.282
X74.012 Y10.441
X73.953 Y10.625
X73.873 Y10.819
X73.767 Y11.028
X73.624 Y11.26
X73.456 Y11.489
X73.229 Y11.752
X72.973 Y12.005
X72.638 Y12.286
X72.247 Y12.564
X71.755 Y12.858
X71.183 Y13.139
X70.447 Y13.43
X69.6 Y13.689
X68.736 Y13.887
X67.863 Y14.039
X66.985 Y14.154
X66.103 Y14.241
X65.219 Y14.307
X64.334 Y14.357
X63.449 Y14.394
X62.563 Y14.422
X61.678 Y14.443
X60.792 Y14.458
X59.905 Y14.469
X59.019 Y14.478
X58.133 Y14.484
X57.247 Y14.488
X55.475 Y14.494
X52.817 Y14.498
X51.044
X50.158 Y14.496
X49.272 Y14.488
X48.386 Y14.465
X47.502 Y14.411
X46.699 Y14.315
X46.141 Y14.201
X45.731 Y14.083
X45.376 Y13.949
X45.164 Y13.819
X44.983 Y13.646
X44.844 Y13.44
X44.751 Y13.208
X44.71 Y12.962
X44.599 Y11.077
G3 X45.087 Y10.565 I0.5 J-0.012
G1 X45.174 Y10.563 Z-6.492
X45.258 Y10.561 Z-6.47
X45.337 Y10.559 Z-6.433
X45.408 Y10.557 Z-6.383
X45.47 Y10.556 Z-6.321
X45.52 Y10.555 Z-6.25
X45.557 Y10.554 Z-6.171
X45.579 Y10.553 Z-6.087
X45.587 Z-6
G0 Z-5.5
X73.712 Y8.91
G1 Z-6 F1000
X73.715 Y8.917 Z-6.087
X73.725 Y8.937 Z-6.171
X73.741 Y8.97 Z-6.25
X73.762 Y9.016 Z-6.321
X73.788 Y9.071 Z-6.383
X73.818 Y9.136 Z-6.433
X73.852 Y9.208 Z-6.47
X73.887 Y9.284 Z-6.492
X73.924 Y9.363 Z-6.5
G3 X74.071 Y10.134 I-1.433 J0.672
G1 X74.031 Y10.536
X74.015 Y10.737
X74 Y11.341
Y11.542
X73.989 Y11.771
X73.968 Y11.924
X73.93 Y12.104
X73.873 Y12.293
X73.793 Y12.5
X73.681 Y12.731
X73.544 Y12.963
X73.358 Y13.228
X73.146 Y13.484
X72.859 Y13.778
X72.539 Y14.057
X72.115 Y14.371
X71.642 Y14.665
X71.034 Y14.979
X70.285 Y15.292
X69.443 Y15.567
X68.583 Y15.782
X67.713 Y15.949
X66.836 Y16.079
X65.956 Y16.18
X65.073 Y16.257
X64.189 Y16.316
X63.304 Y16.362
X62.419 Y16.396
X61.533 Y16.422
X60.647 Y16.442
X59.761 Y16.457
X58.875 Y16.468
X57.989 Y16.477
X57.103 Y16.483
X56.217 Y16.487
X54.444 Y16.493
X52.672 Y16.496
X51.786
X50.9 Y16.493
X50.014 Y16.484
X49.128 Y16.46
X48.243 Y16.413
X47.361 Y16.327
X46.608 Y16.205
X46.091 Y16.077
X45.699 Y15.947
X45.53 Y15.875
X45.305 Y15.748
X45.114 Y15.575
X44.965 Y15.363
X44.866 Y15.125
X44.822 Y14.87
X44.71 Y12.962
G3 X45.198 Y12.451 I0.5 J-0.012
G1 X45.285 Y12.449 Z-6.492
X45.369 Y12.446 Z-6.47
X45.448 Y12.445 Z-6.433
X45.519 Y12.443 Z-6.383
X45.581 Y12.441 Z-6.321
X45.631 Y12.44 Z-6.25
X45.668 Y12.439 Z-6.171
X45.69 Z-6.087
X45.698 Z-6
G0 Z-5.5
X73.523 Y10.358
G1 Z-6 F1000
X73.527 Y10.365 Z-6.087
X73.539 Y10.384 Z-6.171
X73.557 Y10.416 Z-6.25
X73.583 Y10.459 Z-6.321
X73.614 Y10.512 Z-6.383
X73.651 Y10.573 Z-6.433
X73.691 Y10.641 Z-6.47
X73.734 Y10.713 Z-6.492
X73.779 Y10.788 Z-6.5
G3 X74 Y11.542 I-1.36 J0.809
G1 Y13.351
X73.993 Y13.501
X73.981 Y13.651
X73.957 Y13.799
X73.925 Y13.945
X73.883 Y14.09
X73.834 Y14.231
X73.777 Y14.37
X73.714 Y14.506
X73.644 Y14.639
X73.569 Y14.769
X73.488 Y14.895
X73.403 Y15.019
X73.314 Y15.139
X73.22 Y15.256
X73.123 Y15.37
X73.021 Y15.481
X72.917 Y15.589
X72.81 Y15.693
X72.7 Y15.795
X72.587 Y15.894
X72.472 Y15.99
X72.354 Y16.083
X72.234 Y16.173
X72.112 Y16.261
X71.989 Y16.346
X71.864 Y16.429
X71.737 Y16.509
X71.608 Y16.586
X71.478 Y16.661
X71.347 Y16.733
X71.214 Y16.804
X71.081 Y16.872
X70.946 Y16.938
X70.81 Y17.001
X70.673 Y17.063
X70.536 Y17.122
X70.397 Y17.18
X70.258 Y17.236
X70.118 Y17.289
X69.977 Y17.341
X69.836 Y17.391
X69.694 Y17.44
X69.551 Y17.487
X69.408 Y17.532
X69.265 Y17.576
X69.121 Y17.618
X68.976 Y17.658
X68.832 Y17.698
X68.686 Y17.735
X68.541 Y17.772
X68.395 Y17.807
X68.249 Y17.841
X68.103 Y17.874
X67.956 Y17.905
X67.806 Y17.937
X67.646 Y17.968
X67.499 Y17.997
X67.346 Y18.025
X67.182 Y18.054
X67.005 Y18.083
X66.814 Y18.114
X66.628 Y18.143
X66.438 Y18.17
X66.233 Y18.199
X66.008 Y18.228
X65.771 Y18.258
X65.538 Y18.285
X65.28 Y18.313
X64.991 Y18.342
X64.705 Y18.369
X64.388 Y18.397
X64.027 Y18.425
X63.662 Y18.451
X63.233 Y18.479
X62.773 Y18.505
X62.228 Y18.532
X61.62 Y18.558
X60.882 Y18.584
X59.996 Y18.609
X59.11 Y18.627
X58.224 Y18.641
X57.338 Y18.651
X56.452 Y18.658
X55.566 Y18.664
X54.68 Y18.668
X53.794 Y18.671
X52.907 Y18.672
X52.021 Y18.671
X51.578 Y18.668
X51.115 Y18.663
X50.609 Y18.653
X50.315 Y18.646
X50.032 Y18.636
X49.711 Y18.624
X49.451 Y18.611
X49.283 Y18.602
X49.103 Y18.591
X48.907 Y18.577
X48.695 Y18.561
X48.537 Y18.547
X48.388 Y18.534
X48.239 Y18.518
X48.09 Y18.502
X47.941 Y18.484
X47.792 Y18.466
X47.643 Y18.445
X47.495 Y18.423
X47.347 Y18.4
X47.199 Y18.374
X47.051 Y18.347
X46.904 Y18.318
X46.757 Y18.286
X46.611 Y18.252
X46.466 Y18.216
X46.321 Y18.176
X46.177 Y18.134
X46.035 Y18.088
X45.893 Y18.038
X45.753 Y17.985
X45.664 Y17.948
X45.436 Y17.822
X45.241 Y17.649
X45.089 Y17.436
X44.989 Y17.195
X44.944 Y16.938
X44.822 Y14.87
G3 X45.31 Y14.358 I0.5 J-0.012
G1 X45.397 Y14.356 Z-6.492
X45.481 Y14.354 Z-6.47
X45.56 Y14.352 Z-6.433
X45.632 Y14.35 Z-6.383
X45.693 Y14.349 Z-6.321
X45.743 Y14.348 Z-6.25
X45.78 Y14.347 Z-6.171
X45.803 Y14.346 Z-6.087
X45.81 Z-6
G0 Z-5.5
X73.523 Y12.168
G1 Z-6 F1000
X73.527 Y12.175 Z-6.087
X73.539 Y12.194 Z-6.171
X73.557 Y12.226 Z-6.25
X73.583 Y12.269 Z-6.321
X73.614 Y12.322 Z-6.383
X73.651 Y12.383 Z-6.433
X73.691 Y12.451 Z-6.47
X73.734 Y12.523 Z-6.492
X73.779 Y12.598 Z-6.5
G3 X74 Y13.351 I-1.36 J0.809
G1 Y15.161
X73.991 Y15.337
X73.968 Y15.513
X73.927 Y15.707
X73.863 Y15.918
X73.774 Y16.149
X73.653 Y16.396
X73.498 Y16.66
X73.3 Y16.942
X73.053 Y17.24
X72.749 Y17.551
X72.375 Y17.877
X71.919 Y18.215
X71.361 Y18.562
X70.574 Y18.968
X69.89 Y19.531
X69.415 Y20.28
X69.096 Y21.106
X68.886 Y21.967
X68.748 Y22.842
X68.659 Y23.724
X68.602 Y24.608
X68.565 Y25.494
X68.542 Y26.38
X68.527 Y27.266
X68.517 Y28.152
X68.511 Y29.038
X68.507 Y29.924
X68.503 Y31.696
X68.5 Y35.241
Y38.085
X68.439 Y38.222
X68.355 Y38.346
X68.257 Y38.459
X68.134 Y38.579
X67.975 Y38.711
X67.769 Y38.855
X67.506 Y39.009
X67.167 Y39.173
X66.721 Y39.347
X66.116 Y39.527
X65.249 Y39.712
X64.371 Y39.827
X63.488 Y39.9
X62.603 Y39.946
X61.717 Y39.975
X60.831 Y39.994
X60.46 Y39.998
X60.32 Y39.943
X60.195 Y39.86
X60.08 Y39.763
X59.963 Y39.645
X59.832 Y39.49
X59.689 Y39.291
X59.536 Y39.035
X59.373 Y38.706
X59.201 Y38.275
X59.021 Y37.693
X58.834 Y36.857
X58.712 Y35.979
X58.634 Y35.096
X58.586 Y34.211
X58.554 Y33.326
X58.535 Y32.44
X58.522 Y31.554
X58.514 Y30.668
X58.509 Y29.782
X58.506 Y28.896
X58.502 Y27.123
X58.5 Y23.579
X58.494 Y23.357
X58.446 Y23.141
X58.271 Y22.734
X57.708 Y22.05
X56.959 Y21.577
X56.131 Y21.26
X55.27 Y21.052
X54.394 Y20.917
X53.512 Y20.829
X52.628 Y20.769
X51.743 Y20.723
X50.858 Y20.681
X49.973 Y20.631
X49.09 Y20.565
X48.208 Y20.473
X47.332 Y20.34
X46.618 Y20.185
X46.149 Y20.043
X45.748 Y19.885
X45.711 Y19.867
X45.503 Y19.737
X45.326 Y19.565
X45.19 Y19.36
X45.1 Y19.131
X45.059 Y18.888
X44.944 Y16.938
G3 X45.432 Y16.426 I0.5 J-0.012
G1 X45.519 Y16.424 Z-6.492
X45.603 Y16.422 Z-6.47
X45.682 Y16.42 Z-6.433
X45.754 Y16.419 Z-6.383
X45.815 Y16.417 Z-6.321
X45.865 Y16.416 Z-6.25
X45.902 Y16.415 Z-6.171
X45.925 Y16.414 Z-6.087
X45.932 Z-6
G0 Z-5.5
X73.523 Y13.978
G1 Z-6 F1000
X73.527 Y13.984 Z-6.087
X73.539 Y14.004 Z-6.171
X73.557 Y14.035 Z-6.25
X73.583 Y14.078 Z-6.321
X73.614 Y14.131 Z-6.383
X73.651 Y14.193 Z-6.433
X73.691 Y14.261 Z-6.47
X73.734 Y14.333 Z-6.492
X73.779 Y14.408 Z-6.5
G3 X74 Y15.161 I-1.36 J0.809
G1 Y16.971
X73.992 Y17.136
X73.967 Y17.324
X73.926 Y17.515
X73.859 Y17.738
X73.768 Y17.972
X73.645 Y18.226
X73.481 Y18.505
X73.282 Y18.789
X72.716 Y19.471
X72.155 Y20.157
X71.701 Y20.918
X71.356 Y21.734
X71.102 Y22.583
X70.919 Y23.45
X70.789 Y24.327
X70.698 Y25.208
X70.635 Y26.092
X70.591 Y26.977
X70.562 Y27.863
X70.542 Y28.748
X70.528 Y29.634
X70.519 Y30.521
X70.512 Y31.407
X70.508 Y32.293
X70.504 Y34.065
X70.502 Y35.837
X70.499 Y36.604
X70.46 Y37.061
X70.398 Y37.432
X70.315 Y37.765
X70.209 Y38.078
X70.079 Y38.382
X69.922 Y38.679
X69.736 Y38.972
X69.52 Y39.257
X69.272 Y39.536
X68.972 Y39.823
X68.626 Y40.104
X68.23 Y40.377
X67.728 Y40.666
X67.186 Y40.922
X66.498 Y41.182
X65.647 Y41.428
X64.779 Y41.606
X63.902 Y41.734
X63.021 Y41.824
X62.137 Y41.887
X61.678 Y41.885
X61.312 Y41.853
X60.982 Y41.798
X60.673 Y41.721
X60.377 Y41.621
X60.089 Y41.497
X59.806 Y41.347
X59.523 Y41.167
X59.239 Y40.952
X58.965 Y40.708
X58.69 Y40.42
X58.403 Y40.067
X58.14 Y39.684
X57.855 Y39.188
X57.597 Y38.643
X57.341 Y37.965
X57.096 Y37.113
X56.918 Y36.245
X56.791 Y35.368
X56.702 Y34.486
X56.639 Y33.603
X56.595 Y32.717
X56.565 Y31.832
X56.544 Y30.946
X56.53 Y30.06
X56.52 Y29.174
X56.514 Y28.288
X56.509 Y27.402
X56.505 Y26.073
X56.433 Y25.635
X56.262 Y25.226
X55.772 Y24.488
X55.081 Y23.933
X54.29 Y23.534
X53.45 Y23.253
X52.587 Y23.053
X51.713 Y22.907
X50.834 Y22.791
X49.954 Y22.687
X49.074 Y22.58
X48.197 Y22.457
X47.325 Y22.301
X46.638 Y22.135
X46.172 Y21.981
X45.887 Y21.861
X45.661 Y21.734
X45.468 Y21.561
X45.318 Y21.349
X45.219 Y21.11
X45.175 Y20.854
X45.059 Y18.888
G3 X45.547 Y18.376 I0.5 J-0.012
G1 X45.634 Y18.374 Z-6.492
X45.718 Y18.372 Z-6.47
X45.797 Y18.37 Z-6.433
X45.868 Y18.369 Z-6.383
X45.93 Y18.367 Z-6.321
X45.98 Y18.366 Z-6.25
X46.017 Y18.365 Z-6.171
X46.039 Y18.364 Z-6.087
X46.047 Z-6
G0 Z-5.5
X73.523 Y15.787
G1 Z-6 F1000
X73.527 Y15.794 Z-6.087
X73.539 Y15.813 Z-6.171
X73.557 Y15.845 Z-6.25
X73.583 Y15.888 Z-6.321
X73.614 Y15.941 Z-6.383
X73.651 Y16.002 Z-6.433
X73.691 Y16.07 Z-6.47
X73.734 Y16.143 Z-6.492
X73.779 Y16.217 Z-6.5
G3 X74 Y16.971 I-1.36 J0.809
G1 Y18.982
X73.991 Y19.169
X73.932 Y19.617
X73.746 Y20.484
X73.516 Y21.339
X73.296 Y22.198
X73.108 Y23.064
X72.955 Y23.936
X72.836 Y24.815
X72.745 Y25.696
X72.677 Y26.579
X72.627 Y27.464
X72.59 Y28.35
X72.564 Y29.235
X72.545 Y30.121
X72.531 Y31.007
X72.522 Y31.893
X72.515 Y32.779
X72.51 Y33.665
X72.507 Y34.552
X72.495 Y35.438
X72.444 Y36.314
X72.344 Y37.028
X72.209 Y37.637
X72.035 Y38.201
X71.824 Y38.729
X71.578 Y39.226
X71.293 Y39.701
X70.968 Y40.157
X70.598 Y40.595
X70.17 Y41.027
X69.686 Y41.442
X69.132 Y41.846
X68.533 Y42.211
X67.821 Y42.571
X67.001 Y42.907
X66.157 Y43.176
X65.296 Y43.388
X64.426 Y43.552
X63.548 Y43.675
X62.768 Y43.73
X62.104 Y43.724
X61.504 Y43.671
X60.96 Y43.577
X60.446 Y43.446
X59.952 Y43.277
X59.477 Y43.07
X59.018 Y42.824
X58.568 Y42.535
X58.133 Y42.203
X57.709 Y41.822
X57.306 Y41.396
X56.914 Y40.911
X56.529 Y40.344
X56.147 Y39.673
X55.81 Y38.951
X55.5 Y38.121
X55.255 Y37.269
X55.065 Y36.404
X54.918 Y35.53
X54.806 Y34.651
X54.723 Y33.768
X54.661 Y32.884
X54.616 Y32
X54.583 Y31.114
X54.559 Y30.228
X54.541 Y29.342
X54.529 Y28.456
X54.48 Y28.016
X54.347 Y27.593
X53.934 Y26.809
X53.298 Y26.192
X52.545 Y25.725
X51.73 Y25.377
X50.885 Y25.111
X50.025 Y24.898
X49.158 Y24.713
X48.29 Y24.536
X47.425 Y24.342
X46.672 Y24.134
X46.203 Y23.962
X45.971 Y23.856
X45.755 Y23.727
X45.572 Y23.554
X45.43 Y23.346
X45.335 Y23.113
X45.294 Y22.864
X45.175 Y20.854
G3 X45.663 Y20.342 I0.5 J-0.012
G1 X45.75 Y20.34 Z-6.492
X45.834 Y20.338 Z-6.47
X45.913 Y20.336 Z-6.433
X45.984 Y20.335 Z-6.383
X46.046 Y20.333 Z-6.321
X46.096 Y20.332 Z-6.25
X46.133 Y20.331 Z-6.171
X46.155 Z-6.087
X46.163 Y20.33 Z-6
G0 Z5
X73.523 Y17.798
Z-5.5
G1 Z-6 F1000
X73.527 Y17.805 Z-6.087
X73.539 Y17.824 Z-6.171
X73.557 Y17.856 Z-6.25
X73.583 Y17.899 Z-6.321
X73.614 Y17.952 Z-6.383
X73.651 Y18.013 Z-6.433
X73.691 Y18.081 Z-6.47
X73.734 Y18.153 Z-6.492
X73.779 Y18.228 Z-6.5
G3 X74 Y18.982 I-1.36 J0.809
G1 Y36.274
X73.956 Y37.159
X73.886 Y37.717
X73.765 Y38.298
X73.592 Y38.89
X73.364 Y39.485
X73.081 Y40.077
X72.741 Y40.663
X72.341 Y41.24
X71.882 Y41.8
X71.368 Y42.333
X70.791 Y42.842
X70.131 Y43.336
X69.382 Y43.809
X68.597 Y44.221
X67.784 Y44.573
X66.949 Y44.87
X66.098 Y45.117
X65.235 Y45.318
X64.362 Y45.468
X63.48 Y45.561
X62.638 Y45.584
X61.844 Y45.542
X61.094 Y45.442
X60.382 Y45.288
X59.702 Y45.082
X59.05 Y44.826
X58.424 Y44.52
X57.82 Y44.163
X57.241 Y43.754
X56.683 Y43.289
X56.144 Y42.759
X55.617 Y42.153
X55.118 Y41.474
X54.651 Y40.72
X54.246 Y39.932
X53.9 Y39.117
X53.611 Y38.279
X53.373 Y37.425
X53.179 Y36.561
X53.023 Y35.688
X52.9 Y34.811
X52.803 Y33.93
X52.727 Y33.047
X52.67 Y32.163
X52.626 Y31.278
X52.592 Y30.392
X52.417 Y29.524
X51.96 Y28.764
X51.321 Y28.151
X50.578 Y27.668
X49.779 Y27.285
X48.951 Y26.969
X48.11 Y26.689
X47.267 Y26.417
X46.54 Y26.156
X46.073 Y25.945
X46.017 Y25.914
X45.781 Y25.741
X45.595 Y25.515
X45.471 Y25.25
X45.417 Y24.962
X45.294 Y22.864
G3 X45.781 Y22.352 I0.5 J-0.012
G1 X45.868 Y22.35 Z-6.492
X45.952 Y22.348 Z-6.47
X46.031 Y22.346 Z-6.433
X46.103 Y22.345 Z-6.383
X46.164 Y22.343 Z-6.321
X46.214 Y22.342 Z-6.25
X46.251 Y22.341 Z-6.171
X46.274 Z-6.087
X46.281 Y22.34 Z-6
G0 Z-5.5
X73.523 Y35.091
G1 Z-6 F1000
X73.527 Y35.097 Z-6.087
X73.539 Y35.117 Z-6.171
X73.557 Y35.148 Z-6.25
X73.583 Y35.191 Z-6.321
X73.614 Y35.244 Z-6.383
X73.651 Y35.306 Z-6.433
X73.691 Y35.374 Z-6.47
X73.734 Y35.446 Z-6.492
X73.779 Y35.521 Z-6.5
G3 X74 Y36.274 I-1.36 J0.809
G1 Y40.095
X73.981 Y40.472
X73.944 Y40.756
X73.875 Y41.076
X73.774 Y41.413
X73.623 Y41.801
X73.43 Y42.199
X73.171 Y42.639
X72.84 Y43.11
X72.45 Y43.58
X71.948 Y44.094
X71.352 Y44.614
X70.684 Y45.109
X69.932 Y45.577
X69.146 Y45.987
X68.334 Y46.343
X67.503 Y46.649
X66.655 Y46.908
X65.795 Y47.119
X64.924 Y47.283
X64.045 Y47.393
X63.16 Y47.444
X62.274 Y47.432
X61.391 Y47.355
X60.517 Y47.21
X59.667 Y46.999
X58.845 Y46.723
X58.052 Y46.383
X57.286 Y45.979
X56.547 Y45.511
X55.84 Y44.978
X55.177 Y44.39
X54.562 Y43.752
X53.997 Y43.069
X53.484 Y42.347
X53.129 Y41.766
X53.018 Y41.53
X52.963 Y41.274
X52.966 Y41.013
X52.98 Y40.899
X52.998 Y40.698
X53 Y40.095
Y38.285
X52.998 Y38.084
X52.976 Y37.682
X52.964 Y37.481
X52.869 Y36.877
X52.756 Y36.274
X52.7 Y36.073
X52.685 Y36.025
X52.534 Y35.671
X52.484 Y35.569
X52.228 Y35.068
X52.082 Y34.783
X52.013 Y34.666
X51.883 Y34.465
X51.664 Y34.084
X51.473 Y33.682
X51.273 Y33.155
X51.027 Y32.304
X50.747 Y31.463
X50.265 Y30.72
X49.636 Y30.096
X48.917 Y29.579
X48.145 Y29.143
X47.348 Y28.755
X46.547 Y28.377
X46.155 Y28.163
X45.917 Y27.991
X45.729 Y27.764
X45.604 Y27.497
X45.55 Y27.208
X45.417 Y24.962
G3 X45.905 Y24.45 I0.5 J-0.012
G1 X45.992 Y24.448 Z-6.492
X46.076 Y24.446 Z-6.47
X46.155 Y24.444 Z-6.433
X46.226 Y24.442 Z-6.383
X46.288 Y24.441 Z-6.321
X46.338 Y24.44 Z-6.25
X46.375 Y24.439 Z-6.171
X46.397 Y24.438 Z-6.087
X46.405 Z-6
G0 Z-5.5
X73.523 Y38.911
G1 Z-6 F1000
X73.527 Y38.918 Z-6.087
X73.539 Y38.937 Z-6.171
X73.557 Y38.969 Z-6.25
X73.583 Y39.012 Z-6.321
X73.614 Y39.065 Z-6.383
X73.651 Y39.126 Z-6.433
X73.691 Y39.194 Z-6.47
X73.734 Y39.267 Z-6.492
X73.779 Y39.341 Z-6.5
G3 X74 Y40.095 I-1.36 J0.809
G1 Y42.709
X73.99 Y42.906
X73.96 Y43.137
X73.901 Y43.41
X73.819 Y43.685
X73.693 Y44.008
X73.527 Y44.352
X73.306 Y44.726
X73.025 Y45.127
X72.665 Y45.56
X72.237 Y45.998
X71.691 Y46.475
X71.03 Y46.964
X70.278 Y47.432
X69.491 Y47.841
X68.679 Y48.196
X67.847 Y48.501
X66.999 Y48.758
X66.139 Y48.968
X65.268 Y49.131
X64.389 Y49.245
X63.505 Y49.307
X62.619 Y49.316
X61.734 Y49.268
X60.854 Y49.161
X59.984 Y48.996
X59.126 Y48.772
X58.286 Y48.49
X57.467 Y48.152
X56.673 Y47.759
X55.908 Y47.311
X55.178 Y46.81
X54.483 Y46.259
X53.828 Y45.663
X53.213 Y45.025
X52.639 Y44.35
X52.571 Y44.256
X52.446 Y44.04
X52.37 Y43.803
X52.346 Y43.555
X52.376 Y43.307
X52.457 Y43.072
X52.67 Y42.617
X52.676 Y42.599
X52.794 Y42.106
X52.833 Y41.904
X52.9 Y41.502
X52.93 Y41.301
X52.966 Y41.013
G3 X53.5 Y40.594 Z-6.31 I0.494 J0.079
G1 X53.515 Y40.595 Z-6.306
X53.539 Y40.597 Z-6.3
X73.483 Y42.223
X73.507 Y42.225 Z-6.306
X73.541 Y42.228 Z-6.315
G3 X74 Y42.709 Z-6.5 I-0.041 J0.498
G1 Y44.921
X73.991 Y45.106
X73.961 Y45.331
X73.912 Y45.56
X73.831 Y45.831
X73.718 Y46.121
X73.567 Y46.433
X73.356 Y46.791
X73.106 Y47.146
X72.765 Y47.558
X72.367 Y47.966
X71.864 Y48.404
X71.238 Y48.867
X70.486 Y49.336
X69.698 Y49.742
X68.885 Y50.093
X68.051 Y50.393
X67.201 Y50.644
X66.339 Y50.848
X65.467 Y51.006
X64.588 Y51.118
X63.704 Y51.183
X62.818 Y51.2
X61.933 Y51.168
X61.05 Y51.085
X60.175 Y50.95
X59.309 Y50.763
X58.455 Y50.525
X57.617 Y50.238
X56.797 Y49.901
X55.999 Y49.517
X55.224 Y49.086
X54.478 Y48.608
X53.762 Y48.086
X53.08 Y47.521
X52.431 Y46.917
X52.007 Y46.466
X51.718 Y46.105
X51.506 Y45.79
X51.398 Y45.531
X51.356 Y45.255
X51.38 Y44.976
X51.47 Y44.711
X51.621 Y44.475
X51.679 Y44.404
X51.747 Y44.317
X51.88 Y44.131
X52.011 Y43.915
X52.121 Y43.714
X52.339 Y43.312
X52.439 Y43.111
X52.457 Y43.072
G3 X52.942 Y42.801 Z-6.35 I0.445 J0.228
G1 X53.114 Y42.815 Z-6.306
X53.138 Y42.817 Z-6.3
X73.483 Y44.435
X73.507 Y44.437 Z-6.306
X73.54 Y44.44 Z-6.314
G3 X74 Y44.921 Z-6.5 I-0.04 J0.498
G1 Y46.931
X73.986 Y47.211
X73.959 Y47.415
X73.911 Y47.642
X73.831 Y47.906
X73.728 Y48.171
X73.577 Y48.483
X73.388 Y48.804
X73.138 Y49.159
X72.824 Y49.538
X72.431 Y49.941
X71.96 Y50.352
X71.364 Y50.793
X70.641 Y51.243
X69.853 Y51.649
X69.038 Y51.998
X68.203 Y52.293
X67.352 Y52.539
X66.488 Y52.738
X65.615 Y52.892
X64.736 Y53.002
X63.853 Y53.068
X62.967 Y53.091
X62.081 Y53.069
X61.197 Y53.003
X60.318 Y52.891
X59.446 Y52.732
X58.584 Y52.527
X57.734 Y52.277
X56.898 Y51.982
X56.079 Y51.645
X55.278 Y51.265
X54.499 Y50.844
X53.742 Y50.382
X53.012 Y49.881
X52.31 Y49.34
X51.639 Y48.761
X51.145 Y48.263
X50.813 Y47.87
X50.586 Y47.552
X50.392 Y47.229
X50.253 Y46.95
X50.201 Y46.818
X50.128 Y46.542
X50.125 Y46.255
X50.191 Y45.977
X50.324 Y45.723
X50.514 Y45.509
X50.726 Y45.323
X50.875 Y45.189
X51.413 Y44.693
X51.478 Y44.631
X51.585 Y44.518
X51.621 Y44.475
G3 X52.045 Y44.308 Z-6.379 I0.375 J0.331
G1 X52.332 Y44.337 Z-6.306
X52.356 Y44.339 Z-6.3
X73.483 Y46.445
X73.507 Y46.447 Z-6.306
X73.55 Y46.451 Z-6.317
G3 X74 Y46.931 Z-6.5 I-0.05 J0.498
G1 Y49.053
X73.99 Y49.246
X73.965 Y49.441
X73.916 Y49.668
X73.841 Y49.919
X73.739 Y50.182
X73.589 Y50.491
X73.41 Y50.794
X73.161 Y51.149
X72.867 Y51.503
X72.475 Y51.905
X72.029 Y52.294
X71.456 Y52.718
X70.758 Y53.152
X69.97 Y53.559
X69.154 Y53.905
X68.318 Y54.197
X67.465 Y54.438
X66.601 Y54.633
X65.728 Y54.784
X64.848 Y54.893
X63.965 Y54.961
X63.079 Y54.988
X62.193 Y54.974
X61.308 Y54.919
X60.427 Y54.824
X59.552 Y54.687
X58.684 Y54.508
X57.826 Y54.287
X56.979 Y54.026
X56.146 Y53.726
X55.327 Y53.386
X54.525 Y53.009
X53.742 Y52.595
X52.979 Y52.144
X52.239 Y51.657
X51.523 Y51.135
X50.838 Y50.572
X50.254 Y50.014
X49.8 Y49.505
X49.476 Y49.078
X49.226 Y48.686
X49.054 Y48.361
X48.914 Y48.035
X48.818 Y47.752
X48.742 Y47.451
X48.728 Y47.369
X48.714 Y47.112
X48.756 Y46.858
X48.853 Y46.62
X49 Y46.408
X49.19 Y46.234
X49.413 Y46.106
X49.467 Y46.083
X49.668 Y45.991
X50.208 Y45.725
X50.272 Y45.682
X50.497 Y45.524
X50.514 Y45.509
G3 X50.9 Y45.401 Z-6.395 I0.317 J0.387
G1 X51.245 Y45.449 Z-6.306
X51.269 Y45.453 Z-6.3
X73.484 Y48.563
X73.508 Y48.566 Z-6.306
X73.57 Y48.575 Z-6.322
G3 X74 Y49.053 Z-6.5 I-0.069 J0.495
G1 Y51.064
X73.991 Y51.251
X73.965 Y51.443
X73.917 Y51.67
X73.845 Y51.909
X73.743 Y52.172
X73.598 Y52.47
X73.422 Y52.769
X73.175 Y53.12
X72.895 Y53.459
X72.51 Y53.853
X72.076 Y54.231
X71.522 Y54.641
X70.843 Y55.064
X70.055 Y55.47
X69.239 Y55.814
X68.401 Y56.103
X67.548 Y56.342
X66.683 Y56.534
X65.809 Y56.683
X64.93 Y56.791
X64.046 Y56.86
X63.161 Y56.89
X62.274 Y56.882
X61.389 Y56.837
X60.507 Y56.754
X59.629 Y56.634
X58.757 Y56.476
X57.893 Y56.279
X57.039 Y56.045
X56.195 Y55.774
X55.364 Y55.467
X54.546 Y55.125
X53.744 Y54.749
X52.958 Y54.339
X52.191 Y53.896
X51.444 Y53.42
X50.719 Y52.91
X50.024 Y52.36
X49.365 Y51.767
X48.805 Y51.178
X48.359 Y50.628
X48.014 Y50.123
X47.736 Y49.638
X47.542 Y49.225
X47.41 Y48.872
X47.311 Y48.526
X47.251 Y48.226
X47.214 Y47.919
X47.208 Y47.745
X47.228 Y47.481
X47.307 Y47.229
X47.441 Y47.001
X47.623 Y46.809
X47.843 Y46.662
X48.091 Y46.57
X48.261 Y46.527
X48.462 Y46.469
X48.663 Y46.407
X48.864 Y46.344
X49.065 Y46.258
X49.413 Y46.106
G3 X50.062 Y46.388 I0.184 J0.465
G1 X50.093 Y46.469 Z-6.492
X50.124 Y46.547 Z-6.47
X50.153 Y46.62 Z-6.433
X50.18 Y46.687 Z-6.383
X50.202 Y46.744 Z-6.321
X50.22 Y46.791 Z-6.25
X50.234 Y46.825 Z-6.171
X50.242 Y46.846 Z-6.087
X50.245 Y46.853 Z-6
G0 Z-5.5
X73.523 Y49.88
G1 Z-6 F1000
X73.527 Y49.887 Z-6.087
X73.539 Y49.906 Z-6.171
X73.557 Y49.938 Z-6.25
X73.583 Y49.981 Z-6.321
X73.614 Y50.034 Z-6.383
X73.651 Y50.095 Z-6.433
X73.691 Y50.163 Z-6.47
X73.734 Y50.235 Z-6.492
X73.779 Y50.31 Z-6.5
G3 X74 Y51.064 I-1.36 J0.809
G1 Y52.964
X73.986 Y53.234
X73.961 Y53.425
X73.913 Y53.651
X73.844 Y53.882
X73.741 Y54.145
X73.602 Y54.432
X73.427 Y54.731
X73.186 Y55.072
X72.909 Y55.407
X72.534 Y55.791
X72.105 Y56.165
X71.567 Y56.563
X70.902 Y56.977
X70.115 Y57.383
X69.298 Y57.726
X68.459 Y58.012
X67.605 Y58.248
X66.739 Y58.438
X65.866 Y58.586
X64.986 Y58.694
X64.103 Y58.763
X63.217 Y58.797
X62.331 Y58.794
X61.446 Y58.756
X60.563 Y58.684
X59.683 Y58.576
X58.808 Y58.434
X57.94 Y58.258
X57.08 Y58.046
X56.228 Y57.8
X55.388 Y57.52
X54.559 Y57.207
X53.742 Y56.862
X52.94 Y56.486
X52.153 Y56.079
X51.383 Y55.641
X50.631 Y55.172
X49.9 Y54.67
X49.195 Y54.134
X48.523 Y53.557
X47.888 Y52.938
X47.319 Y52.297
X46.85 Y51.675
X46.474 Y51.081
X46.188 Y50.538
X45.965 Y50.018
X45.811 Y49.56
X45.71 Y49.154
X45.651 Y48.798
X45.624 Y48.472
X45.623 Y48.168
X45.636 Y48.005
X45.694 Y47.72
X45.821 Y47.459
X46.008 Y47.237
X46.245 Y47.068
X46.516 Y46.963
X48.091 Y46.57
G3 X48.684 Y46.954 I0.104 J0.489
G1 X48.702 Y47.039 Z-6.492
X48.72 Y47.122 Z-6.47
X48.736 Y47.199 Z-6.433
X48.751 Y47.269 Z-6.383
X48.764 Y47.329 Z-6.321
X48.774 Y47.378 Z-6.25
X48.782 Y47.414 Z-6.171
X48.787 Y47.436 Z-6.087
X48.788 Y47.443 Z-6
G0 Z-5.5
X73.523 Y51.78
G1 Z-6 F1000
X73.527 Y51.787 Z-6.087
X73.539 Y51.806 Z-6.171
X73.557 Y51.838 Z-6.25
X73.583 Y51.881 Z-6.321
X73.614 Y51.934 Z-6.383
X73.651 Y51.995 Z-6.433
X73.691 Y52.063 Z-6.47
X73.734 Y52.136 Z-6.492
X73.779 Y52.21 Z-6.5
G3 X74 Y52.964 I-1.36 J0.809
G1 Y54.18
X74.026 Y54.773
X74.031 Y54.807
X74.046 Y54.956
X74.038 Y55.141
X74.013 Y55.331
X73.966 Y55.557
X73.896 Y55.791
X73.796 Y56.052
X73.657 Y56.34
X73.484 Y56.637
X73.246 Y56.977
X72.972 Y57.309
X72.601 Y57.693
X72.181 Y58.062
X71.649 Y58.458
X70.994 Y58.869
X70.211 Y59.276
X69.394 Y59.62
X68.556 Y59.908
X67.702 Y60.144
X66.837 Y60.335
X65.963 Y60.484
X65.084 Y60.594
X64.201 Y60.667
X63.316 Y60.706
X62.43 Y60.71
X61.544 Y60.681
X60.66 Y60.619
X59.779 Y60.525
X58.902 Y60.399
X58.03 Y60.24
X57.165 Y60.049
X56.307 Y59.826
X55.458 Y59.571
X54.62 Y59.285
X53.792 Y58.969
X52.976 Y58.623
X52.173 Y58.249
X51.384 Y57.845
X50.611 Y57.413
X49.854 Y56.951
X49.117 Y56.459
X48.403 Y55.934
X47.716 Y55.374
X47.062 Y54.777
X46.444 Y54.141
X45.87 Y53.467
X45.346 Y52.752
X44.934 Y52.082
X44.608 Y51.442
X44.356 Y50.831
X44.175 Y50.269
X44.061 Y49.783
X43.993 Y49.335
X43.969 Y48.982
X43.972 Y48.626
X43.999 Y48.33
X44.003 Y48.308
X44.079 Y48.05
X44.212 Y47.817
X44.395 Y47.62
X44.618 Y47.47
X44.87 Y47.375
X46.516 Y46.963
G3 X47.109 Y47.348 I0.104 J0.489
G1 X47.127 Y47.433 Z-6.492
X47.145 Y47.515 Z-6.47
X47.161 Y47.593 Z-6.433
X47.176 Y47.662 Z-6.383
X47.189 Y47.723 Z-6.321
X47.199 Y47.772 Z-6.25
X47.207 Y47.808 Z-6.171
X47.212 Y47.83 Z-6.087
X47.213 Y47.837 Z-6
G0 Z-5.5
X73.381 Y53.709
G1 Z-6 F1000
X73.386 Y53.715 Z-6.087
X73.401 Y53.732 Z-6.171
X73.424 Y53.761 Z-6.25
X73.456 Y53.799 Z-6.321
X73.495 Y53.847 Z-6.383
X73.54 Y53.902 Z-6.433
X73.59 Y53.963 Z-6.47
X73.644 Y54.028 Z-6.492
X73.699 Y54.095 Z-6.5
G3 X74.031 Y54.807 I-1.223 J1.004
G1 X74.057 Y54.974
X74.126 Y55.377
X74.236 Y55.98
X74.285 Y56.181
X74.321 Y56.327
X74.337 Y56.492
X74.339 Y56.665
X74.326 Y56.865
X74.293 Y57.089
X74.239 Y57.325
X74.153 Y57.595
X74.042 Y57.869
X73.881 Y58.188
X73.691 Y58.5
X73.426 Y58.865
X73.125 Y59.217
X72.72 Y59.62
X72.26 Y60.009
X71.691 Y60.416
X70.995 Y60.835
X70.202 Y61.229
X69.38 Y61.562
X68.539 Y61.84
X67.684 Y62.071
X66.817 Y62.257
X65.943 Y62.403
X65.064 Y62.51
X64.181 Y62.583
X63.295 Y62.621
X62.409 Y62.628
X61.523 Y62.602
X60.639 Y62.546
X59.757 Y62.459
X58.879 Y62.342
X58.005 Y62.195
X57.137 Y62.018
X56.275 Y61.811
X55.421 Y61.575
X54.576 Y61.309
X53.74 Y61.015
X52.915 Y60.692
X52.1 Y60.342
X51.299 Y59.965
X50.51 Y59.56
X49.736 Y59.129
X48.979 Y58.67
X48.239 Y58.182
X47.52 Y57.664
X46.824 Y57.114
X46.156 Y56.532
X45.52 Y55.915
X44.92 Y55.263
X44.36 Y54.577
X43.845 Y53.855
X43.384 Y53.099
X43.001 Y52.345
X42.718 Y51.655
X42.513 Y51.014
X42.371 Y50.403
X42.298 Y49.916
X42.269 Y49.481
X42.273 Y49.131
X42.305 Y48.787
X42.315 Y48.728
X42.392 Y48.471
X42.525 Y48.238
X42.707 Y48.041
X42.93 Y47.892
X43.182 Y47.797
X44.87 Y47.375
G3 X45.463 Y47.76 I0.104 J0.489
G1 X45.481 Y47.845 Z-6.492
X45.499 Y47.927 Z-6.47
X45.515 Y48.004 Z-6.433
X45.53 Y48.074 Z-6.383
X45.543 Y48.134 Z-6.321
X45.553 Y48.183 Z-6.25
X45.561 Y48.219 Z-6.171
X45.566 Y48.241 Z-6.087
X45.567 Y48.249 Z-6
G0 Z-5.5
X73.484 Y55.188
G1 Z-6 F1000
X73.49 Y55.193 Z-6.087
X73.506 Y55.208 Z-6.171
X73.533 Y55.233 Z-6.25
X73.57 Y55.267 Z-6.321
X73.616 Y55.308 Z-6.383
X73.669 Y55.356 Z-6.433
X73.727 Y55.41 Z-6.47
X73.789 Y55.466 Z-6.492
X73.854 Y55.525 Z-6.5
G3 X74.285 Y56.181 I-1.065 J1.17
G1 X74.402 Y56.565
X74.409 Y56.583
X74.511 Y56.784
X74.682 Y57.096
X74.748 Y57.232
X74.803 Y57.372
X74.844 Y57.517
X74.875 Y57.673
X74.896 Y57.855
X74.904 Y58.057
X74.894 Y58.278
X74.863 Y58.523
X74.809 Y58.785
X74.723 Y59.079
X74.605 Y59.385
X74.445 Y59.721
X74.24 Y60.074
X73.981 Y60.447
X73.649 Y60.852
X73.264 Y61.251
X72.764 Y61.692
X72.189 Y62.123
X71.504 Y62.555
X70.719 Y62.966
X69.905 Y63.317
X69.071 Y63.614
X68.22 Y63.864
X67.359 Y64.07
X66.488 Y64.236
X65.612 Y64.365
X64.73 Y64.459
X63.846 Y64.52
X62.961 Y64.549
X62.075 Y64.547
X61.189 Y64.514
X60.305 Y64.452
X59.424 Y64.361
X58.546 Y64.242
X57.672 Y64.094
X56.803 Y63.919
X55.941 Y63.716
X55.085 Y63.485
X54.237 Y63.228
X53.398 Y62.944
X52.568 Y62.633
X51.748 Y62.297
X50.939 Y61.935
X50.143 Y61.547
X49.359 Y61.133
X48.59 Y60.692
X47.837 Y60.225
X47.102 Y59.731
X46.386 Y59.209
X45.692 Y58.657
X45.023 Y58.076
X44.382 Y57.465
X43.771 Y56.823
X43.194 Y56.151
X42.657 Y55.445
X42.165 Y54.709
X41.72 Y53.943
X41.33 Y53.147
X41.011 Y52.348
X40.791 Y51.637
X40.644 Y50.978
X40.566 Y50.418
X40.538 Y49.95
X40.546 Y49.582
X40.583 Y49.222
X40.597 Y49.147
X40.675 Y48.893
X40.808 Y48.662
X40.991 Y48.468
X41.212 Y48.321
X41.461 Y48.227
X43.182 Y47.797
G3 X43.775 Y48.182 I0.104 J0.489
G1 X43.793 Y48.267 Z-6.492
X43.81 Y48.349 Z-6.47
X43.827 Y48.426 Z-6.433
X43.842 Y48.496 Z-6.383
X43.855 Y48.556 Z-6.321
X43.865 Y48.605 Z-6.25
X43.873 Y48.641 Z-6.171
X43.877 Y48.663 Z-6.087
X43.879 Y48.671 Z-6
G0 Z-5.5
X73.694 Y56.288
G1 Z-6 F1000
X73.701 Y56.292 Z-6.087
X73.72 Y56.303 Z-6.171
X73.752 Y56.322 Z-6.25
X73.795 Y56.348 Z-6.321
X73.848 Y56.379 Z-6.383
X73.91 Y56.415 Z-6.433
X73.978 Y56.455 Z-6.47
X74.05 Y56.498 Z-6.492
X74.125 Y56.542 Z-6.5
G3 X74.682 Y57.096 I-0.803 J1.364
G1 X74.804 Y57.317
X75.084 Y57.79
X75.209 Y57.991
X75.35 Y58.192
X75.436 Y58.315
X75.499 Y58.451
X75.555 Y58.603
X75.6 Y58.767
X75.636 Y58.961
X75.658 Y59.167
X75.664 Y59.405
X75.651 Y59.655
X75.612 Y59.942
X75.547 Y60.239
X75.445 Y60.577
X75.311 Y60.915
X75.12 Y61.305
X74.891 Y61.691
X74.59 Y62.115
X74.216 Y62.562
X73.784 Y63.001
X73.236 Y63.475
X72.582 Y63.955
X71.827 Y64.42
X71.039 Y64.824
X70.224 Y65.172
X69.389 Y65.47
X68.54 Y65.723
X67.68 Y65.935
X66.811 Y66.108
X65.935 Y66.246
X65.055 Y66.35
X64.172 Y66.422
X63.287 Y66.464
X62.401 Y66.475
X61.515 Y66.458
X60.63 Y66.413
X59.747 Y66.34
X58.866 Y66.24
X57.989 Y66.112
X57.117 Y65.958
X56.249 Y65.777
X55.388 Y65.571
X54.532 Y65.339
X53.684 Y65.082
X52.845 Y64.799
X52.013 Y64.493
X51.191 Y64.161
X50.38 Y63.806
X49.579 Y63.426
X48.79 Y63.022
X48.015 Y62.593
X47.253 Y62.14
X46.508 Y61.661
X45.78 Y61.155
X45.072 Y60.623
X44.385 Y60.064
X43.72 Y59.477
X43.081 Y58.863
X42.47 Y58.222
X41.89 Y57.552
X41.343 Y56.855
X40.833 Y56.13
X40.366 Y55.377
X39.945 Y54.597
X39.574 Y53.792
X39.26 Y52.964
X39.03 Y52.181
X38.884 Y51.484
X38.807 Y50.874
X38.785 Y50.388
X38.798 Y50.007
X38.841 Y49.638
X38.855 Y49.568
X38.935 Y49.318
X39.069 Y49.091
X39.25 Y48.901
X39.47 Y48.756
X39.716 Y48.663
X41.461 Y48.227
G3 X42.055 Y48.612 I0.104 J0.489
G1 X42.073 Y48.697 Z-6.492
X42.09 Y48.779 Z-6.47
X42.107 Y48.856 Z-6.433
X42.122 Y48.926 Z-6.383
X42.134 Y48.986 Z-6.321
X42.145 Y49.035 Z-6.25
X42.153 Y49.071 Z-6.171
X42.157 Y49.093 Z-6.087
X42.159 Y49.101 Z-6
G0 Z-5.5
X74.235 Y57.572
G1 Z-6 F1000
X74.242 Y57.574 Z-6.087
X74.263 Y57.582 Z-6.171
X74.298 Y57.595 Z-6.25
X74.345 Y57.612 Z-6.321
X74.402 Y57.634 Z-6.383
X74.469 Y57.658 Z-6.433
X74.543 Y57.686 Z-6.47
X74.622 Y57.715 Z-6.492
X74.704 Y57.745 Z-6.5
G3 X75.35 Y58.192 I-0.549 J1.484
G1 X75.408 Y58.263
X75.609 Y58.487
X75.729 Y58.594
X75.969 Y58.795
X76.079 Y58.897
X76.177 Y59.01
X76.264 Y59.132
X76.34 Y59.263
X76.413 Y59.415
X76.479 Y59.586
X76.536 Y59.778
X76.581 Y59.996
X76.612 Y60.235
X76.624 Y60.503
X76.614 Y60.787
X76.577 Y61.112
X76.512 Y61.442
X76.404 Y61.823
X76.261 Y62.208
X76.066 Y62.626
X75.807 Y63.083
X75.502 Y63.531
X75.102 Y64.029
X74.614 Y64.545
X74.064 Y65.04
X73.389 Y65.556
X72.644 Y66.035
X71.866 Y66.459
X71.062 Y66.831
X70.237 Y67.155
X69.397 Y67.436
X68.544 Y67.676
X67.681 Y67.879
X67.157 Y67.979
X67.084 Y67.991
X67.011 Y67.998
X66.937 Y68
X59.522
X58.637 Y67.956
X57.752 Y67.904
X56.872 Y67.8
X55.998 Y67.653
X55.131 Y67.47
X54.271 Y67.257
X53.419 Y67.015
X52.574 Y66.748
X51.737 Y66.455
X50.91 Y66.139
X50.092 Y65.798
X49.284 Y65.434
X48.487 Y65.047
X47.702 Y64.636
X46.929 Y64.201
X46.171 Y63.743
X45.428 Y63.26
X44.701 Y62.753
X43.993 Y62.221
X43.303 Y61.665
X42.634 Y61.084
X41.988 Y60.477
X41.366 Y59.846
X40.771 Y59.189
X40.206 Y58.506
X39.674 Y57.798
X39.178 Y57.064
X38.719 Y56.306
X38.302 Y55.524
X37.928 Y54.72
X37.605 Y53.895
X37.339 Y53.05
X37.153 Y52.249
X37.051 Y51.557
X37.016 Y51.024
X37.022 Y50.58
X37.058 Y50.2
X37.087 Y50.033
X37.164 Y49.776
X37.297 Y49.544
X37.48 Y49.348
X37.702 Y49.198
X37.953 Y49.104
X39.716 Y48.663
G3 X40.309 Y49.048 I0.104 J0.489
G1 X40.328 Y49.133 Z-6.492
X40.345 Y49.215 Z-6.47
X40.362 Y49.293 Z-6.433
X40.376 Y49.362 Z-6.383
X40.389 Y49.423 Z-6.321
X40.4 Y49.472 Z-6.25
X40.407 Y49.508 Z-6.171
X40.412 Y49.53 Z-6.087
X40.414 Y49.537 Z-6
G0 Z-5.5
X60.705 Y67.523
G1 Z-6 F1000
X60.699 Y67.527 Z-6.087
X60.679 Y67.539 Z-6.171
X60.648 Y67.557 Z-6.25
X60.605 Y67.583 Z-6.321
X60.552 Y67.614 Z-6.383
X60.49 Y67.651 Z-6.433
X60.422 Y67.691 Z-6.47
X60.35 Y67.734 Z-6.492
X60.275 Y67.779 Z-6.5
G3 X59.522 Y68 I-0.809 J-1.36
G1 X52.484
X51.701 Y67.961
X51.069 Y67.878
X50.27 Y67.707
X49.421 Y67.453
X48.591 Y67.143
X47.778 Y66.791
X46.98 Y66.404
X46.198 Y65.987
X45.432 Y65.543
X44.68 Y65.073
X43.945 Y64.579
X43.226 Y64.061
X42.524 Y63.52
X41.842 Y62.954
X41.181 Y62.364
X40.541 Y61.751
X39.925 Y61.115
X39.334 Y60.454
X38.77 Y59.771
X38.236 Y59.064
X37.732 Y58.334
X37.262 Y57.583
X36.828 Y56.811
X36.433 Y56.017
X36.083 Y55.203
X35.781 Y54.37
X35.532 Y53.52
X35.354 Y52.702
X35.259 Y51.991
X35.23 Y51.434
X35.242 Y50.999
X35.284 Y50.607
X35.311 Y50.462
X35.39 Y50.209
X35.524 Y49.981
X35.706 Y49.788
X35.927 Y49.642
X36.175 Y49.549
X37.953 Y49.104
G3 X38.447 Y49.28 Z-6.359 I0.104 J0.489
G1 X38.578 Y49.443 Z-6.306
X38.593 Y49.461 Z-6.3
X52.856 Y67.187
G3 X52.966 Y67.483 I-0.39 J0.313
X52.484 Y68 Z-6.5 I-0.5 J0.017
G1 X51.277
X51.076 Y67.999
X50.473 Y67.986
X50.423 Y67.984
X50.372 Y67.976
X49.752 Y67.843
X49.668 Y67.825
X44.842 Y66.618
X44.028 Y66.371
X43.422 Y66.132
X42.707 Y65.782
X41.945 Y65.329
X41.216 Y64.825
X40.517 Y64.28
X39.845 Y63.703
X39.198 Y63.098
X38.576 Y62.466
X37.98 Y61.811
X37.41 Y61.132
X36.867 Y60.432
X36.353 Y59.71
X35.868 Y58.969
X35.416 Y58.206
X35 Y57.424
X34.622 Y56.623
X34.285 Y55.803
X33.992 Y54.967
X33.749 Y54.115
X33.563 Y53.248
X33.465 Y52.509
X33.434 Y51.927
X33.447 Y51.465
X33.49 Y51.071
X33.521 Y50.909
X33.6 Y50.656
X33.734 Y50.428
X33.916 Y50.236
X34.136 Y50.089
X34.384 Y49.996
X36.175 Y49.549
G3 X36.719 Y49.801 Z-6.336 I0.104 J0.489
G1 X36.775 Y49.904 Z-6.306
X36.786 Y49.925 Z-6.3
X45.387 Y65.892
G3 X45.436 Y66.234 I-0.44 J0.237
G1 X45.43 Y66.257 Z-6.306
G3 X44.842 Y66.618 Z-6.5 I-0.483 J-0.128
G1 X40.418 Y65.512
X39.975 Y65.378
X39.582 Y65.223
X39.107 Y64.99
X38.577 Y64.675
X37.948 Y64.23
X37.269 Y63.661
X36.633 Y63.044
X36.035 Y62.39
X35.471 Y61.706
X34.939 Y60.998
X34.439 Y60.266
X33.97 Y59.514
X33.535 Y58.742
X33.135 Y57.951
X32.773 Y57.143
X32.45 Y56.318
X32.169 Y55.477
X31.935 Y54.622
X31.757 Y53.754
X31.658 Y52.986
X31.629 Y52.387
X31.645 Y51.914
X31.69 Y51.516
X31.722 Y51.354
X31.802 Y51.102
X31.936 Y50.875
X32.117 Y50.684
X32.337 Y50.539
X32.584 Y50.446
X34.384 Y49.996
G3 X34.95 Y50.294 Z-6.323 I0.104 J0.489
G1 X34.976 Y50.356 Z-6.306
X34.985 Y50.378 Z-6.3
X40.984 Y64.832
G3 X41.012 Y65.128 I-0.462 J0.192
G1 X41.006 Y65.151 Z-6.306
G3 X40.418 Y65.512 Z-6.5 I-0.483 J-0.128
G1 X37 Y64.658
X36.706 Y64.568
X36.388 Y64.443
X36.025 Y64.265
X35.613 Y64.021
X35.136 Y63.682
X34.614 Y63.246
X34.012 Y62.654
X33.432 Y61.983
X32.899 Y61.276
X32.408 Y60.538
X31.955 Y59.776
X31.539 Y58.994
X31.16 Y58.193
X30.819 Y57.375
X30.517 Y56.542
X30.259 Y55.694
X30.05 Y54.833
X29.896 Y53.961
X29.825 Y53.21
X29.817 Y52.648
X29.846 Y52.224
X29.904 Y51.831
X29.919 Y51.768
X30.003 Y51.527
X30.138 Y51.31
X30.318 Y51.127
X30.532 Y50.988
X30.772 Y50.899
X32.584 Y50.446
G3 X33.163 Y50.777 Z-6.314 I0.104 J0.489
G1 X33.173 Y50.807 Z-6.306
X33.18 Y50.83 Z-6.3
X37.578 Y64.01
G3 X37.593 Y64.273 I-0.474 J0.158
G1 X37.588 Y64.297 Z-6.306
G3 X37 Y64.658 Z-6.5 I-0.483 J-0.128
G1 X34.185 Y63.954
X33.845 Y63.851
X33.574 Y63.744
X33.252 Y63.586
X32.918 Y63.388
X32.523 Y63.108
X32.108 Y62.761
X31.631 Y62.291
X31.102 Y61.681
X30.578 Y60.966
X30.107 Y60.215
X29.684 Y59.437
X29.304 Y58.637
X28.967 Y57.817
X28.672 Y56.981
X28.422 Y56.131
X28.219 Y55.269
X28.073 Y54.395
X28.006 Y53.648
X28.001 Y53.092
X28.031 Y52.661
X28.091 Y52.271
X28.104 Y52.217
X28.189 Y51.977
X28.324 Y51.761
X28.503 Y51.58
X28.717 Y51.442
X28.956 Y51.353
X30.772 Y50.899
G3 X31.358 Y51.252 Z-6.308 I0.104 J0.489
G1 X31.36 Y51.26 Z-6.306
X31.366 Y51.283 Z-6.3
X34.77 Y63.329
X34.786 Y63.408
X34.788 Y63.489
X34.778 Y63.569
X34.772 Y63.593 Z-6.306
G3 X34.185 Y63.954 Z-6.5 I-0.483 J-0.128
G1 X31.571 Y63.3
X31.267 Y63.208
X31.004 Y63.105
X30.73 Y62.97
X30.427 Y62.79
X30.082 Y62.546
X29.721 Y62.244
X29.317 Y61.847
X28.873 Y61.333
X28.415 Y60.71
X27.95 Y59.955
X27.544 Y59.168
X27.19 Y58.355
X26.885 Y57.524
X26.627 Y56.676
X26.418 Y55.815
X26.266 Y54.942
X26.191 Y54.163
X26.182 Y53.596
X26.211 Y53.147
X26.268 Y52.757
X26.286 Y52.679
X26.37 Y52.437
X26.505 Y52.219
X26.684 Y52.036
X26.899 Y51.896
X27.14 Y51.807
X28.956 Y51.353
G3 X29.547 Y51.726 Z-6.303 I0.104 J0.489
G1 X29.549 Y51.738 Z-6.3
X32.161 Y62.695
X32.173 Y62.768
X32.174 Y62.843
X32.164 Y62.916
G3 X31.571 Y63.3 Z-6.5 I-0.489 J-0.105
G1 X29.158 Y62.697
X28.849 Y62.603
X28.623 Y62.514
X28.369 Y62.39
X28.073 Y62.214
X27.783 Y62.008
X27.446 Y61.726
X27.101 Y61.387
X26.711 Y60.937
X26.323 Y60.408
X25.912 Y59.742
X25.509 Y58.952
X25.168 Y58.134
X24.884 Y57.295
X24.654 Y56.439
X24.483 Y55.57
X24.39 Y54.771
X24.368 Y54.172
X24.39 Y53.689
X24.439 Y53.296
X24.469 Y53.154
X24.55 Y52.906
X24.685 Y52.683
X24.865 Y52.495
X25.084 Y52.352
X25.328 Y52.26
X27.14 Y51.807
G3 X27.733 Y52.192 Z-6.3 I0.104 J0.489
G1 X27.734 Y52.197
X29.752 Y62.108
X29.761 Y62.176
X29.76 Y62.245
X29.751 Y62.313
X29.745 Y62.336 Z-6.306
G3 X29.158 Y62.697 Z-6.5 I-0.483 J-0.128
G1 X26.744 Y62.094
X26.592 Y62.048
X26.376 Y61.962
X26.123 Y61.838
X25.873 Y61.69
X25.59 Y61.489
X25.279 Y61.229
X24.967 Y60.922
X24.621 Y60.522
X24.269 Y60.043
X23.913 Y59.466
X23.553 Y58.761
X23.216 Y57.946
X22.944 Y57.102
X22.745 Y56.268
X22.624 Y55.485
X22.576 Y54.826
X22.58 Y54.309
X22.615 Y53.911
X22.66 Y53.647
X22.735 Y53.389
X22.868 Y53.154
X23.051 Y52.956
X23.275 Y52.806
X23.527 Y52.711
X25.328 Y52.26
G3 X25.921 Y52.645 Z-6.3 I0.104 J0.489
G1 X25.926 Y52.67
X27.342 Y61.526
X27.348 Y61.587
X27.347 Y61.649
X27.338 Y61.709
X27.332 Y61.733 Z-6.306
G3 X26.744 Y62.094 Z-6.5 I-0.483 J-0.128
G1 X24.623 Y61.563
X24.428 Y61.504
X24.212 Y61.419
X23.99 Y61.31
X23.747 Y61.166
X23.47 Y60.97
X23.203 Y60.746
X22.893 Y60.441
X22.593 Y60.095
X22.261 Y59.642
X21.956 Y59.148
X21.644 Y58.537
X21.358 Y57.846
X21.125 Y57.121
X20.955 Y56.402
X20.852 Y55.723
X20.822 Y55.305
X20.83 Y55.064
X20.888 Y54.829
X20.992 Y54.611
G3 X21.685 Y54.471 Z-6.3 I0.416 J0.277
G1 X21.75 Y54.522
X21.805 Y54.583
X21.85 Y54.652
X25.168 Y60.838
G3 X25.216 Y61.179 I-0.441 J0.236
G1 X25.211 Y61.202 Z-6.306
G3 X24.623 Y61.563 Z-6.5 I-0.483 J-0.128
G1 X22.522 Y61.038
X22.484 Y61.029
X22.436 Y61.017
X22.292 Y60.973
X22.198 Y60.933
X21.987 Y60.817
X21.804 Y60.661
X21.658 Y60.47
G3 X21.845 Y59.788 Z-6.3 I0.435 J-0.247
X22.374 Y59.809 I0.247 J0.435
G1 X22.822 Y60.114
G3 X23.029 Y60.632 I-0.282 J0.413
X22.436 Y61.017 Z-6.5 I-0.489 J-0.105
G1 X22.321 Y60.988
X22.119 Y60.936
X22.069 Y60.92
X22.019 Y60.898
X21.969 Y60.869
X21.918 Y60.834
X21.886 Y60.806
X21.84 Y60.755
X21.803 Y60.705
X20.008 Y57.79
X19.781 Y57.374
X19.712 Y57.154
X19.699 Y56.923
X19.742 Y56.696
X19.839 Y56.487
G3 X20.531 Y56.347 Z-6.3 I0.416 J0.277
X20.743 Y56.653 I-0.276 J0.417
G1 X20.912 Y57.402
G3 X20.701 Y57.929 I-0.488 J0.111
X20.008 Y57.79 Z-6.5 I-0.276 J-0.417
G1 X19.706 Y57.299
X19.648 Y57.186
X19.631 Y57.136
X19.619 Y57.086
X19.613 Y57.036
X19.611 Y56.985
X19.615 Y56.935
X19.624 Y56.885
X19.639 Y56.834
X19.659 Y56.784
X19.706 Y56.701
X21.717 Y53.434
X21.824 Y53.266
X21.865 Y53.216
X21.919 Y53.165
X21.969 Y53.129
X22.019 Y53.101
X22.069 Y53.08
X22.119 Y53.063
X23.527 Y52.711
G3 X24.12 Y53.095 I0.104 J0.489
G1 X24.138 Y53.18 Z-6.492
X24.156 Y53.263 Z-6.47
X24.172 Y53.34 Z-6.433
X24.187 Y53.41 Z-6.383
X24.2 Y53.47 Z-6.321
X24.21 Y53.519 Z-6.25
X24.218 Y53.555 Z-6.171
X24.223 Y53.577 Z-6.087
X24.224 Y53.584 Z-6
G0 Z-5.5
X74.756 Y58.4
G1 Z-6 F1000
X74.763 Y58.401 Z-6.087
X74.785 Y58.405 Z-6.171
X74.822 Y58.411 Z-6.25
X74.871 Y58.419 Z-6.321
X74.932 Y58.429 Z-6.383
X75.002 Y58.44 Z-6.433
X75.08 Y58.453 Z-6.47
X75.163 Y58.466 Z-6.492
X75.249 Y58.48 Z-6.5
G3 X75.969 Y58.795 I-0.254 J1.562
G1 X76.212 Y58.999
X76.413 Y59.163
X76.815 Y59.474
X76.848 Y59.495
X76.97 Y59.582
X77.081 Y59.683
X77.181 Y59.795
X77.272 Y59.916
X77.365 Y60.063
X77.449 Y60.223
X77.532 Y60.417
X77.602 Y60.623
X77.662 Y60.867
X77.705 Y61.123
X77.729 Y61.419
X77.73 Y61.734
X77.703 Y62.082
X77.642 Y62.467
X77.547 Y62.858
X77.4 Y63.305
X77.207 Y63.763
X76.953 Y64.251
X76.622 Y64.78
X76.227 Y65.31
X75.752 Y65.851
X75.166 Y66.42
X74.482 Y66.984
X73.756 Y67.492
X73.188 Y67.833
X72.999 Y67.925
X72.797 Y67.981
X72.588 Y68
X66.937
G3 X66.455 Y67.483 Z-6.3 I0.017 J-0.5
X66.646 Y67.107 I0.5 J0.017
G1 X76.139 Y59.647
X76.158 Y59.632 Z-6.306
X76.285 Y59.532 Z-6.347
G3 X76.848 Y59.495 Z-6.5 I0.309 J0.393
G1 X77.016 Y59.602
X77.217 Y59.714
X77.391 Y59.8
X77.419 Y59.812
X77.62 Y59.884
X77.759 Y59.94
X77.892 Y60.01
X78.016 Y60.094
X78.132 Y60.19
X78.246 Y60.302
X78.355 Y60.428
X78.469 Y60.583
X78.574 Y60.753
X78.679 Y60.957
X78.77 Y61.178
X78.852 Y61.431
X78.919 Y61.713
X78.966 Y62.02
X78.991 Y62.373
X78.988 Y62.735
X78.951 Y63.145
X78.875 Y63.589
X78.757 Y64.05
X78.581 Y64.564
X78.347 Y65.103
X78.057 Y65.644
X77.676 Y66.237
X77.198 Y66.864
X76.648 Y67.476
X76.432 Y67.68
X76.195 Y67.854
X75.922 Y67.963
X75.63 Y68
X72.588
G3 X72.105 Y67.483 Z-6.3 I0.017 J-0.5
X72.192 Y67.219 I0.5 J0.017
G1 X76.976 Y60.205
X76.989 Y60.186 Z-6.306
X77.061 Y60.081 Z-6.338
G3 X77.62 Y59.884 Z-6.5 I0.413 J0.282
G1 X78.022 Y60.023
X78.223 Y60.09
X78.625 Y60.223
X78.736 Y60.253
X78.878 Y60.3
X79.013 Y60.366
X79.141 Y60.444
X79.271 Y60.539
X79.398 Y60.648
X79.534 Y60.786
X79.663 Y60.94
X79.793 Y61.124
X79.917 Y61.331
X80.033 Y61.568
X80.141 Y61.841
X80.23 Y62.133
X80.305 Y62.474
X80.354 Y62.833
X80.376 Y63.236
X80.365 Y63.688
X80.316 Y64.149
X80.22 Y64.66
X80.066 Y65.225
X79.862 Y65.79
X79.582 Y66.405
X79.216 Y67.063
X79.076 Y67.274
X78.92 Y67.462
X78.729 Y67.613
X78.511 Y67.721
X78.276 Y67.782
X77.419 Y67.907
X77.217 Y67.933
X76.815 Y67.98
X76.614 Y68
X75.63
G3 X75.148 Y67.483 Z-6.3 I0.017 J-0.5
G1 X75.154 Y67.42
X75.168 Y67.359
X75.19 Y67.299
X78.126 Y60.62
X78.135 Y60.598 Z-6.306
X78.161 Y60.538 Z-6.323
G3 X78.736 Y60.253 Z-6.5 I0.458 J0.201
G1 X78.826 Y60.278
X79.228 Y60.355
X79.429 Y60.391
X79.741 Y60.439
X79.888 Y60.469
X80.032 Y60.512
X80.17 Y60.569
X80.311 Y60.642
X80.449 Y60.728
X80.601 Y60.841
X80.749 Y60.971
X80.904 Y61.13
X81.055 Y61.312
X81.203 Y61.524
X81.348 Y61.772
X81.479 Y62.043
X81.603 Y62.362
X81.704 Y62.701
X81.785 Y63.086
X81.842 Y63.524
X81.864 Y63.976
X81.848 Y64.484
X81.784 Y65.049
X81.672 Y65.619
X81.497 Y66.244
X81.311 Y66.748
X81.289 Y66.796
X81.138 Y67.039
X80.932 Y67.238
X80.684 Y67.381
X80.408 Y67.459
X79.429 Y67.61
X78.276 Y67.782
G3 X77.723 Y67.341 Z-6.3 I-0.056 J-0.497
G1 X77.721 Y67.256
X77.732 Y67.172
X79.183 Y60.876
X79.189 Y60.853 Z-6.306
X79.195 Y60.823 Z-6.314
G3 X79.741 Y60.439 Z-6.5 I0.487 J0.112
G1 X81.038 Y60.638
X81.201 Y60.672
X81.345 Y60.714
X81.485 Y60.768
X81.637 Y60.842
X81.792 Y60.933
X81.956 Y61.048
X82.124 Y61.188
X82.292 Y61.352
X82.466 Y61.552
X82.63 Y61.774
X82.797 Y62.043
X82.946 Y62.332
X83.088 Y62.671
X83.213 Y63.054
X83.312 Y63.466
X83.385 Y63.94
X83.423 Y64.454
X83.42 Y64.996
X83.373 Y65.539
X83.299 Y65.978
X83.208 Y66.339
X83.192 Y66.387
X83.086 Y66.615
X82.933 Y66.814
X82.741 Y66.977
X82.519 Y67.095
X82.277 Y67.162
X81.44 Y67.299
X80.408 Y67.459
G3 X79.853 Y67.022 Z-6.3 I-0.059 J-0.497
G1 X79.849 Y66.965
X79.852 Y66.909
X80.482 Y61.081
X80.483 Y61.075
X80.486 Y61.051 Z-6.306
G3 X81.038 Y60.638 Z-6.5 I0.493 J0.083
G1 X81.44 Y60.701
X82.556 Y60.883
X82.703 Y60.914
X82.845 Y60.962
X83.003 Y61.029
X83.163 Y61.114
X83.338 Y61.225
X83.512 Y61.356
X83.699 Y61.522
X83.878 Y61.708
X84.068 Y61.941
X84.244 Y62.195
X84.421 Y62.502
X84.583 Y62.844
X84.728 Y63.225
X84.855 Y63.663
X84.95 Y64.127
X85.009 Y64.604
X85.027 Y65.032
X85.011 Y65.43
X84.972 Y65.757
X84.933 Y65.95
X84.846 Y66.214
X84.699 Y66.449
X84.501 Y66.644
X84.263 Y66.785
X83.998 Y66.867
X83.451 Y66.966
X82.848 Y67.068
X82.277 Y67.162
G3 X81.717 Y66.731 Z-6.3 I-0.064 J-0.496
G1 X81.713 Y66.686
Y66.64
X81.994 Y61.352
X81.997 Y61.315
G3 X82.556 Y60.883 Z-6.5 I0.496 J0.064
G1 X82.848 Y60.931
X83.451 Y61.034
X84.054 Y61.142
X84.207 Y61.178
X84.354 Y61.225
X84.515 Y61.292
X84.682 Y61.377
X84.862 Y61.489
X85.044 Y61.623
X85.237 Y61.79
X85.429 Y61.986
X85.622 Y62.217
X85.816 Y62.491
X85.993 Y62.789
X86.16 Y63.131
X86.307 Y63.506
X86.426 Y63.9
X86.511 Y64.29
X86.561 Y64.663
X86.579 Y65
X86.571 Y65.309
X86.539 Y65.606
X86.535 Y65.624
X86.453 Y65.884
X86.313 Y66.118
X86.123 Y66.313
X85.893 Y66.458
X85.635 Y66.547
X85.462 Y66.584
X84.859 Y66.708
X84.658 Y66.747
X83.998 Y66.867
G3 X83.431 Y66.445 Z-6.3 I-0.072 J-0.495
G1 X83.426 Y66.366
X83.484 Y61.631
X83.489 Y61.566
X83.493 Y61.542 Z-6.306
G3 X84.054 Y61.142 Z-6.5 I0.491 J0.094
G1 X84.658 Y61.253
X84.859 Y61.292
X85.462 Y61.414
X85.663 Y61.458
X85.852 Y61.509
X86.011 Y61.567
X86.171 Y61.639
X86.35 Y61.739
X86.527 Y61.856
X86.719 Y62.008
X86.905 Y62.18
X87.096 Y62.388
X87.283 Y62.629
X87.456 Y62.891
X87.616 Y63.183
X87.759 Y63.502
X87.879 Y63.841
X87.96 Y64.145
X88.018 Y64.461
X88.046 Y64.737
X88.051 Y65.018
X88.045 Y65.11
X87.993 Y65.39
X87.874 Y65.65
X87.696 Y65.873
X87.469 Y66.046
X87.206 Y66.159
G3 X86.62 Y65.862 Z-6.317 I-0.123 J-0.485
G1 X86.604 Y65.821 Z-6.306
X86.595 Y65.799 Z-6.3
X85.11 Y62.138
G3 X85.081 Y61.859 I0.463 J-0.188
G1 X85.086 Y61.836 Z-6.306
G3 X85.663 Y61.458 Z-6.5 I0.487 J0.114
G1 X86.065 Y61.546
X86.333 Y61.61
X86.669 Y61.692
X86.87 Y61.743
X87.473 Y61.93
X87.737 Y62.042
X87.898 Y62.126
X88.061 Y62.229
X88.234 Y62.358
X88.4 Y62.505
X88.57 Y62.681
X88.735 Y62.883
X88.888 Y63.103
X89.027 Y63.343
X89.139 Y63.576
X89.237 Y63.834
X89.307 Y64.07
X89.355 Y64.304
X89.359 Y64.336
X89.36 Y64.62
X89.292 Y64.895
X89.16 Y65.146
X88.971 Y65.358
X88.737 Y65.518
G3 X88.071 Y65.28 Z-6.3 I-0.214 J-0.452
G1 X88.066 Y65.269
X86.885 Y62.616
G3 X86.859 Y62.281 I0.457 J-0.203
X87.473 Y61.93 Z-6.5 I0.482 J0.132
G1 X87.697 Y62.012
X88.076 Y62.155
X88.226 Y62.213
X88.679 Y62.446
X88.881 Y62.555
X88.98 Y62.615
X89.554 Y63.018
X89.727 Y63.154
X89.914 Y63.379
X90.039 Y63.643
X90.093 Y63.93
X90.074 Y64.222
X89.983 Y64.499
X89.825 Y64.745
X89.61 Y64.943
G3 X88.917 Y64.803 Z-6.3 I-0.276 J-0.417
X88.835 Y64.55 I0.417 J-0.276
G1 X88.783 Y63.461
G3 X88.863 Y63.164 I0.499 J-0.024
X89.554 Y63.018 Z-6.5 I0.419 J0.273
G1 X89.685 Y63.111
X89.826 Y63.219
X90.087 Y63.429
X90.288 Y63.596
X90.316 Y63.621
X90.366 Y63.671
X90.404 Y63.721
X90.433 Y63.772
X90.455 Y63.822
X90.471 Y63.872
X90.481 Y63.922
X90.486 Y63.973
Y64.023
X90.481 Y64.073
X90.471 Y64.124
X90.455 Y64.174
X90.433 Y64.224
X90.408 Y64.269
X90.377 Y64.314
X90.338 Y64.359
X90.288 Y64.404
X90.024 Y64.626
X89.685 Y64.89
X89.484 Y65.033
X89.082 Y65.314
X88.906 Y65.431
X88.277 Y65.755
X88.102 Y65.833
X87.61 Y66.034
X87.473 Y66.082
X86.87 Y66.257
X86.669 Y66.309
X86.144 Y66.436
X86.065 Y66.454
X85.635 Y66.547
G3 X85.055 Y66.143 I-0.088 J-0.492
G1 X85.039 Y66.057 Z-6.492
X85.024 Y65.975 Z-6.47
X85.01 Y65.897 Z-6.433
X84.998 Y65.826 Z-6.383
X84.987 Y65.766 Z-6.321
X84.978 Y65.717 Z-6.25
X84.972 Y65.68 Z-6.171
X84.968 Y65.658 Z-6.087
X84.966 Y65.651 Z-6
G0 Z5
X52.926 Y35.2
Z-5.5
G1 Z-6 F1000
X52.919 Y35.197 Z-6.087
X52.899 Y35.187 Z-6.171
X52.866 Y35.17 Z-6.25
X52.821 Y35.148 Z-6.321
X52.766 Y35.121 Z-6.383
X52.702 Y35.089 Z-6.433
X52.631 Y35.054 Z-6.47
X52.556 Y35.016 Z-6.492
X52.478 Y34.978 Z-6.5
G3 X51.883 Y34.465 I0.704 J-1.417
G1 X51.88 Y34.46
X51.721 Y34.263
X51.478 Y33.99
X51.353 Y33.861
X50.875 Y33.386
X50.736 Y33.258
X50.674 Y33.205
X50.468 Y33.057
X50.272 Y32.927
X49.534 Y32.436
X48.797 Y31.944
X48.04 Y31.483
X47.267 Y31.05
X46.49 Y30.624
X46.236 Y30.466
X46.019 Y30.292
X45.849 Y30.072
X45.737 Y29.818
X45.687 Y29.544
G3 X46.175 Y29.033 Z-6.3 I0.5 J-0.012
X46.469 Y29.12 I0.012 J0.5
G1 X50.789 Y32.073
G3 X50.948 Y32.721 I-0.282 J0.413
X50.272 Y32.927 Z-6.5 I-0.441 J-0.235
G1 X50.149 Y32.856
X49.668 Y32.609
X49.467 Y32.508
X49.065 Y32.322
X48.898 Y32.253
X48.663 Y32.181
X48.462 Y32.139
X48.261 Y32.103
X47.859 Y32.04
X47.658 Y32.01
X47.255 Y31.963
X47.054 Y31.943
X46.944
X46.79 Y31.934
X46.773 Y31.932
X46.514 Y31.866
X46.276 Y31.743
X46.073 Y31.57
X45.915 Y31.354
X45.81 Y31.108
X45.764 Y30.845
G3 X46.251 Y30.333 Z-6.3 I0.5 J-0.012
X46.602 Y30.464 I0.012 J0.5
G1 X47.266 Y31.075
G3 X47.428 Y31.427 I-0.338 J0.368
X46.944 Y31.943 Z-6.5 I-0.5 J0.015
G1 X46.451 Y31.941
X46.25 Y31.937
X46.2 Y31.927
X46.149 Y31.912
X46.099 Y31.891
X46.049 Y31.863
X46.03 Y31.851
X45.973 Y31.808
X45.916 Y31.75
X45.879 Y31.7
X45.848 Y31.643
X45.828 Y31.595
X45.813 Y31.546
X45.804 Y31.497
X45.799 Y31.448
X45.55 Y27.208
G3 X46.037 Y26.696 I0.5 J-0.012
G1 X46.124 Y26.694 Z-6.492
X46.208 Y26.692 Z-6.47
X46.287 Y26.69 Z-6.433
X46.359 Y26.688 Z-6.383
X46.42 Y26.687 Z-6.321
X46.47 Y26.686 Z-6.25
X46.507 Y26.685 Z-6.171
X46.53 Y26.684 Z-6.087
X46.537 Z-6
G0 Z15

(2D Contour2)
G0 X-1.5 Y43.5
Z15
Z5
G1 Z1 F333.3
Z-6
Y86 F1000
G2 X1 Y88.5 I2.5 J0
G1 X110
G2 X112.5 Y86 I0 J-2.5
G1 Y1
G2 X110 Y-1.5 I-2.5 J0
G1 X1
G2 X-1.5 Y1 I0 J2.5
G1 Y43.5
Z-9.5 F333.3
Y86 F1000
G2 X1 Y88.5 I2.5 J0
G1 X110
G2 X112.5 Y86 I0 J-2.5
G1 Y1
G2 X110 Y-1.5 I-2.5 J0
G1 X1
G2 X-1.5 Y1 I0 J2.5
G1 Y43.5
Z-13 F333.3
Y86 F1000
G2 X1 Y88.5 I2.5 J0
G1 X110
G2 X112.5 Y86 I0 J-2.5
G1 Y1
G2 X110 Y-1.5 I-2.5 J0
G1 X1
G2 X-1.5 Y1 I0 J2.5
G1 Y43.5
G0 Z15
M9
M5
M30
