(Messschieber)
(T4 D=5 CR=0 - ZMIN=-13 - flat end mill)
G90 G94
G17
G21
(-Attention- Property Safe Retracts is set to Clearance Height.)
(Ensure the clearance height will clear the part and or fixtures.)
(Raise the Z-axis to a safe height before starting the program.)

(2D Contour1)
T4
S5000 M3
G17 G90 G94
G54
M8
G0 X69.5 Y25.026
Z15
G0 Z5
G1 Z1 F333.3
Z-6
Y38.026 F1000
X63.5
Y22.026
X69.5
Y25.026
Z-9.5 F333.3
Y38.026 F1000
X63.5
Y22.026
X69.5
Y25.026
Z-13 F333.3
Y38.026 F1000
X63.5
Y22.026
X69.5
Y25.026
G0 Z15

(2D Adaptive1)
G0 X90.513 Y-2.926
Z15
Z5
Z-5.5
G1 Z-6 F1000
X90.506 Y-2.922 Z-6.087
X90.487 Y-2.91 Z-6.171
X90.455 Y-2.891 Z-6.25
X90.413 Y-2.865 Z-6.321
X90.36 Y-2.833 Z-6.383
X90.299 Y-2.796 Z-6.433
X90.231 Y-2.755 Z-6.47
X90.159 Y-2.711 Z-6.492
X90.085 Y-2.666 Z-6.5
G3 X87.594 Y-1.501 I-6.621 J-10.914
G1 X86.789 Y-1.257
X86.185 Y-1.069
X85.983 Y-0.989
X85.843 Y-0.925
X85.581 Y-0.789
X85.178 Y-0.574
X84.665 Y-0.332
X84.203 Y-0.158
X83.572 Y0.024
X82.704 Y0.2
X81.824 Y0.31
X80.941 Y0.379
X80.056 Y0.423
X79.17 Y0.451
X78.284 Y0.469
X77.398 Y0.48
X76.512 Y0.487
X75.626 Y0.492
X74.74 Y0.495
X72.968 Y0.498
X68.537 Y0.5
X38.336
X38.096 Y0.475
X37.865 Y0.401
X37.655 Y0.281
X37.46 Y0.14
X37.369 Y0.08
X36.856 Y-0.253
X36.729 Y-0.322
X35.446 Y-0.935
X35.245 Y-1.026
X35.019 Y-1.126
X34.842 Y-1.2
X34.238 Y-1.376
X34.127 Y-1.407
G3 X33.799 Y-2.033 I0.149 J-0.477
G1 X33.825 Y-2.116 Z-6.492
X33.85 Y-2.196 Z-6.47
X33.873 Y-2.272 Z-6.433
X33.894 Y-2.34 Z-6.383
X33.913 Y-2.399 Z-6.321
X33.928 Y-2.446 Z-6.25
X33.939 Y-2.481 Z-6.171
X33.945 Y-2.503 Z-6.087
X33.948 Y-2.51 Z-6
G0 Z5
X85.997 Y-1.552
Z-5.5
G1 Z-6 F1000
X85.993 Y-1.546 Z-6.087
X85.981 Y-1.527 Z-6.171
X85.962 Y-1.495 Z-6.25
X85.936 Y-1.452 Z-6.321
X85.904 Y-1.4 Z-6.383
X85.868 Y-1.338 Z-6.433
X85.827 Y-1.271 Z-6.47
X85.783 Y-1.199 Z-6.492
X85.738 Y-1.124 Z-6.5
G3 X85.178 Y-0.574 I-1.355 J-0.818
G1 X84.33 Y-0.121
X84.171 Y-0.032
X83.666 Y0.281
X83.567 Y0.346
X82.762 Y1.006
X82.534 Y1.174
X82.259 Y1.346
X81.913 Y1.524
X81.463 Y1.712
X80.873 Y1.905
X80.045 Y2.104
X79.169 Y2.241
X78.288 Y2.33
X77.403 Y2.389
X76.518 Y2.427
X75.632 Y2.452
X74.746 Y2.469
X73.86 Y2.479
X72.974 Y2.486
X72.088 Y2.491
X71.202 Y2.494
X69.43 Y2.498
X65.885 Y2.5
X40.667
X40.435 Y2.477
X40.212 Y2.408
X40.008 Y2.296
X39.829 Y2.145
X39.388 Y1.689
X39.272 Y1.573
X38.763 Y1.086
X38.668 Y1.009
X37.655 Y0.281
G3 X37.566 Y-0.421 I0.306 J-0.396
G1 X37.619 Y-0.49 Z-6.492
X37.67 Y-0.556 Z-6.47
X37.719 Y-0.619 Z-6.433
X37.762 Y-0.675 Z-6.383
X37.8 Y-0.724 Z-6.321
X37.831 Y-0.763 Z-6.25
X37.853 Y-0.792 Z-6.171
X37.867 Y-0.81 Z-6.087
X37.872 Y-0.816 Z-6
G0 Z5
X83.374 Y-0.114
Z-5.5
G1 Z-6 F1000
X83.372 Y-0.106 Z-6.087
X83.364 Y-0.085 Z-6.171
X83.351 Y-0.051 Z-6.25
X83.334 Y-0.004 Z-6.321
X83.313 Y0.054 Z-6.383
X83.289 Y0.122 Z-6.433
X83.262 Y0.196 Z-6.47
X83.234 Y0.275 Z-6.492
X83.204 Y0.357 Z-6.5
G3 X82.762 Y1.006 I-1.488 J-0.538
G1 X82.158 Y1.502
X81.956 Y1.673
X81.738 Y1.89
X81.554 Y2.095
X81.226 Y2.493
X81.076 Y2.659
X80.901 Y2.823
X80.685 Y2.995
X80.405 Y3.183
X80.07 Y3.372
X79.632 Y3.574
X79.078 Y3.777
X78.323 Y3.987
X77.453 Y4.155
X76.574 Y4.268
X75.691 Y4.344
X74.807 Y4.395
X73.921 Y4.429
X73.035 Y4.452
X72.149 Y4.468
X71.263 Y4.479
X70.377 Y4.486
X69.491 Y4.49
X68.605 Y4.494
X66.833 Y4.497
X63.288 Y4.499
X42.907 Y4.5
X42.226 Y4.498
X41.944 Y4.462
X41.679 Y4.359
X41.447 Y4.196
X41.261 Y3.981
X40.667 Y3.096
X40.521 Y2.895
X40.077 Y2.404
X39.972 Y2.292
X39.829 Y2.145
G3 X39.865 Y1.439 I0.371 J-0.335
G1 X39.93 Y1.381 Z-6.492
X39.992 Y1.324 Z-6.47
X40.051 Y1.271 Z-6.433
X40.104 Y1.223 Z-6.383
X40.15 Y1.182 Z-6.321
X40.187 Y1.149 Z-6.25
X40.214 Y1.124 Z-6.171
X40.231 Y1.109 Z-6.087
X40.236 Y1.104 Z-6
G0 Z-5.5
X81.608 Y1.276
G1 Z-6 F1000
X81.607 Y1.283 Z-6.087
X81.604 Y1.306 Z-6.171
X81.598 Y1.342 Z-6.25
X81.591 Y1.392 Z-6.321
X81.582 Y1.453 Z-6.383
X81.571 Y1.523 Z-6.433
X81.559 Y1.601 Z-6.47
X81.546 Y1.684 Z-6.492
X81.533 Y1.77 Z-6.5
G3 X81.226 Y2.493 I-1.565 J-0.238
G1 X80.346 Y3.567
X80.252 Y3.7
X80.144 Y3.854
X80.115 Y3.901
X80.053 Y4.011
X79.967 Y4.15
X79.855 Y4.301
X79.71 Y4.468
X79.517 Y4.655
X79.292 Y4.842
X79.011 Y5.04
X78.655 Y5.249
X78.219 Y5.461
X77.659 Y5.679
X76.915 Y5.902
X76.048 Y6.088
X75.171 Y6.216
X74.289 Y6.304
X73.405 Y6.365
X72.52 Y6.407
X71.635 Y6.436
X70.749 Y6.456
X69.863 Y6.47
X68.977 Y6.48
X68.091 Y6.486
X67.204 Y6.49
X65.432 Y6.496
X62.774 Y6.499
X55.685 Y6.5
X44.165
X43.385 Y6.484
X43.174 Y6.463
X42.933 Y6.413
X42.708 Y6.313
X42.508 Y6.168
X42.344 Y5.985
X42.222 Y5.771
X42.019 Y5.308
X41.93 Y5.107
X41.839 Y4.906
X41.722 Y4.705
X41.473 Y4.303
X41.342 Y4.102
X41.261 Y3.981
G3 X41.422 Y3.293 I0.425 J-0.264
G1 X41.495 Y3.247 Z-6.492
X41.567 Y3.202 Z-6.47
X41.634 Y3.161 Z-6.433
X41.695 Y3.123 Z-6.383
X41.747 Y3.09 Z-6.321
X41.789 Y3.064 Z-6.25
X41.821 Y3.044 Z-6.171
X41.84 Y3.033 Z-6.087
X41.846 Y3.028 Z-6
G0 Z-5.5
X80.21 Y2.745
G1 Z-6 F1000
X80.211 Y2.753 Z-6.087
Y2.775 Z-6.171
X80.212 Y2.812 Z-6.25
X80.214 Y2.862 Z-6.321
X80.216 Y2.924 Z-6.383
X80.218 Y2.995 Z-6.433
X80.22 Y3.074 Z-6.47
X80.223 Y3.158 Z-6.492
X80.225 Y3.245 Z-6.5
G3 X80.053 Y4.011 I-1.582 J0.047
G1 X79.943 Y4.211
X79.249 Y5.509
X79.143 Y5.71
X79.042 Y5.883
X78.915 Y6.063
X78.758 Y6.252
X78.572 Y6.443
X78.326 Y6.657
X78.036 Y6.871
X77.678 Y7.094
X77.232 Y7.324
X76.663 Y7.561
X75.943 Y7.796
X75.081 Y8.002
X74.207 Y8.148
X73.327 Y8.252
X72.444 Y8.325
X71.56 Y8.377
X70.674 Y8.414
X69.788 Y8.44
X68.903 Y8.458
X68.016 Y8.471
X67.13 Y8.48
X66.244 Y8.486
X65.358 Y8.49
X63.586 Y8.495
X60.928 Y8.498
X53.839 Y8.5
X45.864
X44.977 Y8.495
X44.295 Y8.462
X43.841 Y8.404
X43.569 Y8.335
X43.321 Y8.203
X43.112 Y8.015
X42.954 Y7.783
X42.857 Y7.52
X42.805 Y7.319
X42.695 Y6.913
X42.633 Y6.716
X42.493 Y6.392
X42.222 Y5.771
G3 X42.502 Y5.122 I0.465 J-0.185
G1 X42.582 Y5.089 Z-6.492
X42.661 Y5.058 Z-6.47
X42.734 Y5.029 Z-6.433
X42.8 Y5.003 Z-6.383
X42.858 Y4.98 Z-6.321
X42.904 Y4.962 Z-6.25
X42.938 Y4.948 Z-6.171
X42.959 Y4.94 Z-6.087
X42.966 Y4.937 Z-6
G0 Z-5.5
X79.27 Y4.441
G1 Z-6 F1000
Y4.449 Z-6.087
X79.272 Y4.471 Z-6.171
X79.274 Y4.508 Z-6.25
X79.276 Y4.558 Z-6.321
X79.28 Y4.619 Z-6.383
X79.284 Y4.691 Z-6.433
X79.288 Y4.769 Z-6.47
X79.292 Y4.854 Z-6.492
X79.297 Y4.94 Z-6.5
G3 X79.143 Y5.71 I-1.58 J0.085
G1 X79.042 Y5.912
X78.957 Y6.113
X78.936 Y6.17
X78.735 Y6.814
X78.643 Y7.118
X78.592 Y7.259
X78.518 Y7.424
X78.416 Y7.607
X78.295 Y7.79
X78.132 Y7.997
X77.93 Y8.215
X77.693 Y8.434
X77.378 Y8.68
X77.026 Y8.912
X76.563 Y9.167
X76.018 Y9.412
X75.306 Y9.665
X74.45 Y9.894
X73.58 Y10.061
X72.702 Y10.183
X71.82 Y10.272
X70.936 Y10.336
X70.052 Y10.382
X69.166 Y10.416
X68.28 Y10.44
X67.394 Y10.457
X66.508 Y10.47
X65.622 Y10.479
X64.736 Y10.485
X63.85 Y10.489
X62.078 Y10.495
X59.419 Y10.498
X53.217 Y10.5
X47.9
X47.014 Y10.499
X46.128 Y10.491
X45.242 Y10.459
X44.705 Y10.402
X44.255 Y10.317
X44.1 Y10.275
X43.852 Y10.176
X43.633 Y10.022
X43.455 Y9.823
X43.327 Y9.588
X43.256 Y9.33
X43.183 Y8.928
X43.145 Y8.727
X42.857 Y7.52
G0 Z-5.5
X78.53 Y5.847
G1 Z-6 F1000
X78.532 Y5.855 Z-6.087
X78.537 Y5.876 Z-6.171
X78.546 Y5.912 Z-6.25
X78.558 Y5.961 Z-6.321
X78.573 Y6.021 Z-6.383
X78.59 Y6.09 Z-6.433
X78.609 Y6.167 Z-6.47
X78.629 Y6.248 Z-6.492
X78.65 Y6.333 Z-6.5
G3 X78.643 Y7.118 I-1.537 J0.379
G1 X78.338 Y8.123
X78.285 Y8.324
X78.242 Y8.526
X78.224 Y8.636
X78.193 Y8.783
X78.141 Y8.948
X78.073 Y9.114
X77.977 Y9.303
X77.853 Y9.506
X77.702 Y9.714
X77.497 Y9.952
X77.266 Y10.181
X76.968 Y10.433
X76.606 Y10.691
X76.169 Y10.954
X75.634 Y11.219
X74.952 Y11.49
X74.106 Y11.752
X73.241 Y11.946
X72.367 Y12.092
X71.487 Y12.199
X70.605 Y12.28
X69.721 Y12.339
X68.836 Y12.382
X67.95 Y12.415
X67.064 Y12.438
X66.178 Y12.455
X65.292 Y12.468
X64.406 Y12.477
X63.52 Y12.483
X62.634 Y12.488
X60.862 Y12.494
X58.204 Y12.498
X52.887 Y12.5
X49.342
X48.456 Y12.499
X47.57 Y12.495
X46.684 Y12.481
X45.799 Y12.435
X45.154 Y12.359
X44.706 Y12.27
X44.314 Y12.158
X44.281 Y12.146
X44.059 Y12.035
X43.866 Y11.879
X43.709 Y11.686
X43.598 Y11.464
X43.536 Y11.223
X43.287 Y9.531
X43.256 Y9.33
G3 X43.693 Y8.774 I0.496 J-0.059
G1 X43.779 Y8.764 Z-6.492
X43.863 Y8.754 Z-6.47
X43.941 Y8.745 Z-6.433
X44.012 Y8.736 Z-6.383
X44.073 Y8.729 Z-6.321
X44.123 Y8.723 Z-6.25
X44.16 Y8.719 Z-6.171
X44.182 Y8.716 Z-6.087
X44.19 Y8.715 Z-6
G0 Z-5.5
X77.941 Y7.392
G1 Z-6 F1000
X77.944 Y7.399 Z-6.087
X77.952 Y7.42 Z-6.171
X77.966 Y7.454 Z-6.25
X77.984 Y7.501 Z-6.321
X78.007 Y7.558 Z-6.383
X78.033 Y7.625 Z-6.433
X78.062 Y7.698 Z-6.47
X78.093 Y7.776 Z-6.492
X78.125 Y7.857 Z-6.5
G3 X78.224 Y8.636 I-1.471 J0.583
G1 X78.21 Y8.727
X78.071 Y10.134
X78.049 Y10.282
X78.012 Y10.441
X77.953 Y10.625
X77.873 Y10.819
X77.767 Y11.027
X77.625 Y11.259
X77.457 Y11.488
X77.23 Y11.752
X76.974 Y12.004
X76.639 Y12.285
X76.248 Y12.563
X75.756 Y12.857
X75.185 Y13.138
X74.45 Y13.43
X73.603 Y13.689
X72.739 Y13.887
X71.866 Y14.038
X70.987 Y14.154
X70.105 Y14.241
X69.222 Y14.307
X68.337 Y14.357
X67.452 Y14.394
X66.566 Y14.422
X65.68 Y14.443
X64.794 Y14.458
X63.908 Y14.469
X63.022 Y14.478
X62.136 Y14.484
X61.25 Y14.488
X59.478 Y14.494
X56.819 Y14.498
X51.502 Y14.5
X49.73 Y14.499
X48.844 Y14.496
X47.958 Y14.486
X47.072 Y14.461
X46.188 Y14.402
X45.474 Y14.309
X44.981 Y14.204
X44.578 Y14.083
X44.551 Y14.073
X44.333 Y13.961
X44.143 Y13.805
X43.99 Y13.613
X43.881 Y13.393
X43.82 Y13.156
X43.536 Y11.223
G3 X43.977 Y10.671 I0.497 J-0.055
G1 X44.063 Y10.661 Z-6.492
X44.147 Y10.652 Z-6.47
X44.226 Y10.643 Z-6.433
X44.297 Y10.635 Z-6.383
X44.358 Y10.628 Z-6.321
X44.407 Y10.623 Z-6.25
X44.444 Y10.619 Z-6.171
X44.466 Y10.616 Z-6.087
X44.474 Y10.615 Z-6
G0 Z-5.5
X77.712 Y8.91
G1 Z-6 F1000
X77.715 Y8.917 Z-6.087
X77.725 Y8.937 Z-6.171
X77.741 Y8.97 Z-6.25
X77.762 Y9.016 Z-6.321
X77.788 Y9.071 Z-6.383
X77.818 Y9.136 Z-6.433
X77.852 Y9.208 Z-6.47
X77.887 Y9.284 Z-6.492
X77.924 Y9.363 Z-6.5
G3 X78.071 Y10.134 I-1.433 J0.672
G1 X78.031 Y10.536
X78.015 Y10.737
X78 Y11.341
Y11.542
X77.988 Y11.772
X77.968 Y11.925
X77.93 Y12.105
X77.873 Y12.294
X77.793 Y12.501
X77.681 Y12.731
X77.544 Y12.964
X77.358 Y13.228
X77.146 Y13.484
X76.859 Y13.778
X76.539 Y14.057
X76.115 Y14.371
X75.642 Y14.665
X75.035 Y14.979
X74.285 Y15.292
X73.443 Y15.567
X72.583 Y15.782
X71.713 Y15.949
X70.837 Y16.079
X69.956 Y16.18
X69.073 Y16.257
X68.189 Y16.316
X67.304 Y16.362
X66.419 Y16.396
X65.533 Y16.422
X64.647 Y16.442
X63.761 Y16.457
X62.875 Y16.468
X61.989 Y16.477
X61.103 Y16.483
X60.217 Y16.487
X58.445 Y16.493
X55.786 Y16.497
X52.242 Y16.499
X50.47 Y16.498
X49.583 Y16.494
X48.697 Y16.483
X47.812 Y16.457
X46.927 Y16.405
X46.046 Y16.312
X45.463 Y16.205
X45.037 Y16.091
X44.869 Y16.031
X44.642 Y15.922
X44.444 Y15.766
X44.284 Y15.571
X44.17 Y15.346
X44.106 Y15.102
X43.82 Y13.156
G3 X44.261 Y12.603 I0.497 J-0.055
G1 X44.348 Y12.594 Z-6.492
X44.431 Y12.584 Z-6.47
X44.51 Y12.576 Z-6.433
X44.581 Y12.568 Z-6.383
X44.642 Y12.561 Z-6.321
X44.692 Y12.555 Z-6.25
X44.728 Y12.551 Z-6.171
X44.751 Y12.549 Z-6.087
X44.758 Y12.548 Z-6
G0 Z-5.5
X77.523 Y10.358
G1 Z-6 F1000
X77.527 Y10.365 Z-6.087
X77.539 Y10.384 Z-6.171
X77.557 Y10.416 Z-6.25
X77.583 Y10.459 Z-6.321
X77.614 Y10.512 Z-6.383
X77.651 Y10.573 Z-6.433
X77.691 Y10.641 Z-6.47
X77.734 Y10.713 Z-6.492
X77.779 Y10.788 Z-6.5
G3 X78 Y11.542 I-1.36 J0.809
G1 Y13.351
X77.993 Y13.501
X77.981 Y13.651
X77.957 Y13.799
X77.925 Y13.945
X77.883 Y14.09
X77.834 Y14.231
X77.777 Y14.37
X77.714 Y14.506
X77.644 Y14.639
X77.569 Y14.769
X77.489 Y14.895
X77.403 Y15.019
X77.314 Y15.139
X77.22 Y15.256
X77.123 Y15.37
X77.022 Y15.481
X76.917 Y15.589
X76.81 Y15.693
X76.7 Y15.795
X76.587 Y15.894
X76.472 Y15.99
X76.354 Y16.083
X76.234 Y16.174
X76.113 Y16.261
X75.989 Y16.346
X75.864 Y16.429
X75.737 Y16.509
X75.608 Y16.586
X75.478 Y16.661
X75.347 Y16.733
X75.214 Y16.804
X75.081 Y16.872
X74.946 Y16.938
X74.81 Y17.001
X74.673 Y17.063
X74.536 Y17.122
X74.397 Y17.18
X74.258 Y17.236
X74.118 Y17.29
X73.977 Y17.341
X73.836 Y17.392
X73.694 Y17.44
X73.551 Y17.487
X73.408 Y17.532
X73.265 Y17.576
X73.121 Y17.618
X72.977 Y17.659
X72.832 Y17.698
X72.687 Y17.736
X72.541 Y17.772
X72.395 Y17.807
X72.249 Y17.841
X72.103 Y17.874
X71.956 Y17.906
X71.806 Y17.937
X71.646 Y17.968
X71.499 Y17.997
X71.346 Y18.025
X71.182 Y18.054
X71.005 Y18.083
X70.814 Y18.114
X70.628 Y18.143
X70.439 Y18.171
X70.233 Y18.199
X70.008 Y18.229
X69.772 Y18.258
X69.539 Y18.285
X69.281 Y18.313
X68.992 Y18.342
X68.705 Y18.369
X68.389 Y18.397
X68.028 Y18.425
X67.663 Y18.451
X67.234 Y18.479
X66.774 Y18.505
X66.228 Y18.533
X65.621 Y18.558
X64.883 Y18.584
X63.997 Y18.609
X63.111 Y18.627
X62.225 Y18.641
X61.339 Y18.651
X60.453 Y18.658
X59.567 Y18.664
X58.681 Y18.668
X56.908 Y18.674
X54.25 Y18.678
X52.478
X51.592
X50.705 Y18.674
X50.262 Y18.67
X49.815 Y18.664
X49.342 Y18.654
X49.03 Y18.646
X48.774 Y18.637
X48.487 Y18.624
X48.19 Y18.61
X48.029 Y18.6
X47.877 Y18.591
X47.713 Y18.579
X47.538 Y18.565
X47.385 Y18.552
X47.235 Y18.537
X47.086 Y18.522
X46.937 Y18.505
X46.788 Y18.486
X46.639 Y18.467
X46.491 Y18.445
X46.343 Y18.421
X46.195 Y18.396
X46.048 Y18.368
X45.901 Y18.337
X45.755 Y18.304
X45.609 Y18.267
X45.465 Y18.227
X45.321 Y18.183
X45.173 Y18.134
X44.947 Y18.024
X44.751 Y17.868
X44.592 Y17.673
X44.479 Y17.45
X44.416 Y17.207
X44.106 Y15.102
G3 X44.548 Y14.55 I0.497 J-0.055
G1 X44.634 Y14.54 Z-6.492
X44.717 Y14.531 Z-6.47
X44.796 Y14.522 Z-6.433
X44.867 Y14.514 Z-6.383
X44.928 Y14.507 Z-6.321
X44.978 Y14.502 Z-6.25
X45.014 Y14.497 Z-6.171
X45.037 Y14.495 Z-6.087
X45.044 Y14.494 Z-6
G0 Z-5.5
X77.523 Y12.168
G1 Z-6 F1000
X77.527 Y12.175 Z-6.087
X77.539 Y12.194 Z-6.171
X77.557 Y12.226 Z-6.25
X77.583 Y12.269 Z-6.321
X77.614 Y12.322 Z-6.383
X77.651 Y12.383 Z-6.433
X77.691 Y12.451 Z-6.47
X77.734 Y12.523 Z-6.492
X77.779 Y12.598 Z-6.5
G3 X78 Y13.351 I-1.36 J0.809
G1 Y15.161
X77.991 Y15.337
X77.968 Y15.513
X77.927 Y15.707
X77.863 Y15.918
X77.774 Y16.149
X77.653 Y16.396
X77.498 Y16.661
X77.3 Y16.942
X77.053 Y17.24
X76.749 Y17.552
X76.375 Y17.878
X75.919 Y18.215
X75.361 Y18.562
X74.674 Y18.917
X73.857 Y19.258
X73.475 Y19.483
X72.82 Y20.08
X72.367 Y20.842
X72.065 Y21.675
X71.865 Y22.538
X71.735 Y23.415
X71.651 Y24.297
X71.597 Y25.181
X71.562 Y26.067
X71.539 Y26.953
X71.525 Y27.839
X71.516 Y28.725
X71.51 Y29.611
X71.507 Y30.497
X71.503 Y32.269
X71.5 Y35.814
Y38.076
X71.442 Y38.214
X71.358 Y38.339
X71.261 Y38.453
X71.14 Y38.572
X70.983 Y38.703
X70.781 Y38.846
X70.521 Y39
X70.187 Y39.164
X69.748 Y39.336
X69.154 Y39.517
X68.296 Y39.704
X67.418 Y39.822
X66.535 Y39.897
X65.65 Y39.944
X64.765 Y39.974
X63.879 Y39.993
X63.418 Y39.999
X63.283 Y39.932
X63.161 Y39.845
X63.049 Y39.745
X62.928 Y39.617
X62.794 Y39.451
X62.648 Y39.238
X62.492 Y38.964
X62.326 Y38.61
X62.152 Y38.144
X61.97 Y37.505
X61.796 Y36.636
X61.688 Y35.757
X61.619 Y34.873
X61.576 Y33.988
X61.548 Y33.102
X61.531 Y32.216
X61.52 Y31.33
X61.513 Y30.444
X61.508 Y29.558
X61.505 Y28.672
X61.502 Y26.9
X61.501 Y24.242
X61.5 Y23.355
X61.371 Y22.932
X61.126 Y22.562
X60.505 Y21.93
X59.732 Y21.498
X58.894 Y21.209
X58.028 Y21.02
X57.151 Y20.897
X56.268 Y20.818
X55.383 Y20.768
X54.498 Y20.736
X53.612 Y20.715
X52.726 Y20.701
X51.84 Y20.69
X50.954 Y20.677
X50.068 Y20.659
X49.182 Y20.63
X48.297 Y20.581
X47.415 Y20.504
X46.537 Y20.385
X45.954 Y20.26
X45.522 Y20.131
X45.436 Y20.098
X45.219 Y19.985
X45.029 Y19.829
X44.876 Y19.638
X44.767 Y19.418
X44.706 Y19.18
X44.416 Y17.207
G3 X44.857 Y16.654 I0.497 J-0.055
G1 X44.943 Y16.645 Z-6.492
X45.027 Y16.635 Z-6.47
X45.106 Y16.627 Z-6.433
X45.176 Y16.619 Z-6.383
X45.238 Y16.612 Z-6.321
X45.287 Y16.606 Z-6.25
X45.324 Y16.602 Z-6.171
X45.346 Y16.6 Z-6.087
X45.354 Y16.599 Z-6
G0 Z-5.5
X77.523 Y13.978
G1 Z-6 F1000
X77.527 Y13.984 Z-6.087
X77.539 Y14.004 Z-6.171
X77.557 Y14.035 Z-6.25
X77.583 Y14.078 Z-6.321
X77.614 Y14.131 Z-6.383
X77.651 Y14.193 Z-6.433
X77.691 Y14.261 Z-6.47
X77.734 Y14.333 Z-6.492
X77.779 Y14.408 Z-6.5
G3 X78 Y15.161 I-1.36 J0.809
G1 Y16.971
X77.992 Y17.137
X77.967 Y17.324
X77.926 Y17.516
X77.859 Y17.738
X77.768 Y17.972
X77.645 Y18.226
X77.481 Y18.505
X77.282 Y18.789
X77.014 Y19.111
X76.711 Y19.422
X76.043 Y20.005
X75.395 Y20.609
X74.871 Y21.324
X74.473 Y22.115
X74.181 Y22.952
X73.971 Y23.813
X73.824 Y24.687
X73.721 Y25.567
X73.65 Y26.45
X73.601 Y27.335
X73.568 Y28.22
X73.546 Y29.106
X73.531 Y29.992
X73.52 Y30.878
X73.514 Y31.764
X73.509 Y32.65
X73.506 Y33.537
X73.503 Y35.309
X73.502 Y36.195
X73.489 Y36.638
X73.45 Y37.086
X73.387 Y37.453
X73.303 Y37.783
X73.197 Y38.096
X73.066 Y38.397
X72.909 Y38.693
X72.721 Y38.985
X72.502 Y39.273
X72.253 Y39.551
X71.955 Y39.834
X71.6 Y40.121
X71.208 Y40.388
X70.699 Y40.679
X70.155 Y40.934
X69.464 Y41.193
X68.612 Y41.436
X67.744 Y41.612
X66.866 Y41.737
X65.985 Y41.826
X65.101 Y41.889
X64.666 Y41.887
X64.3 Y41.855
X63.972 Y41.801
X63.667 Y41.725
X63.373 Y41.625
X63.085 Y41.501
X62.801 Y41.351
X62.517 Y41.17
X62.241 Y40.962
X61.966 Y40.717
X61.682 Y40.421
X61.411 Y40.087
X61.137 Y39.688
X60.86 Y39.206
X60.599 Y38.655
X60.34 Y37.968
X60.094 Y37.117
X59.916 Y36.248
X59.79 Y35.371
X59.701 Y34.49
X59.638 Y33.606
X59.595 Y32.721
X59.564 Y31.835
X59.544 Y30.949
X59.53 Y30.063
X59.52 Y29.177
X59.513 Y28.291
X59.509 Y27.405
X59.506 Y26.519
X59.505 Y26.076
X59.429 Y25.639
X59.257 Y25.231
X58.766 Y24.493
X58.074 Y23.939
X57.282 Y23.542
X56.441 Y23.264
X55.576 Y23.073
X54.699 Y22.942
X53.818 Y22.853
X52.934 Y22.792
X52.049 Y22.747
X50.278 Y22.673
X49.393 Y22.628
X48.509 Y22.567
X47.627 Y22.483
X46.75 Y22.355
X46.186 Y22.227
X45.761 Y22.093
X45.714 Y22.074
X45.5 Y21.961
X45.314 Y21.805
X45.164 Y21.615
X45.057 Y21.397
X44.997 Y21.162
X44.706 Y19.18
G3 X45.147 Y18.628 I0.497 J-0.055
G1 X45.234 Y18.618 Z-6.492
X45.317 Y18.609 Z-6.47
X45.396 Y18.6 Z-6.433
X45.467 Y18.592 Z-6.383
X45.528 Y18.586 Z-6.321
X45.578 Y18.58 Z-6.25
X45.614 Y18.576 Z-6.171
X45.637 Y18.573 Z-6.087
X45.644 Z-6
G0 Z-5.5
X77.523 Y15.787
G1 Z-6 F1000
X77.527 Y15.794 Z-6.087
X77.539 Y15.813 Z-6.171
X77.557 Y15.845 Z-6.25
X77.583 Y15.888 Z-6.321
X77.614 Y15.941 Z-6.383
X77.651 Y16.002 Z-6.433
X77.691 Y16.07 Z-6.47
X77.734 Y16.143 Z-6.492
X77.779 Y16.217 Z-6.5
G3 X78 Y16.971 I-1.36 J0.809
G1 Y18.78
X77.99 Y18.975
X77.965 Y19.166
X77.916 Y19.395
X77.828 Y19.688
X77.605 Y20.262
X77.218 Y21.059
X76.845 Y21.863
X76.523 Y22.688
X76.263 Y23.535
X76.061 Y24.398
X75.908 Y25.271
X75.793 Y26.149
X75.709 Y27.032
X75.648 Y27.916
X75.604 Y28.801
X75.573 Y29.686
X75.551 Y30.572
X75.535 Y31.458
X75.524 Y32.344
X75.517 Y33.23
X75.512 Y34.116
X75.505 Y35.002
X75.474 Y35.888
X75.397 Y36.672
X75.278 Y37.334
X75.121 Y37.93
X74.93 Y38.472
X74.703 Y38.979
X74.438 Y39.465
X74.131 Y39.935
X73.781 Y40.385
X73.386 Y40.817
X72.941 Y41.232
X72.437 Y41.631
X71.851 Y42.022
X71.163 Y42.406
X70.417 Y42.747
X69.584 Y43.049
X68.731 Y43.289
X67.865 Y43.475
X66.99 Y43.618
X66.126 Y43.715
X65.402 Y43.737
X64.79 Y43.706
X64.221 Y43.631
X63.686 Y43.517
X63.179 Y43.365
X62.697 Y43.177
X62.233 Y42.952
X61.784 Y42.688
X61.349 Y42.383
X60.925 Y42.031
X60.507 Y41.623
X60.099 Y41.155
X59.702 Y40.619
X59.341 Y40.038
X58.981 Y39.34
X58.642 Y38.532
X58.367 Y37.689
X58.151 Y36.83
X57.983 Y35.96
X57.855 Y35.083
X57.759 Y34.202
X57.688 Y33.319
X57.635 Y32.434
X57.596 Y31.549
X57.568 Y30.663
X57.548 Y29.777
X57.534 Y28.891
X57.524 Y28.005
X57.383 Y27.585
X56.958 Y26.808
X56.314 Y26.199
X55.552 Y25.747
X54.728 Y25.421
X53.873 Y25.188
X53.002 Y25.022
X52.124 Y24.902
X51.243 Y24.809
X50.361 Y24.731
X49.478 Y24.655
X48.596 Y24.57
X47.716 Y24.463
X46.883 Y24.321
X46.361 Y24.188
X46.066 Y24.086
X45.835 Y23.978
X45.634 Y23.822
X45.471 Y23.626
X45.354 Y23.399
X45.29 Y23.152
X44.997 Y21.162
G3 X45.439 Y20.61 I0.497 J-0.055
G1 X45.525 Y20.6 Z-6.492
X45.609 Y20.591 Z-6.47
X45.687 Y20.582 Z-6.433
X45.758 Y20.574 Z-6.383
X45.819 Y20.568 Z-6.321
X45.869 Y20.562 Z-6.25
X45.906 Y20.558 Z-6.171
X45.928 Y20.556 Z-6.087
X45.936 Y20.555 Z-6
G0 Z-5.5
X77.523 Y17.597
G1 Z-6 F1000
X77.527 Y17.604 Z-6.087
X77.539 Y17.623 Z-6.171
X77.557 Y17.655 Z-6.25
X77.583 Y17.698 Z-6.321
X77.614 Y17.751 Z-6.383
X77.651 Y17.812 Z-6.433
X77.691 Y17.88 Z-6.47
X77.734 Y17.952 Z-6.492
X77.779 Y18.027 Z-6.5
G3 X78 Y18.78 I-1.36 J0.809
G1 Y22.601
X77.956 Y23.486
X77.914 Y24.371
X77.851 Y25.255
X77.785 Y26.139
X77.724 Y27.023
X77.673 Y27.907
X77.631 Y28.792
X77.598 Y29.678
X77.572 Y30.564
X77.553 Y31.45
X77.538 Y32.336
X77.527 Y33.222
X77.511 Y34.108
X77.478 Y34.993
X77.411 Y35.877
X77.297 Y36.755
X77.122 Y37.624
X76.901 Y38.397
X76.63 Y39.121
X76.307 Y39.808
X75.935 Y40.459
X75.511 Y41.078
X75.033 Y41.67
X74.493 Y42.238
X73.879 Y42.787
X73.204 Y43.3
X72.471 Y43.769
X71.689 Y44.185
X70.877 Y44.541
X70.044 Y44.842
X69.194 Y45.092
X68.331 Y45.296
X67.459 Y45.452
X66.579 Y45.551
X65.714 Y45.584
X64.907 Y45.55
X64.161 Y45.457
X63.456 Y45.312
X62.781 Y45.115
X62.131 Y44.868
X61.503 Y44.569
X60.895 Y44.217
X60.305 Y43.809
X59.734 Y43.342
X59.192 Y42.821
X58.682 Y42.246
X58.19 Y41.591
X57.717 Y40.843
X57.305 Y40.058
X56.952 Y39.246
X56.654 Y38.411
X56.407 Y37.56
X56.205 Y36.697
X56.043 Y35.826
X55.914 Y34.949
X55.814 Y34.069
X55.735 Y33.186
X55.675 Y32.302
X55.63 Y31.417
X55.596 Y30.532
X55.532 Y30.093
X55.249 Y29.253
X54.702 Y28.556
X53.997 Y28.019
X53.207 Y27.619
X52.371 Y27.324
X51.513 Y27.103
X50.644 Y26.932
X49.769 Y26.79
X48.893 Y26.66
X48.017 Y26.522
X47.148 Y26.351
X46.625 Y26.207
X46.342 Y26.104
X46.117 Y25.993
X45.922 Y25.837
X45.764 Y25.643
X45.651 Y25.42
X45.588 Y25.177
X45.29 Y23.152
G3 X45.731 Y22.6 I0.497 J-0.055
G1 X45.818 Y22.59 Z-6.492
X45.901 Y22.581 Z-6.47
X45.98 Y22.572 Z-6.433
X46.051 Y22.564 Z-6.383
X46.112 Y22.558 Z-6.321
X46.162 Y22.552 Z-6.25
X46.198 Y22.548 Z-6.171
X46.221 Y22.545 Z-6.087
X46.228 Z-6
G0 Z-5.5
X77.523 Y21.418
G1 Z-6 F1000
X77.527 Y21.424 Z-6.087
X77.539 Y21.444 Z-6.171
X77.557 Y21.475 Z-6.25
X77.583 Y21.518 Z-6.321
X77.614 Y21.571 Z-6.383
X77.651 Y21.633 Z-6.433
X77.691 Y21.7 Z-6.47
X77.734 Y21.773 Z-6.492
X77.779 Y21.847 Z-6.5
G3 X78 Y22.601 I-1.36 J0.809
G1 Y38.687
X77.978 Y39.118
X77.927 Y39.509
X77.833 Y39.95
X77.694 Y40.415
X77.486 Y40.947
X77.229 Y41.477
X76.894 Y42.045
X76.469 Y42.651
X75.956 Y43.269
X75.381 Y43.859
X74.721 Y44.434
X74.009 Y44.961
X73.259 Y45.433
X72.479 Y45.853
X71.673 Y46.221
X70.846 Y46.541
X70.004 Y46.815
X69.148 Y47.045
X68.281 Y47.226
X67.404 Y47.355
X66.521 Y47.429
X65.635 Y47.442
X64.75 Y47.392
X63.872 Y47.276
X63.009 Y47.092
X62.176 Y46.843
X61.373 Y46.53
X60.597 Y46.154
X59.847 Y45.713
X59.127 Y45.208
X58.445 Y44.642
X57.81 Y44.024
X57.224 Y43.359
X56.69 Y42.652
X56.206 Y41.91
X55.773 Y41.137
X55.39 Y40.337
X55.057 Y39.516
X54.771 Y38.678
X54.528 Y37.825
X54.324 Y36.963
X54.154 Y36.093
X54.015 Y35.218
X53.902 Y34.339
X53.811 Y33.458
X53.739 Y32.575
X53.58 Y31.703
X53.142 Y30.933
X52.512 Y30.309
X51.77 Y29.826
X50.965 Y29.454
X50.128 Y29.165
X49.274 Y28.928
X48.413 Y28.716
X47.554 Y28.5
X46.922 Y28.307
X46.62 Y28.187
X46.404 Y28.074
X46.216 Y27.918
X46.065 Y27.727
X45.956 Y27.509
X45.896 Y27.272
X45.588 Y25.177
G3 X46.029 Y24.625 I0.497 J-0.055
G1 X46.116 Y24.615 Z-6.492
X46.199 Y24.606 Z-6.47
X46.278 Y24.597 Z-6.433
X46.349 Y24.589 Z-6.383
X46.41 Y24.583 Z-6.321
X46.46 Y24.577 Z-6.25
X46.496 Y24.573 Z-6.171
X46.519 Y24.57 Z-6.087
X46.526 Z-6
G0 Z-5.5
X77.523 Y37.504
G1 Z-6 F1000
X77.527 Y37.51 Z-6.087
X77.539 Y37.53 Z-6.171
X77.557 Y37.561 Z-6.25
X77.583 Y37.604 Z-6.321
X77.614 Y37.657 Z-6.383
X77.651 Y37.719 Z-6.433
X77.691 Y37.787 Z-6.47
X77.734 Y37.859 Z-6.492
X77.779 Y37.934 Z-6.5
G3 X78 Y38.687 I-1.36 J0.809
G1 Y41.703
X77.983 Y42.033
X77.947 Y42.313
X77.882 Y42.614
X77.783 Y42.946
X77.634 Y43.329
X77.444 Y43.72
X77.176 Y44.175
X76.853 Y44.635
X76.438 Y45.136
X75.912 Y45.674
X75.284 Y46.222
X74.572 Y46.749
X73.821 Y47.219
X73.039 Y47.637
X72.234 Y48.007
X71.409 Y48.331
X70.569 Y48.611
X69.714 Y48.847
X68.849 Y49.037
X67.975 Y49.181
X67.094 Y49.277
X66.209 Y49.319
X65.323 Y49.305
X64.439 Y49.236
X63.562 Y49.11
X62.695 Y48.927
X61.842 Y48.685
X61.008 Y48.387
X60.197 Y48.03
X59.413 Y47.617
X58.661 Y47.149
X57.942 Y46.631
X57.26 Y46.065
X56.616 Y45.456
X56.014 Y44.806
X55.454 Y44.119
X54.939 Y43.398
X54.469 Y42.647
X54.044 Y41.87
X53.662 Y41.07
X53.323 Y40.251
X53.024 Y39.417
X52.764 Y38.57
X52.54 Y37.713
X52.348 Y36.847
X52.186 Y35.976
X52.05 Y35.101
X51.932 Y34.222
X51.638 Y33.387
X51.118 Y32.669
X50.452 Y32.085
X49.699 Y31.617
X48.9 Y31.233
X48.08 Y30.9
X47.254 Y30.578
X46.893 Y30.412
X46.647 Y30.259
X46.447 Y30.051
X46.304 Y29.8
X46.227 Y29.522
X45.896 Y27.272
G3 X46.337 Y26.72 I0.497 J-0.055
G1 X46.424 Y26.71 Z-6.492
X46.507 Y26.701 Z-6.47
X46.586 Y26.692 Z-6.433
X46.657 Y26.684 Z-6.383
X46.718 Y26.677 Z-6.321
X46.768 Y26.672 Z-6.25
X46.804 Y26.668 Z-6.171
X46.827 Y26.665 Z-6.087
X46.834 Y26.664 Z-6
G0 Z-5.5
X77.523 Y40.52
G1 Z-6 F1000
X77.527 Y40.527 Z-6.087
X77.539 Y40.546 Z-6.171
X77.557 Y40.578 Z-6.25
X77.583 Y40.621 Z-6.321
X77.614 Y40.674 Z-6.383
X77.651 Y40.735 Z-6.433
X77.691 Y40.803 Z-6.47
X77.734 Y40.875 Z-6.492
X77.779 Y40.95 Z-6.5
G3 X78 Y41.703 I-1.36 J0.809
G1 Y44.116
X77.983 Y44.456
X77.953 Y44.687
X77.894 Y44.962
X77.81 Y45.241
X77.685 Y45.564
X77.512 Y45.92
X77.292 Y46.294
X76.995 Y46.716
X76.632 Y47.153
X76.179 Y47.617
X75.604 Y48.119
X74.9 Y48.64
X74.148 Y49.108
X73.365 Y49.523
X72.558 Y49.888
X71.731 Y50.207
X70.888 Y50.482
X70.033 Y50.713
X69.167 Y50.901
X68.293 Y51.045
X67.412 Y51.143
X66.527 Y51.196
X65.641 Y51.201
X64.756 Y51.157
X63.875 Y51.062
X63.001 Y50.916
X62.137 Y50.72
X61.286 Y50.473
X60.451 Y50.177
X59.635 Y49.831
X58.841 Y49.438
X58.073 Y48.996
X57.333 Y48.508
X56.624 Y47.976
X55.948 Y47.404
X55.305 Y46.794
X54.698 Y46.149
X54.128 Y45.47
X53.596 Y44.762
X53.102 Y44.026
X52.649 Y43.264
X52.236 Y42.48
X51.861 Y41.677
X51.706 Y41.301
X51.632 Y41.038
X51.62 Y40.765
X51.672 Y40.497
X51.735 Y40.296
X51.78 Y40.095
X51.817 Y39.894
X51.915 Y39.29
X51.956 Y39.023
X51.975 Y38.888
X51.987 Y38.687
X51.991 Y38.285
Y38.084
X51.972 Y37.682
X51.956 Y37.536
X51.852 Y36.877
X51.733 Y36.274
X51.67 Y36.073
X51.591 Y35.872
X51.498 Y35.671
X51.294 Y35.269
X51.151 Y34.989
X51.085 Y34.867
X50.973 Y34.666
X50.835 Y34.465
X50.748 Y34.346
X50.284 Y33.861
X50.144 Y33.718
X50.084 Y33.66
X49.518 Y33.146
X49.496 Y33.132
X48.936 Y32.811
X48.735 Y32.705
X48.241 Y32.454
X48.131 Y32.407
X47.929 Y32.323
X47.7 Y32.253
X47.527 Y32.216
X47.221 Y32.145
X47.003 Y32.048
X46.811 Y31.904
X46.657 Y31.722
X46.546 Y31.51
X46.485 Y31.279
G3 X46.926 Y30.727 Z-6.3 I0.497 J-0.055
X47.296 Y30.835 I0.056 J0.497
G1 X47.913 Y31.333
G3 X48.093 Y31.793 I-0.314 J0.389
X47.527 Y32.216 Z-6.5 I-0.495 J-0.072
G1 X47.124 Y32.144
X46.923 Y32.107
X46.859 Y32.085
X46.795 Y32.052
X46.721 Y31.999
X46.681 Y31.962
X46.648 Y31.925
X46.621 Y31.888
X46.599 Y31.851
X46.576 Y31.8
X46.559 Y31.75
X46.54 Y31.649
X46.227 Y29.522
G3 X46.668 Y28.969 I0.497 J-0.055
G1 X46.754 Y28.96 Z-6.492
X46.838 Y28.95 Z-6.47
X46.917 Y28.942 Z-6.433
X46.988 Y28.934 Z-6.383
X47.049 Y28.927 Z-6.321
X47.098 Y28.921 Z-6.25
X47.135 Y28.917 Z-6.171
X47.157 Y28.915 Z-6.087
X47.165 Y28.914 Z-6
G0 Z-5.5
X77.523 Y42.933
G1 Z-6 F1000
X77.527 Y42.939 Z-6.087
X77.539 Y42.959 Z-6.171
X77.557 Y42.991 Z-6.25
X77.583 Y43.033 Z-6.321
X77.614 Y43.086 Z-6.383
X77.651 Y43.148 Z-6.433
X77.691 Y43.216 Z-6.47
X77.734 Y43.288 Z-6.492
X77.779 Y43.363 Z-6.5
G3 X78 Y44.116 I-1.36 J0.809
G1 Y46.529
X77.993 Y46.679
X77.96 Y46.911
X77.908 Y47.148
X77.824 Y47.422
X77.702 Y47.729
X77.546 Y48.045
X77.322 Y48.421
X77.061 Y48.786
X76.7 Y49.215
X76.279 Y49.642
X75.738 Y50.107
X75.064 Y50.599
X74.309 Y51.062
X73.522 Y51.469
X72.71 Y51.825
X71.88 Y52.135
X71.035 Y52.4
X70.177 Y52.622
X69.309 Y52.801
X68.433 Y52.938
X67.552 Y53.033
X66.668 Y53.086
X65.782 Y53.097
X64.896 Y53.063
X64.014 Y52.985
X63.136 Y52.863
X62.266 Y52.694
X61.406 Y52.48
X60.559 Y52.221
X59.726 Y51.918
X58.91 Y51.572
X58.114 Y51.183
X57.339 Y50.753
X56.589 Y50.282
X55.864 Y49.772
X55.168 Y49.224
X54.501 Y48.641
X53.865 Y48.024
X53.261 Y47.375
X52.689 Y46.698
X52.152 Y45.994
X51.648 Y45.264
X51.18 Y44.512
X50.746 Y43.739
X50.605 Y43.446
X50.52 Y43.201
X50.492 Y42.945
X50.522 Y42.688
X50.609 Y42.444
X50.748 Y42.227
X50.967 Y41.904
X51.079 Y41.703
X51.352 Y41.189
X51.591 Y40.698
X51.672 Y40.497
G3 X52.331 Y40.243 I0.457 J0.203
G1 X52.411 Y40.278 Z-6.492
X52.488 Y40.312 Z-6.47
X52.56 Y40.344 Z-6.433
X52.625 Y40.373 Z-6.383
X52.681 Y40.398 Z-6.321
X52.727 Y40.418 Z-6.25
X52.761 Y40.433 Z-6.171
X52.781 Y40.442 Z-6.087
X52.788 Y40.445 Z-6
G0 Z-5.5
X77.523 Y45.346
G1 Z-6 F1000
X77.527 Y45.352 Z-6.087
X77.539 Y45.372 Z-6.171
X77.557 Y45.403 Z-6.25
X77.583 Y45.446 Z-6.321
X77.614 Y45.499 Z-6.383
X77.651 Y45.561 Z-6.433
X77.691 Y45.629 Z-6.47
X77.734 Y45.701 Z-6.492
X77.779 Y45.776 Z-6.5
G3 X78 Y46.529 I-1.36 J0.809
G1 Y48.54
X77.987 Y48.797
X77.959 Y49.015
X77.911 Y49.239
X77.831 Y49.505
X77.722 Y49.784
X77.573 Y50.091
X77.368 Y50.44
X77.123 Y50.788
X76.788 Y51.192
X76.394 Y51.596
X75.892 Y52.034
X75.261 Y52.501
X74.509 Y52.969
X73.722 Y53.377
X72.91 Y53.732
X72.079 Y54.038
X71.232 Y54.298
X70.372 Y54.515
X69.504 Y54.691
X68.628 Y54.827
X67.748 Y54.924
X66.863 Y54.981
X65.977 Y54.999
X65.092 Y54.978
X64.208 Y54.917
X63.327 Y54.815
X62.453 Y54.672
X61.586 Y54.487
X60.729 Y54.262
X59.884 Y53.996
X59.052 Y53.691
X58.235 Y53.348
X57.435 Y52.966
X56.654 Y52.547
X55.894 Y52.093
X55.156 Y51.602
X54.443 Y51.076
X53.755 Y50.517
X53.095 Y49.926
X52.462 Y49.306
X51.858 Y48.657
X51.284 Y47.983
X50.739 Y47.284
X50.225 Y46.562
X49.743 Y45.818
X49.478 Y45.337
X49.291 Y44.921
X49.206 Y44.684
X49.144 Y44.41
X49.149 Y44.129
X49.219 Y43.857
X49.352 Y43.609
X49.54 Y43.4
X49.87 Y43.111
X50.144 Y42.85
X50.547 Y42.463
X50.683 Y42.307
X50.748 Y42.227
G3 X51.454 Y42.178 I0.377 J0.328
G1 X51.519 Y42.235 Z-6.492
X51.583 Y42.29 Z-6.47
X51.642 Y42.342 Z-6.433
X51.696 Y42.389 Z-6.383
X51.743 Y42.43 Z-6.321
X51.78 Y42.463 Z-6.25
X51.808 Y42.487 Z-6.171
X51.825 Y42.502 Z-6.087
X51.831 Y42.507 Z-6
G0 Z-5.5
X77.523 Y47.357
G1 Z-6 F1000
X77.527 Y47.363 Z-6.087
X77.539 Y47.383 Z-6.171
X77.557 Y47.414 Z-6.25
X77.583 Y47.457 Z-6.321
X77.614 Y47.51 Z-6.383
X77.651 Y47.572 Z-6.433
X77.691 Y47.639 Z-6.47
X77.734 Y47.712 Z-6.492
X77.779 Y47.786 Z-6.5
G3 X78 Y48.54 I-1.36 J0.809
G1 Y50.661
X77.99 Y50.864
X77.964 Y51.065
X77.915 Y51.292
X77.837 Y51.553
X77.734 Y51.817
X77.583 Y52.129
X77.396 Y52.447
X77.146 Y52.802
X76.834 Y53.178
X76.437 Y53.585
X75.965 Y53.997
X75.362 Y54.443
X74.625 Y54.902
X73.837 Y55.308
X73.023 Y55.659
X72.19 Y55.96
X71.341 Y56.215
X70.481 Y56.427
X69.612 Y56.599
X68.736 Y56.732
X67.855 Y56.827
X66.97 Y56.885
X66.085 Y56.907
X65.199 Y56.892
X64.314 Y56.841
X63.432 Y56.753
X62.555 Y56.628
X61.684 Y56.465
X60.821 Y56.264
X59.967 Y56.026
X59.125 Y55.752
X58.294 Y55.442
X57.478 Y55.097
X56.677 Y54.718
X55.893 Y54.305
X55.127 Y53.86
X54.381 Y53.381
X53.656 Y52.872
X52.954 Y52.331
X52.276 Y51.761
X51.623 Y51.162
X50.996 Y50.536
X50.394 Y49.885
X49.82 Y49.21
X49.273 Y48.513
X48.756 Y47.794
X48.332 Y47.119
X48.064 Y46.606
X47.896 Y46.21
X47.776 Y45.848
X47.696 Y45.52
X47.66 Y45.299
X47.648 Y45.047
X47.69 Y44.799
X47.785 Y44.565
X47.929 Y44.357
X48.114 Y44.186
X48.332 Y44.059
X48.735 Y43.871
X48.936 Y43.777
X49.063 Y43.714
X49.138 Y43.669
X49.383 Y43.513
X49.54 Y43.4
G3 X50.234 Y43.539 I0.277 J0.416
G1 X50.282 Y43.612 Z-6.492
X50.328 Y43.682 Z-6.47
X50.372 Y43.747 Z-6.433
X50.412 Y43.807 Z-6.383
X50.446 Y43.858 Z-6.321
X50.474 Y43.9 Z-6.25
X50.494 Y43.93 Z-6.171
X50.506 Y43.949 Z-6.087
X50.511 Y43.955 Z-6
G0 Z-5.5
X77.523 Y49.478
G1 Z-6 F1000
X77.527 Y49.485 Z-6.087
X77.539 Y49.504 Z-6.171
X77.557 Y49.536 Z-6.25
X77.583 Y49.579 Z-6.321
X77.614 Y49.632 Z-6.383
X77.651 Y49.693 Z-6.433
X77.691 Y49.761 Z-6.47
X77.734 Y49.833 Z-6.492
X77.779 Y49.908 Z-6.5
G3 X78 Y50.661 I-1.36 J0.809
G1 Y52.159
X78.005 Y52.672
X77.997 Y52.867
X77.973 Y53.061
X77.928 Y53.284
X77.855 Y53.535
X77.758 Y53.793
X77.613 Y54.098
X77.439 Y54.401
X77.2 Y54.749
X76.906 Y55.11
X76.53 Y55.503
X76.084 Y55.9
X75.512 Y56.331
X74.811 Y56.777
X74.028 Y57.191
X73.216 Y57.546
X72.383 Y57.849
X71.535 Y58.104
X70.675 Y58.317
X69.806 Y58.49
X68.93 Y58.625
X68.049 Y58.725
X67.166 Y58.789
X66.28 Y58.818
X65.394 Y58.813
X64.509 Y58.775
X63.625 Y58.702
X62.746 Y58.595
X61.871 Y58.454
X61.003 Y58.277
X60.142 Y58.066
X59.29 Y57.821
X58.449 Y57.543
X57.619 Y57.233
X56.802 Y56.891
X55.998 Y56.517
X55.21 Y56.113
X54.437 Y55.678
X53.683 Y55.214
X52.947 Y54.72
X52.231 Y54.198
X51.537 Y53.647
X50.865 Y53.069
X50.216 Y52.466
X49.59 Y51.838
X48.988 Y51.188
X48.411 Y50.515
X47.862 Y49.82
X47.347 Y49.099
X46.908 Y48.389
X46.593 Y47.774
X46.377 Y47.253
X46.244 Y46.84
X46.152 Y46.455
X46.103 Y46.131
X46.079 Y45.804
X46.08 Y45.655
X46.109 Y45.407
X46.19 Y45.17
X46.32 Y44.957
X46.492 Y44.776
X46.699 Y44.635
X46.931 Y44.542
X47.527 Y44.374
X47.705 Y44.317
X48.204 Y44.116
X48.332 Y44.059
G3 X48.983 Y44.336 I0.187 J0.464
G1 X49.015 Y44.417 Z-6.492
X49.047 Y44.495 Z-6.47
X49.076 Y44.568 Z-6.433
X49.103 Y44.634 Z-6.383
X49.126 Y44.691 Z-6.321
X49.145 Y44.738 Z-6.25
X49.158 Y44.772 Z-6.171
X49.167 Y44.793 Z-6.087
X49.17 Y44.8 Z-6
G0 Z-5.5
X77.517 Y51.493
G1 Z-6 F1000
X77.52 Y51.5 Z-6.087
X77.532 Y51.519 Z-6.171
X77.551 Y51.551 Z-6.25
X77.577 Y51.593 Z-6.321
X77.609 Y51.646 Z-6.383
X77.646 Y51.707 Z-6.433
X77.687 Y51.775 Z-6.47
X77.731 Y51.847 Z-6.492
X77.776 Y51.921 Z-6.5
G3 X78.005 Y52.672 I-1.352 J0.822
G1 X78.006 Y52.763
X78.027 Y52.964
X78.083 Y53.366
X78.114 Y53.567
X78.182 Y53.969
X78.202 Y54.08
X78.226 Y54.255
X78.235 Y54.422
X78.23 Y54.608
X78.206 Y54.826
X78.164 Y55.049
X78.092 Y55.312
X77.995 Y55.579
X77.856 Y55.883
X77.676 Y56.205
X77.444 Y56.552
X77.149 Y56.925
X76.783 Y57.318
X76.339 Y57.723
X75.777 Y58.16
X75.101 Y58.603
X74.323 Y59.027
X73.515 Y59.39
X72.685 Y59.7
X71.838 Y59.962
X70.98 Y60.182
X70.112 Y60.362
X69.238 Y60.505
X68.358 Y60.613
X67.475 Y60.687
X66.59 Y60.728
X65.704 Y60.737
X64.818 Y60.714
X63.933 Y60.66
X63.052 Y60.573
X62.174 Y60.453
X61.301 Y60.301
X60.434 Y60.117
X59.574 Y59.902
X58.723 Y59.656
X57.881 Y59.379
X57.05 Y59.072
X56.23 Y58.736
X55.422 Y58.372
X54.628 Y57.978
X53.849 Y57.557
X53.085 Y57.108
X52.338 Y56.631
X51.609 Y56.127
X50.899 Y55.597
X50.209 Y55.041
X49.539 Y54.461
X48.891 Y53.857
X48.263 Y53.231
X47.659 Y52.583
X47.078 Y51.914
X46.525 Y51.222
X46.006 Y50.504
X45.531 Y49.755
X45.144 Y49.03
X44.871 Y48.402
X44.671 Y47.818
X44.547 Y47.333
X44.479 Y46.934
X44.446 Y46.558
X44.443 Y46.241
X44.458 Y46.038
X44.513 Y45.759
X44.634 Y45.501
X44.814 Y45.28
X45.043 Y45.109
X45.306 Y44.999
X46.931 Y44.542
G3 X47.535 Y44.909 I0.119 J0.486
G1 X47.556 Y44.994 Z-6.492
X47.576 Y45.075 Z-6.47
X47.595 Y45.152 Z-6.433
X47.612 Y45.222 Z-6.383
X47.626 Y45.281 Z-6.321
X47.638 Y45.33 Z-6.25
X47.647 Y45.366 Z-6.171
X47.652 Y45.388 Z-6.087
X47.654 Y45.395 Z-6
G0 Z-5.5
X77.517 Y53.003
G1 Z-6 F1000
X77.522 Y53.009 Z-6.087
X77.537 Y53.026 Z-6.171
X77.561 Y53.054 Z-6.25
X77.594 Y53.091 Z-6.321
X77.635 Y53.138 Z-6.383
X77.682 Y53.191 Z-6.433
X77.734 Y53.251 Z-6.47
X77.79 Y53.314 Z-6.492
X77.847 Y53.379 Z-6.5
G3 X78.202 Y54.08 I-1.189 J1.044
G1 X78.219 Y54.17
X78.263 Y54.371
X78.332 Y54.595
X78.398 Y54.773
X78.571 Y55.115
X78.632 Y55.252
X78.678 Y55.395
X78.712 Y55.548
X78.736 Y55.719
X78.747 Y55.909
X78.743 Y56.127
X78.719 Y56.356
X78.67 Y56.623
X78.597 Y56.893
X78.485 Y57.209
X78.343 Y57.523
X78.141 Y57.89
X77.904 Y58.249
X77.581 Y58.662
X77.206 Y59.069
X76.733 Y59.506
X76.149 Y59.964
X75.465 Y60.418
X74.69 Y60.846
X73.884 Y61.215
X73.057 Y61.532
X72.213 Y61.803
X71.357 Y62.031
X70.491 Y62.221
X69.618 Y62.375
X68.74 Y62.494
X67.858 Y62.581
X66.974 Y62.636
X66.088 Y62.66
X65.202 Y62.653
X64.317 Y62.617
X63.433 Y62.55
X62.552 Y62.452
X61.676 Y62.324
X60.804 Y62.166
X59.938 Y61.979
X59.078 Y61.762
X58.227 Y61.517
X57.384 Y61.244
X56.55 Y60.944
X55.727 Y60.616
X54.915 Y60.261
X54.115 Y59.879
X53.328 Y59.472
X52.556 Y59.038
X51.798 Y58.578
X51.057 Y58.092
X50.333 Y57.582
X49.626 Y57.047
X48.938 Y56.489
X48.268 Y55.909
X47.618 Y55.306
X46.988 Y54.683
X46.38 Y54.039
X45.794 Y53.374
X45.235 Y52.687
X44.707 Y51.975
X44.218 Y51.236
X43.776 Y50.468
X43.409 Y49.709
X43.135 Y49.003
X42.946 Y48.367
X42.833 Y47.832
X42.771 Y47.355
X42.753 Y46.986
X42.765 Y46.621
X42.783 Y46.464
X42.846 Y46.196
X42.97 Y45.949
X43.148 Y45.739
X43.371 Y45.577
X43.626 Y45.472
X45.306 Y44.999
G3 X45.91 Y45.366 I0.118 J0.486
G1 X45.93 Y45.451 Z-6.492
X45.95 Y45.533 Z-6.47
X45.969 Y45.609 Z-6.433
X45.986 Y45.679 Z-6.383
X46.001 Y45.739 Z-6.321
X46.012 Y45.787 Z-6.25
X46.021 Y45.823 Z-6.171
X46.027 Y45.845 Z-6.087
X46.028 Y45.852 Z-6
G0 Z-5.5
X77.611 Y54.275
G1 Z-6 F1000
X77.617 Y54.279 Z-6.087
X77.636 Y54.291 Z-6.171
X77.667 Y54.311 Z-6.25
X77.71 Y54.338 Z-6.321
X77.762 Y54.371 Z-6.383
X77.822 Y54.409 Z-6.433
X77.889 Y54.451 Z-6.47
X77.96 Y54.496 Z-6.492
X78.033 Y54.543 Z-6.5
G3 X78.571 Y55.115 I-0.848 J1.336
G1 X78.602 Y55.176
X78.707 Y55.377
X78.936 Y55.797
X79.037 Y55.98
X79.138 Y56.135
X79.233 Y56.299
X79.297 Y56.434
X79.349 Y56.575
X79.395 Y56.737
X79.431 Y56.921
X79.455 Y57.123
X79.462 Y57.351
X79.451 Y57.597
X79.416 Y57.875
X79.354 Y58.169
X79.258 Y58.493
X79.125 Y58.839
X78.948 Y59.208
X78.711 Y59.613
X78.427 Y60.022
X78.047 Y60.483
X77.618 Y60.926
X77.08 Y61.398
X76.427 Y61.886
X75.676 Y62.357
X74.892 Y62.769
X74.082 Y63.128
X73.252 Y63.439
X72.407 Y63.706
X71.55 Y63.933
X70.685 Y64.123
X69.812 Y64.278
X68.935 Y64.4
X68.053 Y64.491
X67.169 Y64.551
X66.283 Y64.582
X65.397 Y64.584
X64.512 Y64.557
X63.627 Y64.502
X62.745 Y64.418
X61.866 Y64.306
X60.991 Y64.166
X60.121 Y63.998
X59.257 Y63.802
X58.399 Y63.58
X57.549 Y63.33
X56.707 Y63.054
X55.873 Y62.753
X55.05 Y62.426
X54.237 Y62.074
X53.435 Y61.697
X52.645 Y61.296
X51.868 Y60.87
X51.104 Y60.42
X50.356 Y59.946
X49.622 Y59.449
X48.905 Y58.929
X48.204 Y58.386
X47.521 Y57.822
X46.855 Y57.237
X46.208 Y56.631
X45.581 Y56.006
X44.974 Y55.36
X44.39 Y54.694
X43.831 Y54.005
X43.302 Y53.295
X42.807 Y52.56
X42.352 Y51.799
X41.946 Y51.012
X41.598 Y50.205
X41.342 Y49.447
X41.169 Y48.761
X41.076 Y48.203
X41.035 Y47.719
X41.033 Y47.341
X41.06 Y46.979
X41.073 Y46.896
X41.144 Y46.64
X41.271 Y46.407
X41.447 Y46.208
X41.664 Y46.055
X41.91 Y45.954
X43.626 Y45.472
G3 X44.23 Y45.839 I0.118 J0.486
G1 X44.251 Y45.923 Z-6.492
X44.271 Y46.005 Z-6.47
X44.29 Y46.082 Z-6.433
X44.306 Y46.151 Z-6.383
X44.321 Y46.211 Z-6.321
X44.333 Y46.26 Z-6.25
X44.342 Y46.295 Z-6.171
X44.347 Y46.317 Z-6.087
X44.349 Y46.325 Z-6
G0 Z-5.5
X78.094 Y55.401
G1 Z-6 F1000
X78.101 Y55.405 Z-6.087
X78.121 Y55.415 Z-6.171
X78.154 Y55.431 Z-6.25
X78.199 Y55.453 Z-6.321
X78.254 Y55.48 Z-6.383
X78.318 Y55.512 Z-6.433
X78.389 Y55.547 Z-6.47
X78.464 Y55.584 Z-6.492
X78.542 Y55.623 Z-6.5
G3 X79.138 Y56.135 I-0.702 J1.418
G1 X79.167 Y56.181
X79.32 Y56.382
X79.339 Y56.405
X79.495 Y56.583
X79.54 Y56.629
X79.704 Y56.784
X79.797 Y56.869
X79.903 Y56.975
X79.997 Y57.093
X80.078 Y57.218
X80.152 Y57.356
X80.219 Y57.511
X80.281 Y57.69
X80.331 Y57.888
X80.369 Y58.112
X80.391 Y58.358
X80.393 Y58.631
X80.372 Y58.931
X80.323 Y59.249
X80.237 Y59.61
X80.118 Y59.976
X79.946 Y60.392
X79.732 Y60.81
X79.452 Y61.262
X79.087 Y61.757
X78.674 Y62.233
X78.147 Y62.75
X77.512 Y63.28
X76.788 Y63.791
X76.027 Y64.245
X75.237 Y64.647
X74.424 Y65
X73.594 Y65.308
X72.749 Y65.575
X71.893 Y65.805
X71.028 Y65.999
X70.157 Y66.16
X69.28 Y66.29
X68.4 Y66.389
X67.516 Y66.46
X66.631 Y66.502
X65.745 Y66.517
X64.859 Y66.504
X63.974 Y66.464
X63.09 Y66.397
X62.209 Y66.304
X61.331 Y66.183
X60.458 Y66.036
X59.589 Y65.863
X58.725 Y65.664
X57.868 Y65.44
X57.017 Y65.191
X56.174 Y64.918
X55.34 Y64.62
X54.514 Y64.298
X53.698 Y63.953
X52.892 Y63.584
X52.097 Y63.193
X51.314 Y62.778
X50.543 Y62.341
X49.786 Y61.881
X49.042 Y61.399
X48.314 Y60.895
X47.6 Y60.37
X46.902 Y59.824
X46.221 Y59.257
X45.556 Y58.671
X44.909 Y58.066
X44.28 Y57.441
X43.671 Y56.797
X43.084 Y56.134
X42.521 Y55.45
X41.984 Y54.745
X41.477 Y54.018
X41.005 Y53.268
X40.575 Y52.493
X40.19 Y51.695
X39.857 Y50.874
X39.589 Y50.051
X39.42 Y49.341
X39.322 Y48.708
X39.286 Y48.214
X39.289 Y47.824
X39.322 Y47.45
X39.335 Y47.372
X39.408 Y47.119
X39.535 Y46.889
X39.711 Y46.694
X39.926 Y46.543
X40.17 Y46.444
X41.91 Y45.954
G3 X42.514 Y46.322 I0.118 J0.486
G1 X42.535 Y46.406 Z-6.492
X42.555 Y46.488 Z-6.47
X42.573 Y46.564 Z-6.433
X42.59 Y46.634 Z-6.383
X42.605 Y46.694 Z-6.321
X42.617 Y46.742 Z-6.25
X42.625 Y46.778 Z-6.171
X42.631 Y46.8 Z-6.087
X42.633 Y46.807 Z-6
G0 Z-5.5
X78.601 Y56.425
G1 Z-6 F1000
X78.609 Y56.426 Z-6.087
X78.631 Y56.431 Z-6.171
X78.667 Y56.438 Z-6.25
X78.716 Y56.448 Z-6.321
X78.776 Y56.461 Z-6.383
X78.846 Y56.475 Z-6.433
X78.923 Y56.491 Z-6.47
X79.006 Y56.508 Z-6.492
X79.091 Y56.525 Z-6.5
G3 X79.797 Y56.869 I-0.318 J1.55
G1 X80.146 Y57.186
X80.346 Y57.364
X80.547 Y57.534
X80.62 Y57.588
X80.659 Y57.614
X80.78 Y57.703
X80.886 Y57.809
X80.982 Y57.925
X81.07 Y58.051
X81.158 Y58.203
X81.239 Y58.372
X81.315 Y58.571
X81.378 Y58.783
X81.43 Y59.035
X81.463 Y59.298
X81.477 Y59.605
X81.466 Y59.921
X81.424 Y60.281
X81.348 Y60.664
X81.231 Y61.077
X81.061 Y61.534
X80.849 Y61.987
X80.564 Y62.488
X80.194 Y63.032
X79.772 Y63.555
X79.239 Y64.119
X78.595 Y64.697
X77.891 Y65.234
X77.149 Y65.719
X76.377 Y66.154
X75.58 Y66.542
X74.764 Y66.886
X73.931 Y67.189
X73.086 Y67.455
X72.23 Y67.685
X71.366 Y67.882
X70.856 Y67.979
X70.783 Y67.991
X70.71 Y67.998
X70.637 Y68
X62.426
X61.541 Y67.956
X60.657 Y67.903
X59.777 Y67.795
X58.904 Y67.644
X58.038 Y67.457
X57.179 Y67.239
X56.327 Y66.994
X55.484 Y66.722
X54.649 Y66.426
X53.822 Y66.107
X53.005 Y65.764
X52.197 Y65.399
X51.4 Y65.012
X50.614 Y64.604
X49.839 Y64.174
X49.077 Y63.722
X48.327 Y63.25
X47.591 Y62.757
X46.868 Y62.244
X46.16 Y61.711
X45.468 Y61.158
X44.791 Y60.586
X44.13 Y59.996
X43.486 Y59.387
X42.86 Y58.759
X42.254 Y58.113
X41.668 Y57.449
X41.105 Y56.765
X40.566 Y56.061
X40.055 Y55.337
X39.575 Y54.592
X39.13 Y53.826
X38.725 Y53.038
X38.364 Y52.229
X38.052 Y51.399
X37.797 Y50.551
X37.636 Y49.811
X37.548 Y49.159
X37.521 Y48.656
X37.531 Y48.264
X37.571 Y47.89
X37.58 Y47.845
X37.655 Y47.598
X37.784 Y47.374
X37.958 Y47.183
X38.171 Y47.036
X38.41 Y46.939
X40.17 Y46.444
G3 X40.774 Y46.811 I0.118 J0.486
G1 X40.794 Y46.895 Z-6.492
X40.814 Y46.977 Z-6.47
X40.833 Y47.054 Z-6.433
X40.85 Y47.123 Z-6.383
X40.865 Y47.183 Z-6.321
X40.876 Y47.232 Z-6.25
X40.885 Y47.267 Z-6.171
X40.89 Y47.289 Z-6.087
X40.892 Y47.297 Z-6
G0 Z-5.5
X63.61 Y67.523
G1 Z-6 F1000
X63.603 Y67.527 Z-6.087
X63.584 Y67.539 Z-6.171
X63.552 Y67.557 Z-6.25
X63.509 Y67.583 Z-6.321
X63.456 Y67.614 Z-6.383
X63.395 Y67.651 Z-6.433
X63.327 Y67.691 Z-6.47
X63.254 Y67.734 Z-6.492
X63.18 Y67.779 Z-6.5
G3 X62.426 Y68 I-0.809 J-1.36
G1 X55.379
X54.708 Y67.966
X54.07 Y67.883
X53.26 Y67.71
X52.411 Y67.455
X51.581 Y67.147
X50.766 Y66.797
X49.967 Y66.415
X49.181 Y66.005
X48.41 Y65.57
X47.651 Y65.112
X46.906 Y64.632
X46.174 Y64.133
X45.456 Y63.614
X44.752 Y63.075
X44.064 Y62.517
X43.39 Y61.941
X42.732 Y61.348
X42.091 Y60.736
X41.467 Y60.107
X40.861 Y59.46
X40.275 Y58.796
X39.71 Y58.113
X39.169 Y57.411
X38.652 Y56.691
X38.163 Y55.952
X37.705 Y55.194
X37.282 Y54.415
X36.897 Y53.617
X36.554 Y52.8
X36.257 Y51.965
X36.014 Y51.113
X35.85 Y50.326
X35.766 Y49.651
X35.743 Y49.142
X35.757 Y48.743
X35.801 Y48.366
X35.808 Y48.333
X35.885 Y48.088
X36.014 Y47.867
X36.188 Y47.679
X36.399 Y47.533
X36.636 Y47.437
X38.41 Y46.939
G3 X39.014 Y47.306 I0.118 J0.486
G1 X39.035 Y47.39 Z-6.492
X39.055 Y47.472 Z-6.47
X39.073 Y47.549 Z-6.433
X39.09 Y47.618 Z-6.383
X39.105 Y47.678 Z-6.321
X39.117 Y47.727 Z-6.25
X39.126 Y47.762 Z-6.171
X39.131 Y47.784 Z-6.087
X39.133 Y47.792 Z-6
G0 Z-5.5
X56.563 Y67.523
G1 Z-6 F1000
X56.556 Y67.527 Z-6.087
X56.537 Y67.539 Z-6.171
X56.505 Y67.557 Z-6.25
X56.462 Y67.583 Z-6.321
X56.409 Y67.614 Z-6.383
X56.348 Y67.651 Z-6.433
X56.28 Y67.691 Z-6.47
X56.207 Y67.734 Z-6.492
X56.133 Y67.779 Z-6.5
G3 X55.379 Y68 I-0.809 J-1.36
G1 X53.164
X52.963 Y67.994
X52.46 Y67.974
X52.409 Y67.971
X52.359 Y67.962
X51.755 Y67.812
X51.554 Y67.758
X47.567 Y66.637
X46.734 Y66.357
X46.007 Y66.046
X45.223 Y65.632
X44.469 Y65.167
X43.739 Y64.664
X43.032 Y64.13
X42.344 Y63.572
X41.674 Y62.991
X41.022 Y62.391
X40.388 Y61.772
X39.772 Y61.136
X39.174 Y60.482
X38.596 Y59.81
X38.04 Y59.12
X37.507 Y58.412
X36.998 Y57.687
X36.516 Y56.943
X36.062 Y56.182
X35.641 Y55.402
X35.253 Y54.605
X34.903 Y53.792
X34.593 Y52.962
X34.33 Y52.115
X34.124 Y51.253
X34.002 Y50.478
X33.957 Y49.889
X33.96 Y49.413
X33.993 Y49.026
X34.019 Y48.87
X34.091 Y48.616
X34.219 Y48.386
X34.395 Y48.19
X34.61 Y48.038
X34.854 Y47.939
X36.636 Y47.437
G3 X37.184 Y47.666 Z-6.338 I0.118 J0.486
G1 X37.249 Y47.774 Z-6.306
X37.261 Y47.795 Z-6.3
X48.115 Y65.894
G3 X48.172 Y66.27 I-0.429 J0.257
G1 X48.165 Y66.293 Z-6.306
G3 X47.567 Y66.637 Z-6.5 I-0.479 J-0.142
G1 X42.695 Y65.266
X42.16 Y65.087
X41.677 Y64.88
X41.114 Y64.583
X40.423 Y64.145
X39.715 Y63.612
X39.044 Y63.033
X38.403 Y62.421
X37.789 Y61.782
X37.2 Y61.12
X36.635 Y60.438
X36.094 Y59.736
X35.576 Y59.017
X35.085 Y58.279
X34.62 Y57.525
X34.183 Y56.754
X33.777 Y55.966
X33.405 Y55.162
X33.069 Y54.342
X32.773 Y53.507
X32.522 Y52.657
X32.324 Y51.793
X32.204 Y51.004
X32.161 Y50.402
X32.165 Y49.926
X32.201 Y49.525
X32.227 Y49.369
X32.3 Y49.117
X32.428 Y48.888
X32.603 Y48.693
X32.818 Y48.542
X33.061 Y48.443
X34.854 Y47.939
G3 X35.423 Y48.208 Z-6.326 I0.118 J0.486
G1 X35.458 Y48.28 Z-6.306
X35.468 Y48.302 Z-6.3
X43.264 Y64.565
G3 X43.299 Y64.9 I-0.451 J0.216
G1 X43.292 Y64.923 Z-6.306
G3 X42.695 Y65.266 Z-6.5 I-0.479 J-0.142
G1 X38.869 Y64.191
X38.472 Y64.057
X38.105 Y63.9
X37.666 Y63.669
X37.174 Y63.357
X36.585 Y62.913
X35.922 Y62.325
X35.306 Y61.688
X34.729 Y61.016
X34.185 Y60.316
X33.672 Y59.593
X33.189 Y58.851
X32.734 Y58.09
X32.31 Y57.312
X31.917 Y56.518
X31.557 Y55.708
X31.234 Y54.883
X30.949 Y54.044
X30.707 Y53.191
X30.516 Y52.326
X30.397 Y51.516
X30.356 Y50.904
X30.363 Y50.422
X30.401 Y50.019
X30.428 Y49.869
X30.502 Y49.619
X30.63 Y49.391
X30.805 Y49.197
X31.019 Y49.048
X31.261 Y48.949
X33.061 Y48.443
G3 X33.645 Y48.746 Z-6.317 I0.118 J0.486
G1 X33.661 Y48.786 Z-6.306
X33.67 Y48.808 Z-6.3
X39.453 Y63.522
G3 X39.473 Y63.824 I-0.465 J0.183
G1 X39.467 Y63.847 Z-6.306
G3 X38.869 Y64.191 Z-6.5 I-0.479 J-0.142
G1 X35.648 Y63.285
X35.296 Y63.166
X34.989 Y63.035
X34.63 Y62.846
X34.23 Y62.592
X33.76 Y62.238
X33.243 Y61.779
X32.643 Y61.153
X32.083 Y60.467
X31.568 Y59.745
X31.093 Y58.997
X30.655 Y58.227
X30.251 Y57.438
X29.882 Y56.633
X29.548 Y55.812
X29.25 Y54.977
X28.992 Y54.13
X28.78 Y53.269
X28.625 Y52.402
X28.553 Y51.663
X28.544 Y51.115
X28.571 Y50.701
X28.613 Y50.414
X28.681 Y50.154
X28.808 Y49.918
X28.985 Y49.716
X29.203 Y49.56
X29.451 Y49.458
X31.261 Y48.949
G3 X31.854 Y49.279 Z-6.31 I0.118 J0.486
G1 X31.859 Y49.293 Z-6.306
X31.866 Y49.316 Z-6.3
X36.241 Y62.643
G3 X36.252 Y62.918 I-0.475 J0.156
G1 X36.245 Y62.941 Z-6.306
G3 X35.648 Y63.285 Z-6.5 I-0.479 J-0.142
G1 X32.829 Y62.492
X32.456 Y62.366
X32.186 Y62.251
X31.866 Y62.082
X31.531 Y61.87
X31.136 Y61.572
X30.719 Y61.202
X30.239 Y60.702
X29.706 Y60.048
X29.203 Y59.319
X28.75 Y58.557
X28.342 Y57.77
X27.975 Y56.964
X27.647 Y56.14
X27.361 Y55.302
X27.117 Y54.45
X26.922 Y53.585
X26.786 Y52.722
X26.734 Y52.045
X26.736 Y51.522
X26.771 Y51.104
X26.805 Y50.899
X26.878 Y50.646
X27.005 Y50.415
X27.181 Y50.219
X27.396 Y50.067
X27.64 Y49.968
X29.451 Y49.458
G3 X30.051 Y49.809 Z-6.304 I0.118 J0.486
G1 X30.056 Y49.825 Z-6.3
X33.429 Y61.871
G3 X33.433 Y62.125 I-0.481 J0.135
G1 X33.427 Y62.148 Z-6.306
G3 X32.829 Y62.492 Z-6.5 I-0.479 J-0.142
G1 X30.211 Y61.756
X29.868 Y61.64
X29.608 Y61.529
X29.328 Y61.381
X29.026 Y61.19
X28.679 Y60.928
X28.317 Y60.607
X27.909 Y60.182
X27.458 Y59.629
X26.985 Y58.943
X26.542 Y58.175
X26.155 Y57.378
X25.818 Y56.559
X25.528 Y55.721
X25.286 Y54.869
X25.094 Y54.004
X24.966 Y53.149
X24.921 Y52.502
X24.927 Y51.99
X24.965 Y51.579
X24.996 Y51.4
X25.069 Y51.149
X25.197 Y50.92
X25.372 Y50.726
X25.587 Y50.576
X25.829 Y50.477
X27.64 Y49.968
G3 X28.245 Y50.334 Z-6.3 I0.118 J0.486
G1 Y50.338
X30.816 Y61.154
X30.828 Y61.232
Y61.311
X30.815 Y61.389
X30.809 Y61.412 Z-6.306
G3 X30.211 Y61.756 Z-6.5 I-0.479 J-0.142
G1 X27.594 Y61.019
X27.446 Y60.97
X27.205 Y60.867
X26.955 Y60.735
X26.663 Y60.549
X26.361 Y60.322
X26.027 Y60.026
X25.674 Y59.658
X25.283 Y59.178
X24.894 Y58.614
X24.484 Y57.904
X24.104 Y57.103
X23.784 Y56.277
X23.521 Y55.431
X23.313 Y54.569
X23.176 Y53.731
X23.122 Y53.073
X23.121 Y52.549
X23.153 Y52.142
X23.188 Y51.923
X23.26 Y51.668
X23.387 Y51.435
X23.563 Y51.238
X23.779 Y51.085
X24.024 Y50.985
X25.829 Y50.477
G3 X26.433 Y50.844 Z-6.3 I0.118 J0.486
G1 X26.44 Y50.872
X28.204 Y60.443
X28.212 Y60.513
X28.21 Y60.583
X28.198 Y60.653
X28.192 Y60.676 Z-6.306
G3 X27.594 Y61.019 Z-6.5 I-0.479 J-0.142
G1 X25.404 Y60.404
X25.148 Y60.317
X24.934 Y60.226
X24.684 Y60.094
X24.426 Y59.93
X24.149 Y59.722
X23.835 Y59.443
X23.529 Y59.124
X23.184 Y58.701
X22.841 Y58.204
X22.493 Y57.601
X22.149 Y56.876
X21.84 Y56.064
X21.603 Y55.247
X21.443 Y54.465
X21.358 Y53.769
X21.335 Y53.226
X21.351 Y52.814
X21.363 Y52.714
X21.395 Y52.549
X21.451 Y52.39
X21.528 Y52.241
G3 X22.221 Y52.101 Z-6.3 I0.416 J0.277
X22.395 Y52.3 I-0.276 J0.417
G1 X25.973 Y59.7
G3 X26.008 Y60.037 I-0.45 J0.218
G1 X26.002 Y60.06 Z-6.306
G3 X25.404 Y60.404 Z-6.5 I-0.479 J-0.142
G1 X23.259 Y59.8
X22.979 Y59.706
X22.765 Y59.615
X22.539 Y59.495
X22.3 Y59.344
X22.025 Y59.137
X21.76 Y58.902
X21.46 Y58.588
X21.359 Y58.465
X21.328 Y58.425
X21.298 Y58.383
X21.27 Y58.339
G3 X21.457 Y57.658 Z-6.3 I0.435 J-0.247
X22 Y57.689 I0.247 J0.435
G1 X23.673 Y58.911
G3 X23.864 Y59.433 I-0.295 J0.404
G1 X23.857 Y59.457 Z-6.306
G3 X23.259 Y59.8 Z-6.5 I-0.479 J-0.142
G1 X22.158 Y59.49
X22.063 Y59.455
X22.015 Y59.43
X21.968 Y59.398
X21.956 Y59.389
X21.903 Y59.341
X21.861 Y59.293
X21.798 Y59.197
X20.808 Y57.588
X20.436 Y56.91
X20.183 Y56.346
X19.958 Y55.711
X19.916 Y55.555
X19.879 Y55.322
X19.889 Y55.086
X19.947 Y54.856
X20.05 Y54.643
G3 X20.743 Y54.503 Z-6.3 I0.416 J0.277
X20.943 Y54.769 I-0.276 J0.417
G1 X21.701 Y57.161
G3 X21.501 Y57.728 I-0.477 J0.151
X20.808 Y57.588 Z-6.5 I-0.276 J-0.417
G1 X19.694 Y55.779
X19.666 Y55.729
X19.644 Y55.678
X19.629 Y55.628
X19.618 Y55.578
X19.612 Y55.527
Y55.477
X19.616 Y55.427
X19.626 Y55.377
X19.641 Y55.326
X19.663 Y55.276
X19.722 Y55.176
X21.755 Y51.873
X21.828 Y51.757
X21.88 Y51.684
X21.918 Y51.643
X21.956 Y51.61
X22.04 Y51.556
X22.099 Y51.529
X22.158 Y51.51
X24.024 Y50.985
G3 X24.629 Y51.352 I0.118 J0.486
G1 X24.649 Y51.436 Z-6.492
X24.669 Y51.518 Z-6.47
X24.688 Y51.595 Z-6.433
X24.705 Y51.664 Z-6.383
X24.719 Y51.724 Z-6.321
X24.731 Y51.772 Z-6.25
X24.74 Y51.808 Z-6.171
X24.745 Y51.83 Z-6.087
X24.747 Y51.838 Z-6
G0 Z-5.5
X79.409 Y57.358
G1 Z-6 F1000
X79.417 Y57.359 Z-6.087
X79.439 Y57.36 Z-6.171
X79.476 Y57.362 Z-6.25
X79.526 Y57.364 Z-6.321
X79.588 Y57.367 Z-6.383
X79.659 Y57.37 Z-6.433
X79.738 Y57.374 Z-6.47
X79.822 Y57.378 Z-6.492
X79.909 Y57.383 Z-6.5
G3 X80.659 Y57.614 I-0.077 J1.581
G1 X80.748 Y57.673
X80.942 Y57.79
X81.374 Y57.991
X81.473 Y58.035
X81.607 Y58.104
X81.733 Y58.184
X81.851 Y58.277
X81.96 Y58.379
X82.072 Y58.504
X82.178 Y58.643
X82.287 Y58.811
X82.386 Y58.996
X82.48 Y59.213
X82.562 Y59.453
X82.63 Y59.72
X82.682 Y60.024
X82.711 Y60.346
X82.714 Y60.715
X82.687 Y61.097
X82.622 Y61.521
X82.511 Y61.992
X82.358 Y62.467
X82.141 Y62.99
X81.851 Y63.557
X81.508 Y64.112
X81.066 Y64.713
X80.522 Y65.341
X79.889 Y65.962
X79.211 Y66.532
X78.494 Y67.053
X77.744 Y67.525
X77.146 Y67.855
X76.967 Y67.935
X76.778 Y67.984
X76.583 Y68
X70.637
G3 X70.155 Y67.483 Z-6.3 I0.017 J-0.5
X70.332 Y67.119 I0.5 J0.017
G1 X80.778 Y58.271
X80.796 Y58.255 Z-6.306
X80.96 Y58.116 Z-6.361
G3 X81.473 Y58.035 Z-6.5 I0.323 J0.382
G1 X81.554 Y58.072
X81.956 Y58.244
X82.158 Y58.329
X82.359 Y58.403
X82.47 Y58.433
X82.613 Y58.479
X82.748 Y58.543
X82.877 Y58.62
X82.999 Y58.708
X83.127 Y58.818
X83.251 Y58.943
X83.382 Y59.098
X83.504 Y59.269
X83.627 Y59.474
X83.738 Y59.699
X83.842 Y59.959
X83.932 Y60.25
X84.003 Y60.569
X84.054 Y60.935
X84.076 Y61.314
X84.067 Y61.744
X84.018 Y62.219
X83.928 Y62.706
X83.783 Y63.245
X83.573 Y63.833
X83.31 Y64.415
X82.96 Y65.05
X82.512 Y65.726
X81.971 Y66.417
X81.37 Y67.068
X80.722 Y67.673
X80.64 Y67.739
X80.417 Y67.882
X80.168 Y67.97
X79.906 Y68
X76.583
G3 X76.101 Y67.483 Z-6.3 I0.017 J-0.5
X76.185 Y67.222 I0.5 J0.017
G1 X81.841 Y58.792
X81.854 Y58.772 Z-6.306
X81.941 Y58.642 Z-6.346
G3 X82.47 Y58.433 Z-6.5 I0.415 J0.279
G1 X82.762 Y58.512
X83.678 Y58.737
X83.822 Y58.78
X83.959 Y58.841
X84.09 Y58.914
X84.232 Y59.009
X84.371 Y59.118
X84.522 Y59.258
X84.665 Y59.415
X84.813 Y59.604
X84.953 Y59.818
X85.087 Y60.063
X85.215 Y60.348
X85.323 Y60.654
X85.418 Y61.013
X85.487 Y61.393
X85.53 Y61.818
X85.539 Y62.302
X85.508 Y62.796
X85.43 Y63.342
X85.294 Y63.948
X85.099 Y64.57
X84.835 Y65.227
X84.479 Y65.94
X84.03 Y66.682
X83.848 Y66.935
X83.664 Y67.136
X83.437 Y67.289
X83.182 Y67.386
X82.359 Y67.586
X81.554 Y67.78
X81.352 Y67.828
X80.748 Y67.962
X80.648 Y67.978
X79.943 Y68
X79.906
G3 X79.423 Y67.483 Z-6.3 I0.017 J-0.5
G1 X79.429 Y67.42
X79.444 Y67.358
X79.466 Y67.298
X83.076 Y59.12
X83.086 Y59.098 Z-6.306
X83.118 Y59.024 Z-6.327
G3 X83.678 Y58.737 Z-6.5 I0.457 J0.202
G1 X84.726 Y58.996
X84.977 Y59.059
X85.121 Y59.104
X85.26 Y59.159
X85.399 Y59.228
X85.547 Y59.318
X85.7 Y59.428
X85.859 Y59.563
X86.017 Y59.721
X86.181 Y59.913
X86.335 Y60.127
X86.493 Y60.387
X86.634 Y60.667
X86.768 Y60.998
X86.882 Y61.363
X86.973 Y61.764
X87.041 Y62.232
X87.072 Y62.718
X87.062 Y63.259
X87.003 Y63.864
X86.889 Y64.498
X86.712 Y65.168
X86.452 Y65.906
X86.351 Y66.134
X86.217 Y66.36
X86.037 Y66.551
X85.819 Y66.696
X85.573 Y66.789
X84.775 Y66.992
X83.182 Y67.386
G3 X82.589 Y67 Z-6.3 I-0.103 J-0.489
G1 X82.579 Y66.926
X82.581 Y66.851
X82.593 Y66.778
X84.382 Y59.442
X84.385 Y59.429 Z-6.303
G3 X84.977 Y59.059 Z-6.5 I0.486 J0.118
G1 X85.983 Y59.314
X86.309 Y59.398
X86.386 Y59.418
X86.579 Y59.48
X86.723 Y59.538
X86.867 Y59.611
X87.028 Y59.709
X87.186 Y59.824
X87.358 Y59.971
X87.524 Y60.138
X87.701 Y60.347
X87.867 Y60.579
X88.033 Y60.854
X88.188 Y61.168
X88.328 Y61.516
X88.456 Y61.931
X88.553 Y62.364
X88.624 Y62.865
X88.657 Y63.43
X88.645 Y64.009
X88.578 Y64.667
X88.479 Y65.205
X88.417 Y65.437
X88.33 Y65.664
X88.198 Y65.868
X88.026 Y66.04
X87.822 Y66.173
X87.595 Y66.261
X86.789 Y66.477
X85.983 Y66.685
X85.573 Y66.789
G3 X84.978 Y66.408 Z-6.3 I-0.107 J-0.489
G1 X84.967 Y66.323
X84.97 Y66.238
X85.78 Y59.843
X85.789 Y59.796
X85.794 Y59.773 Z-6.306
G3 X86.386 Y59.418 Z-6.5 I0.482 J0.133
G1 X87.594 Y59.736
X87.997 Y59.849
X88.139 Y59.896
X88.292 Y59.963
X88.443 Y60.045
X88.614 Y60.155
X88.782 Y60.284
X88.964 Y60.449
X89.138 Y60.633
X89.324 Y60.866
X89.496 Y61.119
X89.673 Y61.433
X89.83 Y61.772
X89.976 Y62.167
X90.103 Y62.621
X90.198 Y63.104
X90.258 Y63.633
X90.273 Y64.111
X90.254 Y64.517
X90.22 Y64.778
X90.156 Y65.036
X90.035 Y65.273
X89.864 Y65.477
X89.651 Y65.636
X89.407 Y65.743
X88.802 Y65.924
X88.198 Y66.096
X87.997 Y66.152
X87.595 Y66.261
G3 X86.995 Y65.888 Z-6.3 I-0.114 J-0.487
G1 X86.983 Y65.813
Y65.737
X87.381 Y60.298
X87.394 Y60.217
X87.4 Y60.194 Z-6.306
G3 X87.997 Y59.849 Z-6.5 I0.48 J0.141
G1 X88.802 Y60.074
X89.406 Y60.255
X89.608 Y60.317
X89.759 Y60.373
X89.911 Y60.444
X90.075 Y60.537
X90.243 Y60.65
X90.426 Y60.796
X90.604 Y60.964
X90.793 Y61.174
X90.974 Y61.41
X91.157 Y61.693
X91.331 Y62.016
X91.483 Y62.363
X91.616 Y62.748
X91.715 Y63.129
X91.78 Y63.504
X91.809 Y63.818
X91.813 Y64.139
X91.81 Y64.178
X91.763 Y64.437
X91.658 Y64.678
X91.502 Y64.89
X91.303 Y65.062
X91.07 Y65.185
X90.816 Y65.283
X90.212 Y65.49
X90.01 Y65.555
X89.498 Y65.716
X89.407 Y65.743
G3 X88.794 Y65.392 Z-6.3 I-0.131 J-0.483
G1 X88.78 Y65.316
X88.777 Y65.238
X88.977 Y60.777
X88.983 Y60.723
X88.994 Y60.669
X89.001 Y60.646 Z-6.306
G3 X89.608 Y60.317 Z-6.5 I0.476 J0.154
G1 X89.883 Y60.404
X90.01 Y60.445
X90.212 Y60.512
X90.816 Y60.728
X91.42 Y60.957
X91.557 Y61.018
X91.719 Y61.11
X91.88 Y61.22
X92.053 Y61.36
X92.224 Y61.521
X92.395 Y61.712
X92.563 Y61.933
X92.718 Y62.174
X92.857 Y62.434
X92.965 Y62.682
X93.055 Y62.947
X93.116 Y63.184
X93.139 Y63.321
X93.154 Y63.575
X93.114 Y63.825
X93.021 Y64.061
X92.879 Y64.272
X92.695 Y64.446
X92.477 Y64.577
G3 X91.823 Y64.31 Z-6.3 I-0.193 J-0.461
G1 X91.817 Y64.294
X90.791 Y61.609
G3 X90.785 Y61.269 I0.467 J-0.178
G1 X90.794 Y61.246 Z-6.306
G3 X91.42 Y60.957 Z-6.5 I0.465 J0.184
G1 X91.55 Y61.007
X91.621 Y61.035
X91.822 Y61.118
X92.88 Y61.61
X93.141 Y61.743
X93.286 Y61.826
X93.412 Y61.913
X93.53 Y62.009
X93.653 Y62.127
X93.759 Y62.246
X93.855 Y62.374
X93.894 Y62.435
X94.013 Y62.683
X94.071 Y62.952
X94.064 Y63.227
X93.993 Y63.493
X93.862 Y63.735
X93.677 Y63.939
X93.45 Y64.094
G3 X92.784 Y63.86 Z-6.3 I-0.216 J-0.451
G1 X92.761 Y63.805
X92.745 Y63.747
X92.44 Y62.299
G3 X92.476 Y61.983 I0.489 J-0.103
G1 X92.487 Y61.962 Z-6.306
G3 X93.141 Y61.743 Z-6.5 I0.442 J0.234
G1 X93.273 Y61.811
X93.433 Y61.896
X93.65 Y62.012
X94.238 Y62.341
X94.365 Y62.421
X94.518 Y62.61
X94.605 Y62.838
X94.616 Y63.081
X94.551 Y63.315
X94.416 Y63.518
X94.225 Y63.668
G3 X93.505 Y63.639 Z-6.308 I-0.334 J-0.653
G1 X93.478 Y63.621 Z-6.3
G3 X93.49 Y62.38 I0.419 J-0.617
G1 X93.51 Y62.367 Z-6.306
G3 X94.238 Y62.341 Z-6.5 I0.387 J0.637
G1 X94.44 Y62.455
X94.641 Y62.572
X94.7 Y62.615
X94.751 Y62.666
X94.79 Y62.716
X94.819 Y62.766
X94.842 Y62.818
X94.859 Y62.868
X94.869 Y62.918
X94.874 Y62.968
X94.875 Y63.018
X94.865 Y63.096
X94.842 Y63.174
X94.823 Y63.219
X94.794 Y63.269
X94.757 Y63.319
X94.703 Y63.377
X94.649 Y63.42
X94.641 Y63.425
X94.44 Y63.544
X94.238 Y63.66
X93.587 Y64.023
X93.03 Y64.314
X92.829 Y64.415
X92.225 Y64.693
X91.621 Y64.965
X91.471 Y65.028
X91.07 Y65.185
G3 X90.433 Y64.878 I-0.165 J-0.472
G1 X90.404 Y64.796 Z-6.492
X90.376 Y64.716 Z-6.47
X90.35 Y64.642 Z-6.433
X90.327 Y64.574 Z-6.383
X90.306 Y64.516 Z-6.321
X90.29 Y64.469 Z-6.25
X90.278 Y64.434 Z-6.171
X90.27 Y64.413 Z-6.087
X90.268 Y64.406 Z-6
G0 Z15

(2D Contour2)
G0 X-1.5 Y43.5
Z15
Z5
G1 Z1 F333.3
Z-6
Y86 F1000
G2 X1 Y88.5 I2.5 J0
G1 X116
G2 X118.5 Y86 I0 J-2.5
G1 Y1
G2 X116 Y-1.5 I-2.5 J0
G1 X1
G2 X-1.5 Y1 I0 J2.5
G1 Y43.5
Z-9.5 F333.3
Y86 F1000
G2 X1 Y88.5 I2.5 J0
G1 X116
G2 X118.5 Y86 I0 J-2.5
G1 Y1
G2 X116 Y-1.5 I-2.5 J0
G1 X1
G2 X-1.5 Y1 I0 J2.5
G1 Y43.5
Z-13 F333.3
Y86 F1000
G2 X1 Y88.5 I2.5 J0
G1 X116
G2 X118.5 Y86 I0 J-2.5
G1 Y1
G2 X116 Y-1.5 I-2.5 J0
G1 X1
G2 X-1.5 Y1 I0 J2.5
G1 Y43.5
G0 Z15
M9
M5
M30
