(MonaSattelhalterNase_3)
(T4 D=5 CR=0 - ZMIN=-28 - flat end mill)
G90 G94
G17
G21
(-Attention- Property Safe Retracts is set to Clearance Height.)
(Ensure the clearance height will clear the part and or fixtures.)
(Raise the Z-axis to a safe height before starting the program.)

(2D Contour1 3)
T4
S5000 M3
G17 G90 G94
G54
M8
G0 X263.507 Y118.103
Z15
G0 Z5
G1 Z3 F333.3
Z-5
X263.436 Y118.102 F1000
X263.263
X253.275 Y117.989
X249.952 Y117.952
G2 X249.636 Y117.969 I-0.028 J2.5
G1 X249.015 Y118.041
X248.889 Y118.059
X248.115 Y118.189
X247.984 Y118.214
X247.219 Y118.385
X247.096 Y118.416
X246.342 Y118.625
X246.216 Y118.664
X245.473 Y118.913
X245.35 Y118.957
X244.62 Y119.245
X244.497 Y119.297
X243.784 Y119.623
X243.671 Y119.679
X242.973 Y120.042
X242.855 Y120.107
X242.176 Y120.508
X242.064 Y120.578
X241.406 Y121.015
X241.302 Y121.089
X240.663 Y121.562
X240.571 Y121.633
X240.107 Y122.011
X240.042 Y122.066
X239.895 Y122.194
X239.747 Y122.323
X239.672 Y122.39
X239.236 Y122.8
X239.159 Y122.875
X238.604 Y123.444
X238.515 Y123.541
X237.993 Y124.136
X237.907 Y124.239
X237.42 Y124.858
X237.344 Y124.961
X236.89 Y125.603
X236.815 Y125.714
X236.397 Y126.378
X236.333 Y126.486
X235.949 Y127.17
X235.887 Y127.289
X235.541 Y127.991
X235.486 Y128.11
X235.177 Y128.83
X235.128 Y128.951
X234.857 Y129.686
X234.817 Y129.805
X234.583 Y130.554
X234.546 Y130.685
X234.391 Y131.296
G2 X234.333 Y131.605 I2.423 J0.615
G1 X233.926 Y134.9
X166.923 Y675.766
G2 X169.404 Y678.573 I2.481 J0.307
G1 X381.007 Y678.588
G2 X383.507 Y676.088 I0 J-2.5
G1 Y665.048
X383.506 Y664.995
X383.485 Y664.006
X383.483 Y663.935
X383.418 Y662.622
X383.413 Y662.54
X383.305 Y661.232
X383.296 Y661.15
X383.145 Y659.847
X383.135 Y659.767
X382.942 Y658.471
X382.929 Y658.391
X382.695 Y657.105
X382.678 Y657.024
X382.401 Y655.745
X382.383 Y655.666
X382.065 Y654.398
X382.044 Y654.319
X381.685 Y653.062
X381.66 Y652.981
X381.258 Y651.735
X381.233 Y651.662
X380.793 Y650.43
X380.763 Y650.35
X380.281 Y649.134
X380.25 Y649.06
X379.728 Y647.857
X379.693 Y647.78
X379.13 Y646.594
X379.096 Y646.524
X378.495 Y645.354
X378.463 Y645.294
X377.988 Y644.428
X377.96 Y644.377
X377.531 Y643.636
X377.513 Y643.606
X376.703 Y642.251
X376.679 Y642.213
X375.566 Y640.425
X375.539 Y640.382
X374.392 Y638.62
X374.362 Y638.575
X373.177 Y636.839
X373.148 Y636.797
X371.929 Y635.086
X371.896 Y635.042
X370.639 Y633.358
X370.609 Y633.317
X369.319 Y631.66
X369.284 Y631.617
X367.96 Y629.99
X367.926 Y629.95
X366.566 Y628.35
X366.533 Y628.312
X365.141 Y626.739
X365.104 Y626.698
X363.678 Y625.157
X363.642 Y625.119
X362.182 Y623.606
X362.145 Y623.568
X360.655 Y622.088
X360.617 Y622.052
X359.094 Y620.6
X359.054 Y620.563
X357.5 Y619.145
X357.468 Y619.117
X356.284 Y618.073
X356.258 Y618.05
X355.858 Y617.707
X355.856 Y617.705
X355.683 Y617.557
X355.651 Y617.53
X355.126 Y617.096
X355.096 Y617.072
X354.388 Y616.505
X354.34 Y616.467
X353.619 Y615.918
X353.576 Y615.886
X352.844 Y615.353
X352.795 Y615.318
X352.051 Y614.803
X352.005 Y614.773
X351.249 Y614.273
X351.205 Y614.245
X350.44 Y613.763
X350.386 Y613.73
X349.61 Y613.268
X349.565 Y613.242
X348.777 Y612.794
X348.726 Y612.766
X347.929 Y612.339
X347.878 Y612.312
X347.071 Y611.902
X347.023 Y611.878
X346.208 Y611.486
X346.154 Y611.461
X345.329 Y611.088
X345.279 Y611.066
X344.444 Y610.71
X344.391 Y610.688
X343.549 Y610.352
X343.503 Y610.335
X342.866 Y610.095
X342.845 Y610.086
X342.632 Y610.008
X342.613 Y610.002
X342.308 Y609.893
X341.382 Y609.549
X340.146 Y609.077
X338.921 Y608.589
X337.702 Y608.086
X336.491 Y607.567
X335.287 Y607.034
X334.091 Y606.483
X332.902 Y605.918
X331.722 Y605.338
X330.549 Y604.742
X329.384 Y604.132
X328.23 Y603.506
X327.081 Y602.864
X325.941 Y602.21
X324.812 Y601.539
X323.691 Y600.855
X322.578 Y600.155
X321.475 Y599.441
X320.379 Y598.712
X319.295 Y597.971
X318.22 Y597.213
X317.155 Y596.443
X316.1 Y595.657
X315.055 Y594.859
X314.019 Y594.045
X312.994 Y593.219
X311.981 Y592.38
X310.976 Y591.526
X309.984 Y590.66
X309.003 Y589.778
X308.028 Y588.882
X307.308 Y588.204
X307.072 Y587.978
X307.069 Y587.974
X306.833 Y587.749
X306.123 Y587.058
X305.187 Y586.126
X304.266 Y585.183
X303.356 Y584.228
X302.458 Y583.262
X301.575 Y582.285
X300.705 Y581.297
X299.849 Y580.298
X299.005 Y579.288
X298.174 Y578.267
X297.359 Y577.238
X296.557 Y576.197
X295.767 Y575.144
X294.992 Y574.084
X294.23 Y573.011
X293.484 Y571.932
X292.752 Y570.84
X292.033 Y569.741
X291.33 Y568.631
X290.639 Y567.511
X289.963 Y566.383
X289.303 Y565.246
X288.657 Y564.101
X288.027 Y562.946
X287.41 Y561.783
X286.809 Y560.611
X286.222 Y559.433
X285.653 Y558.245
X285.096 Y557.049
X284.557 Y555.847
X284.03 Y554.632
X283.648 Y553.722
X283.525 Y553.42
X283.52 Y553.409
X283.436 Y553.206
X283.187 Y552.57
X282.871 Y551.71
X282.576 Y550.843
X282.302 Y549.974
X282.051 Y549.098
X281.821 Y548.217
X281.613 Y547.333
X281.427 Y546.439
X281.261 Y545.541
X281.118 Y544.642
X280.996 Y543.74
X280.896 Y542.834
X280.819 Y541.926
X280.764 Y541.014
X280.73 Y540.095
X280.719 Y539.409
Y539.187
X280.747 Y135.784
X280.749 Y135.611
X280.748 Y135.526
X280.735 Y134.964
X280.731 Y134.865
X280.684 Y134.12
X280.673 Y133.998
X280.59 Y133.26
X280.573 Y133.131
X280.452 Y132.399
X280.429 Y132.28
X280.273 Y131.557
X280.245 Y131.44
X280.055 Y130.727
X280.02 Y130.608
X279.795 Y129.906
X279.753 Y129.786
X279.493 Y129.097
X279.448 Y128.987
X279.155 Y128.31
X279.103 Y128.197
X278.777 Y127.536
X278.719 Y127.426
X278.36 Y126.781
X278.3 Y126.678
X277.91 Y126.05
X277.841 Y125.945
X277.419 Y125.336
X277.347 Y125.238
X276.894 Y124.648
X276.816 Y124.55
X276.333 Y123.982
X276.263 Y123.904
X275.881 Y123.491
X275.82 Y123.428
X275.692 Y123.298
X275.564 Y123.169
X275.503 Y123.109
X275.095 Y122.722
X275.015 Y122.649
X274.451 Y122.159
X274.357 Y122.082
X273.774 Y121.623
X273.672 Y121.547
X273.066 Y121.118
X272.969 Y121.052
X272.347 Y120.654
X272.236 Y120.587
X271.594 Y120.222
X271.49 Y120.166
X270.832 Y119.832
X270.719 Y119.778
X270.047 Y119.478
X269.938 Y119.432
X269.252 Y119.164
X269.132 Y119.121
X268.432 Y118.888
X268.316 Y118.853
X267.605 Y118.654
X267.486 Y118.623
X266.764 Y118.459
X266.641 Y118.434
X265.91 Y118.306
X265.789 Y118.288
X265.052 Y118.196
X264.93 Y118.184
X264.187 Y118.128
X264.083 Y118.122
X263.52 Y118.103
X263.507
Z-10 F333.3
X263.436 Y118.102 F1000
X263.263
X253.275 Y117.989
X249.952 Y117.952
G2 X249.636 Y117.969 I-0.028 J2.5
G1 X249.015 Y118.041
X248.889 Y118.059
X248.115 Y118.189
X247.984 Y118.214
X247.219 Y118.385
X247.096 Y118.416
X246.342 Y118.625
X246.216 Y118.664
X245.473 Y118.913
X245.35 Y118.957
X244.62 Y119.245
X244.497 Y119.297
X243.784 Y119.623
X243.671 Y119.679
X242.973 Y120.042
X242.855 Y120.107
X242.176 Y120.508
X242.064 Y120.578
X241.406 Y121.015
X241.302 Y121.089
X240.663 Y121.562
X240.571 Y121.633
X240.107 Y122.011
X240.042 Y122.066
X239.895 Y122.194
X239.747 Y122.323
X239.672 Y122.39
X239.236 Y122.8
X239.159 Y122.875
X238.604 Y123.444
X238.515 Y123.541
X237.993 Y124.136
X237.907 Y124.239
X237.42 Y124.858
X237.344 Y124.961
X236.89 Y125.603
X236.815 Y125.714
X236.397 Y126.378
X236.333 Y126.486
X235.949 Y127.17
X235.887 Y127.289
X235.541 Y127.991
X235.486 Y128.11
X235.177 Y128.83
X235.128 Y128.951
X234.857 Y129.686
X234.817 Y129.805
X234.583 Y130.554
X234.546 Y130.685
X234.391 Y131.296
G2 X234.333 Y131.605 I2.423 J0.615
G1 X233.926 Y134.9
X166.923 Y675.766
G2 X169.404 Y678.573 I2.481 J0.307
G1 X381.007 Y678.588
G2 X383.507 Y676.088 I0 J-2.5
G1 Y665.048
X383.506 Y664.995
X383.485 Y664.006
X383.483 Y663.935
X383.418 Y662.622
X383.413 Y662.54
X383.305 Y661.232
X383.296 Y661.15
X383.145 Y659.847
X383.135 Y659.767
X382.942 Y658.471
X382.929 Y658.391
X382.695 Y657.105
X382.678 Y657.024
X382.401 Y655.745
X382.383 Y655.666
X382.065 Y654.398
X382.044 Y654.319
X381.685 Y653.062
X381.66 Y652.981
X381.258 Y651.735
X381.233 Y651.662
X380.793 Y650.43
X380.763 Y650.35
X380.281 Y649.134
X380.25 Y649.06
X379.728 Y647.857
X379.693 Y647.78
X379.13 Y646.594
X379.096 Y646.524
X378.495 Y645.354
X378.463 Y645.294
X377.988 Y644.428
X377.96 Y644.377
X377.531 Y643.636
X377.513 Y643.606
X376.703 Y642.251
X376.679 Y642.213
X375.566 Y640.425
X375.539 Y640.382
X374.392 Y638.62
X374.362 Y638.575
X373.177 Y636.839
X373.148 Y636.797
X371.929 Y635.086
X371.896 Y635.042
X370.639 Y633.358
X370.609 Y633.317
X369.319 Y631.66
X369.284 Y631.617
X367.96 Y629.99
X367.926 Y629.95
X366.566 Y628.35
X366.533 Y628.312
X365.141 Y626.739
X365.104 Y626.698
X363.678 Y625.157
X363.642 Y625.119
X362.182 Y623.606
X362.145 Y623.568
X360.655 Y622.088
X360.617 Y622.052
X359.094 Y620.6
X359.054 Y620.563
X357.5 Y619.145
X357.468 Y619.117
X356.284 Y618.073
X356.258 Y618.05
X355.858 Y617.707
X355.856 Y617.705
X355.683 Y617.557
X355.651 Y617.53
X355.126 Y617.096
X355.096 Y617.072
X354.388 Y616.505
X354.34 Y616.467
X353.619 Y615.918
X353.576 Y615.886
X352.844 Y615.353
X352.795 Y615.318
X352.051 Y614.803
X352.005 Y614.773
X351.249 Y614.273
X351.205 Y614.245
X350.44 Y613.763
X350.386 Y613.73
X349.61 Y613.268
X349.565 Y613.242
X348.777 Y612.794
X348.726 Y612.766
X347.929 Y612.339
X347.878 Y612.312
X347.071 Y611.902
X347.023 Y611.878
X346.208 Y611.486
X346.154 Y611.461
X345.329 Y611.088
X345.279 Y611.066
X344.444 Y610.71
X344.391 Y610.688
X343.549 Y610.352
X343.503 Y610.335
X342.866 Y610.095
X342.845 Y610.086
X342.632 Y610.008
X342.613 Y610.002
X342.308 Y609.893
X341.382 Y609.549
X340.146 Y609.077
X338.921 Y608.589
X337.702 Y608.086
X336.491 Y607.567
X335.287 Y607.034
X334.091 Y606.483
X332.902 Y605.918
X331.722 Y605.338
X330.549 Y604.742
X329.384 Y604.132
X328.23 Y603.506
X327.081 Y602.864
X325.941 Y602.21
X324.812 Y601.539
X323.691 Y600.855
X322.578 Y600.155
X321.475 Y599.441
X320.379 Y598.712
X319.295 Y597.971
X318.22 Y597.213
X317.155 Y596.443
X316.1 Y595.657
X315.055 Y594.859
X314.019 Y594.045
X312.994 Y593.219
X311.981 Y592.38
X310.976 Y591.526
X309.984 Y590.66
X309.003 Y589.778
X308.028 Y588.882
X307.308 Y588.204
X307.072 Y587.978
X307.069 Y587.974
X306.833 Y587.749
X306.123 Y587.058
X305.187 Y586.126
X304.266 Y585.183
X303.356 Y584.228
X302.458 Y583.262
X301.575 Y582.285
X300.705 Y581.297
X299.849 Y580.298
X299.005 Y579.288
X298.174 Y578.267
X297.359 Y577.238
X296.557 Y576.197
X295.767 Y575.144
X294.992 Y574.084
X294.23 Y573.011
X293.484 Y571.932
X292.752 Y570.84
X292.033 Y569.741
X291.33 Y568.631
X290.639 Y567.511
X289.963 Y566.383
X289.303 Y565.246
X288.657 Y564.101
X288.027 Y562.946
X287.41 Y561.783
X286.809 Y560.611
X286.222 Y559.433
X285.653 Y558.245
X285.096 Y557.049
X284.557 Y555.847
X284.03 Y554.632
X283.648 Y553.722
X283.525 Y553.42
X283.52 Y553.409
X283.436 Y553.206
X283.187 Y552.57
X282.871 Y551.71
X282.576 Y550.843
X282.302 Y549.974
X282.051 Y549.098
X281.821 Y548.217
X281.613 Y547.333
X281.427 Y546.439
X281.261 Y545.541
X281.118 Y544.642
X280.996 Y543.74
X280.896 Y542.834
X280.819 Y541.926
X280.764 Y541.014
X280.73 Y540.095
X280.719 Y539.409
Y539.187
X280.747 Y135.784
X280.749 Y135.611
X280.748 Y135.526
X280.735 Y134.964
X280.731 Y134.865
X280.684 Y134.12
X280.673 Y133.998
X280.59 Y133.26
X280.573 Y133.131
X280.452 Y132.399
X280.429 Y132.28
X280.273 Y131.557
X280.245 Y131.44
X280.055 Y130.727
X280.02 Y130.608
X279.795 Y129.906
X279.753 Y129.786
X279.493 Y129.097
X279.448 Y128.987
X279.155 Y128.31
X279.103 Y128.197
X278.777 Y127.536
X278.719 Y127.426
X278.36 Y126.781
X278.3 Y126.678
X277.91 Y126.05
X277.841 Y125.945
X277.419 Y125.336
X277.347 Y125.238
X276.894 Y124.648
X276.816 Y124.55
X276.333 Y123.982
X276.263 Y123.904
X275.881 Y123.491
X275.82 Y123.428
X275.692 Y123.298
X275.564 Y123.169
X275.503 Y123.109
X275.095 Y122.722
X275.015 Y122.649
X274.451 Y122.159
X274.357 Y122.082
X273.774 Y121.623
X273.672 Y121.547
X273.066 Y121.118
X272.969 Y121.052
X272.347 Y120.654
X272.236 Y120.587
X271.594 Y120.222
X271.49 Y120.166
X270.832 Y119.832
X270.719 Y119.778
X270.047 Y119.478
X269.938 Y119.432
X269.252 Y119.164
X269.132 Y119.121
X268.432 Y118.888
X268.316 Y118.853
X267.605 Y118.654
X267.486 Y118.623
X266.764 Y118.459
X266.641 Y118.434
X265.91 Y118.306
X265.789 Y118.288
X265.052 Y118.196
X264.93 Y118.184
X264.187 Y118.128
X264.083 Y118.122
X263.52 Y118.103
X263.507
Z-15 F333.3
X263.436 Y118.102 F1000
X263.263
X253.275 Y117.989
X249.952 Y117.952
G2 X249.636 Y117.969 I-0.028 J2.5
G1 X249.015 Y118.041
X248.889 Y118.059
X248.115 Y118.189
X247.984 Y118.214
X247.219 Y118.385
X247.096 Y118.416
X246.342 Y118.625
X246.216 Y118.664
X245.473 Y118.913
X245.35 Y118.957
X244.62 Y119.245
X244.497 Y119.297
X243.784 Y119.623
X243.671 Y119.679
X242.973 Y120.042
X242.855 Y120.107
X242.176 Y120.508
X242.064 Y120.578
X241.406 Y121.015
X241.302 Y121.089
X240.663 Y121.562
X240.571 Y121.633
X240.107 Y122.011
X240.042 Y122.066
X239.895 Y122.194
X239.747 Y122.323
X239.672 Y122.39
X239.236 Y122.8
X239.159 Y122.875
X238.604 Y123.444
X238.515 Y123.541
X237.993 Y124.136
X237.907 Y124.239
X237.42 Y124.858
X237.344 Y124.961
X236.89 Y125.603
X236.815 Y125.714
X236.397 Y126.378
X236.333 Y126.486
X235.949 Y127.17
X235.887 Y127.289
X235.541 Y127.991
X235.486 Y128.11
X235.177 Y128.83
X235.128 Y128.951
X234.857 Y129.686
X234.817 Y129.805
X234.583 Y130.554
X234.546 Y130.685
X234.391 Y131.296
G2 X234.333 Y131.605 I2.423 J0.615
G1 X233.926 Y134.9
X166.923 Y675.766
G2 X169.404 Y678.573 I2.481 J0.307
G1 X381.007 Y678.588
G2 X383.507 Y676.088 I0 J-2.5
G1 Y665.048
X383.506 Y664.995
X383.485 Y664.006
X383.483 Y663.935
X383.418 Y662.622
X383.413 Y662.54
X383.305 Y661.232
X383.296 Y661.15
X383.145 Y659.847
X383.135 Y659.767
X382.942 Y658.471
X382.929 Y658.391
X382.695 Y657.105
X382.678 Y657.024
X382.401 Y655.745
X382.383 Y655.666
X382.065 Y654.398
X382.044 Y654.319
X381.685 Y653.062
X381.66 Y652.981
X381.258 Y651.735
X381.233 Y651.662
X380.793 Y650.43
X380.763 Y650.35
X380.281 Y649.134
X380.25 Y649.06
X379.728 Y647.857
X379.693 Y647.78
X379.13 Y646.594
X379.096 Y646.524
X378.495 Y645.354
X378.463 Y645.294
X377.988 Y644.428
X377.96 Y644.377
X377.531 Y643.636
X377.513 Y643.606
X376.703 Y642.251
X376.679 Y642.213
X375.566 Y640.425
X375.539 Y640.382
X374.392 Y638.62
X374.362 Y638.575
X373.177 Y636.839
X373.148 Y636.797
X371.929 Y635.086
X371.896 Y635.042
X370.639 Y633.358
X370.609 Y633.317
X369.319 Y631.66
X369.284 Y631.617
X367.96 Y629.99
X367.926 Y629.95
X366.566 Y628.35
X366.533 Y628.312
X365.141 Y626.739
X365.104 Y626.698
X363.678 Y625.157
X363.642 Y625.119
X362.182 Y623.606
X362.145 Y623.568
X360.655 Y622.088
X360.617 Y622.052
X359.094 Y620.6
X359.054 Y620.563
X357.5 Y619.145
X357.468 Y619.117
X356.284 Y618.073
X356.258 Y618.05
X355.858 Y617.707
X355.856 Y617.705
X355.683 Y617.557
X355.651 Y617.53
X355.126 Y617.096
X355.096 Y617.072
X354.388 Y616.505
X354.34 Y616.467
X353.619 Y615.918
X353.576 Y615.886
X352.844 Y615.353
X352.795 Y615.318
X352.051 Y614.803
X352.005 Y614.773
X351.249 Y614.273
X351.205 Y614.245
X350.44 Y613.763
X350.386 Y613.73
X349.61 Y613.268
X349.565 Y613.242
X348.777 Y612.794
X348.726 Y612.766
X347.929 Y612.339
X347.878 Y612.312
X347.071 Y611.902
X347.023 Y611.878
X346.208 Y611.486
X346.154 Y611.461
X345.329 Y611.088
X345.279 Y611.066
X344.444 Y610.71
X344.391 Y610.688
X343.549 Y610.352
X343.503 Y610.335
X342.866 Y610.095
X342.845 Y610.086
X342.632 Y610.008
X342.613 Y610.002
X342.308 Y609.893
X341.382 Y609.549
X340.146 Y609.077
X338.921 Y608.589
X337.702 Y608.086
X336.491 Y607.567
X335.287 Y607.034
X334.091 Y606.483
X332.902 Y605.918
X331.722 Y605.338
X330.549 Y604.742
X329.384 Y604.132
X328.23 Y603.506
X327.081 Y602.864
X325.941 Y602.21
X324.812 Y601.539
X323.691 Y600.855
X322.578 Y600.155
X321.475 Y599.441
X320.379 Y598.712
X319.295 Y597.971
X318.22 Y597.213
X317.155 Y596.443
X316.1 Y595.657
X315.055 Y594.859
X314.019 Y594.045
X312.994 Y593.219
X311.981 Y592.38
X310.976 Y591.526
X309.984 Y590.66
X309.003 Y589.778
X308.028 Y588.882
X307.308 Y588.204
X307.072 Y587.978
X307.069 Y587.974
X306.833 Y587.749
X306.123 Y587.058
X305.187 Y586.126
X304.266 Y585.183
X303.356 Y584.228
X302.458 Y583.262
X301.575 Y582.285
X300.705 Y581.297
X299.849 Y580.298
X299.005 Y579.288
X298.174 Y578.267
X297.359 Y577.238
X296.557 Y576.197
X295.767 Y575.144
X294.992 Y574.084
X294.23 Y573.011
X293.484 Y571.932
X292.752 Y570.84
X292.033 Y569.741
X291.33 Y568.631
X290.639 Y567.511
X289.963 Y566.383
X289.303 Y565.246
X288.657 Y564.101
X288.027 Y562.946
X287.41 Y561.783
X286.809 Y560.611
X286.222 Y559.433
X285.653 Y558.245
X285.096 Y557.049
X284.557 Y555.847
X284.03 Y554.632
X283.648 Y553.722
X283.525 Y553.42
X283.52 Y553.409
X283.436 Y553.206
X283.187 Y552.57
X282.871 Y551.71
X282.576 Y550.843
X282.302 Y549.974
X282.051 Y549.098
X281.821 Y548.217
X281.613 Y547.333
X281.427 Y546.439
X281.261 Y545.541
X281.118 Y544.642
X280.996 Y543.74
X280.896 Y542.834
X280.819 Y541.926
X280.764 Y541.014
X280.73 Y540.095
X280.719 Y539.409
Y539.187
X280.747 Y135.784
X280.749 Y135.611
X280.748 Y135.526
X280.735 Y134.964
X280.731 Y134.865
X280.684 Y134.12
X280.673 Y133.998
X280.59 Y133.26
X280.573 Y133.131
X280.452 Y132.399
X280.429 Y132.28
X280.273 Y131.557
X280.245 Y131.44
X280.055 Y130.727
X280.02 Y130.608
X279.795 Y129.906
X279.753 Y129.786
X279.493 Y129.097
X279.448 Y128.987
X279.155 Y128.31
X279.103 Y128.197
X278.777 Y127.536
X278.719 Y127.426
X278.36 Y126.781
X278.3 Y126.678
X277.91 Y126.05
X277.841 Y125.945
X277.419 Y125.336
X277.347 Y125.238
X276.894 Y124.648
X276.816 Y124.55
X276.333 Y123.982
X276.263 Y123.904
X275.881 Y123.491
X275.82 Y123.428
X275.692 Y123.298
X275.564 Y123.169
X275.503 Y123.109
X275.095 Y122.722
X275.015 Y122.649
X274.451 Y122.159
X274.357 Y122.082
X273.774 Y121.623
X273.672 Y121.547
X273.066 Y121.118
X272.969 Y121.052
X272.347 Y120.654
X272.236 Y120.587
X271.594 Y120.222
X271.49 Y120.166
X270.832 Y119.832
X270.719 Y119.778
X270.047 Y119.478
X269.938 Y119.432
X269.252 Y119.164
X269.132 Y119.121
X268.432 Y118.888
X268.316 Y118.853
X267.605 Y118.654
X267.486 Y118.623
X266.764 Y118.459
X266.641 Y118.434
X265.91 Y118.306
X265.789 Y118.288
X265.052 Y118.196
X264.93 Y118.184
X264.187 Y118.128
X264.083 Y118.122
X263.52 Y118.103
X263.507
Z-20 F333.3
X263.436 Y118.102 F1000
X263.263
X253.275 Y117.989
X249.952 Y117.952
G2 X249.636 Y117.969 I-0.028 J2.5
G1 X249.015 Y118.041
X248.889 Y118.059
X248.115 Y118.189
X247.984 Y118.214
X247.219 Y118.385
X247.096 Y118.416
X246.342 Y118.625
X246.216 Y118.664
X245.473 Y118.913
X245.35 Y118.957
X244.62 Y119.245
X244.497 Y119.297
X243.784 Y119.623
X243.671 Y119.679
X242.973 Y120.042
X242.855 Y120.107
X242.176 Y120.508
X242.064 Y120.578
X241.406 Y121.015
X241.302 Y121.089
X240.663 Y121.562
X240.571 Y121.633
X240.107 Y122.011
X240.042 Y122.066
X239.895 Y122.194
X239.747 Y122.323
X239.672 Y122.39
X239.236 Y122.8
X239.159 Y122.875
X238.604 Y123.444
X238.515 Y123.541
X237.993 Y124.136
X237.907 Y124.239
X237.42 Y124.858
X237.344 Y124.961
X236.89 Y125.603
X236.815 Y125.714
X236.397 Y126.378
X236.333 Y126.486
X235.949 Y127.17
X235.887 Y127.289
X235.541 Y127.991
X235.486 Y128.11
X235.177 Y128.83
X235.128 Y128.951
X234.857 Y129.686
X234.817 Y129.805
X234.583 Y130.554
X234.546 Y130.685
X234.391 Y131.296
G2 X234.333 Y131.605 I2.423 J0.615
G1 X233.926 Y134.9
X166.923 Y675.766
G2 X169.404 Y678.573 I2.481 J0.307
G1 X381.007 Y678.588
G2 X383.507 Y676.088 I0 J-2.5
G1 Y665.048
X383.506 Y664.995
X383.485 Y664.006
X383.483 Y663.935
X383.418 Y662.622
X383.413 Y662.54
X383.305 Y661.232
X383.296 Y661.15
X383.145 Y659.847
X383.135 Y659.767
X382.942 Y658.471
X382.929 Y658.391
X382.695 Y657.105
X382.678 Y657.024
X382.401 Y655.745
X382.383 Y655.666
X382.065 Y654.398
X382.044 Y654.319
X381.685 Y653.062
X381.66 Y652.981
X381.258 Y651.735
X381.233 Y651.662
X380.793 Y650.43
X380.763 Y650.35
X380.281 Y649.134
X380.25 Y649.06
X379.728 Y647.857
X379.693 Y647.78
X379.13 Y646.594
X379.096 Y646.524
X378.495 Y645.354
X378.463 Y645.294
X377.988 Y644.428
X377.96 Y644.377
X377.531 Y643.636
X377.513 Y643.606
X376.703 Y642.251
X376.679 Y642.213
X375.566 Y640.425
X375.539 Y640.382
X374.392 Y638.62
X374.362 Y638.575
X373.177 Y636.839
X373.148 Y636.797
X371.929 Y635.086
X371.896 Y635.042
X370.639 Y633.358
X370.609 Y633.317
X369.319 Y631.66
X369.284 Y631.617
X367.96 Y629.99
X367.926 Y629.95
X366.566 Y628.35
X366.533 Y628.312
X365.141 Y626.739
X365.104 Y626.698
X363.678 Y625.157
X363.642 Y625.119
X362.182 Y623.606
X362.145 Y623.568
X360.655 Y622.088
X360.617 Y622.052
X359.094 Y620.6
X359.054 Y620.563
X357.5 Y619.145
X357.468 Y619.117
X356.284 Y618.073
X356.258 Y618.05
X355.858 Y617.707
X355.856 Y617.705
X355.683 Y617.557
X355.651 Y617.53
X355.126 Y617.096
X355.096 Y617.072
X354.388 Y616.505
X354.34 Y616.467
X353.619 Y615.918
X353.576 Y615.886
X352.844 Y615.353
X352.795 Y615.318
X352.051 Y614.803
X352.005 Y614.773
X351.249 Y614.273
X351.205 Y614.245
X350.44 Y613.763
X350.386 Y613.73
X349.61 Y613.268
X349.565 Y613.242
X348.777 Y612.794
X348.726 Y612.766
X347.929 Y612.339
X347.878 Y612.312
X347.071 Y611.902
X347.023 Y611.878
X346.208 Y611.486
X346.154 Y611.461
X345.329 Y611.088
X345.279 Y611.066
X344.444 Y610.71
X344.391 Y610.688
X343.549 Y610.352
X343.503 Y610.335
X342.866 Y610.095
X342.845 Y610.086
X342.632 Y610.008
X342.613 Y610.002
X342.308 Y609.893
X341.382 Y609.549
X340.146 Y609.077
X338.921 Y608.589
X337.702 Y608.086
X336.491 Y607.567
X335.287 Y607.034
X334.091 Y606.483
X332.902 Y605.918
X331.722 Y605.338
X330.549 Y604.742
X329.384 Y604.132
X328.23 Y603.506
X327.081 Y602.864
X325.941 Y602.21
X324.812 Y601.539
X323.691 Y600.855
X322.578 Y600.155
X321.475 Y599.441
X320.379 Y598.712
X319.295 Y597.971
X318.22 Y597.213
X317.155 Y596.443
X316.1 Y595.657
X315.055 Y594.859
X314.019 Y594.045
X312.994 Y593.219
X311.981 Y592.38
X310.976 Y591.526
X309.984 Y590.66
X309.003 Y589.778
X308.028 Y588.882
X307.308 Y588.204
X307.072 Y587.978
X307.069 Y587.974
X306.833 Y587.749
X306.123 Y587.058
X305.187 Y586.126
X304.266 Y585.183
X303.356 Y584.228
X302.458 Y583.262
X301.575 Y582.285
X300.705 Y581.297
X299.849 Y580.298
X299.005 Y579.288
X298.174 Y578.267
X297.359 Y577.238
X296.557 Y576.197
X295.767 Y575.144
X294.992 Y574.084
X294.23 Y573.011
X293.484 Y571.932
X292.752 Y570.84
X292.033 Y569.741
X291.33 Y568.631
X290.639 Y567.511
X289.963 Y566.383
X289.303 Y565.246
X288.657 Y564.101
X288.027 Y562.946
X287.41 Y561.783
X286.809 Y560.611
X286.222 Y559.433
X285.653 Y558.245
X285.096 Y557.049
X284.557 Y555.847
X284.03 Y554.632
X283.648 Y553.722
X283.525 Y553.42
X283.52 Y553.409
X283.436 Y553.206
X283.187 Y552.57
X282.871 Y551.71
X282.576 Y550.843
X282.302 Y549.974
X282.051 Y549.098
X281.821 Y548.217
X281.613 Y547.333
X281.427 Y546.439
X281.261 Y545.541
X281.118 Y544.642
X280.996 Y543.74
X280.896 Y542.834
X280.819 Y541.926
X280.764 Y541.014
X280.73 Y540.095
X280.719 Y539.409
Y539.187
X280.747 Y135.784
X280.749 Y135.611
X280.748 Y135.526
X280.735 Y134.964
X280.731 Y134.865
X280.684 Y134.12
X280.673 Y133.998
X280.59 Y133.26
X280.573 Y133.131
X280.452 Y132.399
X280.429 Y132.28
X280.273 Y131.557
X280.245 Y131.44
X280.055 Y130.727
X280.02 Y130.608
X279.795 Y129.906
X279.753 Y129.786
X279.493 Y129.097
X279.448 Y128.987
X279.155 Y128.31
X279.103 Y128.197
X278.777 Y127.536
X278.719 Y127.426
X278.36 Y126.781
X278.3 Y126.678
X277.91 Y126.05
X277.841 Y125.945
X277.419 Y125.336
X277.347 Y125.238
X276.894 Y124.648
X276.816 Y124.55
X276.333 Y123.982
X276.263 Y123.904
X275.881 Y123.491
X275.82 Y123.428
X275.692 Y123.298
X275.564 Y123.169
X275.503 Y123.109
X275.095 Y122.722
X275.015 Y122.649
X274.451 Y122.159
X274.357 Y122.082
X273.774 Y121.623
X273.672 Y121.547
X273.066 Y121.118
X272.969 Y121.052
X272.347 Y120.654
X272.236 Y120.587
X271.594 Y120.222
X271.49 Y120.166
X270.832 Y119.832
X270.719 Y119.778
X270.047 Y119.478
X269.938 Y119.432
X269.252 Y119.164
X269.132 Y119.121
X268.432 Y118.888
X268.316 Y118.853
X267.605 Y118.654
X267.486 Y118.623
X266.764 Y118.459
X266.641 Y118.434
X265.91 Y118.306
X265.789 Y118.288
X265.052 Y118.196
X264.93 Y118.184
X264.187 Y118.128
X264.083 Y118.122
X263.52 Y118.103
X263.507
Z-25 F333.3
X263.436 Y118.102 F1000
X263.263
X253.275 Y117.989
X249.952 Y117.952
G2 X249.636 Y117.969 I-0.028 J2.5
G1 X249.015 Y118.041
X248.889 Y118.059
X248.115 Y118.189
X247.984 Y118.214
X247.219 Y118.385
X247.096 Y118.416
X246.342 Y118.625
X246.216 Y118.664
X245.473 Y118.913
X245.35 Y118.957
X244.62 Y119.245
X244.497 Y119.297
X243.784 Y119.623
X243.671 Y119.679
X242.973 Y120.042
X242.855 Y120.107
X242.176 Y120.508
X242.064 Y120.578
X241.406 Y121.015
X241.302 Y121.089
X240.663 Y121.562
X240.571 Y121.633
X240.107 Y122.011
X240.042 Y122.066
X239.895 Y122.194
X239.747 Y122.323
X239.672 Y122.39
X239.236 Y122.8
X239.159 Y122.875
X238.604 Y123.444
X238.515 Y123.541
X237.993 Y124.136
X237.907 Y124.239
X237.42 Y124.858
X237.344 Y124.961
X236.89 Y125.603
X236.815 Y125.714
X236.397 Y126.378
X236.333 Y126.486
X235.949 Y127.17
X235.887 Y127.289
X235.541 Y127.991
X235.486 Y128.11
X235.177 Y128.83
X235.128 Y128.951
X234.857 Y129.686
X234.817 Y129.805
X234.583 Y130.554
X234.546 Y130.685
X234.391 Y131.296
G2 X234.333 Y131.605 I2.423 J0.615
G1 X233.926 Y134.9
X166.923 Y675.766
G2 X169.404 Y678.573 I2.481 J0.307
G1 X381.007 Y678.588
G2 X383.507 Y676.088 I0 J-2.5
G1 Y665.048
X383.506 Y664.995
X383.485 Y664.006
X383.483 Y663.935
X383.418 Y662.622
X383.413 Y662.54
X383.305 Y661.232
X383.296 Y661.15
X383.145 Y659.847
X383.135 Y659.767
X382.942 Y658.471
X382.929 Y658.391
X382.695 Y657.105
X382.678 Y657.024
X382.401 Y655.745
X382.383 Y655.666
X382.065 Y654.398
X382.044 Y654.319
X381.685 Y653.062
X381.66 Y652.981
X381.258 Y651.735
X381.233 Y651.662
X380.793 Y650.43
X380.763 Y650.35
X380.281 Y649.134
X380.25 Y649.06
X379.728 Y647.857
X379.693 Y647.78
X379.13 Y646.594
X379.096 Y646.524
X378.495 Y645.354
X378.463 Y645.294
X377.988 Y644.428
X377.96 Y644.377
X377.531 Y643.636
X377.513 Y643.606
X376.703 Y642.251
X376.679 Y642.213
X375.566 Y640.425
X375.539 Y640.382
X374.392 Y638.62
X374.362 Y638.575
X373.177 Y636.839
X373.148 Y636.797
X371.929 Y635.086
X371.896 Y635.042
X370.639 Y633.358
X370.609 Y633.317
X369.319 Y631.66
X369.284 Y631.617
X367.96 Y629.99
X367.926 Y629.95
X366.566 Y628.35
X366.533 Y628.312
X365.141 Y626.739
X365.104 Y626.698
X363.678 Y625.157
X363.642 Y625.119
X362.182 Y623.606
X362.145 Y623.568
X360.655 Y622.088
X360.617 Y622.052
X359.094 Y620.6
X359.054 Y620.563
X357.5 Y619.145
X357.468 Y619.117
X356.284 Y618.073
X356.258 Y618.05
X355.858 Y617.707
X355.856 Y617.705
X355.683 Y617.557
X355.651 Y617.53
X355.126 Y617.096
X355.096 Y617.072
X354.388 Y616.505
X354.34 Y616.467
X353.619 Y615.918
X353.576 Y615.886
X352.844 Y615.353
X352.795 Y615.318
X352.051 Y614.803
X352.005 Y614.773
X351.249 Y614.273
X351.205 Y614.245
X350.44 Y613.763
X350.386 Y613.73
X349.61 Y613.268
X349.565 Y613.242
X348.777 Y612.794
X348.726 Y612.766
X347.929 Y612.339
X347.878 Y612.312
X347.071 Y611.902
X347.023 Y611.878
X346.208 Y611.486
X346.154 Y611.461
X345.329 Y611.088
X345.279 Y611.066
X344.444 Y610.71
X344.391 Y610.688
X343.549 Y610.352
X343.503 Y610.335
X342.866 Y610.095
X342.845 Y610.086
X342.632 Y610.008
X342.613 Y610.002
X342.308 Y609.893
X341.382 Y609.549
X340.146 Y609.077
X338.921 Y608.589
X337.702 Y608.086
X336.491 Y607.567
X335.287 Y607.034
X334.091 Y606.483
X332.902 Y605.918
X331.722 Y605.338
X330.549 Y604.742
X329.384 Y604.132
X328.23 Y603.506
X327.081 Y602.864
X325.941 Y602.21
X324.812 Y601.539
X323.691 Y600.855
X322.578 Y600.155
X321.475 Y599.441
X320.379 Y598.712
X319.295 Y597.971
X318.22 Y597.213
X317.155 Y596.443
X316.1 Y595.657
X315.055 Y594.859
X314.019 Y594.045
X312.994 Y593.219
X311.981 Y592.38
X310.976 Y591.526
X309.984 Y590.66
X309.003 Y589.778
X308.028 Y588.882
X307.308 Y588.204
X307.072 Y587.978
X307.069 Y587.974
X306.833 Y587.749
X306.123 Y587.058
X305.187 Y586.126
X304.266 Y585.183
X303.356 Y584.228
X302.458 Y583.262
X301.575 Y582.285
X300.705 Y581.297
X299.849 Y580.298
X299.005 Y579.288
X298.174 Y578.267
X297.359 Y577.238
X296.557 Y576.197
X295.767 Y575.144
X294.992 Y574.084
X294.23 Y573.011
X293.484 Y571.932
X292.752 Y570.84
X292.033 Y569.741
X291.33 Y568.631
X290.639 Y567.511
X289.963 Y566.383
X289.303 Y565.246
X288.657 Y564.101
X288.027 Y562.946
X287.41 Y561.783
X286.809 Y560.611
X286.222 Y559.433
X285.653 Y558.245
X285.096 Y557.049
X284.557 Y555.847
X284.03 Y554.632
X283.648 Y553.722
X283.525 Y553.42
X283.52 Y553.409
X283.436 Y553.206
X283.187 Y552.57
X282.871 Y551.71
X282.576 Y550.843
X282.302 Y549.974
X282.051 Y549.098
X281.821 Y548.217
X281.613 Y547.333
X281.427 Y546.439
X281.261 Y545.541
X281.118 Y544.642
X280.996 Y543.74
X280.896 Y542.834
X280.819 Y541.926
X280.764 Y541.014
X280.73 Y540.095
X280.719 Y539.409
Y539.187
X280.747 Y135.784
X280.749 Y135.611
X280.748 Y135.526
X280.735 Y134.964
X280.731 Y134.865
X280.684 Y134.12
X280.673 Y133.998
X280.59 Y133.26
X280.573 Y133.131
X280.452 Y132.399
X280.429 Y132.28
X280.273 Y131.557
X280.245 Y131.44
X280.055 Y130.727
X280.02 Y130.608
X279.795 Y129.906
X279.753 Y129.786
X279.493 Y129.097
X279.448 Y128.987
X279.155 Y128.31
X279.103 Y128.197
X278.777 Y127.536
X278.719 Y127.426
X278.36 Y126.781
X278.3 Y126.678
X277.91 Y126.05
X277.841 Y125.945
X277.419 Y125.336
X277.347 Y125.238
X276.894 Y124.648
X276.816 Y124.55
X276.333 Y123.982
X276.263 Y123.904
X275.881 Y123.491
X275.82 Y123.428
X275.692 Y123.298
X275.564 Y123.169
X275.503 Y123.109
X275.095 Y122.722
X275.015 Y122.649
X274.451 Y122.159
X274.357 Y122.082
X273.774 Y121.623
X273.672 Y121.547
X273.066 Y121.118
X272.969 Y121.052
X272.347 Y120.654
X272.236 Y120.587
X271.594 Y120.222
X271.49 Y120.166
X270.832 Y119.832
X270.719 Y119.778
X270.047 Y119.478
X269.938 Y119.432
X269.252 Y119.164
X269.132 Y119.121
X268.432 Y118.888
X268.316 Y118.853
X267.605 Y118.654
X267.486 Y118.623
X266.764 Y118.459
X266.641 Y118.434
X265.91 Y118.306
X265.789 Y118.288
X265.052 Y118.196
X264.93 Y118.184
X264.187 Y118.128
X264.083 Y118.122
X263.52 Y118.103
X263.507
Z-28 F333.3
X263.436 Y118.102 F1000
X263.263
X253.275 Y117.989
X249.952 Y117.952
G2 X249.636 Y117.969 I-0.028 J2.5
G1 X249.015 Y118.041
X248.889 Y118.059
X248.115 Y118.189
X247.984 Y118.214
X247.219 Y118.385
X247.096 Y118.416
X246.342 Y118.625
X246.216 Y118.664
X245.473 Y118.913
X245.35 Y118.957
X244.62 Y119.245
X244.497 Y119.297
X243.784 Y119.623
X243.671 Y119.679
X242.973 Y120.042
X242.855 Y120.107
X242.176 Y120.508
X242.064 Y120.578
X241.406 Y121.015
X241.302 Y121.089
X240.663 Y121.562
X240.571 Y121.633
X240.107 Y122.011
X240.042 Y122.066
X239.895 Y122.194
X239.747 Y122.323
X239.672 Y122.39
X239.236 Y122.8
X239.159 Y122.875
X238.604 Y123.444
X238.515 Y123.541
X237.993 Y124.136
X237.907 Y124.239
X237.42 Y124.858
X237.344 Y124.961
X236.89 Y125.603
X236.815 Y125.714
X236.397 Y126.378
X236.333 Y126.486
X235.949 Y127.17
X235.887 Y127.289
X235.541 Y127.991
X235.486 Y128.11
X235.177 Y128.83
X235.128 Y128.951
X234.857 Y129.686
X234.817 Y129.805
X234.583 Y130.554
X234.546 Y130.685
X234.391 Y131.296
G2 X234.333 Y131.605 I2.423 J0.615
G1 X233.926 Y134.9
X166.923 Y675.766
G2 X169.404 Y678.573 I2.481 J0.307
G1 X381.007 Y678.588
G2 X383.507 Y676.088 I0 J-2.5
G1 Y665.048
X383.506 Y664.995
X383.485 Y664.006
X383.483 Y663.935
X383.418 Y662.622
X383.413 Y662.54
X383.305 Y661.232
X383.296 Y661.15
X383.145 Y659.847
X383.135 Y659.767
X382.942 Y658.471
X382.929 Y658.391
X382.695 Y657.105
X382.678 Y657.024
X382.401 Y655.745
X382.383 Y655.666
X382.065 Y654.398
X382.044 Y654.319
X381.685 Y653.062
X381.66 Y652.981
X381.258 Y651.735
X381.233 Y651.662
X380.793 Y650.43
X380.763 Y650.35
X380.281 Y649.134
X380.25 Y649.06
X379.728 Y647.857
X379.693 Y647.78
X379.13 Y646.594
X379.096 Y646.524
X378.495 Y645.354
X378.463 Y645.294
X377.988 Y644.428
X377.96 Y644.377
X377.531 Y643.636
X377.513 Y643.606
X376.703 Y642.251
X376.679 Y642.213
X375.566 Y640.425
X375.539 Y640.382
X374.392 Y638.62
X374.362 Y638.575
X373.177 Y636.839
X373.148 Y636.797
X371.929 Y635.086
X371.896 Y635.042
X370.639 Y633.358
X370.609 Y633.317
X369.319 Y631.66
X369.284 Y631.617
X367.96 Y629.99
X367.926 Y629.95
X366.566 Y628.35
X366.533 Y628.312
X365.141 Y626.739
X365.104 Y626.698
X363.678 Y625.157
X363.642 Y625.119
X362.182 Y623.606
X362.145 Y623.568
X360.655 Y622.088
X360.617 Y622.052
X359.094 Y620.6
X359.054 Y620.563
X357.5 Y619.145
X357.468 Y619.117
X356.284 Y618.073
X356.258 Y618.05
X355.858 Y617.707
X355.856 Y617.705
X355.683 Y617.557
X355.651 Y617.53
X355.126 Y617.096
X355.096 Y617.072
X354.388 Y616.505
X354.34 Y616.467
X353.619 Y615.918
X353.576 Y615.886
X352.844 Y615.353
X352.795 Y615.318
X352.051 Y614.803
X352.005 Y614.773
X351.249 Y614.273
X351.205 Y614.245
X350.44 Y613.763
X350.386 Y613.73
X349.61 Y613.268
X349.565 Y613.242
X348.777 Y612.794
X348.726 Y612.766
X347.929 Y612.339
X347.878 Y612.312
X347.071 Y611.902
X347.023 Y611.878
X346.208 Y611.486
X346.154 Y611.461
X345.329 Y611.088
X345.279 Y611.066
X344.444 Y610.71
X344.391 Y610.688
X343.549 Y610.352
X343.503 Y610.335
X342.866 Y610.095
X342.845 Y610.086
X342.632 Y610.008
X342.613 Y610.002
X342.308 Y609.893
X341.382 Y609.549
X340.146 Y609.077
X338.921 Y608.589
X337.702 Y608.086
X336.491 Y607.567
X335.287 Y607.034
X334.091 Y606.483
X332.902 Y605.918
X331.722 Y605.338
X330.549 Y604.742
X329.384 Y604.132
X328.23 Y603.506
X327.081 Y602.864
X325.941 Y602.21
X324.812 Y601.539
X323.691 Y600.855
X322.578 Y600.155
X321.475 Y599.441
X320.379 Y598.712
X319.295 Y597.971
X318.22 Y597.213
X317.155 Y596.443
X316.1 Y595.657
X315.055 Y594.859
X314.019 Y594.045
X312.994 Y593.219
X311.981 Y592.38
X310.976 Y591.526
X309.984 Y590.66
X309.003 Y589.778
X308.028 Y588.882
X307.308 Y588.204
X307.072 Y587.978
X307.069 Y587.974
X306.833 Y587.749
X306.123 Y587.058
X305.187 Y586.126
X304.266 Y585.183
X303.356 Y584.228
X302.458 Y583.262
X301.575 Y582.285
X300.705 Y581.297
X299.849 Y580.298
X299.005 Y579.288
X298.174 Y578.267
X297.359 Y577.238
X296.557 Y576.197
X295.767 Y575.144
X294.992 Y574.084
X294.23 Y573.011
X293.484 Y571.932
X292.752 Y570.84
X292.033 Y569.741
X291.33 Y568.631
X290.639 Y567.511
X289.963 Y566.383
X289.303 Y565.246
X288.657 Y564.101
X288.027 Y562.946
X287.41 Y561.783
X286.809 Y560.611
X286.222 Y559.433
X285.653 Y558.245
X285.096 Y557.049
X284.557 Y555.847
X284.03 Y554.632
X283.648 Y553.722
X283.525 Y553.42
X283.52 Y553.409
X283.436 Y553.206
X283.187 Y552.57
X282.871 Y551.71
X282.576 Y550.843
X282.302 Y549.974
X282.051 Y549.098
X281.821 Y548.217
X281.613 Y547.333
X281.427 Y546.439
X281.261 Y545.541
X281.118 Y544.642
X280.996 Y543.74
X280.896 Y542.834
X280.819 Y541.926
X280.764 Y541.014
X280.73 Y540.095
X280.719 Y539.409
Y539.187
X280.747 Y135.784
X280.749 Y135.611
X280.748 Y135.526
X280.735 Y134.964
X280.731 Y134.865
X280.684 Y134.12
X280.673 Y133.998
X280.59 Y133.26
X280.573 Y133.131
X280.452 Y132.399
X280.429 Y132.28
X280.273 Y131.557
X280.245 Y131.44
X280.055 Y130.727
X280.02 Y130.608
X279.795 Y129.906
X279.753 Y129.786
X279.493 Y129.097
X279.448 Y128.987
X279.155 Y128.31
X279.103 Y128.197
X278.777 Y127.536
X278.719 Y127.426
X278.36 Y126.781
X278.3 Y126.678
X277.91 Y126.05
X277.841 Y125.945
X277.419 Y125.336
X277.347 Y125.238
X276.894 Y124.648
X276.816 Y124.55
X276.333 Y123.982
X276.263 Y123.904
X275.881 Y123.491
X275.82 Y123.428
X275.692 Y123.298
X275.564 Y123.169
X275.503 Y123.109
X275.095 Y122.722
X275.015 Y122.649
X274.451 Y122.159
X274.357 Y122.082
X273.774 Y121.623
X273.672 Y121.547
X273.066 Y121.118
X272.969 Y121.052
X272.347 Y120.654
X272.236 Y120.587
X271.594 Y120.222
X271.49 Y120.166
X270.832 Y119.832
X270.719 Y119.778
X270.047 Y119.478
X269.938 Y119.432
X269.252 Y119.164
X269.132 Y119.121
X268.432 Y118.888
X268.316 Y118.853
X267.605 Y118.654
X267.486 Y118.623
X266.764 Y118.459
X266.641 Y118.434
X265.91 Y118.306
X265.789 Y118.288
X265.052 Y118.196
X264.93 Y118.184
X264.187 Y118.128
X264.083 Y118.122
X263.52 Y118.103
X263.507
Z5
G0 Z15

M9
M5
M30
