(MonaSattelhalterNase)
(T4 D=5 CR=0 - ZMIN=-28 - flat end mill)
G90 G94
G17
G21
(-Attention- Property Safe Retracts is set to Clearance Height.)
(Ensure the clearance height will clear the part and or fixtures.)
(Raise the Z-axis to a safe height before starting the program.)

(2D Contour1)
T4
S5000 M3
G17 G90 G94
G54
M8
G0 X95.104 Y198.114
Z15
G0 Z5
G1 Z3 F333.3
Z-5
X95.033 Y198.113 F1000
X94.859
X84.871 Y198
X81.549 Y197.963
G2 X81.234 Y197.98 I-0.028 J2.5
G1 X80.611 Y198.052
X80.481 Y198.07
X79.708 Y198.201
X79.586 Y198.225
X78.821 Y198.394
X78.69 Y198.427
X77.935 Y198.637
X77.808 Y198.676
X77.065 Y198.926
X76.947 Y198.969
X76.218 Y199.256
X76.098 Y199.307
X75.384 Y199.632
X75.263 Y199.691
X74.566 Y200.055
X74.454 Y200.117
X73.775 Y200.517
X73.66 Y200.589
X73.001 Y201.027
X72.895 Y201.101
X72.258 Y201.574
X72.169 Y201.643
X71.705 Y202.021
X71.639 Y202.076
X71.489 Y202.207
X71.482 Y202.213
X71.331 Y202.345
X71.273 Y202.398
X70.836 Y202.807
X70.756 Y202.885
X70.202 Y203.453
X70.109 Y203.553
X69.587 Y204.149
X69.506 Y204.247
X69.019 Y204.865
X68.938 Y204.973
X68.484 Y205.616
X68.412 Y205.724
X67.994 Y206.388
X67.927 Y206.5
X67.544 Y207.184
X67.484 Y207.299
X67.137 Y208.001
X67.082 Y208.12
X66.773 Y208.84
X66.725 Y208.961
X66.453 Y209.696
X66.411 Y209.821
X66.178 Y210.571
X66.143 Y210.695
X65.989 Y211.302
G2 X65.93 Y211.612 I2.423 J0.617
G1 X65.522 Y214.912
X-1.481 Y755.777
G2 X1 Y758.584 I2.481 J0.307
G1 X212.604 Y758.599
G2 X215.104 Y756.099 I0 J-2.5
G1 Y745.059
X215.103 Y745.003
X215.081 Y744.014
X215.079 Y743.946
X215.014 Y742.633
X215.009 Y742.553
X214.902 Y741.245
X214.893 Y741.159
X214.741 Y739.856
X214.731 Y739.781
X214.54 Y738.486
X214.526 Y738.4
X214.29 Y737.113
X214.274 Y737.035
X213.997 Y735.756
X213.979 Y735.677
X213.661 Y734.409
X213.639 Y734.329
X213.279 Y733.072
X213.256 Y732.995
X212.856 Y731.751
X212.83 Y731.673
X212.389 Y730.441
X212.36 Y730.364
X211.878 Y729.146
X211.846 Y729.071
X211.324 Y727.868
X211.29 Y727.792
X210.728 Y726.606
X210.693 Y726.535
X210.092 Y725.365
X210.059 Y725.303
X209.583 Y724.437
X209.552 Y724.383
X209.388 Y724.101
X209.126 Y723.647
X209.109 Y723.618
X208.3 Y722.263
X208.276 Y722.226
X207.165 Y720.438
X207.136 Y720.391
X205.987 Y718.629
X205.958 Y718.586
X204.773 Y716.85
X204.744 Y716.808
X203.525 Y715.097
X203.493 Y715.053
X202.237 Y713.369
X202.205 Y713.327
X200.915 Y711.672
X200.882 Y711.631
X199.556 Y710.002
X199.522 Y709.962
X198.163 Y708.362
X198.13 Y708.323
X196.737 Y706.75
X196.7 Y706.709
X195.274 Y705.168
X195.238 Y705.13
X193.78 Y703.619
X193.743 Y703.581
X192.251 Y702.099
X192.213 Y702.063
X190.691 Y700.613
X190.652 Y700.576
X189.096 Y699.156
X189.064 Y699.127
X187.879 Y698.083
X187.851 Y698.059
X187.454 Y697.719
X187.285 Y697.574
X187.253 Y697.547
X186.73 Y697.112
X186.692 Y697.082
X185.983 Y696.515
X185.935 Y696.477
X185.214 Y695.929
X185.173 Y695.898
X184.44 Y695.364
X184.392 Y695.33
X183.649 Y694.815
X183.602 Y694.784
X182.846 Y694.285
X182.796 Y694.253
X182.03 Y693.773
X181.985 Y693.745
X181.208 Y693.281
X181.161 Y693.253
X180.374 Y692.806
X180.323 Y692.778
X179.527 Y692.35
X179.475 Y692.323
X178.668 Y691.913
X178.617 Y691.888
X177.8 Y691.496
X177.749 Y691.472
X176.924 Y691.099
X176.876 Y691.078
X176.043 Y690.722
X175.987 Y690.699
X175.144 Y690.363
X175.101 Y690.346
X174.465 Y690.106
X174.438 Y690.096
X174.224 Y690.018
X174.212 Y690.014
X173.906 Y689.904
X172.978 Y689.56
X171.744 Y689.088
X170.517 Y688.6
X169.298 Y688.097
X168.086 Y687.578
X166.883 Y687.045
X165.687 Y686.494
X164.498 Y685.929
X163.317 Y685.348
X162.146 Y684.755
X160.983 Y684.143
X159.824 Y683.516
X158.675 Y682.876
X157.538 Y682.222
X156.408 Y681.55
X155.286 Y680.866
X154.174 Y680.167
X153.071 Y679.452
X151.976 Y678.723
X150.891 Y677.981
X149.816 Y677.224
X148.751 Y676.454
X147.697 Y675.67
X146.651 Y674.87
X145.616 Y674.056
X144.589 Y673.23
X143.576 Y672.391
X142.573 Y671.538
X141.582 Y670.671
X140.598 Y669.789
X139.625 Y668.893
X138.902 Y668.212
X138.667 Y667.988
X138.43 Y667.761
X137.721 Y667.07
X136.784 Y666.137
X135.862 Y665.193
X134.952 Y664.239
X134.056 Y663.274
X133.172 Y662.296
X132.302 Y661.308
X131.445 Y660.309
X130.601 Y659.299
X129.771 Y658.279
X128.955 Y657.249
X128.153 Y656.207
X127.363 Y655.156
X126.589 Y654.096
X125.827 Y653.022
X125.081 Y651.943
X124.348 Y650.851
X123.629 Y649.752
X122.926 Y648.642
X122.236 Y647.523
X121.56 Y646.394
X120.899 Y645.258
X120.254 Y644.113
X119.623 Y642.957
X119.007 Y641.795
X118.404 Y640.623
X117.819 Y639.445
X117.249 Y638.256
X116.693 Y637.06
X116.152 Y635.857
X115.626 Y634.643
X115.244 Y633.733
X115.121 Y633.431
X115.116 Y633.42
X115.033 Y633.218
X114.784 Y632.582
X114.467 Y631.72
X114.172 Y630.855
X113.9 Y629.986
X113.648 Y629.109
X113.418 Y628.228
X113.21 Y627.343
X113.023 Y626.448
X112.857 Y625.552
X112.714 Y624.654
X112.593 Y623.751
X112.492 Y622.845
X112.416 Y621.938
X112.36 Y621.024
X112.326 Y620.106
X112.315 Y619.421
Y619.198
X112.343 Y215.795
X112.345 Y215.622
X112.344 Y215.542
X112.332 Y214.979
X112.328 Y214.871
X112.28 Y214.127
X112.269 Y214.009
X112.186 Y213.27
X112.168 Y213.14
X112.047 Y212.41
X112.026 Y212.296
X111.871 Y211.572
X111.841 Y211.448
X111.65 Y210.735
X111.615 Y210.618
X111.39 Y209.917
X111.349 Y209.799
X111.089 Y209.109
X111.044 Y208.998
X110.751 Y208.321
X110.7 Y208.211
X110.375 Y207.55
X110.317 Y207.439
X109.958 Y206.793
X109.896 Y206.687
X109.506 Y206.06
X109.438 Y205.956
X109.016 Y205.347
X108.944 Y205.249
X108.491 Y204.659
X108.411 Y204.56
X107.927 Y203.992
X107.859 Y203.915
X107.477 Y203.502
X107.423 Y203.446
X107.292 Y203.313
X107.285 Y203.306
X107.153 Y203.173
X107.097 Y203.118
X106.689 Y202.732
X106.614 Y202.664
X106.051 Y202.173
X105.951 Y202.09
X105.366 Y201.631
X105.271 Y201.56
X104.667 Y201.131
X104.565 Y201.062
X103.942 Y200.664
X103.832 Y200.598
X103.19 Y200.233
X103.084 Y200.176
X102.427 Y199.843
X102.321 Y199.792
X101.648 Y199.49
X101.527 Y199.44
X100.841 Y199.174
X100.731 Y199.134
X100.031 Y198.9
X99.909 Y198.863
X99.198 Y198.665
X99.082 Y198.635
X98.36 Y198.471
X98.241 Y198.447
X97.511 Y198.318
X97.385 Y198.299
X96.648 Y198.207
X96.526 Y198.195
X95.782 Y198.139
X95.679 Y198.133
X95.117 Y198.114
X95.104
Z-10 F333.3
X95.033 Y198.113 F1000
X94.859
X84.871 Y198
X81.549 Y197.963
G2 X81.234 Y197.98 I-0.028 J2.5
G1 X80.611 Y198.052
X80.481 Y198.07
X79.708 Y198.201
X79.586 Y198.225
X78.821 Y198.394
X78.69 Y198.427
X77.935 Y198.637
X77.808 Y198.676
X77.065 Y198.926
X76.947 Y198.969
X76.218 Y199.256
X76.098 Y199.307
X75.384 Y199.632
X75.263 Y199.691
X74.566 Y200.055
X74.454 Y200.117
X73.775 Y200.517
X73.66 Y200.589
X73.001 Y201.027
X72.895 Y201.101
X72.258 Y201.574
X72.169 Y201.643
X71.705 Y202.021
X71.639 Y202.076
X71.489 Y202.207
X71.482 Y202.213
X71.331 Y202.345
X71.273 Y202.398
X70.836 Y202.807
X70.756 Y202.885
X70.202 Y203.453
X70.109 Y203.553
X69.587 Y204.149
X69.506 Y204.247
X69.019 Y204.865
X68.938 Y204.973
X68.484 Y205.616
X68.412 Y205.724
X67.994 Y206.388
X67.927 Y206.5
X67.544 Y207.184
X67.484 Y207.299
X67.137 Y208.001
X67.082 Y208.12
X66.773 Y208.84
X66.725 Y208.961
X66.453 Y209.696
X66.411 Y209.821
X66.178 Y210.571
X66.143 Y210.695
X65.989 Y211.302
G2 X65.93 Y211.612 I2.423 J0.617
G1 X65.522 Y214.912
X-1.481 Y755.777
G2 X1 Y758.584 I2.481 J0.307
G1 X212.604 Y758.599
G2 X215.104 Y756.099 I0 J-2.5
G1 Y745.059
X215.103 Y745.003
X215.081 Y744.014
X215.079 Y743.946
X215.014 Y742.633
X215.009 Y742.553
X214.902 Y741.245
X214.893 Y741.159
X214.741 Y739.856
X214.731 Y739.781
X214.54 Y738.486
X214.526 Y738.4
X214.29 Y737.113
X214.274 Y737.035
X213.997 Y735.756
X213.979 Y735.677
X213.661 Y734.409
X213.639 Y734.329
X213.279 Y733.072
X213.256 Y732.995
X212.856 Y731.751
X212.83 Y731.673
X212.389 Y730.441
X212.36 Y730.364
X211.878 Y729.146
X211.846 Y729.071
X211.324 Y727.868
X211.29 Y727.792
X210.728 Y726.606
X210.693 Y726.535
X210.092 Y725.365
X210.059 Y725.303
X209.583 Y724.437
X209.552 Y724.383
X209.388 Y724.101
X209.126 Y723.647
X209.109 Y723.618
X208.3 Y722.263
X208.276 Y722.226
X207.165 Y720.438
X207.136 Y720.391
X205.987 Y718.629
X205.958 Y718.586
X204.773 Y716.85
X204.744 Y716.808
X203.525 Y715.097
X203.493 Y715.053
X202.237 Y713.369
X202.205 Y713.327
X200.915 Y711.672
X200.882 Y711.631
X199.556 Y710.002
X199.522 Y709.962
X198.163 Y708.362
X198.13 Y708.323
X196.737 Y706.75
X196.7 Y706.709
X195.274 Y705.168
X195.238 Y705.13
X193.78 Y703.619
X193.743 Y703.581
X192.251 Y702.099
X192.213 Y702.063
X190.691 Y700.613
X190.652 Y700.576
X189.096 Y699.156
X189.064 Y699.127
X187.879 Y698.083
X187.851 Y698.059
X187.454 Y697.719
X187.285 Y697.574
X187.253 Y697.547
X186.73 Y697.112
X186.692 Y697.082
X185.983 Y696.515
X185.935 Y696.477
X185.214 Y695.929
X185.173 Y695.898
X184.44 Y695.364
X184.392 Y695.33
X183.649 Y694.815
X183.602 Y694.784
X182.846 Y694.285
X182.796 Y694.253
X182.03 Y693.773
X181.985 Y693.745
X181.208 Y693.281
X181.161 Y693.253
X180.374 Y692.806
X180.323 Y692.778
X179.527 Y692.35
X179.475 Y692.323
X178.668 Y691.913
X178.617 Y691.888
X177.8 Y691.496
X177.749 Y691.472
X176.924 Y691.099
X176.876 Y691.078
X176.043 Y690.722
X175.987 Y690.699
X175.144 Y690.363
X175.101 Y690.346
X174.465 Y690.106
X174.438 Y690.096
X174.224 Y690.018
X174.212 Y690.014
X173.906 Y689.904
X172.978 Y689.56
X171.744 Y689.088
X170.517 Y688.6
X169.298 Y688.097
X168.086 Y687.578
X166.883 Y687.045
X165.687 Y686.494
X164.498 Y685.929
X163.317 Y685.348
X162.146 Y684.755
X160.983 Y684.143
X159.824 Y683.516
X158.675 Y682.876
X157.538 Y682.222
X156.408 Y681.55
X155.286 Y680.866
X154.174 Y680.167
X153.071 Y679.452
X151.976 Y678.723
X150.891 Y677.981
X149.816 Y677.224
X148.751 Y676.454
X147.697 Y675.67
X146.651 Y674.87
X145.616 Y674.056
X144.589 Y673.23
X143.576 Y672.391
X142.573 Y671.538
X141.582 Y670.671
X140.598 Y669.789
X139.625 Y668.893
X138.902 Y668.212
X138.667 Y667.988
X138.43 Y667.761
X137.721 Y667.07
X136.784 Y666.137
X135.862 Y665.193
X134.952 Y664.239
X134.056 Y663.274
X133.172 Y662.296
X132.302 Y661.308
X131.445 Y660.309
X130.601 Y659.299
X129.771 Y658.279
X128.955 Y657.249
X128.153 Y656.207
X127.363 Y655.156
X126.589 Y654.096
X125.827 Y653.022
X125.081 Y651.943
X124.348 Y650.851
X123.629 Y649.752
X122.926 Y648.642
X122.236 Y647.523
X121.56 Y646.394
X120.899 Y645.258
X120.254 Y644.113
X119.623 Y642.957
X119.007 Y641.795
X118.404 Y640.623
X117.819 Y639.445
X117.249 Y638.256
X116.693 Y637.06
X116.152 Y635.857
X115.626 Y634.643
X115.244 Y633.733
X115.121 Y633.431
X115.116 Y633.42
X115.033 Y633.218
X114.784 Y632.582
X114.467 Y631.72
X114.172 Y630.855
X113.9 Y629.986
X113.648 Y629.109
X113.418 Y628.228
X113.21 Y627.343
X113.023 Y626.448
X112.857 Y625.552
X112.714 Y624.654
X112.593 Y623.751
X112.492 Y622.845
X112.416 Y621.938
X112.36 Y621.024
X112.326 Y620.106
X112.315 Y619.421
Y619.198
X112.343 Y215.795
X112.345 Y215.622
X112.344 Y215.542
X112.332 Y214.979
X112.328 Y214.871
X112.28 Y214.127
X112.269 Y214.009
X112.186 Y213.27
X112.168 Y213.14
X112.047 Y212.41
X112.026 Y212.296
X111.871 Y211.572
X111.841 Y211.448
X111.65 Y210.735
X111.615 Y210.618
X111.39 Y209.917
X111.349 Y209.799
X111.089 Y209.109
X111.044 Y208.998
X110.751 Y208.321
X110.7 Y208.211
X110.375 Y207.55
X110.317 Y207.439
X109.958 Y206.793
X109.896 Y206.687
X109.506 Y206.06
X109.438 Y205.956
X109.016 Y205.347
X108.944 Y205.249
X108.491 Y204.659
X108.411 Y204.56
X107.927 Y203.992
X107.859 Y203.915
X107.477 Y203.502
X107.423 Y203.446
X107.292 Y203.313
X107.285 Y203.306
X107.153 Y203.173
X107.097 Y203.118
X106.689 Y202.732
X106.614 Y202.664
X106.051 Y202.173
X105.951 Y202.09
X105.366 Y201.631
X105.271 Y201.56
X104.667 Y201.131
X104.565 Y201.062
X103.942 Y200.664
X103.832 Y200.598
X103.19 Y200.233
X103.084 Y200.176
X102.427 Y199.843
X102.321 Y199.792
X101.648 Y199.49
X101.527 Y199.44
X100.841 Y199.174
X100.731 Y199.134
X100.031 Y198.9
X99.909 Y198.863
X99.198 Y198.665
X99.082 Y198.635
X98.36 Y198.471
X98.241 Y198.447
X97.511 Y198.318
X97.385 Y198.299
X96.648 Y198.207
X96.526 Y198.195
X95.782 Y198.139
X95.679 Y198.133
X95.117 Y198.114
X95.104
Z-15 F333.3
X95.033 Y198.113 F1000
X94.859
X84.871 Y198
X81.549 Y197.963
G2 X81.234 Y197.98 I-0.028 J2.5
G1 X80.611 Y198.052
X80.481 Y198.07
X79.708 Y198.201
X79.586 Y198.225
X78.821 Y198.394
X78.69 Y198.427
X77.935 Y198.637
X77.808 Y198.676
X77.065 Y198.926
X76.947 Y198.969
X76.218 Y199.256
X76.098 Y199.307
X75.384 Y199.632
X75.263 Y199.691
X74.566 Y200.055
X74.454 Y200.117
X73.775 Y200.517
X73.66 Y200.589
X73.001 Y201.027
X72.895 Y201.101
X72.258 Y201.574
X72.169 Y201.643
X71.705 Y202.021
X71.639 Y202.076
X71.489 Y202.207
X71.482 Y202.213
X71.331 Y202.345
X71.273 Y202.398
X70.836 Y202.807
X70.756 Y202.885
X70.202 Y203.453
X70.109 Y203.553
X69.587 Y204.149
X69.506 Y204.247
X69.019 Y204.865
X68.938 Y204.973
X68.484 Y205.616
X68.412 Y205.724
X67.994 Y206.388
X67.927 Y206.5
X67.544 Y207.184
X67.484 Y207.299
X67.137 Y208.001
X67.082 Y208.12
X66.773 Y208.84
X66.725 Y208.961
X66.453 Y209.696
X66.411 Y209.821
X66.178 Y210.571
X66.143 Y210.695
X65.989 Y211.302
G2 X65.93 Y211.612 I2.423 J0.617
G1 X65.522 Y214.912
X-1.481 Y755.777
G2 X1 Y758.584 I2.481 J0.307
G1 X212.604 Y758.599
G2 X215.104 Y756.099 I0 J-2.5
G1 Y745.059
X215.103 Y745.003
X215.081 Y744.014
X215.079 Y743.946
X215.014 Y742.633
X215.009 Y742.553
X214.902 Y741.245
X214.893 Y741.159
X214.741 Y739.856
X214.731 Y739.781
X214.54 Y738.486
X214.526 Y738.4
X214.29 Y737.113
X214.274 Y737.035
X213.997 Y735.756
X213.979 Y735.677
X213.661 Y734.409
X213.639 Y734.329
X213.279 Y733.072
X213.256 Y732.995
X212.856 Y731.751
X212.83 Y731.673
X212.389 Y730.441
X212.36 Y730.364
X211.878 Y729.146
X211.846 Y729.071
X211.324 Y727.868
X211.29 Y727.792
X210.728 Y726.606
X210.693 Y726.535
X210.092 Y725.365
X210.059 Y725.303
X209.583 Y724.437
X209.552 Y724.383
X209.388 Y724.101
X209.126 Y723.647
X209.109 Y723.618
X208.3 Y722.263
X208.276 Y722.226
X207.165 Y720.438
X207.136 Y720.391
X205.987 Y718.629
X205.958 Y718.586
X204.773 Y716.85
X204.744 Y716.808
X203.525 Y715.097
X203.493 Y715.053
X202.237 Y713.369
X202.205 Y713.327
X200.915 Y711.672
X200.882 Y711.631
X199.556 Y710.002
X199.522 Y709.962
X198.163 Y708.362
X198.13 Y708.323
X196.737 Y706.75
X196.7 Y706.709
X195.274 Y705.168
X195.238 Y705.13
X193.78 Y703.619
X193.743 Y703.581
X192.251 Y702.099
X192.213 Y702.063
X190.691 Y700.613
X190.652 Y700.576
X189.096 Y699.156
X189.064 Y699.127
X187.879 Y698.083
X187.851 Y698.059
X187.454 Y697.719
X187.285 Y697.574
X187.253 Y697.547
X186.73 Y697.112
X186.692 Y697.082
X185.983 Y696.515
X185.935 Y696.477
X185.214 Y695.929
X185.173 Y695.898
X184.44 Y695.364
X184.392 Y695.33
X183.649 Y694.815
X183.602 Y694.784
X182.846 Y694.285
X182.796 Y694.253
X182.03 Y693.773
X181.985 Y693.745
X181.208 Y693.281
X181.161 Y693.253
X180.374 Y692.806
X180.323 Y692.778
X179.527 Y692.35
X179.475 Y692.323
X178.668 Y691.913
X178.617 Y691.888
X177.8 Y691.496
X177.749 Y691.472
X176.924 Y691.099
X176.876 Y691.078
X176.043 Y690.722
X175.987 Y690.699
X175.144 Y690.363
X175.101 Y690.346
X174.465 Y690.106
X174.438 Y690.096
X174.224 Y690.018
X174.212 Y690.014
X173.906 Y689.904
X172.978 Y689.56
X171.744 Y689.088
X170.517 Y688.6
X169.298 Y688.097
X168.086 Y687.578
X166.883 Y687.045
X165.687 Y686.494
X164.498 Y685.929
X163.317 Y685.348
X162.146 Y684.755
X160.983 Y684.143
X159.824 Y683.516
X158.675 Y682.876
X157.538 Y682.222
X156.408 Y681.55
X155.286 Y680.866
X154.174 Y680.167
X153.071 Y679.452
X151.976 Y678.723
X150.891 Y677.981
X149.816 Y677.224
X148.751 Y676.454
X147.697 Y675.67
X146.651 Y674.87
X145.616 Y674.056
X144.589 Y673.23
X143.576 Y672.391
X142.573 Y671.538
X141.582 Y670.671
X140.598 Y669.789
X139.625 Y668.893
X138.902 Y668.212
X138.667 Y667.988
X138.43 Y667.761
X137.721 Y667.07
X136.784 Y666.137
X135.862 Y665.193
X134.952 Y664.239
X134.056 Y663.274
X133.172 Y662.296
X132.302 Y661.308
X131.445 Y660.309
X130.601 Y659.299
X129.771 Y658.279
X128.955 Y657.249
X128.153 Y656.207
X127.363 Y655.156
X126.589 Y654.096
X125.827 Y653.022
X125.081 Y651.943
X124.348 Y650.851
X123.629 Y649.752
X122.926 Y648.642
X122.236 Y647.523
X121.56 Y646.394
X120.899 Y645.258
X120.254 Y644.113
X119.623 Y642.957
X119.007 Y641.795
X118.404 Y640.623
X117.819 Y639.445
X117.249 Y638.256
X116.693 Y637.06
X116.152 Y635.857
X115.626 Y634.643
X115.244 Y633.733
X115.121 Y633.431
X115.116 Y633.42
X115.033 Y633.218
X114.784 Y632.582
X114.467 Y631.72
X114.172 Y630.855
X113.9 Y629.986
X113.648 Y629.109
X113.418 Y628.228
X113.21 Y627.343
X113.023 Y626.448
X112.857 Y625.552
X112.714 Y624.654
X112.593 Y623.751
X112.492 Y622.845
X112.416 Y621.938
X112.36 Y621.024
X112.326 Y620.106
X112.315 Y619.421
Y619.198
X112.343 Y215.795
X112.345 Y215.622
X112.344 Y215.542
X112.332 Y214.979
X112.328 Y214.871
X112.28 Y214.127
X112.269 Y214.009
X112.186 Y213.27
X112.168 Y213.14
X112.047 Y212.41
X112.026 Y212.296
X111.871 Y211.572
X111.841 Y211.448
X111.65 Y210.735
X111.615 Y210.618
X111.39 Y209.917
X111.349 Y209.799
X111.089 Y209.109
X111.044 Y208.998
X110.751 Y208.321
X110.7 Y208.211
X110.375 Y207.55
X110.317 Y207.439
X109.958 Y206.793
X109.896 Y206.687
X109.506 Y206.06
X109.438 Y205.956
X109.016 Y205.347
X108.944 Y205.249
X108.491 Y204.659
X108.411 Y204.56
X107.927 Y203.992
X107.859 Y203.915
X107.477 Y203.502
X107.423 Y203.446
X107.292 Y203.313
X107.285 Y203.306
X107.153 Y203.173
X107.097 Y203.118
X106.689 Y202.732
X106.614 Y202.664
X106.051 Y202.173
X105.951 Y202.09
X105.366 Y201.631
X105.271 Y201.56
X104.667 Y201.131
X104.565 Y201.062
X103.942 Y200.664
X103.832 Y200.598
X103.19 Y200.233
X103.084 Y200.176
X102.427 Y199.843
X102.321 Y199.792
X101.648 Y199.49
X101.527 Y199.44
X100.841 Y199.174
X100.731 Y199.134
X100.031 Y198.9
X99.909 Y198.863
X99.198 Y198.665
X99.082 Y198.635
X98.36 Y198.471
X98.241 Y198.447
X97.511 Y198.318
X97.385 Y198.299
X96.648 Y198.207
X96.526 Y198.195
X95.782 Y198.139
X95.679 Y198.133
X95.117 Y198.114
X95.104
Z-20 F333.3
X95.033 Y198.113 F1000
X94.859
X84.871 Y198
X81.549 Y197.963
G2 X81.234 Y197.98 I-0.028 J2.5
G1 X80.611 Y198.052
X80.481 Y198.07
X79.708 Y198.201
X79.586 Y198.225
X78.821 Y198.394
X78.69 Y198.427
X77.935 Y198.637
X77.808 Y198.676
X77.065 Y198.926
X76.947 Y198.969
X76.218 Y199.256
X76.098 Y199.307
X75.384 Y199.632
X75.263 Y199.691
X74.566 Y200.055
X74.454 Y200.117
X73.775 Y200.517
X73.66 Y200.589
X73.001 Y201.027
X72.895 Y201.101
X72.258 Y201.574
X72.169 Y201.643
X71.705 Y202.021
X71.639 Y202.076
X71.489 Y202.207
X71.482 Y202.213
X71.331 Y202.345
X71.273 Y202.398
X70.836 Y202.807
X70.756 Y202.885
X70.202 Y203.453
X70.109 Y203.553
X69.587 Y204.149
X69.506 Y204.247
X69.019 Y204.865
X68.938 Y204.973
X68.484 Y205.616
X68.412 Y205.724
X67.994 Y206.388
X67.927 Y206.5
X67.544 Y207.184
X67.484 Y207.299
X67.137 Y208.001
X67.082 Y208.12
X66.773 Y208.84
X66.725 Y208.961
X66.453 Y209.696
X66.411 Y209.821
X66.178 Y210.571
X66.143 Y210.695
X65.989 Y211.302
G2 X65.93 Y211.612 I2.423 J0.617
G1 X65.522 Y214.912
X-1.481 Y755.777
G2 X1 Y758.584 I2.481 J0.307
G1 X212.604 Y758.599
G2 X215.104 Y756.099 I0 J-2.5
G1 Y745.059
X215.103 Y745.003
X215.081 Y744.014
X215.079 Y743.946
X215.014 Y742.633
X215.009 Y742.553
X214.902 Y741.245
X214.893 Y741.159
X214.741 Y739.856
X214.731 Y739.781
X214.54 Y738.486
X214.526 Y738.4
X214.29 Y737.113
X214.274 Y737.035
X213.997 Y735.756
X213.979 Y735.677
X213.661 Y734.409
X213.639 Y734.329
X213.279 Y733.072
X213.256 Y732.995
X212.856 Y731.751
X212.83 Y731.673
X212.389 Y730.441
X212.36 Y730.364
X211.878 Y729.146
X211.846 Y729.071
X211.324 Y727.868
X211.29 Y727.792
X210.728 Y726.606
X210.693 Y726.535
X210.092 Y725.365
X210.059 Y725.303
X209.583 Y724.437
X209.552 Y724.383
X209.388 Y724.101
X209.126 Y723.647
X209.109 Y723.618
X208.3 Y722.263
X208.276 Y722.226
X207.165 Y720.438
X207.136 Y720.391
X205.987 Y718.629
X205.958 Y718.586
X204.773 Y716.85
X204.744 Y716.808
X203.525 Y715.097
X203.493 Y715.053
X202.237 Y713.369
X202.205 Y713.327
X200.915 Y711.672
X200.882 Y711.631
X199.556 Y710.002
X199.522 Y709.962
X198.163 Y708.362
X198.13 Y708.323
X196.737 Y706.75
X196.7 Y706.709
X195.274 Y705.168
X195.238 Y705.13
X193.78 Y703.619
X193.743 Y703.581
X192.251 Y702.099
X192.213 Y702.063
X190.691 Y700.613
X190.652 Y700.576
X189.096 Y699.156
X189.064 Y699.127
X187.879 Y698.083
X187.851 Y698.059
X187.454 Y697.719
X187.285 Y697.574
X187.253 Y697.547
X186.73 Y697.112
X186.692 Y697.082
X185.983 Y696.515
X185.935 Y696.477
X185.214 Y695.929
X185.173 Y695.898
X184.44 Y695.364
X184.392 Y695.33
X183.649 Y694.815
X183.602 Y694.784
X182.846 Y694.285
X182.796 Y694.253
X182.03 Y693.773
X181.985 Y693.745
X181.208 Y693.281
X181.161 Y693.253
X180.374 Y692.806
X180.323 Y692.778
X179.527 Y692.35
X179.475 Y692.323
X178.668 Y691.913
X178.617 Y691.888
X177.8 Y691.496
X177.749 Y691.472
X176.924 Y691.099
X176.876 Y691.078
X176.043 Y690.722
X175.987 Y690.699
X175.144 Y690.363
X175.101 Y690.346
X174.465 Y690.106
X174.438 Y690.096
X174.224 Y690.018
X174.212 Y690.014
X173.906 Y689.904
X172.978 Y689.56
X171.744 Y689.088
X170.517 Y688.6
X169.298 Y688.097
X168.086 Y687.578
X166.883 Y687.045
X165.687 Y686.494
X164.498 Y685.929
X163.317 Y685.348
X162.146 Y684.755
X160.983 Y684.143
X159.824 Y683.516
X158.675 Y682.876
X157.538 Y682.222
X156.408 Y681.55
X155.286 Y680.866
X154.174 Y680.167
X153.071 Y679.452
X151.976 Y678.723
X150.891 Y677.981
X149.816 Y677.224
X148.751 Y676.454
X147.697 Y675.67
X146.651 Y674.87
X145.616 Y674.056
X144.589 Y673.23
X143.576 Y672.391
X142.573 Y671.538
X141.582 Y670.671
X140.598 Y669.789
X139.625 Y668.893
X138.902 Y668.212
X138.667 Y667.988
X138.43 Y667.761
X137.721 Y667.07
X136.784 Y666.137
X135.862 Y665.193
X134.952 Y664.239
X134.056 Y663.274
X133.172 Y662.296
X132.302 Y661.308
X131.445 Y660.309
X130.601 Y659.299
X129.771 Y658.279
X128.955 Y657.249
X128.153 Y656.207
X127.363 Y655.156
X126.589 Y654.096
X125.827 Y653.022
X125.081 Y651.943
X124.348 Y650.851
X123.629 Y649.752
X122.926 Y648.642
X122.236 Y647.523
X121.56 Y646.394
X120.899 Y645.258
X120.254 Y644.113
X119.623 Y642.957
X119.007 Y641.795
X118.404 Y640.623
X117.819 Y639.445
X117.249 Y638.256
X116.693 Y637.06
X116.152 Y635.857
X115.626 Y634.643
X115.244 Y633.733
X115.121 Y633.431
X115.116 Y633.42
X115.033 Y633.218
X114.784 Y632.582
X114.467 Y631.72
X114.172 Y630.855
X113.9 Y629.986
X113.648 Y629.109
X113.418 Y628.228
X113.21 Y627.343
X113.023 Y626.448
X112.857 Y625.552
X112.714 Y624.654
X112.593 Y623.751
X112.492 Y622.845
X112.416 Y621.938
X112.36 Y621.024
X112.326 Y620.106
X112.315 Y619.421
Y619.198
X112.343 Y215.795
X112.345 Y215.622
X112.344 Y215.542
X112.332 Y214.979
X112.328 Y214.871
X112.28 Y214.127
X112.269 Y214.009
X112.186 Y213.27
X112.168 Y213.14
X112.047 Y212.41
X112.026 Y212.296
X111.871 Y211.572
X111.841 Y211.448
X111.65 Y210.735
X111.615 Y210.618
X111.39 Y209.917
X111.349 Y209.799
X111.089 Y209.109
X111.044 Y208.998
X110.751 Y208.321
X110.7 Y208.211
X110.375 Y207.55
X110.317 Y207.439
X109.958 Y206.793
X109.896 Y206.687
X109.506 Y206.06
X109.438 Y205.956
X109.016 Y205.347
X108.944 Y205.249
X108.491 Y204.659
X108.411 Y204.56
X107.927 Y203.992
X107.859 Y203.915
X107.477 Y203.502
X107.423 Y203.446
X107.292 Y203.313
X107.285 Y203.306
X107.153 Y203.173
X107.097 Y203.118
X106.689 Y202.732
X106.614 Y202.664
X106.051 Y202.173
X105.951 Y202.09
X105.366 Y201.631
X105.271 Y201.56
X104.667 Y201.131
X104.565 Y201.062
X103.942 Y200.664
X103.832 Y200.598
X103.19 Y200.233
X103.084 Y200.176
X102.427 Y199.843
X102.321 Y199.792
X101.648 Y199.49
X101.527 Y199.44
X100.841 Y199.174
X100.731 Y199.134
X100.031 Y198.9
X99.909 Y198.863
X99.198 Y198.665
X99.082 Y198.635
X98.36 Y198.471
X98.241 Y198.447
X97.511 Y198.318
X97.385 Y198.299
X96.648 Y198.207
X96.526 Y198.195
X95.782 Y198.139
X95.679 Y198.133
X95.117 Y198.114
X95.104
Z-25 F333.3
X95.033 Y198.113 F1000
X94.859
X84.871 Y198
X81.549 Y197.963
G2 X81.234 Y197.98 I-0.028 J2.5
G1 X80.611 Y198.052
X80.481 Y198.07
X79.708 Y198.201
X79.586 Y198.225
X78.821 Y198.394
X78.69 Y198.427
X77.935 Y198.637
X77.808 Y198.676
X77.065 Y198.926
X76.947 Y198.969
X76.218 Y199.256
X76.098 Y199.307
X75.384 Y199.632
X75.263 Y199.691
X74.566 Y200.055
X74.454 Y200.117
X73.775 Y200.517
X73.66 Y200.589
X73.001 Y201.027
X72.895 Y201.101
X72.258 Y201.574
X72.169 Y201.643
X71.705 Y202.021
X71.639 Y202.076
X71.489 Y202.207
X71.482 Y202.213
X71.331 Y202.345
X71.273 Y202.398
X70.836 Y202.807
X70.756 Y202.885
X70.202 Y203.453
X70.109 Y203.553
X69.587 Y204.149
X69.506 Y204.247
X69.019 Y204.865
X68.938 Y204.973
X68.484 Y205.616
X68.412 Y205.724
X67.994 Y206.388
X67.927 Y206.5
X67.544 Y207.184
X67.484 Y207.299
X67.137 Y208.001
X67.082 Y208.12
X66.773 Y208.84
X66.725 Y208.961
X66.453 Y209.696
X66.411 Y209.821
X66.178 Y210.571
X66.143 Y210.695
X65.989 Y211.302
G2 X65.93 Y211.612 I2.423 J0.617
G1 X65.522 Y214.912
X-1.481 Y755.777
G2 X1 Y758.584 I2.481 J0.307
G1 X212.604 Y758.599
G2 X215.104 Y756.099 I0 J-2.5
G1 Y745.059
X215.103 Y745.003
X215.081 Y744.014
X215.079 Y743.946
X215.014 Y742.633
X215.009 Y742.553
X214.902 Y741.245
X214.893 Y741.159
X214.741 Y739.856
X214.731 Y739.781
X214.54 Y738.486
X214.526 Y738.4
X214.29 Y737.113
X214.274 Y737.035
X213.997 Y735.756
X213.979 Y735.677
X213.661 Y734.409
X213.639 Y734.329
X213.279 Y733.072
X213.256 Y732.995
X212.856 Y731.751
X212.83 Y731.673
X212.389 Y730.441
X212.36 Y730.364
X211.878 Y729.146
X211.846 Y729.071
X211.324 Y727.868
X211.29 Y727.792
X210.728 Y726.606
X210.693 Y726.535
X210.092 Y725.365
X210.059 Y725.303
X209.583 Y724.437
X209.552 Y724.383
X209.388 Y724.101
X209.126 Y723.647
X209.109 Y723.618
X208.3 Y722.263
X208.276 Y722.226
X207.165 Y720.438
X207.136 Y720.391
X205.987 Y718.629
X205.958 Y718.586
X204.773 Y716.85
X204.744 Y716.808
X203.525 Y715.097
X203.493 Y715.053
X202.237 Y713.369
X202.205 Y713.327
X200.915 Y711.672
X200.882 Y711.631
X199.556 Y710.002
X199.522 Y709.962
X198.163 Y708.362
X198.13 Y708.323
X196.737 Y706.75
X196.7 Y706.709
X195.274 Y705.168
X195.238 Y705.13
X193.78 Y703.619
X193.743 Y703.581
X192.251 Y702.099
X192.213 Y702.063
X190.691 Y700.613
X190.652 Y700.576
X189.096 Y699.156
X189.064 Y699.127
X187.879 Y698.083
X187.851 Y698.059
X187.454 Y697.719
X187.285 Y697.574
X187.253 Y697.547
X186.73 Y697.112
X186.692 Y697.082
X185.983 Y696.515
X185.935 Y696.477
X185.214 Y695.929
X185.173 Y695.898
X184.44 Y695.364
X184.392 Y695.33
X183.649 Y694.815
X183.602 Y694.784
X182.846 Y694.285
X182.796 Y694.253
X182.03 Y693.773
X181.985 Y693.745
X181.208 Y693.281
X181.161 Y693.253
X180.374 Y692.806
X180.323 Y692.778
X179.527 Y692.35
X179.475 Y692.323
X178.668 Y691.913
X178.617 Y691.888
X177.8 Y691.496
X177.749 Y691.472
X176.924 Y691.099
X176.876 Y691.078
X176.043 Y690.722
X175.987 Y690.699
X175.144 Y690.363
X175.101 Y690.346
X174.465 Y690.106
X174.438 Y690.096
X174.224 Y690.018
X174.212 Y690.014
X173.906 Y689.904
X172.978 Y689.56
X171.744 Y689.088
X170.517 Y688.6
X169.298 Y688.097
X168.086 Y687.578
X166.883 Y687.045
X165.687 Y686.494
X164.498 Y685.929
X163.317 Y685.348
X162.146 Y684.755
X160.983 Y684.143
X159.824 Y683.516
X158.675 Y682.876
X157.538 Y682.222
X156.408 Y681.55
X155.286 Y680.866
X154.174 Y680.167
X153.071 Y679.452
X151.976 Y678.723
X150.891 Y677.981
X149.816 Y677.224
X148.751 Y676.454
X147.697 Y675.67
X146.651 Y674.87
X145.616 Y674.056
X144.589 Y673.23
X143.576 Y672.391
X142.573 Y671.538
X141.582 Y670.671
X140.598 Y669.789
X139.625 Y668.893
X138.902 Y668.212
X138.667 Y667.988
X138.43 Y667.761
X137.721 Y667.07
X136.784 Y666.137
X135.862 Y665.193
X134.952 Y664.239
X134.056 Y663.274
X133.172 Y662.296
X132.302 Y661.308
X131.445 Y660.309
X130.601 Y659.299
X129.771 Y658.279
X128.955 Y657.249
X128.153 Y656.207
X127.363 Y655.156
X126.589 Y654.096
X125.827 Y653.022
X125.081 Y651.943
X124.348 Y650.851
X123.629 Y649.752
X122.926 Y648.642
X122.236 Y647.523
X121.56 Y646.394
X120.899 Y645.258
X120.254 Y644.113
X119.623 Y642.957
X119.007 Y641.795
X118.404 Y640.623
X117.819 Y639.445
X117.249 Y638.256
X116.693 Y637.06
X116.152 Y635.857
X115.626 Y634.643
X115.244 Y633.733
X115.121 Y633.431
X115.116 Y633.42
X115.033 Y633.218
X114.784 Y632.582
X114.467 Y631.72
X114.172 Y630.855
X113.9 Y629.986
X113.648 Y629.109
X113.418 Y628.228
X113.21 Y627.343
X113.023 Y626.448
X112.857 Y625.552
X112.714 Y624.654
X112.593 Y623.751
X112.492 Y622.845
X112.416 Y621.938
X112.36 Y621.024
X112.326 Y620.106
X112.315 Y619.421
Y619.198
X112.343 Y215.795
X112.345 Y215.622
X112.344 Y215.542
X112.332 Y214.979
X112.328 Y214.871
X112.28 Y214.127
X112.269 Y214.009
X112.186 Y213.27
X112.168 Y213.14
X112.047 Y212.41
X112.026 Y212.296
X111.871 Y211.572
X111.841 Y211.448
X111.65 Y210.735
X111.615 Y210.618
X111.39 Y209.917
X111.349 Y209.799
X111.089 Y209.109
X111.044 Y208.998
X110.751 Y208.321
X110.7 Y208.211
X110.375 Y207.55
X110.317 Y207.439
X109.958 Y206.793
X109.896 Y206.687
X109.506 Y206.06
X109.438 Y205.956
X109.016 Y205.347
X108.944 Y205.249
X108.491 Y204.659
X108.411 Y204.56
X107.927 Y203.992
X107.859 Y203.915
X107.477 Y203.502
X107.423 Y203.446
X107.292 Y203.313
X107.285 Y203.306
X107.153 Y203.173
X107.097 Y203.118
X106.689 Y202.732
X106.614 Y202.664
X106.051 Y202.173
X105.951 Y202.09
X105.366 Y201.631
X105.271 Y201.56
X104.667 Y201.131
X104.565 Y201.062
X103.942 Y200.664
X103.832 Y200.598
X103.19 Y200.233
X103.084 Y200.176
X102.427 Y199.843
X102.321 Y199.792
X101.648 Y199.49
X101.527 Y199.44
X100.841 Y199.174
X100.731 Y199.134
X100.031 Y198.9
X99.909 Y198.863
X99.198 Y198.665
X99.082 Y198.635
X98.36 Y198.471
X98.241 Y198.447
X97.511 Y198.318
X97.385 Y198.299
X96.648 Y198.207
X96.526 Y198.195
X95.782 Y198.139
X95.679 Y198.133
X95.117 Y198.114
X95.104
Z-28 F333.3
X95.033 Y198.113 F1000
X94.859
X84.871 Y198
X81.549 Y197.963
G2 X81.234 Y197.98 I-0.028 J2.5
G1 X80.611 Y198.052
X80.481 Y198.07
X79.708 Y198.201
X79.586 Y198.225
X78.821 Y198.394
X78.69 Y198.427
X77.935 Y198.637
X77.808 Y198.676
X77.065 Y198.926
X76.947 Y198.969
X76.218 Y199.256
X76.098 Y199.307
X75.384 Y199.632
X75.263 Y199.691
X74.566 Y200.055
X74.454 Y200.117
X73.775 Y200.517
X73.66 Y200.589
X73.001 Y201.027
X72.895 Y201.101
X72.258 Y201.574
X72.169 Y201.643
X71.705 Y202.021
X71.639 Y202.076
X71.489 Y202.207
X71.482 Y202.213
X71.331 Y202.345
X71.273 Y202.398
X70.836 Y202.807
X70.756 Y202.885
X70.202 Y203.453
X70.109 Y203.553
X69.587 Y204.149
X69.506 Y204.247
X69.019 Y204.865
X68.938 Y204.973
X68.484 Y205.616
X68.412 Y205.724
X67.994 Y206.388
X67.927 Y206.5
X67.544 Y207.184
X67.484 Y207.299
X67.137 Y208.001
X67.082 Y208.12
X66.773 Y208.84
X66.725 Y208.961
X66.453 Y209.696
X66.411 Y209.821
X66.178 Y210.571
X66.143 Y210.695
X65.989 Y211.302
G2 X65.93 Y211.612 I2.423 J0.617
G1 X65.522 Y214.912
X-1.481 Y755.777
G2 X1 Y758.584 I2.481 J0.307
G1 X212.604 Y758.599
G2 X215.104 Y756.099 I0 J-2.5
G1 Y745.059
X215.103 Y745.003
X215.081 Y744.014
X215.079 Y743.946
X215.014 Y742.633
X215.009 Y742.553
X214.902 Y741.245
X214.893 Y741.159
X214.741 Y739.856
X214.731 Y739.781
X214.54 Y738.486
X214.526 Y738.4
X214.29 Y737.113
X214.274 Y737.035
X213.997 Y735.756
X213.979 Y735.677
X213.661 Y734.409
X213.639 Y734.329
X213.279 Y733.072
X213.256 Y732.995
X212.856 Y731.751
X212.83 Y731.673
X212.389 Y730.441
X212.36 Y730.364
X211.878 Y729.146
X211.846 Y729.071
X211.324 Y727.868
X211.29 Y727.792
X210.728 Y726.606
X210.693 Y726.535
X210.092 Y725.365
X210.059 Y725.303
X209.583 Y724.437
X209.552 Y724.383
X209.388 Y724.101
X209.126 Y723.647
X209.109 Y723.618
X208.3 Y722.263
X208.276 Y722.226
X207.165 Y720.438
X207.136 Y720.391
X205.987 Y718.629
X205.958 Y718.586
X204.773 Y716.85
X204.744 Y716.808
X203.525 Y715.097
X203.493 Y715.053
X202.237 Y713.369
X202.205 Y713.327
X200.915 Y711.672
X200.882 Y711.631
X199.556 Y710.002
X199.522 Y709.962
X198.163 Y708.362
X198.13 Y708.323
X196.737 Y706.75
X196.7 Y706.709
X195.274 Y705.168
X195.238 Y705.13
X193.78 Y703.619
X193.743 Y703.581
X192.251 Y702.099
X192.213 Y702.063
X190.691 Y700.613
X190.652 Y700.576
X189.096 Y699.156
X189.064 Y699.127
X187.879 Y698.083
X187.851 Y698.059
X187.454 Y697.719
X187.285 Y697.574
X187.253 Y697.547
X186.73 Y697.112
X186.692 Y697.082
X185.983 Y696.515
X185.935 Y696.477
X185.214 Y695.929
X185.173 Y695.898
X184.44 Y695.364
X184.392 Y695.33
X183.649 Y694.815
X183.602 Y694.784
X182.846 Y694.285
X182.796 Y694.253
X182.03 Y693.773
X181.985 Y693.745
X181.208 Y693.281
X181.161 Y693.253
X180.374 Y692.806
X180.323 Y692.778
X179.527 Y692.35
X179.475 Y692.323
X178.668 Y691.913
X178.617 Y691.888
X177.8 Y691.496
X177.749 Y691.472
X176.924 Y691.099
X176.876 Y691.078
X176.043 Y690.722
X175.987 Y690.699
X175.144 Y690.363
X175.101 Y690.346
X174.465 Y690.106
X174.438 Y690.096
X174.224 Y690.018
X174.212 Y690.014
X173.906 Y689.904
X172.978 Y689.56
X171.744 Y689.088
X170.517 Y688.6
X169.298 Y688.097
X168.086 Y687.578
X166.883 Y687.045
X165.687 Y686.494
X164.498 Y685.929
X163.317 Y685.348
X162.146 Y684.755
X160.983 Y684.143
X159.824 Y683.516
X158.675 Y682.876
X157.538 Y682.222
X156.408 Y681.55
X155.286 Y680.866
X154.174 Y680.167
X153.071 Y679.452
X151.976 Y678.723
X150.891 Y677.981
X149.816 Y677.224
X148.751 Y676.454
X147.697 Y675.67
X146.651 Y674.87
X145.616 Y674.056
X144.589 Y673.23
X143.576 Y672.391
X142.573 Y671.538
X141.582 Y670.671
X140.598 Y669.789
X139.625 Y668.893
X138.902 Y668.212
X138.667 Y667.988
X138.43 Y667.761
X137.721 Y667.07
X136.784 Y666.137
X135.862 Y665.193
X134.952 Y664.239
X134.056 Y663.274
X133.172 Y662.296
X132.302 Y661.308
X131.445 Y660.309
X130.601 Y659.299
X129.771 Y658.279
X128.955 Y657.249
X128.153 Y656.207
X127.363 Y655.156
X126.589 Y654.096
X125.827 Y653.022
X125.081 Y651.943
X124.348 Y650.851
X123.629 Y649.752
X122.926 Y648.642
X122.236 Y647.523
X121.56 Y646.394
X120.899 Y645.258
X120.254 Y644.113
X119.623 Y642.957
X119.007 Y641.795
X118.404 Y640.623
X117.819 Y639.445
X117.249 Y638.256
X116.693 Y637.06
X116.152 Y635.857
X115.626 Y634.643
X115.244 Y633.733
X115.121 Y633.431
X115.116 Y633.42
X115.033 Y633.218
X114.784 Y632.582
X114.467 Y631.72
X114.172 Y630.855
X113.9 Y629.986
X113.648 Y629.109
X113.418 Y628.228
X113.21 Y627.343
X113.023 Y626.448
X112.857 Y625.552
X112.714 Y624.654
X112.593 Y623.751
X112.492 Y622.845
X112.416 Y621.938
X112.36 Y621.024
X112.326 Y620.106
X112.315 Y619.421
Y619.198
X112.343 Y215.795
X112.345 Y215.622
X112.344 Y215.542
X112.332 Y214.979
X112.328 Y214.871
X112.28 Y214.127
X112.269 Y214.009
X112.186 Y213.27
X112.168 Y213.14
X112.047 Y212.41
X112.026 Y212.296
X111.871 Y211.572
X111.841 Y211.448
X111.65 Y210.735
X111.615 Y210.618
X111.39 Y209.917
X111.349 Y209.799
X111.089 Y209.109
X111.044 Y208.998
X110.751 Y208.321
X110.7 Y208.211
X110.375 Y207.55
X110.317 Y207.439
X109.958 Y206.793
X109.896 Y206.687
X109.506 Y206.06
X109.438 Y205.956
X109.016 Y205.347
X108.944 Y205.249
X108.491 Y204.659
X108.411 Y204.56
X107.927 Y203.992
X107.859 Y203.915
X107.477 Y203.502
X107.423 Y203.446
X107.292 Y203.313
X107.285 Y203.306
X107.153 Y203.173
X107.097 Y203.118
X106.689 Y202.732
X106.614 Y202.664
X106.051 Y202.173
X105.951 Y202.09
X105.366 Y201.631
X105.271 Y201.56
X104.667 Y201.131
X104.565 Y201.062
X103.942 Y200.664
X103.832 Y200.598
X103.19 Y200.233
X103.084 Y200.176
X102.427 Y199.843
X102.321 Y199.792
X101.648 Y199.49
X101.527 Y199.44
X100.841 Y199.174
X100.731 Y199.134
X100.031 Y198.9
X99.909 Y198.863
X99.198 Y198.665
X99.082 Y198.635
X98.36 Y198.471
X98.241 Y198.447
X97.511 Y198.318
X97.385 Y198.299
X96.648 Y198.207
X96.526 Y198.195
X95.782 Y198.139
X95.679 Y198.133
X95.117 Y198.114
X95.104
Z5
G0 Z15

(2D Contour1 2)
G0 X136.814 Y638.997
Z15
Z5
G1 Z3 F333.3
Z-5
X136.885 Y638.998 F1000
X137.059
X147.047 Y639.11
X150.368 Y639.147
G2 X150.679 Y639.131 I0.028 J-2.5
G1 X151.302 Y639.06
X151.436 Y639.041
X152.21 Y638.91
X152.335 Y638.885
X153.1 Y638.715
X153.225 Y638.684
X153.98 Y638.475
X154.112 Y638.435
X154.853 Y638.185
X154.973 Y638.141
X155.702 Y637.853
X155.819 Y637.803
X156.533 Y637.478
X156.654 Y637.419
X157.351 Y637.055
X157.462 Y636.994
X158.142 Y636.594
X158.256 Y636.523
X158.915 Y636.086
X159.024 Y636.009
X159.662 Y635.535
X159.748 Y635.468
X160.213 Y635.09
X160.28 Y635.033
X160.58 Y634.771
X160.649 Y634.709
X161.085 Y634.299
X161.159 Y634.227
X161.715 Y633.659
X161.81 Y633.555
X162.331 Y632.959
X162.41 Y632.865
X162.898 Y632.247
X162.983 Y632.134
X163.435 Y631.491
X163.503 Y631.389
X163.923 Y630.725
X163.992 Y630.609
X164.374 Y629.926
X164.434 Y629.813
X164.781 Y629.11
X164.837 Y628.987
X165.145 Y628.268
X165.192 Y628.152
X165.464 Y627.417
X165.507 Y627.288
X165.739 Y626.538
X165.773 Y626.418
X165.928 Y625.811
G2 X165.987 Y625.5 I-2.422 J-0.619
G1 X166.396 Y622.2
X233.399 Y81.333
G2 X230.918 Y78.526 I-2.481 J-0.307
G1 X19.314 Y78.511
G2 X16.814 Y81.011 I0 J2.5
G1 Y92.052
X16.815 Y92.107
X16.836 Y93.094
X16.839 Y93.163
X16.904 Y94.477
X16.909 Y94.558
X17.017 Y95.867
X17.025 Y95.949
X17.175 Y97.251
X17.186 Y97.332
X17.379 Y98.627
X17.392 Y98.708
X17.627 Y99.995
X17.643 Y100.075
X17.92 Y101.354
X17.939 Y101.434
X18.257 Y102.702
X18.278 Y102.78
X18.637 Y104.038
X18.661 Y104.117
X19.062 Y105.362
X19.089 Y105.44
X19.53 Y106.671
X19.558 Y106.746
X20.04 Y107.964
X20.071 Y108.04
X20.593 Y109.243
X20.628 Y109.318
X21.19 Y110.504
X21.225 Y110.577
X21.827 Y111.747
X21.859 Y111.808
X22.335 Y112.674
X22.363 Y112.723
X22.528 Y113.008
X22.792 Y113.463
X22.809 Y113.492
X23.619 Y114.848
X23.642 Y114.886
X24.753 Y116.674
X24.782 Y116.719
X25.93 Y118.481
X25.959 Y118.525
X27.144 Y120.261
X27.173 Y120.304
X28.394 Y122.015
X28.425 Y122.058
X29.681 Y123.741
X29.712 Y123.782
X31.003 Y125.439
X31.037 Y125.481
X32.362 Y127.109
X32.395 Y127.149
X33.754 Y128.749
X33.789 Y128.789
X35.181 Y130.361
X35.217 Y130.4
X36.643 Y131.942
X36.68 Y131.981
X38.139 Y133.493
X38.176 Y133.531
X39.667 Y135.012
X39.704 Y135.048
X41.227 Y136.499
X41.267 Y136.536
X42.821 Y137.954
X42.853 Y137.982
X44.038 Y139.027
X44.067 Y139.052
X44.464 Y139.392
X44.635 Y139.538
X44.667 Y139.565
X45.19 Y140
X45.227 Y140.03
X45.936 Y140.596
X45.981 Y140.632
X46.702 Y141.181
X46.746 Y141.213
X47.478 Y141.746
X47.525 Y141.779
X48.269 Y142.295
X48.317 Y142.328
X49.072 Y142.826
X49.119 Y142.856
X49.885 Y143.337
X49.932 Y143.366
X50.709 Y143.83
X50.759 Y143.859
X51.545 Y144.305
X51.593 Y144.331
X52.39 Y144.76
X52.442 Y144.788
X53.249 Y145.198
X53.301 Y145.224
X54.118 Y145.615
X54.166 Y145.637
X54.991 Y146.011
X55.044 Y146.034
X55.878 Y146.389
X55.928 Y146.41
X56.771 Y146.747
X56.818 Y146.765
X57.455 Y147.005
X57.498 Y147.021
X57.706 Y147.095
X58.009 Y147.205
X58.938 Y147.549
X60.174 Y148.023
X61.401 Y148.511
X62.62 Y149.014
X63.831 Y149.533
X65.034 Y150.066
X66.23 Y150.617
X67.419 Y151.182
X68.601 Y151.763
X69.772 Y152.357
X70.936 Y152.968
X72.094 Y153.594
X73.241 Y154.234
X74.379 Y154.889
X75.51 Y155.561
X76.632 Y156.245
X77.744 Y156.945
X78.848 Y157.659
X79.942 Y158.387
X81.025 Y159.128
X82.101 Y159.887
X83.167 Y160.657
X84.221 Y161.441
X85.266 Y162.24
X86.302 Y163.054
X87.327 Y163.88
X88.341 Y164.72
X89.345 Y165.574
X90.338 Y166.441
X91.32 Y167.321
X92.292 Y168.217
X93.016 Y168.899
X93.251 Y169.123
X93.486 Y169.348
X94.198 Y170.042
X95.134 Y170.974
X96.056 Y171.917
X96.966 Y172.872
X97.862 Y173.837
X98.746 Y174.816
X99.616 Y175.803
X100.473 Y176.802
X101.316 Y177.811
X102.146 Y178.832
X102.962 Y179.863
X103.765 Y180.903
X104.553 Y181.954
X105.329 Y183.016
X106.09 Y184.088
X106.837 Y185.168
X107.569 Y186.258
X108.288 Y187.359
X108.993 Y188.47
X109.683 Y189.587
X110.358 Y190.716
X111.018 Y191.852
X111.664 Y192.998
X112.295 Y194.154
X112.911 Y195.316
X113.513 Y196.487
X114.099 Y197.667
X114.669 Y198.855
X115.225 Y200.051
X115.765 Y201.253
X116.291 Y202.469
X116.675 Y203.379
X116.797 Y203.679
X116.802 Y203.69
X116.885 Y203.892
X117.133 Y204.529
X117.452 Y205.392
X117.746 Y206.255
X118.018 Y207.125
X118.269 Y208.001
X118.499 Y208.883
X118.708 Y209.77
X118.895 Y210.66
X119.06 Y211.557
X119.203 Y212.458
X119.325 Y213.36
X119.425 Y214.266
X119.502 Y215.174
X119.558 Y216.086
X119.592 Y217.005
X119.603 Y217.69
Y217.913
X119.575 Y621.308
X119.572 Y621.476
X119.573 Y621.574
X119.586 Y622.135
X119.59 Y622.234
X119.637 Y622.98
X119.648 Y623.106
X119.732 Y623.843
X119.749 Y623.964
X119.869 Y624.696
X119.892 Y624.82
X120.048 Y625.542
X120.077 Y625.66
X120.268 Y626.374
X120.302 Y626.491
X120.527 Y627.193
X120.567 Y627.309
X120.826 Y627.999
X120.873 Y628.114
X121.166 Y628.79
X121.218 Y628.902
X121.544 Y629.563
X121.601 Y629.671
X121.96 Y630.317
X122.021 Y630.422
X122.411 Y631.05
X122.481 Y631.156
X122.903 Y631.764
X122.973 Y631.86
X123.426 Y632.451
X123.507 Y632.551
X123.991 Y633.119
X124.059 Y633.195
X124.44 Y633.607
X124.494 Y633.664
X124.626 Y633.798
X124.633 Y633.805
X124.765 Y633.938
X124.821 Y633.993
X125.229 Y634.379
X125.306 Y634.449
X125.869 Y634.939
X125.963 Y635.017
X126.547 Y635.477
X126.648 Y635.552
X127.253 Y635.981
X127.355 Y636.05
X127.979 Y636.447
X128.082 Y636.51
X128.723 Y636.876
X128.834 Y636.936
X129.492 Y637.269
X129.6 Y637.32
X130.273 Y637.621
X130.387 Y637.669
X131.073 Y637.936
X131.19 Y637.978
X131.89 Y638.211
X132.006 Y638.246
X132.717 Y638.445
X132.837 Y638.476
X133.558 Y638.64
X133.68 Y638.664
X134.41 Y638.792
X134.529 Y638.81
X135.266 Y638.903
X135.395 Y638.916
X136.139 Y638.971
X136.234 Y638.976
X136.796 Y638.996
X136.814 Y638.997
Z-10 F333.3
X136.885 Y638.998 F1000
X137.059
X147.047 Y639.11
X150.368 Y639.147
G2 X150.679 Y639.131 I0.028 J-2.5
G1 X151.302 Y639.06
X151.436 Y639.041
X152.21 Y638.91
X152.335 Y638.885
X153.1 Y638.715
X153.225 Y638.684
X153.98 Y638.475
X154.112 Y638.435
X154.853 Y638.185
X154.973 Y638.141
X155.702 Y637.853
X155.819 Y637.803
X156.533 Y637.478
X156.654 Y637.419
X157.351 Y637.055
X157.462 Y636.994
X158.142 Y636.594
X158.256 Y636.523
X158.915 Y636.086
X159.024 Y636.009
X159.662 Y635.535
X159.748 Y635.468
X160.213 Y635.09
X160.28 Y635.033
X160.58 Y634.771
X160.649 Y634.709
X161.085 Y634.299
X161.159 Y634.227
X161.715 Y633.659
X161.81 Y633.555
X162.331 Y632.959
X162.41 Y632.865
X162.898 Y632.247
X162.983 Y632.134
X163.435 Y631.491
X163.503 Y631.389
X163.923 Y630.725
X163.992 Y630.609
X164.374 Y629.926
X164.434 Y629.813
X164.781 Y629.11
X164.837 Y628.987
X165.145 Y628.268
X165.192 Y628.152
X165.464 Y627.417
X165.507 Y627.288
X165.739 Y626.538
X165.773 Y626.418
X165.928 Y625.811
G2 X165.987 Y625.5 I-2.422 J-0.619
G1 X166.396 Y622.2
X233.399 Y81.333
G2 X230.918 Y78.526 I-2.481 J-0.307
G1 X19.314 Y78.511
G2 X16.814 Y81.011 I0 J2.5
G1 Y92.052
X16.815 Y92.107
X16.836 Y93.094
X16.839 Y93.163
X16.904 Y94.477
X16.909 Y94.558
X17.017 Y95.867
X17.025 Y95.949
X17.175 Y97.251
X17.186 Y97.332
X17.379 Y98.627
X17.392 Y98.708
X17.627 Y99.995
X17.643 Y100.075
X17.92 Y101.354
X17.939 Y101.434
X18.257 Y102.702
X18.278 Y102.78
X18.637 Y104.038
X18.661 Y104.117
X19.062 Y105.362
X19.089 Y105.44
X19.53 Y106.671
X19.558 Y106.746
X20.04 Y107.964
X20.071 Y108.04
X20.593 Y109.243
X20.628 Y109.318
X21.19 Y110.504
X21.225 Y110.577
X21.827 Y111.747
X21.859 Y111.808
X22.335 Y112.674
X22.363 Y112.723
X22.528 Y113.008
X22.792 Y113.463
X22.809 Y113.492
X23.619 Y114.848
X23.642 Y114.886
X24.753 Y116.674
X24.782 Y116.719
X25.93 Y118.481
X25.959 Y118.525
X27.144 Y120.261
X27.173 Y120.304
X28.394 Y122.015
X28.425 Y122.058
X29.681 Y123.741
X29.712 Y123.782
X31.003 Y125.439
X31.037 Y125.481
X32.362 Y127.109
X32.395 Y127.149
X33.754 Y128.749
X33.789 Y128.789
X35.181 Y130.361
X35.217 Y130.4
X36.643 Y131.942
X36.68 Y131.981
X38.139 Y133.493
X38.176 Y133.531
X39.667 Y135.012
X39.704 Y135.048
X41.227 Y136.499
X41.267 Y136.536
X42.821 Y137.954
X42.853 Y137.982
X44.038 Y139.027
X44.067 Y139.052
X44.464 Y139.392
X44.635 Y139.538
X44.667 Y139.565
X45.19 Y140
X45.227 Y140.03
X45.936 Y140.596
X45.981 Y140.632
X46.702 Y141.181
X46.746 Y141.213
X47.478 Y141.746
X47.525 Y141.779
X48.269 Y142.295
X48.317 Y142.328
X49.072 Y142.826
X49.119 Y142.856
X49.885 Y143.337
X49.932 Y143.366
X50.709 Y143.83
X50.759 Y143.859
X51.545 Y144.305
X51.593 Y144.331
X52.39 Y144.76
X52.442 Y144.788
X53.249 Y145.198
X53.301 Y145.224
X54.118 Y145.615
X54.166 Y145.637
X54.991 Y146.011
X55.044 Y146.034
X55.878 Y146.389
X55.928 Y146.41
X56.771 Y146.747
X56.818 Y146.765
X57.455 Y147.005
X57.498 Y147.021
X57.706 Y147.095
X58.009 Y147.205
X58.938 Y147.549
X60.174 Y148.023
X61.401 Y148.511
X62.62 Y149.014
X63.831 Y149.533
X65.034 Y150.066
X66.23 Y150.617
X67.419 Y151.182
X68.601 Y151.763
X69.772 Y152.357
X70.936 Y152.968
X72.094 Y153.594
X73.241 Y154.234
X74.379 Y154.889
X75.51 Y155.561
X76.632 Y156.245
X77.744 Y156.945
X78.848 Y157.659
X79.942 Y158.387
X81.025 Y159.128
X82.101 Y159.887
X83.167 Y160.657
X84.221 Y161.441
X85.266 Y162.24
X86.302 Y163.054
X87.327 Y163.88
X88.341 Y164.72
X89.345 Y165.574
X90.338 Y166.441
X91.32 Y167.321
X92.292 Y168.217
X93.016 Y168.899
X93.251 Y169.123
X93.486 Y169.348
X94.198 Y170.042
X95.134 Y170.974
X96.056 Y171.917
X96.966 Y172.872
X97.862 Y173.837
X98.746 Y174.816
X99.616 Y175.803
X100.473 Y176.802
X101.316 Y177.811
X102.146 Y178.832
X102.962 Y179.863
X103.765 Y180.903
X104.553 Y181.954
X105.329 Y183.016
X106.09 Y184.088
X106.837 Y185.168
X107.569 Y186.258
X108.288 Y187.359
X108.993 Y188.47
X109.683 Y189.587
X110.358 Y190.716
X111.018 Y191.852
X111.664 Y192.998
X112.295 Y194.154
X112.911 Y195.316
X113.513 Y196.487
X114.099 Y197.667
X114.669 Y198.855
X115.225 Y200.051
X115.765 Y201.253
X116.291 Y202.469
X116.675 Y203.379
X116.797 Y203.679
X116.802 Y203.69
X116.885 Y203.892
X117.133 Y204.529
X117.452 Y205.392
X117.746 Y206.255
X118.018 Y207.125
X118.269 Y208.001
X118.499 Y208.883
X118.708 Y209.77
X118.895 Y210.66
X119.06 Y211.557
X119.203 Y212.458
X119.325 Y213.36
X119.425 Y214.266
X119.502 Y215.174
X119.558 Y216.086
X119.592 Y217.005
X119.603 Y217.69
Y217.913
X119.575 Y621.308
X119.572 Y621.476
X119.573 Y621.574
X119.586 Y622.135
X119.59 Y622.234
X119.637 Y622.98
X119.648 Y623.106
X119.732 Y623.843
X119.749 Y623.964
X119.869 Y624.696
X119.892 Y624.82
X120.048 Y625.542
X120.077 Y625.66
X120.268 Y626.374
X120.302 Y626.491
X120.527 Y627.193
X120.567 Y627.309
X120.826 Y627.999
X120.873 Y628.114
X121.166 Y628.79
X121.218 Y628.902
X121.544 Y629.563
X121.601 Y629.671
X121.96 Y630.317
X122.021 Y630.422
X122.411 Y631.05
X122.481 Y631.156
X122.903 Y631.764
X122.973 Y631.86
X123.426 Y632.451
X123.507 Y632.551
X123.991 Y633.119
X124.059 Y633.195
X124.44 Y633.607
X124.494 Y633.664
X124.626 Y633.798
X124.633 Y633.805
X124.765 Y633.938
X124.821 Y633.993
X125.229 Y634.379
X125.306 Y634.449
X125.869 Y634.939
X125.963 Y635.017
X126.547 Y635.477
X126.648 Y635.552
X127.253 Y635.981
X127.355 Y636.05
X127.979 Y636.447
X128.082 Y636.51
X128.723 Y636.876
X128.834 Y636.936
X129.492 Y637.269
X129.6 Y637.32
X130.273 Y637.621
X130.387 Y637.669
X131.073 Y637.936
X131.19 Y637.978
X131.89 Y638.211
X132.006 Y638.246
X132.717 Y638.445
X132.837 Y638.476
X133.558 Y638.64
X133.68 Y638.664
X134.41 Y638.792
X134.529 Y638.81
X135.266 Y638.903
X135.395 Y638.916
X136.139 Y638.971
X136.234 Y638.976
X136.796 Y638.996
X136.814 Y638.997
Z-15 F333.3
X136.885 Y638.998 F1000
X137.059
X147.047 Y639.11
X150.368 Y639.147
G2 X150.679 Y639.131 I0.028 J-2.5
G1 X151.302 Y639.06
X151.436 Y639.041
X152.21 Y638.91
X152.335 Y638.885
X153.1 Y638.715
X153.225 Y638.684
X153.98 Y638.475
X154.112 Y638.435
X154.853 Y638.185
X154.973 Y638.141
X155.702 Y637.853
X155.819 Y637.803
X156.533 Y637.478
X156.654 Y637.419
X157.351 Y637.055
X157.462 Y636.994
X158.142 Y636.594
X158.256 Y636.523
X158.915 Y636.086
X159.024 Y636.009
X159.662 Y635.535
X159.748 Y635.468
X160.213 Y635.09
X160.28 Y635.033
X160.58 Y634.771
X160.649 Y634.709
X161.085 Y634.299
X161.159 Y634.227
X161.715 Y633.659
X161.81 Y633.555
X162.331 Y632.959
X162.41 Y632.865
X162.898 Y632.247
X162.983 Y632.134
X163.435 Y631.491
X163.503 Y631.389
X163.923 Y630.725
X163.992 Y630.609
X164.374 Y629.926
X164.434 Y629.813
X164.781 Y629.11
X164.837 Y628.987
X165.145 Y628.268
X165.192 Y628.152
X165.464 Y627.417
X165.507 Y627.288
X165.739 Y626.538
X165.773 Y626.418
X165.928 Y625.811
G2 X165.987 Y625.5 I-2.422 J-0.619
G1 X166.396 Y622.2
X233.399 Y81.333
G2 X230.918 Y78.526 I-2.481 J-0.307
G1 X19.314 Y78.511
G2 X16.814 Y81.011 I0 J2.5
G1 Y92.052
X16.815 Y92.107
X16.836 Y93.094
X16.839 Y93.163
X16.904 Y94.477
X16.909 Y94.558
X17.017 Y95.867
X17.025 Y95.949
X17.175 Y97.251
X17.186 Y97.332
X17.379 Y98.627
X17.392 Y98.708
X17.627 Y99.995
X17.643 Y100.075
X17.92 Y101.354
X17.939 Y101.434
X18.257 Y102.702
X18.278 Y102.78
X18.637 Y104.038
X18.661 Y104.117
X19.062 Y105.362
X19.089 Y105.44
X19.53 Y106.671
X19.558 Y106.746
X20.04 Y107.964
X20.071 Y108.04
X20.593 Y109.243
X20.628 Y109.318
X21.19 Y110.504
X21.225 Y110.577
X21.827 Y111.747
X21.859 Y111.808
X22.335 Y112.674
X22.363 Y112.723
X22.528 Y113.008
X22.792 Y113.463
X22.809 Y113.492
X23.619 Y114.848
X23.642 Y114.886
X24.753 Y116.674
X24.782 Y116.719
X25.93 Y118.481
X25.959 Y118.525
X27.144 Y120.261
X27.173 Y120.304
X28.394 Y122.015
X28.425 Y122.058
X29.681 Y123.741
X29.712 Y123.782
X31.003 Y125.439
X31.037 Y125.481
X32.362 Y127.109
X32.395 Y127.149
X33.754 Y128.749
X33.789 Y128.789
X35.181 Y130.361
X35.217 Y130.4
X36.643 Y131.942
X36.68 Y131.981
X38.139 Y133.493
X38.176 Y133.531
X39.667 Y135.012
X39.704 Y135.048
X41.227 Y136.499
X41.267 Y136.536
X42.821 Y137.954
X42.853 Y137.982
X44.038 Y139.027
X44.067 Y139.052
X44.464 Y139.392
X44.635 Y139.538
X44.667 Y139.565
X45.19 Y140
X45.227 Y140.03
X45.936 Y140.596
X45.981 Y140.632
X46.702 Y141.181
X46.746 Y141.213
X47.478 Y141.746
X47.525 Y141.779
X48.269 Y142.295
X48.317 Y142.328
X49.072 Y142.826
X49.119 Y142.856
X49.885 Y143.337
X49.932 Y143.366
X50.709 Y143.83
X50.759 Y143.859
X51.545 Y144.305
X51.593 Y144.331
X52.39 Y144.76
X52.442 Y144.788
X53.249 Y145.198
X53.301 Y145.224
X54.118 Y145.615
X54.166 Y145.637
X54.991 Y146.011
X55.044 Y146.034
X55.878 Y146.389
X55.928 Y146.41
X56.771 Y146.747
X56.818 Y146.765
X57.455 Y147.005
X57.498 Y147.021
X57.706 Y147.095
X58.009 Y147.205
X58.938 Y147.549
X60.174 Y148.023
X61.401 Y148.511
X62.62 Y149.014
X63.831 Y149.533
X65.034 Y150.066
X66.23 Y150.617
X67.419 Y151.182
X68.601 Y151.763
X69.772 Y152.357
X70.936 Y152.968
X72.094 Y153.594
X73.241 Y154.234
X74.379 Y154.889
X75.51 Y155.561
X76.632 Y156.245
X77.744 Y156.945
X78.848 Y157.659
X79.942 Y158.387
X81.025 Y159.128
X82.101 Y159.887
X83.167 Y160.657
X84.221 Y161.441
X85.266 Y162.24
X86.302 Y163.054
X87.327 Y163.88
X88.341 Y164.72
X89.345 Y165.574
X90.338 Y166.441
X91.32 Y167.321
X92.292 Y168.217
X93.016 Y168.899
X93.251 Y169.123
X93.486 Y169.348
X94.198 Y170.042
X95.134 Y170.974
X96.056 Y171.917
X96.966 Y172.872
X97.862 Y173.837
X98.746 Y174.816
X99.616 Y175.803
X100.473 Y176.802
X101.316 Y177.811
X102.146 Y178.832
X102.962 Y179.863
X103.765 Y180.903
X104.553 Y181.954
X105.329 Y183.016
X106.09 Y184.088
X106.837 Y185.168
X107.569 Y186.258
X108.288 Y187.359
X108.993 Y188.47
X109.683 Y189.587
X110.358 Y190.716
X111.018 Y191.852
X111.664 Y192.998
X112.295 Y194.154
X112.911 Y195.316
X113.513 Y196.487
X114.099 Y197.667
X114.669 Y198.855
X115.225 Y200.051
X115.765 Y201.253
X116.291 Y202.469
X116.675 Y203.379
X116.797 Y203.679
X116.802 Y203.69
X116.885 Y203.892
X117.133 Y204.529
X117.452 Y205.392
X117.746 Y206.255
X118.018 Y207.125
X118.269 Y208.001
X118.499 Y208.883
X118.708 Y209.77
X118.895 Y210.66
X119.06 Y211.557
X119.203 Y212.458
X119.325 Y213.36
X119.425 Y214.266
X119.502 Y215.174
X119.558 Y216.086
X119.592 Y217.005
X119.603 Y217.69
Y217.913
X119.575 Y621.308
X119.572 Y621.476
X119.573 Y621.574
X119.586 Y622.135
X119.59 Y622.234
X119.637 Y622.98
X119.648 Y623.106
X119.732 Y623.843
X119.749 Y623.964
X119.869 Y624.696
X119.892 Y624.82
X120.048 Y625.542
X120.077 Y625.66
X120.268 Y626.374
X120.302 Y626.491
X120.527 Y627.193
X120.567 Y627.309
X120.826 Y627.999
X120.873 Y628.114
X121.166 Y628.79
X121.218 Y628.902
X121.544 Y629.563
X121.601 Y629.671
X121.96 Y630.317
X122.021 Y630.422
X122.411 Y631.05
X122.481 Y631.156
X122.903 Y631.764
X122.973 Y631.86
X123.426 Y632.451
X123.507 Y632.551
X123.991 Y633.119
X124.059 Y633.195
X124.44 Y633.607
X124.494 Y633.664
X124.626 Y633.798
X124.633 Y633.805
X124.765 Y633.938
X124.821 Y633.993
X125.229 Y634.379
X125.306 Y634.449
X125.869 Y634.939
X125.963 Y635.017
X126.547 Y635.477
X126.648 Y635.552
X127.253 Y635.981
X127.355 Y636.05
X127.979 Y636.447
X128.082 Y636.51
X128.723 Y636.876
X128.834 Y636.936
X129.492 Y637.269
X129.6 Y637.32
X130.273 Y637.621
X130.387 Y637.669
X131.073 Y637.936
X131.19 Y637.978
X131.89 Y638.211
X132.006 Y638.246
X132.717 Y638.445
X132.837 Y638.476
X133.558 Y638.64
X133.68 Y638.664
X134.41 Y638.792
X134.529 Y638.81
X135.266 Y638.903
X135.395 Y638.916
X136.139 Y638.971
X136.234 Y638.976
X136.796 Y638.996
X136.814 Y638.997
Z-20 F333.3
X136.885 Y638.998 F1000
X137.059
X147.047 Y639.11
X150.368 Y639.147
G2 X150.679 Y639.131 I0.028 J-2.5
G1 X151.302 Y639.06
X151.436 Y639.041
X152.21 Y638.91
X152.335 Y638.885
X153.1 Y638.715
X153.225 Y638.684
X153.98 Y638.475
X154.112 Y638.435
X154.853 Y638.185
X154.973 Y638.141
X155.702 Y637.853
X155.819 Y637.803
X156.533 Y637.478
X156.654 Y637.419
X157.351 Y637.055
X157.462 Y636.994
X158.142 Y636.594
X158.256 Y636.523
X158.915 Y636.086
X159.024 Y636.009
X159.662 Y635.535
X159.748 Y635.468
X160.213 Y635.09
X160.28 Y635.033
X160.58 Y634.771
X160.649 Y634.709
X161.085 Y634.299
X161.159 Y634.227
X161.715 Y633.659
X161.81 Y633.555
X162.331 Y632.959
X162.41 Y632.865
X162.898 Y632.247
X162.983 Y632.134
X163.435 Y631.491
X163.503 Y631.389
X163.923 Y630.725
X163.992 Y630.609
X164.374 Y629.926
X164.434 Y629.813
X164.781 Y629.11
X164.837 Y628.987
X165.145 Y628.268
X165.192 Y628.152
X165.464 Y627.417
X165.507 Y627.288
X165.739 Y626.538
X165.773 Y626.418
X165.928 Y625.811
G2 X165.987 Y625.5 I-2.422 J-0.619
G1 X166.396 Y622.2
X233.399 Y81.333
G2 X230.918 Y78.526 I-2.481 J-0.307
G1 X19.314 Y78.511
G2 X16.814 Y81.011 I0 J2.5
G1 Y92.052
X16.815 Y92.107
X16.836 Y93.094
X16.839 Y93.163
X16.904 Y94.477
X16.909 Y94.558
X17.017 Y95.867
X17.025 Y95.949
X17.175 Y97.251
X17.186 Y97.332
X17.379 Y98.627
X17.392 Y98.708
X17.627 Y99.995
X17.643 Y100.075
X17.92 Y101.354
X17.939 Y101.434
X18.257 Y102.702
X18.278 Y102.78
X18.637 Y104.038
X18.661 Y104.117
X19.062 Y105.362
X19.089 Y105.44
X19.53 Y106.671
X19.558 Y106.746
X20.04 Y107.964
X20.071 Y108.04
X20.593 Y109.243
X20.628 Y109.318
X21.19 Y110.504
X21.225 Y110.577
X21.827 Y111.747
X21.859 Y111.808
X22.335 Y112.674
X22.363 Y112.723
X22.528 Y113.008
X22.792 Y113.463
X22.809 Y113.492
X23.619 Y114.848
X23.642 Y114.886
X24.753 Y116.674
X24.782 Y116.719
X25.93 Y118.481
X25.959 Y118.525
X27.144 Y120.261
X27.173 Y120.304
X28.394 Y122.015
X28.425 Y122.058
X29.681 Y123.741
X29.712 Y123.782
X31.003 Y125.439
X31.037 Y125.481
X32.362 Y127.109
X32.395 Y127.149
X33.754 Y128.749
X33.789 Y128.789
X35.181 Y130.361
X35.217 Y130.4
X36.643 Y131.942
X36.68 Y131.981
X38.139 Y133.493
X38.176 Y133.531
X39.667 Y135.012
X39.704 Y135.048
X41.227 Y136.499
X41.267 Y136.536
X42.821 Y137.954
X42.853 Y137.982
X44.038 Y139.027
X44.067 Y139.052
X44.464 Y139.392
X44.635 Y139.538
X44.667 Y139.565
X45.19 Y140
X45.227 Y140.03
X45.936 Y140.596
X45.981 Y140.632
X46.702 Y141.181
X46.746 Y141.213
X47.478 Y141.746
X47.525 Y141.779
X48.269 Y142.295
X48.317 Y142.328
X49.072 Y142.826
X49.119 Y142.856
X49.885 Y143.337
X49.932 Y143.366
X50.709 Y143.83
X50.759 Y143.859
X51.545 Y144.305
X51.593 Y144.331
X52.39 Y144.76
X52.442 Y144.788
X53.249 Y145.198
X53.301 Y145.224
X54.118 Y145.615
X54.166 Y145.637
X54.991 Y146.011
X55.044 Y146.034
X55.878 Y146.389
X55.928 Y146.41
X56.771 Y146.747
X56.818 Y146.765
X57.455 Y147.005
X57.498 Y147.021
X57.706 Y147.095
X58.009 Y147.205
X58.938 Y147.549
X60.174 Y148.023
X61.401 Y148.511
X62.62 Y149.014
X63.831 Y149.533
X65.034 Y150.066
X66.23 Y150.617
X67.419 Y151.182
X68.601 Y151.763
X69.772 Y152.357
X70.936 Y152.968
X72.094 Y153.594
X73.241 Y154.234
X74.379 Y154.889
X75.51 Y155.561
X76.632 Y156.245
X77.744 Y156.945
X78.848 Y157.659
X79.942 Y158.387
X81.025 Y159.128
X82.101 Y159.887
X83.167 Y160.657
X84.221 Y161.441
X85.266 Y162.24
X86.302 Y163.054
X87.327 Y163.88
X88.341 Y164.72
X89.345 Y165.574
X90.338 Y166.441
X91.32 Y167.321
X92.292 Y168.217
X93.016 Y168.899
X93.251 Y169.123
X93.486 Y169.348
X94.198 Y170.042
X95.134 Y170.974
X96.056 Y171.917
X96.966 Y172.872
X97.862 Y173.837
X98.746 Y174.816
X99.616 Y175.803
X100.473 Y176.802
X101.316 Y177.811
X102.146 Y178.832
X102.962 Y179.863
X103.765 Y180.903
X104.553 Y181.954
X105.329 Y183.016
X106.09 Y184.088
X106.837 Y185.168
X107.569 Y186.258
X108.288 Y187.359
X108.993 Y188.47
X109.683 Y189.587
X110.358 Y190.716
X111.018 Y191.852
X111.664 Y192.998
X112.295 Y194.154
X112.911 Y195.316
X113.513 Y196.487
X114.099 Y197.667
X114.669 Y198.855
X115.225 Y200.051
X115.765 Y201.253
X116.291 Y202.469
X116.675 Y203.379
X116.797 Y203.679
X116.802 Y203.69
X116.885 Y203.892
X117.133 Y204.529
X117.452 Y205.392
X117.746 Y206.255
X118.018 Y207.125
X118.269 Y208.001
X118.499 Y208.883
X118.708 Y209.77
X118.895 Y210.66
X119.06 Y211.557
X119.203 Y212.458
X119.325 Y213.36
X119.425 Y214.266
X119.502 Y215.174
X119.558 Y216.086
X119.592 Y217.005
X119.603 Y217.69
Y217.913
X119.575 Y621.308
X119.572 Y621.476
X119.573 Y621.574
X119.586 Y622.135
X119.59 Y622.234
X119.637 Y622.98
X119.648 Y623.106
X119.732 Y623.843
X119.749 Y623.964
X119.869 Y624.696
X119.892 Y624.82
X120.048 Y625.542
X120.077 Y625.66
X120.268 Y626.374
X120.302 Y626.491
X120.527 Y627.193
X120.567 Y627.309
X120.826 Y627.999
X120.873 Y628.114
X121.166 Y628.79
X121.218 Y628.902
X121.544 Y629.563
X121.601 Y629.671
X121.96 Y630.317
X122.021 Y630.422
X122.411 Y631.05
X122.481 Y631.156
X122.903 Y631.764
X122.973 Y631.86
X123.426 Y632.451
X123.507 Y632.551
X123.991 Y633.119
X124.059 Y633.195
X124.44 Y633.607
X124.494 Y633.664
X124.626 Y633.798
X124.633 Y633.805
X124.765 Y633.938
X124.821 Y633.993
X125.229 Y634.379
X125.306 Y634.449
X125.869 Y634.939
X125.963 Y635.017
X126.547 Y635.477
X126.648 Y635.552
X127.253 Y635.981
X127.355 Y636.05
X127.979 Y636.447
X128.082 Y636.51
X128.723 Y636.876
X128.834 Y636.936
X129.492 Y637.269
X129.6 Y637.32
X130.273 Y637.621
X130.387 Y637.669
X131.073 Y637.936
X131.19 Y637.978
X131.89 Y638.211
X132.006 Y638.246
X132.717 Y638.445
X132.837 Y638.476
X133.558 Y638.64
X133.68 Y638.664
X134.41 Y638.792
X134.529 Y638.81
X135.266 Y638.903
X135.395 Y638.916
X136.139 Y638.971
X136.234 Y638.976
X136.796 Y638.996
X136.814 Y638.997
Z-25 F333.3
X136.885 Y638.998 F1000
X137.059
X147.047 Y639.11
X150.368 Y639.147
G2 X150.679 Y639.131 I0.028 J-2.5
G1 X151.302 Y639.06
X151.436 Y639.041
X152.21 Y638.91
X152.335 Y638.885
X153.1 Y638.715
X153.225 Y638.684
X153.98 Y638.475
X154.112 Y638.435
X154.853 Y638.185
X154.973 Y638.141
X155.702 Y637.853
X155.819 Y637.803
X156.533 Y637.478
X156.654 Y637.419
X157.351 Y637.055
X157.462 Y636.994
X158.142 Y636.594
X158.256 Y636.523
X158.915 Y636.086
X159.024 Y636.009
X159.662 Y635.535
X159.748 Y635.468
X160.213 Y635.09
X160.28 Y635.033
X160.58 Y634.771
X160.649 Y634.709
X161.085 Y634.299
X161.159 Y634.227
X161.715 Y633.659
X161.81 Y633.555
X162.331 Y632.959
X162.41 Y632.865
X162.898 Y632.247
X162.983 Y632.134
X163.435 Y631.491
X163.503 Y631.389
X163.923 Y630.725
X163.992 Y630.609
X164.374 Y629.926
X164.434 Y629.813
X164.781 Y629.11
X164.837 Y628.987
X165.145 Y628.268
X165.192 Y628.152
X165.464 Y627.417
X165.507 Y627.288
X165.739 Y626.538
X165.773 Y626.418
X165.928 Y625.811
G2 X165.987 Y625.5 I-2.422 J-0.619
G1 X166.396 Y622.2
X233.399 Y81.333
G2 X230.918 Y78.526 I-2.481 J-0.307
G1 X19.314 Y78.511
G2 X16.814 Y81.011 I0 J2.5
G1 Y92.052
X16.815 Y92.107
X16.836 Y93.094
X16.839 Y93.163
X16.904 Y94.477
X16.909 Y94.558
X17.017 Y95.867
X17.025 Y95.949
X17.175 Y97.251
X17.186 Y97.332
X17.379 Y98.627
X17.392 Y98.708
X17.627 Y99.995
X17.643 Y100.075
X17.92 Y101.354
X17.939 Y101.434
X18.257 Y102.702
X18.278 Y102.78
X18.637 Y104.038
X18.661 Y104.117
X19.062 Y105.362
X19.089 Y105.44
X19.53 Y106.671
X19.558 Y106.746
X20.04 Y107.964
X20.071 Y108.04
X20.593 Y109.243
X20.628 Y109.318
X21.19 Y110.504
X21.225 Y110.577
X21.827 Y111.747
X21.859 Y111.808
X22.335 Y112.674
X22.363 Y112.723
X22.528 Y113.008
X22.792 Y113.463
X22.809 Y113.492
X23.619 Y114.848
X23.642 Y114.886
X24.753 Y116.674
X24.782 Y116.719
X25.93 Y118.481
X25.959 Y118.525
X27.144 Y120.261
X27.173 Y120.304
X28.394 Y122.015
X28.425 Y122.058
X29.681 Y123.741
X29.712 Y123.782
X31.003 Y125.439
X31.037 Y125.481
X32.362 Y127.109
X32.395 Y127.149
X33.754 Y128.749
X33.789 Y128.789
X35.181 Y130.361
X35.217 Y130.4
X36.643 Y131.942
X36.68 Y131.981
X38.139 Y133.493
X38.176 Y133.531
X39.667 Y135.012
X39.704 Y135.048
X41.227 Y136.499
X41.267 Y136.536
X42.821 Y137.954
X42.853 Y137.982
X44.038 Y139.027
X44.067 Y139.052
X44.464 Y139.392
X44.635 Y139.538
X44.667 Y139.565
X45.19 Y140
X45.227 Y140.03
X45.936 Y140.596
X45.981 Y140.632
X46.702 Y141.181
X46.746 Y141.213
X47.478 Y141.746
X47.525 Y141.779
X48.269 Y142.295
X48.317 Y142.328
X49.072 Y142.826
X49.119 Y142.856
X49.885 Y143.337
X49.932 Y143.366
X50.709 Y143.83
X50.759 Y143.859
X51.545 Y144.305
X51.593 Y144.331
X52.39 Y144.76
X52.442 Y144.788
X53.249 Y145.198
X53.301 Y145.224
X54.118 Y145.615
X54.166 Y145.637
X54.991 Y146.011
X55.044 Y146.034
X55.878 Y146.389
X55.928 Y146.41
X56.771 Y146.747
X56.818 Y146.765
X57.455 Y147.005
X57.498 Y147.021
X57.706 Y147.095
X58.009 Y147.205
X58.938 Y147.549
X60.174 Y148.023
X61.401 Y148.511
X62.62 Y149.014
X63.831 Y149.533
X65.034 Y150.066
X66.23 Y150.617
X67.419 Y151.182
X68.601 Y151.763
X69.772 Y152.357
X70.936 Y152.968
X72.094 Y153.594
X73.241 Y154.234
X74.379 Y154.889
X75.51 Y155.561
X76.632 Y156.245
X77.744 Y156.945
X78.848 Y157.659
X79.942 Y158.387
X81.025 Y159.128
X82.101 Y159.887
X83.167 Y160.657
X84.221 Y161.441
X85.266 Y162.24
X86.302 Y163.054
X87.327 Y163.88
X88.341 Y164.72
X89.345 Y165.574
X90.338 Y166.441
X91.32 Y167.321
X92.292 Y168.217
X93.016 Y168.899
X93.251 Y169.123
X93.486 Y169.348
X94.198 Y170.042
X95.134 Y170.974
X96.056 Y171.917
X96.966 Y172.872
X97.862 Y173.837
X98.746 Y174.816
X99.616 Y175.803
X100.473 Y176.802
X101.316 Y177.811
X102.146 Y178.832
X102.962 Y179.863
X103.765 Y180.903
X104.553 Y181.954
X105.329 Y183.016
X106.09 Y184.088
X106.837 Y185.168
X107.569 Y186.258
X108.288 Y187.359
X108.993 Y188.47
X109.683 Y189.587
X110.358 Y190.716
X111.018 Y191.852
X111.664 Y192.998
X112.295 Y194.154
X112.911 Y195.316
X113.513 Y196.487
X114.099 Y197.667
X114.669 Y198.855
X115.225 Y200.051
X115.765 Y201.253
X116.291 Y202.469
X116.675 Y203.379
X116.797 Y203.679
X116.802 Y203.69
X116.885 Y203.892
X117.133 Y204.529
X117.452 Y205.392
X117.746 Y206.255
X118.018 Y207.125
X118.269 Y208.001
X118.499 Y208.883
X118.708 Y209.77
X118.895 Y210.66
X119.06 Y211.557
X119.203 Y212.458
X119.325 Y213.36
X119.425 Y214.266
X119.502 Y215.174
X119.558 Y216.086
X119.592 Y217.005
X119.603 Y217.69
Y217.913
X119.575 Y621.308
X119.572 Y621.476
X119.573 Y621.574
X119.586 Y622.135
X119.59 Y622.234
X119.637 Y622.98
X119.648 Y623.106
X119.732 Y623.843
X119.749 Y623.964
X119.869 Y624.696
X119.892 Y624.82
X120.048 Y625.542
X120.077 Y625.66
X120.268 Y626.374
X120.302 Y626.491
X120.527 Y627.193
X120.567 Y627.309
X120.826 Y627.999
X120.873 Y628.114
X121.166 Y628.79
X121.218 Y628.902
X121.544 Y629.563
X121.601 Y629.671
X121.96 Y630.317
X122.021 Y630.422
X122.411 Y631.05
X122.481 Y631.156
X122.903 Y631.764
X122.973 Y631.86
X123.426 Y632.451
X123.507 Y632.551
X123.991 Y633.119
X124.059 Y633.195
X124.44 Y633.607
X124.494 Y633.664
X124.626 Y633.798
X124.633 Y633.805
X124.765 Y633.938
X124.821 Y633.993
X125.229 Y634.379
X125.306 Y634.449
X125.869 Y634.939
X125.963 Y635.017
X126.547 Y635.477
X126.648 Y635.552
X127.253 Y635.981
X127.355 Y636.05
X127.979 Y636.447
X128.082 Y636.51
X128.723 Y636.876
X128.834 Y636.936
X129.492 Y637.269
X129.6 Y637.32
X130.273 Y637.621
X130.387 Y637.669
X131.073 Y637.936
X131.19 Y637.978
X131.89 Y638.211
X132.006 Y638.246
X132.717 Y638.445
X132.837 Y638.476
X133.558 Y638.64
X133.68 Y638.664
X134.41 Y638.792
X134.529 Y638.81
X135.266 Y638.903
X135.395 Y638.916
X136.139 Y638.971
X136.234 Y638.976
X136.796 Y638.996
X136.814 Y638.997
Z-28 F333.3
X136.885 Y638.998 F1000
X137.059
X147.047 Y639.11
X150.368 Y639.147
G2 X150.679 Y639.131 I0.028 J-2.5
G1 X151.302 Y639.06
X151.436 Y639.041
X152.21 Y638.91
X152.335 Y638.885
X153.1 Y638.715
X153.225 Y638.684
X153.98 Y638.475
X154.112 Y638.435
X154.853 Y638.185
X154.973 Y638.141
X155.702 Y637.853
X155.819 Y637.803
X156.533 Y637.478
X156.654 Y637.419
X157.351 Y637.055
X157.462 Y636.994
X158.142 Y636.594
X158.256 Y636.523
X158.915 Y636.086
X159.024 Y636.009
X159.662 Y635.535
X159.748 Y635.468
X160.213 Y635.09
X160.28 Y635.033
X160.58 Y634.771
X160.649 Y634.709
X161.085 Y634.299
X161.159 Y634.227
X161.715 Y633.659
X161.81 Y633.555
X162.331 Y632.959
X162.41 Y632.865
X162.898 Y632.247
X162.983 Y632.134
X163.435 Y631.491
X163.503 Y631.389
X163.923 Y630.725
X163.992 Y630.609
X164.374 Y629.926
X164.434 Y629.813
X164.781 Y629.11
X164.837 Y628.987
X165.145 Y628.268
X165.192 Y628.152
X165.464 Y627.417
X165.507 Y627.288
X165.739 Y626.538
X165.773 Y626.418
X165.928 Y625.811
G2 X165.987 Y625.5 I-2.422 J-0.619
G1 X166.396 Y622.2
X233.399 Y81.333
G2 X230.918 Y78.526 I-2.481 J-0.307
G1 X19.314 Y78.511
G2 X16.814 Y81.011 I0 J2.5
G1 Y92.052
X16.815 Y92.107
X16.836 Y93.094
X16.839 Y93.163
X16.904 Y94.477
X16.909 Y94.558
X17.017 Y95.867
X17.025 Y95.949
X17.175 Y97.251
X17.186 Y97.332
X17.379 Y98.627
X17.392 Y98.708
X17.627 Y99.995
X17.643 Y100.075
X17.92 Y101.354
X17.939 Y101.434
X18.257 Y102.702
X18.278 Y102.78
X18.637 Y104.038
X18.661 Y104.117
X19.062 Y105.362
X19.089 Y105.44
X19.53 Y106.671
X19.558 Y106.746
X20.04 Y107.964
X20.071 Y108.04
X20.593 Y109.243
X20.628 Y109.318
X21.19 Y110.504
X21.225 Y110.577
X21.827 Y111.747
X21.859 Y111.808
X22.335 Y112.674
X22.363 Y112.723
X22.528 Y113.008
X22.792 Y113.463
X22.809 Y113.492
X23.619 Y114.848
X23.642 Y114.886
X24.753 Y116.674
X24.782 Y116.719
X25.93 Y118.481
X25.959 Y118.525
X27.144 Y120.261
X27.173 Y120.304
X28.394 Y122.015
X28.425 Y122.058
X29.681 Y123.741
X29.712 Y123.782
X31.003 Y125.439
X31.037 Y125.481
X32.362 Y127.109
X32.395 Y127.149
X33.754 Y128.749
X33.789 Y128.789
X35.181 Y130.361
X35.217 Y130.4
X36.643 Y131.942
X36.68 Y131.981
X38.139 Y133.493
X38.176 Y133.531
X39.667 Y135.012
X39.704 Y135.048
X41.227 Y136.499
X41.267 Y136.536
X42.821 Y137.954
X42.853 Y137.982
X44.038 Y139.027
X44.067 Y139.052
X44.464 Y139.392
X44.635 Y139.538
X44.667 Y139.565
X45.19 Y140
X45.227 Y140.03
X45.936 Y140.596
X45.981 Y140.632
X46.702 Y141.181
X46.746 Y141.213
X47.478 Y141.746
X47.525 Y141.779
X48.269 Y142.295
X48.317 Y142.328
X49.072 Y142.826
X49.119 Y142.856
X49.885 Y143.337
X49.932 Y143.366
X50.709 Y143.83
X50.759 Y143.859
X51.545 Y144.305
X51.593 Y144.331
X52.39 Y144.76
X52.442 Y144.788
X53.249 Y145.198
X53.301 Y145.224
X54.118 Y145.615
X54.166 Y145.637
X54.991 Y146.011
X55.044 Y146.034
X55.878 Y146.389
X55.928 Y146.41
X56.771 Y146.747
X56.818 Y146.765
X57.455 Y147.005
X57.498 Y147.021
X57.706 Y147.095
X58.009 Y147.205
X58.938 Y147.549
X60.174 Y148.023
X61.401 Y148.511
X62.62 Y149.014
X63.831 Y149.533
X65.034 Y150.066
X66.23 Y150.617
X67.419 Y151.182
X68.601 Y151.763
X69.772 Y152.357
X70.936 Y152.968
X72.094 Y153.594
X73.241 Y154.234
X74.379 Y154.889
X75.51 Y155.561
X76.632 Y156.245
X77.744 Y156.945
X78.848 Y157.659
X79.942 Y158.387
X81.025 Y159.128
X82.101 Y159.887
X83.167 Y160.657
X84.221 Y161.441
X85.266 Y162.24
X86.302 Y163.054
X87.327 Y163.88
X88.341 Y164.72
X89.345 Y165.574
X90.338 Y166.441
X91.32 Y167.321
X92.292 Y168.217
X93.016 Y168.899
X93.251 Y169.123
X93.486 Y169.348
X94.198 Y170.042
X95.134 Y170.974
X96.056 Y171.917
X96.966 Y172.872
X97.862 Y173.837
X98.746 Y174.816
X99.616 Y175.803
X100.473 Y176.802
X101.316 Y177.811
X102.146 Y178.832
X102.962 Y179.863
X103.765 Y180.903
X104.553 Y181.954
X105.329 Y183.016
X106.09 Y184.088
X106.837 Y185.168
X107.569 Y186.258
X108.288 Y187.359
X108.993 Y188.47
X109.683 Y189.587
X110.358 Y190.716
X111.018 Y191.852
X111.664 Y192.998
X112.295 Y194.154
X112.911 Y195.316
X113.513 Y196.487
X114.099 Y197.667
X114.669 Y198.855
X115.225 Y200.051
X115.765 Y201.253
X116.291 Y202.469
X116.675 Y203.379
X116.797 Y203.679
X116.802 Y203.69
X116.885 Y203.892
X117.133 Y204.529
X117.452 Y205.392
X117.746 Y206.255
X118.018 Y207.125
X118.269 Y208.001
X118.499 Y208.883
X118.708 Y209.77
X118.895 Y210.66
X119.06 Y211.557
X119.203 Y212.458
X119.325 Y213.36
X119.425 Y214.266
X119.502 Y215.174
X119.558 Y216.086
X119.592 Y217.005
X119.603 Y217.69
Y217.913
X119.575 Y621.308
X119.572 Y621.476
X119.573 Y621.574
X119.586 Y622.135
X119.59 Y622.234
X119.637 Y622.98
X119.648 Y623.106
X119.732 Y623.843
X119.749 Y623.964
X119.869 Y624.696
X119.892 Y624.82
X120.048 Y625.542
X120.077 Y625.66
X120.268 Y626.374
X120.302 Y626.491
X120.527 Y627.193
X120.567 Y627.309
X120.826 Y627.999
X120.873 Y628.114
X121.166 Y628.79
X121.218 Y628.902
X121.544 Y629.563
X121.601 Y629.671
X121.96 Y630.317
X122.021 Y630.422
X122.411 Y631.05
X122.481 Y631.156
X122.903 Y631.764
X122.973 Y631.86
X123.426 Y632.451
X123.507 Y632.551
X123.991 Y633.119
X124.059 Y633.195
X124.44 Y633.607
X124.494 Y633.664
X124.626 Y633.798
X124.633 Y633.805
X124.765 Y633.938
X124.821 Y633.993
X125.229 Y634.379
X125.306 Y634.449
X125.869 Y634.939
X125.963 Y635.017
X126.547 Y635.477
X126.648 Y635.552
X127.253 Y635.981
X127.355 Y636.05
X127.979 Y636.447
X128.082 Y636.51
X128.723 Y636.876
X128.834 Y636.936
X129.492 Y637.269
X129.6 Y637.32
X130.273 Y637.621
X130.387 Y637.669
X131.073 Y637.936
X131.19 Y637.978
X131.89 Y638.211
X132.006 Y638.246
X132.717 Y638.445
X132.837 Y638.476
X133.558 Y638.64
X133.68 Y638.664
X134.41 Y638.792
X134.529 Y638.81
X135.266 Y638.903
X135.395 Y638.916
X136.139 Y638.971
X136.234 Y638.976
X136.796 Y638.996
X136.814 Y638.997
Z5
G0 Z15

(2D Contour1 3)
G0 X263.507 Y118.103
Z15
Z5
G1 Z3 F333.3
Z-5
X263.436 Y118.102 F1000
X263.263
X253.275 Y117.989
X249.952 Y117.952
G2 X249.636 Y117.969 I-0.028 J2.5
G1 X249.015 Y118.041
X248.889 Y118.059
X248.115 Y118.189
X247.984 Y118.214
X247.219 Y118.385
X247.096 Y118.416
X246.342 Y118.625
X246.216 Y118.664
X245.473 Y118.913
X245.35 Y118.957
X244.62 Y119.245
X244.497 Y119.297
X243.784 Y119.623
X243.671 Y119.679
X242.973 Y120.042
X242.855 Y120.107
X242.176 Y120.508
X242.064 Y120.578
X241.406 Y121.015
X241.302 Y121.089
X240.663 Y121.562
X240.571 Y121.633
X240.107 Y122.011
X240.042 Y122.066
X239.895 Y122.194
X239.747 Y122.323
X239.672 Y122.39
X239.236 Y122.8
X239.159 Y122.875
X238.604 Y123.444
X238.515 Y123.541
X237.993 Y124.136
X237.907 Y124.239
X237.42 Y124.858
X237.344 Y124.961
X236.89 Y125.603
X236.815 Y125.714
X236.397 Y126.378
X236.333 Y126.486
X235.949 Y127.17
X235.887 Y127.289
X235.541 Y127.991
X235.486 Y128.11
X235.177 Y128.83
X235.128 Y128.951
X234.857 Y129.686
X234.817 Y129.805
X234.583 Y130.554
X234.546 Y130.685
X234.391 Y131.296
G2 X234.333 Y131.605 I2.423 J0.615
G1 X233.926 Y134.9
X166.923 Y675.766
G2 X169.404 Y678.573 I2.481 J0.307
G1 X381.007 Y678.588
G2 X383.507 Y676.088 I0 J-2.5
G1 Y665.048
X383.506 Y664.995
X383.485 Y664.006
X383.483 Y663.935
X383.418 Y662.622
X383.413 Y662.54
X383.305 Y661.232
X383.296 Y661.15
X383.145 Y659.847
X383.135 Y659.767
X382.942 Y658.471
X382.929 Y658.391
X382.695 Y657.105
X382.678 Y657.024
X382.401 Y655.745
X382.383 Y655.666
X382.065 Y654.398
X382.044 Y654.319
X381.685 Y653.062
X381.66 Y652.981
X381.258 Y651.735
X381.233 Y651.662
X380.793 Y650.43
X380.763 Y650.35
X380.281 Y649.134
X380.25 Y649.06
X379.728 Y647.857
X379.693 Y647.78
X379.13 Y646.594
X379.096 Y646.524
X378.495 Y645.354
X378.463 Y645.294
X377.988 Y644.428
X377.96 Y644.377
X377.531 Y643.636
X377.513 Y643.606
X376.703 Y642.251
X376.679 Y642.213
X375.566 Y640.425
X375.539 Y640.382
X374.392 Y638.62
X374.362 Y638.575
X373.177 Y636.839
X373.148 Y636.797
X371.929 Y635.086
X371.896 Y635.042
X370.639 Y633.358
X370.609 Y633.317
X369.319 Y631.66
X369.284 Y631.617
X367.96 Y629.99
X367.926 Y629.95
X366.566 Y628.35
X366.533 Y628.312
X365.141 Y626.739
X365.104 Y626.698
X363.678 Y625.157
X363.642 Y625.119
X362.182 Y623.606
X362.145 Y623.568
X360.655 Y622.088
X360.617 Y622.052
X359.094 Y620.6
X359.054 Y620.563
X357.5 Y619.145
X357.468 Y619.117
X356.284 Y618.073
X356.258 Y618.05
X355.858 Y617.707
X355.856 Y617.705
X355.683 Y617.557
X355.651 Y617.53
X355.126 Y617.096
X355.096 Y617.072
X354.388 Y616.505
X354.34 Y616.467
X353.619 Y615.918
X353.576 Y615.886
X352.844 Y615.353
X352.795 Y615.318
X352.051 Y614.803
X352.005 Y614.773
X351.249 Y614.273
X351.205 Y614.245
X350.44 Y613.763
X350.386 Y613.73
X349.61 Y613.268
X349.565 Y613.242
X348.777 Y612.794
X348.726 Y612.766
X347.929 Y612.339
X347.878 Y612.312
X347.071 Y611.902
X347.023 Y611.878
X346.208 Y611.486
X346.154 Y611.461
X345.329 Y611.088
X345.279 Y611.066
X344.444 Y610.71
X344.391 Y610.688
X343.549 Y610.352
X343.503 Y610.335
X342.866 Y610.095
X342.845 Y610.086
X342.632 Y610.008
X342.613 Y610.002
X342.308 Y609.893
X341.382 Y609.549
X340.146 Y609.077
X338.921 Y608.589
X337.702 Y608.086
X336.491 Y607.567
X335.287 Y607.034
X334.091 Y606.483
X332.902 Y605.918
X331.722 Y605.338
X330.549 Y604.742
X329.384 Y604.132
X328.23 Y603.506
X327.081 Y602.864
X325.941 Y602.21
X324.812 Y601.539
X323.691 Y600.855
X322.578 Y600.155
X321.475 Y599.441
X320.379 Y598.712
X319.295 Y597.971
X318.22 Y597.213
X317.155 Y596.443
X316.1 Y595.657
X315.055 Y594.859
X314.019 Y594.045
X312.994 Y593.219
X311.981 Y592.38
X310.976 Y591.526
X309.984 Y590.66
X309.003 Y589.778
X308.028 Y588.882
X307.308 Y588.204
X307.072 Y587.978
X307.069 Y587.974
X306.833 Y587.749
X306.123 Y587.058
X305.187 Y586.126
X304.266 Y585.183
X303.356 Y584.228
X302.458 Y583.262
X301.575 Y582.285
X300.705 Y581.297
X299.849 Y580.298
X299.005 Y579.288
X298.174 Y578.267
X297.359 Y577.238
X296.557 Y576.197
X295.767 Y575.144
X294.992 Y574.084
X294.23 Y573.011
X293.484 Y571.932
X292.752 Y570.84
X292.033 Y569.741
X291.33 Y568.631
X290.639 Y567.511
X289.963 Y566.383
X289.303 Y565.246
X288.657 Y564.101
X288.027 Y562.946
X287.41 Y561.783
X286.809 Y560.611
X286.222 Y559.433
X285.653 Y558.245
X285.096 Y557.049
X284.557 Y555.847
X284.03 Y554.632
X283.648 Y553.722
X283.525 Y553.42
X283.52 Y553.409
X283.436 Y553.206
X283.187 Y552.57
X282.871 Y551.71
X282.576 Y550.843
X282.302 Y549.974
X282.051 Y549.098
X281.821 Y548.217
X281.613 Y547.333
X281.427 Y546.439
X281.261 Y545.541
X281.118 Y544.642
X280.996 Y543.74
X280.896 Y542.834
X280.819 Y541.926
X280.764 Y541.014
X280.73 Y540.095
X280.719 Y539.409
Y539.187
X280.747 Y135.784
X280.749 Y135.611
X280.748 Y135.526
X280.735 Y134.964
X280.731 Y134.865
X280.684 Y134.12
X280.673 Y133.998
X280.59 Y133.26
X280.573 Y133.131
X280.452 Y132.399
X280.429 Y132.28
X280.273 Y131.557
X280.245 Y131.44
X280.055 Y130.727
X280.02 Y130.608
X279.795 Y129.906
X279.753 Y129.786
X279.493 Y129.097
X279.448 Y128.987
X279.155 Y128.31
X279.103 Y128.197
X278.777 Y127.536
X278.719 Y127.426
X278.36 Y126.781
X278.3 Y126.678
X277.91 Y126.05
X277.841 Y125.945
X277.419 Y125.336
X277.347 Y125.238
X276.894 Y124.648
X276.816 Y124.55
X276.333 Y123.982
X276.263 Y123.904
X275.881 Y123.491
X275.82 Y123.428
X275.692 Y123.298
X275.564 Y123.169
X275.503 Y123.109
X275.095 Y122.722
X275.015 Y122.649
X274.451 Y122.159
X274.357 Y122.082
X273.774 Y121.623
X273.672 Y121.547
X273.066 Y121.118
X272.969 Y121.052
X272.347 Y120.654
X272.236 Y120.587
X271.594 Y120.222
X271.49 Y120.166
X270.832 Y119.832
X270.719 Y119.778
X270.047 Y119.478
X269.938 Y119.432
X269.252 Y119.164
X269.132 Y119.121
X268.432 Y118.888
X268.316 Y118.853
X267.605 Y118.654
X267.486 Y118.623
X266.764 Y118.459
X266.641 Y118.434
X265.91 Y118.306
X265.789 Y118.288
X265.052 Y118.196
X264.93 Y118.184
X264.187 Y118.128
X264.083 Y118.122
X263.52 Y118.103
X263.507
Z-10 F333.3
X263.436 Y118.102 F1000
X263.263
X253.275 Y117.989
X249.952 Y117.952
G2 X249.636 Y117.969 I-0.028 J2.5
G1 X249.015 Y118.041
X248.889 Y118.059
X248.115 Y118.189
X247.984 Y118.214
X247.219 Y118.385
X247.096 Y118.416
X246.342 Y118.625
X246.216 Y118.664
X245.473 Y118.913
X245.35 Y118.957
X244.62 Y119.245
X244.497 Y119.297
X243.784 Y119.623
X243.671 Y119.679
X242.973 Y120.042
X242.855 Y120.107
X242.176 Y120.508
X242.064 Y120.578
X241.406 Y121.015
X241.302 Y121.089
X240.663 Y121.562
X240.571 Y121.633
X240.107 Y122.011
X240.042 Y122.066
X239.895 Y122.194
X239.747 Y122.323
X239.672 Y122.39
X239.236 Y122.8
X239.159 Y122.875
X238.604 Y123.444
X238.515 Y123.541
X237.993 Y124.136
X237.907 Y124.239
X237.42 Y124.858
X237.344 Y124.961
X236.89 Y125.603
X236.815 Y125.714
X236.397 Y126.378
X236.333 Y126.486
X235.949 Y127.17
X235.887 Y127.289
X235.541 Y127.991
X235.486 Y128.11
X235.177 Y128.83
X235.128 Y128.951
X234.857 Y129.686
X234.817 Y129.805
X234.583 Y130.554
X234.546 Y130.685
X234.391 Y131.296
G2 X234.333 Y131.605 I2.423 J0.615
G1 X233.926 Y134.9
X166.923 Y675.766
G2 X169.404 Y678.573 I2.481 J0.307
G1 X381.007 Y678.588
G2 X383.507 Y676.088 I0 J-2.5
G1 Y665.048
X383.506 Y664.995
X383.485 Y664.006
X383.483 Y663.935
X383.418 Y662.622
X383.413 Y662.54
X383.305 Y661.232
X383.296 Y661.15
X383.145 Y659.847
X383.135 Y659.767
X382.942 Y658.471
X382.929 Y658.391
X382.695 Y657.105
X382.678 Y657.024
X382.401 Y655.745
X382.383 Y655.666
X382.065 Y654.398
X382.044 Y654.319
X381.685 Y653.062
X381.66 Y652.981
X381.258 Y651.735
X381.233 Y651.662
X380.793 Y650.43
X380.763 Y650.35
X380.281 Y649.134
X380.25 Y649.06
X379.728 Y647.857
X379.693 Y647.78
X379.13 Y646.594
X379.096 Y646.524
X378.495 Y645.354
X378.463 Y645.294
X377.988 Y644.428
X377.96 Y644.377
X377.531 Y643.636
X377.513 Y643.606
X376.703 Y642.251
X376.679 Y642.213
X375.566 Y640.425
X375.539 Y640.382
X374.392 Y638.62
X374.362 Y638.575
X373.177 Y636.839
X373.148 Y636.797
X371.929 Y635.086
X371.896 Y635.042
X370.639 Y633.358
X370.609 Y633.317
X369.319 Y631.66
X369.284 Y631.617
X367.96 Y629.99
X367.926 Y629.95
X366.566 Y628.35
X366.533 Y628.312
X365.141 Y626.739
X365.104 Y626.698
X363.678 Y625.157
X363.642 Y625.119
X362.182 Y623.606
X362.145 Y623.568
X360.655 Y622.088
X360.617 Y622.052
X359.094 Y620.6
X359.054 Y620.563
X357.5 Y619.145
X357.468 Y619.117
X356.284 Y618.073
X356.258 Y618.05
X355.858 Y617.707
X355.856 Y617.705
X355.683 Y617.557
X355.651 Y617.53
X355.126 Y617.096
X355.096 Y617.072
X354.388 Y616.505
X354.34 Y616.467
X353.619 Y615.918
X353.576 Y615.886
X352.844 Y615.353
X352.795 Y615.318
X352.051 Y614.803
X352.005 Y614.773
X351.249 Y614.273
X351.205 Y614.245
X350.44 Y613.763
X350.386 Y613.73
X349.61 Y613.268
X349.565 Y613.242
X348.777 Y612.794
X348.726 Y612.766
X347.929 Y612.339
X347.878 Y612.312
X347.071 Y611.902
X347.023 Y611.878
X346.208 Y611.486
X346.154 Y611.461
X345.329 Y611.088
X345.279 Y611.066
X344.444 Y610.71
X344.391 Y610.688
X343.549 Y610.352
X343.503 Y610.335
X342.866 Y610.095
X342.845 Y610.086
X342.632 Y610.008
X342.613 Y610.002
X342.308 Y609.893
X341.382 Y609.549
X340.146 Y609.077
X338.921 Y608.589
X337.702 Y608.086
X336.491 Y607.567
X335.287 Y607.034
X334.091 Y606.483
X332.902 Y605.918
X331.722 Y605.338
X330.549 Y604.742
X329.384 Y604.132
X328.23 Y603.506
X327.081 Y602.864
X325.941 Y602.21
X324.812 Y601.539
X323.691 Y600.855
X322.578 Y600.155
X321.475 Y599.441
X320.379 Y598.712
X319.295 Y597.971
X318.22 Y597.213
X317.155 Y596.443
X316.1 Y595.657
X315.055 Y594.859
X314.019 Y594.045
X312.994 Y593.219
X311.981 Y592.38
X310.976 Y591.526
X309.984 Y590.66
X309.003 Y589.778
X308.028 Y588.882
X307.308 Y588.204
X307.072 Y587.978
X307.069 Y587.974
X306.833 Y587.749
X306.123 Y587.058
X305.187 Y586.126
X304.266 Y585.183
X303.356 Y584.228
X302.458 Y583.262
X301.575 Y582.285
X300.705 Y581.297
X299.849 Y580.298
X299.005 Y579.288
X298.174 Y578.267
X297.359 Y577.238
X296.557 Y576.197
X295.767 Y575.144
X294.992 Y574.084
X294.23 Y573.011
X293.484 Y571.932
X292.752 Y570.84
X292.033 Y569.741
X291.33 Y568.631
X290.639 Y567.511
X289.963 Y566.383
X289.303 Y565.246
X288.657 Y564.101
X288.027 Y562.946
X287.41 Y561.783
X286.809 Y560.611
X286.222 Y559.433
X285.653 Y558.245
X285.096 Y557.049
X284.557 Y555.847
X284.03 Y554.632
X283.648 Y553.722
X283.525 Y553.42
X283.52 Y553.409
X283.436 Y553.206
X283.187 Y552.57
X282.871 Y551.71
X282.576 Y550.843
X282.302 Y549.974
X282.051 Y549.098
X281.821 Y548.217
X281.613 Y547.333
X281.427 Y546.439
X281.261 Y545.541
X281.118 Y544.642
X280.996 Y543.74
X280.896 Y542.834
X280.819 Y541.926
X280.764 Y541.014
X280.73 Y540.095
X280.719 Y539.409
Y539.187
X280.747 Y135.784
X280.749 Y135.611
X280.748 Y135.526
X280.735 Y134.964
X280.731 Y134.865
X280.684 Y134.12
X280.673 Y133.998
X280.59 Y133.26
X280.573 Y133.131
X280.452 Y132.399
X280.429 Y132.28
X280.273 Y131.557
X280.245 Y131.44
X280.055 Y130.727
X280.02 Y130.608
X279.795 Y129.906
X279.753 Y129.786
X279.493 Y129.097
X279.448 Y128.987
X279.155 Y128.31
X279.103 Y128.197
X278.777 Y127.536
X278.719 Y127.426
X278.36 Y126.781
X278.3 Y126.678
X277.91 Y126.05
X277.841 Y125.945
X277.419 Y125.336
X277.347 Y125.238
X276.894 Y124.648
X276.816 Y124.55
X276.333 Y123.982
X276.263 Y123.904
X275.881 Y123.491
X275.82 Y123.428
X275.692 Y123.298
X275.564 Y123.169
X275.503 Y123.109
X275.095 Y122.722
X275.015 Y122.649
X274.451 Y122.159
X274.357 Y122.082
X273.774 Y121.623
X273.672 Y121.547
X273.066 Y121.118
X272.969 Y121.052
X272.347 Y120.654
X272.236 Y120.587
X271.594 Y120.222
X271.49 Y120.166
X270.832 Y119.832
X270.719 Y119.778
X270.047 Y119.478
X269.938 Y119.432
X269.252 Y119.164
X269.132 Y119.121
X268.432 Y118.888
X268.316 Y118.853
X267.605 Y118.654
X267.486 Y118.623
X266.764 Y118.459
X266.641 Y118.434
X265.91 Y118.306
X265.789 Y118.288
X265.052 Y118.196
X264.93 Y118.184
X264.187 Y118.128
X264.083 Y118.122
X263.52 Y118.103
X263.507
Z-15 F333.3
X263.436 Y118.102 F1000
X263.263
X253.275 Y117.989
X249.952 Y117.952
G2 X249.636 Y117.969 I-0.028 J2.5
G1 X249.015 Y118.041
X248.889 Y118.059
X248.115 Y118.189
X247.984 Y118.214
X247.219 Y118.385
X247.096 Y118.416
X246.342 Y118.625
X246.216 Y118.664
X245.473 Y118.913
X245.35 Y118.957
X244.62 Y119.245
X244.497 Y119.297
X243.784 Y119.623
X243.671 Y119.679
X242.973 Y120.042
X242.855 Y120.107
X242.176 Y120.508
X242.064 Y120.578
X241.406 Y121.015
X241.302 Y121.089
X240.663 Y121.562
X240.571 Y121.633
X240.107 Y122.011
X240.042 Y122.066
X239.895 Y122.194
X239.747 Y122.323
X239.672 Y122.39
X239.236 Y122.8
X239.159 Y122.875
X238.604 Y123.444
X238.515 Y123.541
X237.993 Y124.136
X237.907 Y124.239
X237.42 Y124.858
X237.344 Y124.961
X236.89 Y125.603
X236.815 Y125.714
X236.397 Y126.378
X236.333 Y126.486
X235.949 Y127.17
X235.887 Y127.289
X235.541 Y127.991
X235.486 Y128.11
X235.177 Y128.83
X235.128 Y128.951
X234.857 Y129.686
X234.817 Y129.805
X234.583 Y130.554
X234.546 Y130.685
X234.391 Y131.296
G2 X234.333 Y131.605 I2.423 J0.615
G1 X233.926 Y134.9
X166.923 Y675.766
G2 X169.404 Y678.573 I2.481 J0.307
G1 X381.007 Y678.588
G2 X383.507 Y676.088 I0 J-2.5
G1 Y665.048
X383.506 Y664.995
X383.485 Y664.006
X383.483 Y663.935
X383.418 Y662.622
X383.413 Y662.54
X383.305 Y661.232
X383.296 Y661.15
X383.145 Y659.847
X383.135 Y659.767
X382.942 Y658.471
X382.929 Y658.391
X382.695 Y657.105
X382.678 Y657.024
X382.401 Y655.745
X382.383 Y655.666
X382.065 Y654.398
X382.044 Y654.319
X381.685 Y653.062
X381.66 Y652.981
X381.258 Y651.735
X381.233 Y651.662
X380.793 Y650.43
X380.763 Y650.35
X380.281 Y649.134
X380.25 Y649.06
X379.728 Y647.857
X379.693 Y647.78
X379.13 Y646.594
X379.096 Y646.524
X378.495 Y645.354
X378.463 Y645.294
X377.988 Y644.428
X377.96 Y644.377
X377.531 Y643.636
X377.513 Y643.606
X376.703 Y642.251
X376.679 Y642.213
X375.566 Y640.425
X375.539 Y640.382
X374.392 Y638.62
X374.362 Y638.575
X373.177 Y636.839
X373.148 Y636.797
X371.929 Y635.086
X371.896 Y635.042
X370.639 Y633.358
X370.609 Y633.317
X369.319 Y631.66
X369.284 Y631.617
X367.96 Y629.99
X367.926 Y629.95
X366.566 Y628.35
X366.533 Y628.312
X365.141 Y626.739
X365.104 Y626.698
X363.678 Y625.157
X363.642 Y625.119
X362.182 Y623.606
X362.145 Y623.568
X360.655 Y622.088
X360.617 Y622.052
X359.094 Y620.6
X359.054 Y620.563
X357.5 Y619.145
X357.468 Y619.117
X356.284 Y618.073
X356.258 Y618.05
X355.858 Y617.707
X355.856 Y617.705
X355.683 Y617.557
X355.651 Y617.53
X355.126 Y617.096
X355.096 Y617.072
X354.388 Y616.505
X354.34 Y616.467
X353.619 Y615.918
X353.576 Y615.886
X352.844 Y615.353
X352.795 Y615.318
X352.051 Y614.803
X352.005 Y614.773
X351.249 Y614.273
X351.205 Y614.245
X350.44 Y613.763
X350.386 Y613.73
X349.61 Y613.268
X349.565 Y613.242
X348.777 Y612.794
X348.726 Y612.766
X347.929 Y612.339
X347.878 Y612.312
X347.071 Y611.902
X347.023 Y611.878
X346.208 Y611.486
X346.154 Y611.461
X345.329 Y611.088
X345.279 Y611.066
X344.444 Y610.71
X344.391 Y610.688
X343.549 Y610.352
X343.503 Y610.335
X342.866 Y610.095
X342.845 Y610.086
X342.632 Y610.008
X342.613 Y610.002
X342.308 Y609.893
X341.382 Y609.549
X340.146 Y609.077
X338.921 Y608.589
X337.702 Y608.086
X336.491 Y607.567
X335.287 Y607.034
X334.091 Y606.483
X332.902 Y605.918
X331.722 Y605.338
X330.549 Y604.742
X329.384 Y604.132
X328.23 Y603.506
X327.081 Y602.864
X325.941 Y602.21
X324.812 Y601.539
X323.691 Y600.855
X322.578 Y600.155
X321.475 Y599.441
X320.379 Y598.712
X319.295 Y597.971
X318.22 Y597.213
X317.155 Y596.443
X316.1 Y595.657
X315.055 Y594.859
X314.019 Y594.045
X312.994 Y593.219
X311.981 Y592.38
X310.976 Y591.526
X309.984 Y590.66
X309.003 Y589.778
X308.028 Y588.882
X307.308 Y588.204
X307.072 Y587.978
X307.069 Y587.974
X306.833 Y587.749
X306.123 Y587.058
X305.187 Y586.126
X304.266 Y585.183
X303.356 Y584.228
X302.458 Y583.262
X301.575 Y582.285
X300.705 Y581.297
X299.849 Y580.298
X299.005 Y579.288
X298.174 Y578.267
X297.359 Y577.238
X296.557 Y576.197
X295.767 Y575.144
X294.992 Y574.084
X294.23 Y573.011
X293.484 Y571.932
X292.752 Y570.84
X292.033 Y569.741
X291.33 Y568.631
X290.639 Y567.511
X289.963 Y566.383
X289.303 Y565.246
X288.657 Y564.101
X288.027 Y562.946
X287.41 Y561.783
X286.809 Y560.611
X286.222 Y559.433
X285.653 Y558.245
X285.096 Y557.049
X284.557 Y555.847
X284.03 Y554.632
X283.648 Y553.722
X283.525 Y553.42
X283.52 Y553.409
X283.436 Y553.206
X283.187 Y552.57
X282.871 Y551.71
X282.576 Y550.843
X282.302 Y549.974
X282.051 Y549.098
X281.821 Y548.217
X281.613 Y547.333
X281.427 Y546.439
X281.261 Y545.541
X281.118 Y544.642
X280.996 Y543.74
X280.896 Y542.834
X280.819 Y541.926
X280.764 Y541.014
X280.73 Y540.095
X280.719 Y539.409
Y539.187
X280.747 Y135.784
X280.749 Y135.611
X280.748 Y135.526
X280.735 Y134.964
X280.731 Y134.865
X280.684 Y134.12
X280.673 Y133.998
X280.59 Y133.26
X280.573 Y133.131
X280.452 Y132.399
X280.429 Y132.28
X280.273 Y131.557
X280.245 Y131.44
X280.055 Y130.727
X280.02 Y130.608
X279.795 Y129.906
X279.753 Y129.786
X279.493 Y129.097
X279.448 Y128.987
X279.155 Y128.31
X279.103 Y128.197
X278.777 Y127.536
X278.719 Y127.426
X278.36 Y126.781
X278.3 Y126.678
X277.91 Y126.05
X277.841 Y125.945
X277.419 Y125.336
X277.347 Y125.238
X276.894 Y124.648
X276.816 Y124.55
X276.333 Y123.982
X276.263 Y123.904
X275.881 Y123.491
X275.82 Y123.428
X275.692 Y123.298
X275.564 Y123.169
X275.503 Y123.109
X275.095 Y122.722
X275.015 Y122.649
X274.451 Y122.159
X274.357 Y122.082
X273.774 Y121.623
X273.672 Y121.547
X273.066 Y121.118
X272.969 Y121.052
X272.347 Y120.654
X272.236 Y120.587
X271.594 Y120.222
X271.49 Y120.166
X270.832 Y119.832
X270.719 Y119.778
X270.047 Y119.478
X269.938 Y119.432
X269.252 Y119.164
X269.132 Y119.121
X268.432 Y118.888
X268.316 Y118.853
X267.605 Y118.654
X267.486 Y118.623
X266.764 Y118.459
X266.641 Y118.434
X265.91 Y118.306
X265.789 Y118.288
X265.052 Y118.196
X264.93 Y118.184
X264.187 Y118.128
X264.083 Y118.122
X263.52 Y118.103
X263.507
Z-20 F333.3
X263.436 Y118.102 F1000
X263.263
X253.275 Y117.989
X249.952 Y117.952
G2 X249.636 Y117.969 I-0.028 J2.5
G1 X249.015 Y118.041
X248.889 Y118.059
X248.115 Y118.189
X247.984 Y118.214
X247.219 Y118.385
X247.096 Y118.416
X246.342 Y118.625
X246.216 Y118.664
X245.473 Y118.913
X245.35 Y118.957
X244.62 Y119.245
X244.497 Y119.297
X243.784 Y119.623
X243.671 Y119.679
X242.973 Y120.042
X242.855 Y120.107
X242.176 Y120.508
X242.064 Y120.578
X241.406 Y121.015
X241.302 Y121.089
X240.663 Y121.562
X240.571 Y121.633
X240.107 Y122.011
X240.042 Y122.066
X239.895 Y122.194
X239.747 Y122.323
X239.672 Y122.39
X239.236 Y122.8
X239.159 Y122.875
X238.604 Y123.444
X238.515 Y123.541
X237.993 Y124.136
X237.907 Y124.239
X237.42 Y124.858
X237.344 Y124.961
X236.89 Y125.603
X236.815 Y125.714
X236.397 Y126.378
X236.333 Y126.486
X235.949 Y127.17
X235.887 Y127.289
X235.541 Y127.991
X235.486 Y128.11
X235.177 Y128.83
X235.128 Y128.951
X234.857 Y129.686
X234.817 Y129.805
X234.583 Y130.554
X234.546 Y130.685
X234.391 Y131.296
G2 X234.333 Y131.605 I2.423 J0.615
G1 X233.926 Y134.9
X166.923 Y675.766
G2 X169.404 Y678.573 I2.481 J0.307
G1 X381.007 Y678.588
G2 X383.507 Y676.088 I0 J-2.5
G1 Y665.048
X383.506 Y664.995
X383.485 Y664.006
X383.483 Y663.935
X383.418 Y662.622
X383.413 Y662.54
X383.305 Y661.232
X383.296 Y661.15
X383.145 Y659.847
X383.135 Y659.767
X382.942 Y658.471
X382.929 Y658.391
X382.695 Y657.105
X382.678 Y657.024
X382.401 Y655.745
X382.383 Y655.666
X382.065 Y654.398
X382.044 Y654.319
X381.685 Y653.062
X381.66 Y652.981
X381.258 Y651.735
X381.233 Y651.662
X380.793 Y650.43
X380.763 Y650.35
X380.281 Y649.134
X380.25 Y649.06
X379.728 Y647.857
X379.693 Y647.78
X379.13 Y646.594
X379.096 Y646.524
X378.495 Y645.354
X378.463 Y645.294
X377.988 Y644.428
X377.96 Y644.377
X377.531 Y643.636
X377.513 Y643.606
X376.703 Y642.251
X376.679 Y642.213
X375.566 Y640.425
X375.539 Y640.382
X374.392 Y638.62
X374.362 Y638.575
X373.177 Y636.839
X373.148 Y636.797
X371.929 Y635.086
X371.896 Y635.042
X370.639 Y633.358
X370.609 Y633.317
X369.319 Y631.66
X369.284 Y631.617
X367.96 Y629.99
X367.926 Y629.95
X366.566 Y628.35
X366.533 Y628.312
X365.141 Y626.739
X365.104 Y626.698
X363.678 Y625.157
X363.642 Y625.119
X362.182 Y623.606
X362.145 Y623.568
X360.655 Y622.088
X360.617 Y622.052
X359.094 Y620.6
X359.054 Y620.563
X357.5 Y619.145
X357.468 Y619.117
X356.284 Y618.073
X356.258 Y618.05
X355.858 Y617.707
X355.856 Y617.705
X355.683 Y617.557
X355.651 Y617.53
X355.126 Y617.096
X355.096 Y617.072
X354.388 Y616.505
X354.34 Y616.467
X353.619 Y615.918
X353.576 Y615.886
X352.844 Y615.353
X352.795 Y615.318
X352.051 Y614.803
X352.005 Y614.773
X351.249 Y614.273
X351.205 Y614.245
X350.44 Y613.763
X350.386 Y613.73
X349.61 Y613.268
X349.565 Y613.242
X348.777 Y612.794
X348.726 Y612.766
X347.929 Y612.339
X347.878 Y612.312
X347.071 Y611.902
X347.023 Y611.878
X346.208 Y611.486
X346.154 Y611.461
X345.329 Y611.088
X345.279 Y611.066
X344.444 Y610.71
X344.391 Y610.688
X343.549 Y610.352
X343.503 Y610.335
X342.866 Y610.095
X342.845 Y610.086
X342.632 Y610.008
X342.613 Y610.002
X342.308 Y609.893
X341.382 Y609.549
X340.146 Y609.077
X338.921 Y608.589
X337.702 Y608.086
X336.491 Y607.567
X335.287 Y607.034
X334.091 Y606.483
X332.902 Y605.918
X331.722 Y605.338
X330.549 Y604.742
X329.384 Y604.132
X328.23 Y603.506
X327.081 Y602.864
X325.941 Y602.21
X324.812 Y601.539
X323.691 Y600.855
X322.578 Y600.155
X321.475 Y599.441
X320.379 Y598.712
X319.295 Y597.971
X318.22 Y597.213
X317.155 Y596.443
X316.1 Y595.657
X315.055 Y594.859
X314.019 Y594.045
X312.994 Y593.219
X311.981 Y592.38
X310.976 Y591.526
X309.984 Y590.66
X309.003 Y589.778
X308.028 Y588.882
X307.308 Y588.204
X307.072 Y587.978
X307.069 Y587.974
X306.833 Y587.749
X306.123 Y587.058
X305.187 Y586.126
X304.266 Y585.183
X303.356 Y584.228
X302.458 Y583.262
X301.575 Y582.285
X300.705 Y581.297
X299.849 Y580.298
X299.005 Y579.288
X298.174 Y578.267
X297.359 Y577.238
X296.557 Y576.197
X295.767 Y575.144
X294.992 Y574.084
X294.23 Y573.011
X293.484 Y571.932
X292.752 Y570.84
X292.033 Y569.741
X291.33 Y568.631
X290.639 Y567.511
X289.963 Y566.383
X289.303 Y565.246
X288.657 Y564.101
X288.027 Y562.946
X287.41 Y561.783
X286.809 Y560.611
X286.222 Y559.433
X285.653 Y558.245
X285.096 Y557.049
X284.557 Y555.847
X284.03 Y554.632
X283.648 Y553.722
X283.525 Y553.42
X283.52 Y553.409
X283.436 Y553.206
X283.187 Y552.57
X282.871 Y551.71
X282.576 Y550.843
X282.302 Y549.974
X282.051 Y549.098
X281.821 Y548.217
X281.613 Y547.333
X281.427 Y546.439
X281.261 Y545.541
X281.118 Y544.642
X280.996 Y543.74
X280.896 Y542.834
X280.819 Y541.926
X280.764 Y541.014
X280.73 Y540.095
X280.719 Y539.409
Y539.187
X280.747 Y135.784
X280.749 Y135.611
X280.748 Y135.526
X280.735 Y134.964
X280.731 Y134.865
X280.684 Y134.12
X280.673 Y133.998
X280.59 Y133.26
X280.573 Y133.131
X280.452 Y132.399
X280.429 Y132.28
X280.273 Y131.557
X280.245 Y131.44
X280.055 Y130.727
X280.02 Y130.608
X279.795 Y129.906
X279.753 Y129.786
X279.493 Y129.097
X279.448 Y128.987
X279.155 Y128.31
X279.103 Y128.197
X278.777 Y127.536
X278.719 Y127.426
X278.36 Y126.781
X278.3 Y126.678
X277.91 Y126.05
X277.841 Y125.945
X277.419 Y125.336
X277.347 Y125.238
X276.894 Y124.648
X276.816 Y124.55
X276.333 Y123.982
X276.263 Y123.904
X275.881 Y123.491
X275.82 Y123.428
X275.692 Y123.298
X275.564 Y123.169
X275.503 Y123.109
X275.095 Y122.722
X275.015 Y122.649
X274.451 Y122.159
X274.357 Y122.082
X273.774 Y121.623
X273.672 Y121.547
X273.066 Y121.118
X272.969 Y121.052
X272.347 Y120.654
X272.236 Y120.587
X271.594 Y120.222
X271.49 Y120.166
X270.832 Y119.832
X270.719 Y119.778
X270.047 Y119.478
X269.938 Y119.432
X269.252 Y119.164
X269.132 Y119.121
X268.432 Y118.888
X268.316 Y118.853
X267.605 Y118.654
X267.486 Y118.623
X266.764 Y118.459
X266.641 Y118.434
X265.91 Y118.306
X265.789 Y118.288
X265.052 Y118.196
X264.93 Y118.184
X264.187 Y118.128
X264.083 Y118.122
X263.52 Y118.103
X263.507
Z-25 F333.3
X263.436 Y118.102 F1000
X263.263
X253.275 Y117.989
X249.952 Y117.952
G2 X249.636 Y117.969 I-0.028 J2.5
G1 X249.015 Y118.041
X248.889 Y118.059
X248.115 Y118.189
X247.984 Y118.214
X247.219 Y118.385
X247.096 Y118.416
X246.342 Y118.625
X246.216 Y118.664
X245.473 Y118.913
X245.35 Y118.957
X244.62 Y119.245
X244.497 Y119.297
X243.784 Y119.623
X243.671 Y119.679
X242.973 Y120.042
X242.855 Y120.107
X242.176 Y120.508
X242.064 Y120.578
X241.406 Y121.015
X241.302 Y121.089
X240.663 Y121.562
X240.571 Y121.633
X240.107 Y122.011
X240.042 Y122.066
X239.895 Y122.194
X239.747 Y122.323
X239.672 Y122.39
X239.236 Y122.8
X239.159 Y122.875
X238.604 Y123.444
X238.515 Y123.541
X237.993 Y124.136
X237.907 Y124.239
X237.42 Y124.858
X237.344 Y124.961
X236.89 Y125.603
X236.815 Y125.714
X236.397 Y126.378
X236.333 Y126.486
X235.949 Y127.17
X235.887 Y127.289
X235.541 Y127.991
X235.486 Y128.11
X235.177 Y128.83
X235.128 Y128.951
X234.857 Y129.686
X234.817 Y129.805
X234.583 Y130.554
X234.546 Y130.685
X234.391 Y131.296
G2 X234.333 Y131.605 I2.423 J0.615
G1 X233.926 Y134.9
X166.923 Y675.766
G2 X169.404 Y678.573 I2.481 J0.307
G1 X381.007 Y678.588
G2 X383.507 Y676.088 I0 J-2.5
G1 Y665.048
X383.506 Y664.995
X383.485 Y664.006
X383.483 Y663.935
X383.418 Y662.622
X383.413 Y662.54
X383.305 Y661.232
X383.296 Y661.15
X383.145 Y659.847
X383.135 Y659.767
X382.942 Y658.471
X382.929 Y658.391
X382.695 Y657.105
X382.678 Y657.024
X382.401 Y655.745
X382.383 Y655.666
X382.065 Y654.398
X382.044 Y654.319
X381.685 Y653.062
X381.66 Y652.981
X381.258 Y651.735
X381.233 Y651.662
X380.793 Y650.43
X380.763 Y650.35
X380.281 Y649.134
X380.25 Y649.06
X379.728 Y647.857
X379.693 Y647.78
X379.13 Y646.594
X379.096 Y646.524
X378.495 Y645.354
X378.463 Y645.294
X377.988 Y644.428
X377.96 Y644.377
X377.531 Y643.636
X377.513 Y643.606
X376.703 Y642.251
X376.679 Y642.213
X375.566 Y640.425
X375.539 Y640.382
X374.392 Y638.62
X374.362 Y638.575
X373.177 Y636.839
X373.148 Y636.797
X371.929 Y635.086
X371.896 Y635.042
X370.639 Y633.358
X370.609 Y633.317
X369.319 Y631.66
X369.284 Y631.617
X367.96 Y629.99
X367.926 Y629.95
X366.566 Y628.35
X366.533 Y628.312
X365.141 Y626.739
X365.104 Y626.698
X363.678 Y625.157
X363.642 Y625.119
X362.182 Y623.606
X362.145 Y623.568
X360.655 Y622.088
X360.617 Y622.052
X359.094 Y620.6
X359.054 Y620.563
X357.5 Y619.145
