(MonaSattelhalterNase_1)
(T4 D=5 CR=0 - ZMIN=-28 - flat end mill)
G90 G94
G17
G21
(-Attention- Property Safe Retracts is set to Clearance Height.)
(Ensure the clearance height will clear the part and or fixtures.)
(Raise the Z-axis to a safe height before starting the program.)

(2D Contour1)
T4
S5000 M3
G17 G90 G94
G54
M8
G0 X95.104 Y198.114
Z15
G0 Z5
G1 Z3 F333.3
Z-5
X95.033 Y198.113 F1000
X94.859
X84.871 Y198
X81.549 Y197.963
G2 X81.234 Y197.98 I-0.028 J2.5
G1 X80.611 Y198.052
X80.481 Y198.07
X79.708 Y198.201
X79.586 Y198.225
X78.821 Y198.394
X78.69 Y198.427
X77.935 Y198.637
X77.808 Y198.676
X77.065 Y198.926
X76.947 Y198.969
X76.218 Y199.256
X76.098 Y199.307
X75.384 Y199.632
X75.263 Y199.691
X74.566 Y200.055
X74.454 Y200.117
X73.775 Y200.517
X73.66 Y200.589
X73.001 Y201.027
X72.895 Y201.101
X72.258 Y201.574
X72.169 Y201.643
X71.705 Y202.021
X71.639 Y202.076
X71.489 Y202.207
X71.482 Y202.213
X71.331 Y202.345
X71.273 Y202.398
X70.836 Y202.807
X70.756 Y202.885
X70.202 Y203.453
X70.109 Y203.553
X69.587 Y204.149
X69.506 Y204.247
X69.019 Y204.865
X68.938 Y204.973
X68.484 Y205.616
X68.412 Y205.724
X67.994 Y206.388
X67.927 Y206.5
X67.544 Y207.184
X67.484 Y207.299
X67.137 Y208.001
X67.082 Y208.12
X66.773 Y208.84
X66.725 Y208.961
X66.453 Y209.696
X66.411 Y209.821
X66.178 Y210.571
X66.143 Y210.695
X65.989 Y211.302
G2 X65.93 Y211.612 I2.423 J0.617
G1 X65.522 Y214.912
X-1.481 Y755.777
G2 X1 Y758.584 I2.481 J0.307
G1 X212.604 Y758.599
G2 X215.104 Y756.099 I0 J-2.5
G1 Y745.059
X215.103 Y745.003
X215.081 Y744.014
X215.079 Y743.946
X215.014 Y742.633
X215.009 Y742.553
X214.902 Y741.245
X214.893 Y741.159
X214.741 Y739.856
X214.731 Y739.781
X214.54 Y738.486
X214.526 Y738.4
X214.29 Y737.113
X214.274 Y737.035
X213.997 Y735.756
X213.979 Y735.677
X213.661 Y734.409
X213.639 Y734.329
X213.279 Y733.072
X213.256 Y732.995
X212.856 Y731.751
X212.83 Y731.673
X212.389 Y730.441
X212.36 Y730.364
X211.878 Y729.146
X211.846 Y729.071
X211.324 Y727.868
X211.29 Y727.792
X210.728 Y726.606
X210.693 Y726.535
X210.092 Y725.365
X210.059 Y725.303
X209.583 Y724.437
X209.552 Y724.383
X209.388 Y724.101
X209.126 Y723.647
X209.109 Y723.618
X208.3 Y722.263
X208.276 Y722.226
X207.165 Y720.438
X207.136 Y720.391
X205.987 Y718.629
X205.958 Y718.586
X204.773 Y716.85
X204.744 Y716.808
X203.525 Y715.097
X203.493 Y715.053
X202.237 Y713.369
X202.205 Y713.327
X200.915 Y711.672
X200.882 Y711.631
X199.556 Y710.002
X199.522 Y709.962
X198.163 Y708.362
X198.13 Y708.323
X196.737 Y706.75
X196.7 Y706.709
X195.274 Y705.168
X195.238 Y705.13
X193.78 Y703.619
X193.743 Y703.581
X192.251 Y702.099
X192.213 Y702.063
X190.691 Y700.613
X190.652 Y700.576
X189.096 Y699.156
X189.064 Y699.127
X187.879 Y698.083
X187.851 Y698.059
X187.454 Y697.719
X187.285 Y697.574
X187.253 Y697.547
X186.73 Y697.112
X186.692 Y697.082
X185.983 Y696.515
X185.935 Y696.477
X185.214 Y695.929
X185.173 Y695.898
X184.44 Y695.364
X184.392 Y695.33
X183.649 Y694.815
X183.602 Y694.784
X182.846 Y694.285
X182.796 Y694.253
X182.03 Y693.773
X181.985 Y693.745
X181.208 Y693.281
X181.161 Y693.253
X180.374 Y692.806
X180.323 Y692.778
X179.527 Y692.35
X179.475 Y692.323
X178.668 Y691.913
X178.617 Y691.888
X177.8 Y691.496
X177.749 Y691.472
X176.924 Y691.099
X176.876 Y691.078
X176.043 Y690.722
X175.987 Y690.699
X175.144 Y690.363
X175.101 Y690.346
X174.465 Y690.106
X174.438 Y690.096
X174.224 Y690.018
X174.212 Y690.014
X173.906 Y689.904
X172.978 Y689.56
X171.744 Y689.088
X170.517 Y688.6
X169.298 Y688.097
X168.086 Y687.578
X166.883 Y687.045
X165.687 Y686.494
X164.498 Y685.929
X163.317 Y685.348
X162.146 Y684.755
X160.983 Y684.143
X159.824 Y683.516
X158.675 Y682.876
X157.538 Y682.222
X156.408 Y681.55
X155.286 Y680.866
X154.174 Y680.167
X153.071 Y679.452
X151.976 Y678.723
X150.891 Y677.981
X149.816 Y677.224
X148.751 Y676.454
X147.697 Y675.67
X146.651 Y674.87
X145.616 Y674.056
X144.589 Y673.23
X143.576 Y672.391
X142.573 Y671.538
X141.582 Y670.671
X140.598 Y669.789
X139.625 Y668.893
X138.902 Y668.212
X138.667 Y667.988
X138.43 Y667.761
X137.721 Y667.07
X136.784 Y666.137
X135.862 Y665.193
X134.952 Y664.239
X134.056 Y663.274
X133.172 Y662.296
X132.302 Y661.308
X131.445 Y660.309
X130.601 Y659.299
X129.771 Y658.279
X128.955 Y657.249
X128.153 Y656.207
X127.363 Y655.156
X126.589 Y654.096
X125.827 Y653.022
X125.081 Y651.943
X124.348 Y650.851
X123.629 Y649.752
X122.926 Y648.642
X122.236 Y647.523
X121.56 Y646.394
X120.899 Y645.258
X120.254 Y644.113
X119.623 Y642.957
X119.007 Y641.795
X118.404 Y640.623
X117.819 Y639.445
X117.249 Y638.256
X116.693 Y637.06
X116.152 Y635.857
X115.626 Y634.643
X115.244 Y633.733
X115.121 Y633.431
X115.116 Y633.42
X115.033 Y633.218
X114.784 Y632.582
X114.467 Y631.72
X114.172 Y630.855
X113.9 Y629.986
X113.648 Y629.109
X113.418 Y628.228
X113.21 Y627.343
X113.023 Y626.448
X112.857 Y625.552
X112.714 Y624.654
X112.593 Y623.751
X112.492 Y622.845
X112.416 Y621.938
X112.36 Y621.024
X112.326 Y620.106
X112.315 Y619.421
Y619.198
X112.343 Y215.795
X112.345 Y215.622
X112.344 Y215.542
X112.332 Y214.979
X112.328 Y214.871
X112.28 Y214.127
X112.269 Y214.009
X112.186 Y213.27
X112.168 Y213.14
X112.047 Y212.41
X112.026 Y212.296
X111.871 Y211.572
X111.841 Y211.448
X111.65 Y210.735
X111.615 Y210.618
X111.39 Y209.917
X111.349 Y209.799
X111.089 Y209.109
X111.044 Y208.998
X110.751 Y208.321
X110.7 Y208.211
X110.375 Y207.55
X110.317 Y207.439
X109.958 Y206.793
X109.896 Y206.687
X109.506 Y206.06
X109.438 Y205.956
X109.016 Y205.347
X108.944 Y205.249
X108.491 Y204.659
X108.411 Y204.56
X107.927 Y203.992
X107.859 Y203.915
X107.477 Y203.502
X107.423 Y203.446
X107.292 Y203.313
X107.285 Y203.306
X107.153 Y203.173
X107.097 Y203.118
X106.689 Y202.732
X106.614 Y202.664
X106.051 Y202.173
X105.951 Y202.09
X105.366 Y201.631
X105.271 Y201.56
X104.667 Y201.131
X104.565 Y201.062
X103.942 Y200.664
X103.832 Y200.598
X103.19 Y200.233
X103.084 Y200.176
X102.427 Y199.843
X102.321 Y199.792
X101.648 Y199.49
X101.527 Y199.44
X100.841 Y199.174
X100.731 Y199.134
X100.031 Y198.9
X99.909 Y198.863
X99.198 Y198.665
X99.082 Y198.635
X98.36 Y198.471
X98.241 Y198.447
X97.511 Y198.318
X97.385 Y198.299
X96.648 Y198.207
X96.526 Y198.195
X95.782 Y198.139
X95.679 Y198.133
X95.117 Y198.114
X95.104
Z-10 F333.3
X95.033 Y198.113 F1000
X94.859
X84.871 Y198
X81.549 Y197.963
G2 X81.234 Y197.98 I-0.028 J2.5
G1 X80.611 Y198.052
X80.481 Y198.07
X79.708 Y198.201
X79.586 Y198.225
X78.821 Y198.394
X78.69 Y198.427
X77.935 Y198.637
X77.808 Y198.676
X77.065 Y198.926
X76.947 Y198.969
X76.218 Y199.256
X76.098 Y199.307
X75.384 Y199.632
X75.263 Y199.691
X74.566 Y200.055
X74.454 Y200.117
X73.775 Y200.517
X73.66 Y200.589
X73.001 Y201.027
X72.895 Y201.101
X72.258 Y201.574
X72.169 Y201.643
X71.705 Y202.021
X71.639 Y202.076
X71.489 Y202.207
X71.482 Y202.213
X71.331 Y202.345
X71.273 Y202.398
X70.836 Y202.807
X70.756 Y202.885
X70.202 Y203.453
X70.109 Y203.553
X69.587 Y204.149
X69.506 Y204.247
X69.019 Y204.865
X68.938 Y204.973
X68.484 Y205.616
X68.412 Y205.724
X67.994 Y206.388
X67.927 Y206.5
X67.544 Y207.184
X67.484 Y207.299
X67.137 Y208.001
X67.082 Y208.12
X66.773 Y208.84
X66.725 Y208.961
X66.453 Y209.696
X66.411 Y209.821
X66.178 Y210.571
X66.143 Y210.695
X65.989 Y211.302
G2 X65.93 Y211.612 I2.423 J0.617
G1 X65.522 Y214.912
X-1.481 Y755.777
G2 X1 Y758.584 I2.481 J0.307
G1 X212.604 Y758.599
G2 X215.104 Y756.099 I0 J-2.5
G1 Y745.059
X215.103 Y745.003
X215.081 Y744.014
X215.079 Y743.946
X215.014 Y742.633
X215.009 Y742.553
X214.902 Y741.245
X214.893 Y741.159
X214.741 Y739.856
X214.731 Y739.781
X214.54 Y738.486
X214.526 Y738.4
X214.29 Y737.113
X214.274 Y737.035
X213.997 Y735.756
X213.979 Y735.677
X213.661 Y734.409
X213.639 Y734.329
X213.279 Y733.072
X213.256 Y732.995
X212.856 Y731.751
X212.83 Y731.673
X212.389 Y730.441
X212.36 Y730.364
X211.878 Y729.146
X211.846 Y729.071
X211.324 Y727.868
X211.29 Y727.792
X210.728 Y726.606
X210.693 Y726.535
X210.092 Y725.365
X210.059 Y725.303
X209.583 Y724.437
X209.552 Y724.383
X209.388 Y724.101
X209.126 Y723.647
X209.109 Y723.618
X208.3 Y722.263
X208.276 Y722.226
X207.165 Y720.438
X207.136 Y720.391
X205.987 Y718.629
X205.958 Y718.586
X204.773 Y716.85
X204.744 Y716.808
X203.525 Y715.097
X203.493 Y715.053
X202.237 Y713.369
X202.205 Y713.327
X200.915 Y711.672
X200.882 Y711.631
X199.556 Y710.002
X199.522 Y709.962
X198.163 Y708.362
X198.13 Y708.323
X196.737 Y706.75
X196.7 Y706.709
X195.274 Y705.168
X195.238 Y705.13
X193.78 Y703.619
X193.743 Y703.581
X192.251 Y702.099
X192.213 Y702.063
X190.691 Y700.613
X190.652 Y700.576
X189.096 Y699.156
X189.064 Y699.127
X187.879 Y698.083
X187.851 Y698.059
X187.454 Y697.719
X187.285 Y697.574
X187.253 Y697.547
X186.73 Y697.112
X186.692 Y697.082
X185.983 Y696.515
X185.935 Y696.477
X185.214 Y695.929
X185.173 Y695.898
X184.44 Y695.364
X184.392 Y695.33
X183.649 Y694.815
X183.602 Y694.784
X182.846 Y694.285
X182.796 Y694.253
X182.03 Y693.773
X181.985 Y693.745
X181.208 Y693.281
X181.161 Y693.253
X180.374 Y692.806
X180.323 Y692.778
X179.527 Y692.35
X179.475 Y692.323
X178.668 Y691.913
X178.617 Y691.888
X177.8 Y691.496
X177.749 Y691.472
X176.924 Y691.099
X176.876 Y691.078
X176.043 Y690.722
X175.987 Y690.699
X175.144 Y690.363
X175.101 Y690.346
X174.465 Y690.106
X174.438 Y690.096
X174.224 Y690.018
X174.212 Y690.014
X173.906 Y689.904
X172.978 Y689.56
X171.744 Y689.088
X170.517 Y688.6
X169.298 Y688.097
X168.086 Y687.578
X166.883 Y687.045
X165.687 Y686.494
X164.498 Y685.929
X163.317 Y685.348
X162.146 Y684.755
X160.983 Y684.143
X159.824 Y683.516
X158.675 Y682.876
X157.538 Y682.222
X156.408 Y681.55
X155.286 Y680.866
X154.174 Y680.167
X153.071 Y679.452
X151.976 Y678.723
X150.891 Y677.981
X149.816 Y677.224
X148.751 Y676.454
X147.697 Y675.67
X146.651 Y674.87
X145.616 Y674.056
X144.589 Y673.23
X143.576 Y672.391
X142.573 Y671.538
X141.582 Y670.671
X140.598 Y669.789
X139.625 Y668.893
X138.902 Y668.212
X138.667 Y667.988
X138.43 Y667.761
X137.721 Y667.07
X136.784 Y666.137
X135.862 Y665.193
X134.952 Y664.239
X134.056 Y663.274
X133.172 Y662.296
X132.302 Y661.308
X131.445 Y660.309
X130.601 Y659.299
X129.771 Y658.279
X128.955 Y657.249
X128.153 Y656.207
X127.363 Y655.156
X126.589 Y654.096
X125.827 Y653.022
X125.081 Y651.943
X124.348 Y650.851
X123.629 Y649.752
X122.926 Y648.642
X122.236 Y647.523
X121.56 Y646.394
X120.899 Y645.258
X120.254 Y644.113
X119.623 Y642.957
X119.007 Y641.795
X118.404 Y640.623
X117.819 Y639.445
X117.249 Y638.256
X116.693 Y637.06
X116.152 Y635.857
X115.626 Y634.643
X115.244 Y633.733
X115.121 Y633.431
X115.116 Y633.42
X115.033 Y633.218
X114.784 Y632.582
X114.467 Y631.72
X114.172 Y630.855
X113.9 Y629.986
X113.648 Y629.109
X113.418 Y628.228
X113.21 Y627.343
X113.023 Y626.448
X112.857 Y625.552
X112.714 Y624.654
X112.593 Y623.751
X112.492 Y622.845
X112.416 Y621.938
X112.36 Y621.024
X112.326 Y620.106
X112.315 Y619.421
Y619.198
X112.343 Y215.795
X112.345 Y215.622
X112.344 Y215.542
X112.332 Y214.979
X112.328 Y214.871
X112.28 Y214.127
X112.269 Y214.009
X112.186 Y213.27
X112.168 Y213.14
X112.047 Y212.41
X112.026 Y212.296
X111.871 Y211.572
X111.841 Y211.448
X111.65 Y210.735
X111.615 Y210.618
X111.39 Y209.917
X111.349 Y209.799
X111.089 Y209.109
X111.044 Y208.998
X110.751 Y208.321
X110.7 Y208.211
X110.375 Y207.55
X110.317 Y207.439
X109.958 Y206.793
X109.896 Y206.687
X109.506 Y206.06
X109.438 Y205.956
X109.016 Y205.347
X108.944 Y205.249
X108.491 Y204.659
X108.411 Y204.56
X107.927 Y203.992
X107.859 Y203.915
X107.477 Y203.502
X107.423 Y203.446
X107.292 Y203.313
X107.285 Y203.306
X107.153 Y203.173
X107.097 Y203.118
X106.689 Y202.732
X106.614 Y202.664
X106.051 Y202.173
X105.951 Y202.09
X105.366 Y201.631
X105.271 Y201.56
X104.667 Y201.131
X104.565 Y201.062
X103.942 Y200.664
X103.832 Y200.598
X103.19 Y200.233
X103.084 Y200.176
X102.427 Y199.843
X102.321 Y199.792
X101.648 Y199.49
X101.527 Y199.44
X100.841 Y199.174
X100.731 Y199.134
X100.031 Y198.9
X99.909 Y198.863
X99.198 Y198.665
X99.082 Y198.635
X98.36 Y198.471
X98.241 Y198.447
X97.511 Y198.318
X97.385 Y198.299
X96.648 Y198.207
X96.526 Y198.195
X95.782 Y198.139
X95.679 Y198.133
X95.117 Y198.114
X95.104
Z-15 F333.3
X95.033 Y198.113 F1000
X94.859
X84.871 Y198
X81.549 Y197.963
G2 X81.234 Y197.98 I-0.028 J2.5
G1 X80.611 Y198.052
X80.481 Y198.07
X79.708 Y198.201
X79.586 Y198.225
X78.821 Y198.394
X78.69 Y198.427
X77.935 Y198.637
X77.808 Y198.676
X77.065 Y198.926
X76.947 Y198.969
X76.218 Y199.256
X76.098 Y199.307
X75.384 Y199.632
X75.263 Y199.691
X74.566 Y200.055
X74.454 Y200.117
X73.775 Y200.517
X73.66 Y200.589
X73.001 Y201.027
X72.895 Y201.101
X72.258 Y201.574
X72.169 Y201.643
X71.705 Y202.021
X71.639 Y202.076
X71.489 Y202.207
X71.482 Y202.213
X71.331 Y202.345
X71.273 Y202.398
X70.836 Y202.807
X70.756 Y202.885
X70.202 Y203.453
X70.109 Y203.553
X69.587 Y204.149
X69.506 Y204.247
X69.019 Y204.865
X68.938 Y204.973
X68.484 Y205.616
X68.412 Y205.724
X67.994 Y206.388
X67.927 Y206.5
X67.544 Y207.184
X67.484 Y207.299
X67.137 Y208.001
X67.082 Y208.12
X66.773 Y208.84
X66.725 Y208.961
X66.453 Y209.696
X66.411 Y209.821
X66.178 Y210.571
X66.143 Y210.695
X65.989 Y211.302
G2 X65.93 Y211.612 I2.423 J0.617
G1 X65.522 Y214.912
X-1.481 Y755.777
G2 X1 Y758.584 I2.481 J0.307
G1 X212.604 Y758.599
G2 X215.104 Y756.099 I0 J-2.5
G1 Y745.059
X215.103 Y745.003
X215.081 Y744.014
X215.079 Y743.946
X215.014 Y742.633
X215.009 Y742.553
X214.902 Y741.245
X214.893 Y741.159
X214.741 Y739.856
X214.731 Y739.781
X214.54 Y738.486
X214.526 Y738.4
X214.29 Y737.113
X214.274 Y737.035
X213.997 Y735.756
X213.979 Y735.677
X213.661 Y734.409
X213.639 Y734.329
X213.279 Y733.072
X213.256 Y732.995
X212.856 Y731.751
X212.83 Y731.673
X212.389 Y730.441
X212.36 Y730.364
X211.878 Y729.146
X211.846 Y729.071
X211.324 Y727.868
X211.29 Y727.792
X210.728 Y726.606
X210.693 Y726.535
X210.092 Y725.365
X210.059 Y725.303
X209.583 Y724.437
X209.552 Y724.383
X209.388 Y724.101
X209.126 Y723.647
X209.109 Y723.618
X208.3 Y722.263
X208.276 Y722.226
X207.165 Y720.438
X207.136 Y720.391
X205.987 Y718.629
X205.958 Y718.586
X204.773 Y716.85
X204.744 Y716.808
X203.525 Y715.097
X203.493 Y715.053
X202.237 Y713.369
X202.205 Y713.327
X200.915 Y711.672
X200.882 Y711.631
X199.556 Y710.002
X199.522 Y709.962
X198.163 Y708.362
X198.13 Y708.323
X196.737 Y706.75
X196.7 Y706.709
X195.274 Y705.168
X195.238 Y705.13
X193.78 Y703.619
X193.743 Y703.581
X192.251 Y702.099
X192.213 Y702.063
X190.691 Y700.613
X190.652 Y700.576
X189.096 Y699.156
X189.064 Y699.127
X187.879 Y698.083
X187.851 Y698.059
X187.454 Y697.719
X187.285 Y697.574
X187.253 Y697.547
X186.73 Y697.112
X186.692 Y697.082
X185.983 Y696.515
X185.935 Y696.477
X185.214 Y695.929
X185.173 Y695.898
X184.44 Y695.364
X184.392 Y695.33
X183.649 Y694.815
X183.602 Y694.784
X182.846 Y694.285
X182.796 Y694.253
X182.03 Y693.773
X181.985 Y693.745
X181.208 Y693.281
X181.161 Y693.253
X180.374 Y692.806
X180.323 Y692.778
X179.527 Y692.35
X179.475 Y692.323
X178.668 Y691.913
X178.617 Y691.888
X177.8 Y691.496
X177.749 Y691.472
X176.924 Y691.099
X176.876 Y691.078
X176.043 Y690.722
X175.987 Y690.699
X175.144 Y690.363
X175.101 Y690.346
X174.465 Y690.106
X174.438 Y690.096
X174.224 Y690.018
X174.212 Y690.014
X173.906 Y689.904
X172.978 Y689.56
X171.744 Y689.088
X170.517 Y688.6
X169.298 Y688.097
X168.086 Y687.578
X166.883 Y687.045
X165.687 Y686.494
X164.498 Y685.929
X163.317 Y685.348
X162.146 Y684.755
X160.983 Y684.143
X159.824 Y683.516
X158.675 Y682.876
X157.538 Y682.222
X156.408 Y681.55
X155.286 Y680.866
X154.174 Y680.167
X153.071 Y679.452
X151.976 Y678.723
X150.891 Y677.981
X149.816 Y677.224
X148.751 Y676.454
X147.697 Y675.67
X146.651 Y674.87
X145.616 Y674.056
X144.589 Y673.23
X143.576 Y672.391
X142.573 Y671.538
X141.582 Y670.671
X140.598 Y669.789
X139.625 Y668.893
X138.902 Y668.212
X138.667 Y667.988
X138.43 Y667.761
X137.721 Y667.07
X136.784 Y666.137
X135.862 Y665.193
X134.952 Y664.239
X134.056 Y663.274
X133.172 Y662.296
X132.302 Y661.308
X131.445 Y660.309
X130.601 Y659.299
X129.771 Y658.279
X128.955 Y657.249
X128.153 Y656.207
X127.363 Y655.156
X126.589 Y654.096
X125.827 Y653.022
X125.081 Y651.943
X124.348 Y650.851
X123.629 Y649.752
X122.926 Y648.642
X122.236 Y647.523
X121.56 Y646.394
X120.899 Y645.258
X120.254 Y644.113
X119.623 Y642.957
X119.007 Y641.795
X118.404 Y640.623
X117.819 Y639.445
X117.249 Y638.256
X116.693 Y637.06
X116.152 Y635.857
X115.626 Y634.643
X115.244 Y633.733
X115.121 Y633.431
X115.116 Y633.42
X115.033 Y633.218
X114.784 Y632.582
X114.467 Y631.72
X114.172 Y630.855
X113.9 Y629.986
X113.648 Y629.109
X113.418 Y628.228
X113.21 Y627.343
X113.023 Y626.448
X112.857 Y625.552
X112.714 Y624.654
X112.593 Y623.751
X112.492 Y622.845
X112.416 Y621.938
X112.36 Y621.024
X112.326 Y620.106
X112.315 Y619.421
Y619.198
X112.343 Y215.795
X112.345 Y215.622
X112.344 Y215.542
X112.332 Y214.979
X112.328 Y214.871
X112.28 Y214.127
X112.269 Y214.009
X112.186 Y213.27
X112.168 Y213.14
X112.047 Y212.41
X112.026 Y212.296
X111.871 Y211.572
X111.841 Y211.448
X111.65 Y210.735
X111.615 Y210.618
X111.39 Y209.917
X111.349 Y209.799
X111.089 Y209.109
X111.044 Y208.998
X110.751 Y208.321
X110.7 Y208.211
X110.375 Y207.55
X110.317 Y207.439
X109.958 Y206.793
X109.896 Y206.687
X109.506 Y206.06
X109.438 Y205.956
X109.016 Y205.347
X108.944 Y205.249
X108.491 Y204.659
X108.411 Y204.56
X107.927 Y203.992
X107.859 Y203.915
X107.477 Y203.502
X107.423 Y203.446
X107.292 Y203.313
X107.285 Y203.306
X107.153 Y203.173
X107.097 Y203.118
X106.689 Y202.732
X106.614 Y202.664
X106.051 Y202.173
X105.951 Y202.09
X105.366 Y201.631
X105.271 Y201.56
X104.667 Y201.131
X104.565 Y201.062
X103.942 Y200.664
X103.832 Y200.598
X103.19 Y200.233
X103.084 Y200.176
X102.427 Y199.843
X102.321 Y199.792
X101.648 Y199.49
X101.527 Y199.44
X100.841 Y199.174
X100.731 Y199.134
X100.031 Y198.9
X99.909 Y198.863
X99.198 Y198.665
X99.082 Y198.635
X98.36 Y198.471
X98.241 Y198.447
X97.511 Y198.318
X97.385 Y198.299
X96.648 Y198.207
X96.526 Y198.195
X95.782 Y198.139
X95.679 Y198.133
X95.117 Y198.114
X95.104
Z-20 F333.3
X95.033 Y198.113 F1000
X94.859
X84.871 Y198
X81.549 Y197.963
G2 X81.234 Y197.98 I-0.028 J2.5
G1 X80.611 Y198.052
X80.481 Y198.07
X79.708 Y198.201
X79.586 Y198.225
X78.821 Y198.394
X78.69 Y198.427
X77.935 Y198.637
X77.808 Y198.676
X77.065 Y198.926
X76.947 Y198.969
X76.218 Y199.256
X76.098 Y199.307
X75.384 Y199.632
X75.263 Y199.691
X74.566 Y200.055
X74.454 Y200.117
X73.775 Y200.517
X73.66 Y200.589
X73.001 Y201.027
X72.895 Y201.101
X72.258 Y201.574
X72.169 Y201.643
X71.705 Y202.021
X71.639 Y202.076
X71.489 Y202.207
X71.482 Y202.213
X71.331 Y202.345
X71.273 Y202.398
X70.836 Y202.807
X70.756 Y202.885
X70.202 Y203.453
X70.109 Y203.553
X69.587 Y204.149
X69.506 Y204.247
X69.019 Y204.865
X68.938 Y204.973
X68.484 Y205.616
X68.412 Y205.724
X67.994 Y206.388
X67.927 Y206.5
X67.544 Y207.184
X67.484 Y207.299
X67.137 Y208.001
X67.082 Y208.12
X66.773 Y208.84
X66.725 Y208.961
X66.453 Y209.696
X66.411 Y209.821
X66.178 Y210.571
X66.143 Y210.695
X65.989 Y211.302
G2 X65.93 Y211.612 I2.423 J0.617
G1 X65.522 Y214.912
X-1.481 Y755.777
G2 X1 Y758.584 I2.481 J0.307
G1 X212.604 Y758.599
G2 X215.104 Y756.099 I0 J-2.5
G1 Y745.059
X215.103 Y745.003
X215.081 Y744.014
X215.079 Y743.946
X215.014 Y742.633
X215.009 Y742.553
X214.902 Y741.245
X214.893 Y741.159
X214.741 Y739.856
X214.731 Y739.781
X214.54 Y738.486
X214.526 Y738.4
X214.29 Y737.113
X214.274 Y737.035
X213.997 Y735.756
X213.979 Y735.677
X213.661 Y734.409
X213.639 Y734.329
X213.279 Y733.072
X213.256 Y732.995
X212.856 Y731.751
X212.83 Y731.673
X212.389 Y730.441
X212.36 Y730.364
X211.878 Y729.146
X211.846 Y729.071
X211.324 Y727.868
X211.29 Y727.792
X210.728 Y726.606
X210.693 Y726.535
X210.092 Y725.365
X210.059 Y725.303
X209.583 Y724.437
X209.552 Y724.383
X209.388 Y724.101
X209.126 Y723.647
X209.109 Y723.618
X208.3 Y722.263
X208.276 Y722.226
X207.165 Y720.438
X207.136 Y720.391
X205.987 Y718.629
X205.958 Y718.586
X204.773 Y716.85
X204.744 Y716.808
X203.525 Y715.097
X203.493 Y715.053
X202.237 Y713.369
X202.205 Y713.327
X200.915 Y711.672
X200.882 Y711.631
X199.556 Y710.002
X199.522 Y709.962
X198.163 Y708.362
X198.13 Y708.323
X196.737 Y706.75
X196.7 Y706.709
X195.274 Y705.168
X195.238 Y705.13
X193.78 Y703.619
X193.743 Y703.581
X192.251 Y702.099
X192.213 Y702.063
X190.691 Y700.613
X190.652 Y700.576
X189.096 Y699.156
X189.064 Y699.127
X187.879 Y698.083
X187.851 Y698.059
X187.454 Y697.719
X187.285 Y697.574
X187.253 Y697.547
X186.73 Y697.112
X186.692 Y697.082
X185.983 Y696.515
X185.935 Y696.477
X185.214 Y695.929
X185.173 Y695.898
X184.44 Y695.364
X184.392 Y695.33
X183.649 Y694.815
X183.602 Y694.784
X182.846 Y694.285
X182.796 Y694.253
X182.03 Y693.773
X181.985 Y693.745
X181.208 Y693.281
X181.161 Y693.253
X180.374 Y692.806
X180.323 Y692.778
X179.527 Y692.35
X179.475 Y692.323
X178.668 Y691.913
X178.617 Y691.888
X177.8 Y691.496
X177.749 Y691.472
X176.924 Y691.099
X176.876 Y691.078
X176.043 Y690.722
X175.987 Y690.699
X175.144 Y690.363
X175.101 Y690.346
X174.465 Y690.106
X174.438 Y690.096
X174.224 Y690.018
X174.212 Y690.014
X173.906 Y689.904
X172.978 Y689.56
X171.744 Y689.088
X170.517 Y688.6
X169.298 Y688.097
X168.086 Y687.578
X166.883 Y687.045
X165.687 Y686.494
X164.498 Y685.929
X163.317 Y685.348
X162.146 Y684.755
X160.983 Y684.143
X159.824 Y683.516
X158.675 Y682.876
X157.538 Y682.222
X156.408 Y681.55
X155.286 Y680.866
X154.174 Y680.167
X153.071 Y679.452
X151.976 Y678.723
X150.891 Y677.981
X149.816 Y677.224
X148.751 Y676.454
X147.697 Y675.67
X146.651 Y674.87
X145.616 Y674.056
X144.589 Y673.23
X143.576 Y672.391
X142.573 Y671.538
X141.582 Y670.671
X140.598 Y669.789
X139.625 Y668.893
X138.902 Y668.212
X138.667 Y667.988
X138.43 Y667.761
X137.721 Y667.07
X136.784 Y666.137
X135.862 Y665.193
X134.952 Y664.239
X134.056 Y663.274
X133.172 Y662.296
X132.302 Y661.308
X131.445 Y660.309
X130.601 Y659.299
X129.771 Y658.279
X128.955 Y657.249
X128.153 Y656.207
X127.363 Y655.156
X126.589 Y654.096
X125.827 Y653.022
X125.081 Y651.943
X124.348 Y650.851
X123.629 Y649.752
X122.926 Y648.642
X122.236 Y647.523
X121.56 Y646.394
X120.899 Y645.258
X120.254 Y644.113
X119.623 Y642.957
X119.007 Y641.795
X118.404 Y640.623
X117.819 Y639.445
X117.249 Y638.256
X116.693 Y637.06
X116.152 Y635.857
X115.626 Y634.643
X115.244 Y633.733
X115.121 Y633.431
X115.116 Y633.42
X115.033 Y633.218
X114.784 Y632.582
X114.467 Y631.72
X114.172 Y630.855
X113.9 Y629.986
X113.648 Y629.109
X113.418 Y628.228
X113.21 Y627.343
X113.023 Y626.448
X112.857 Y625.552
X112.714 Y624.654
X112.593 Y623.751
X112.492 Y622.845
X112.416 Y621.938
X112.36 Y621.024
X112.326 Y620.106
X112.315 Y619.421
Y619.198
X112.343 Y215.795
X112.345 Y215.622
X112.344 Y215.542
X112.332 Y214.979
X112.328 Y214.871
X112.28 Y214.127
X112.269 Y214.009
X112.186 Y213.27
X112.168 Y213.14
X112.047 Y212.41
X112.026 Y212.296
X111.871 Y211.572
X111.841 Y211.448
X111.65 Y210.735
X111.615 Y210.618
X111.39 Y209.917
X111.349 Y209.799
X111.089 Y209.109
X111.044 Y208.998
X110.751 Y208.321
X110.7 Y208.211
X110.375 Y207.55
X110.317 Y207.439
X109.958 Y206.793
X109.896 Y206.687
X109.506 Y206.06
X109.438 Y205.956
X109.016 Y205.347
X108.944 Y205.249
X108.491 Y204.659
X108.411 Y204.56
X107.927 Y203.992
X107.859 Y203.915
X107.477 Y203.502
X107.423 Y203.446
X107.292 Y203.313
X107.285 Y203.306
X107.153 Y203.173
X107.097 Y203.118
X106.689 Y202.732
X106.614 Y202.664
X106.051 Y202.173
X105.951 Y202.09
X105.366 Y201.631
X105.271 Y201.56
X104.667 Y201.131
X104.565 Y201.062
X103.942 Y200.664
X103.832 Y200.598
X103.19 Y200.233
X103.084 Y200.176
X102.427 Y199.843
X102.321 Y199.792
X101.648 Y199.49
X101.527 Y199.44
X100.841 Y199.174
X100.731 Y199.134
X100.031 Y198.9
X99.909 Y198.863
X99.198 Y198.665
X99.082 Y198.635
X98.36 Y198.471
X98.241 Y198.447
X97.511 Y198.318
X97.385 Y198.299
X96.648 Y198.207
X96.526 Y198.195
X95.782 Y198.139
X95.679 Y198.133
X95.117 Y198.114
X95.104
Z-25 F333.3
X95.033 Y198.113 F1000
X94.859
X84.871 Y198
X81.549 Y197.963
G2 X81.234 Y197.98 I-0.028 J2.5
G1 X80.611 Y198.052
X80.481 Y198.07
X79.708 Y198.201
X79.586 Y198.225
X78.821 Y198.394
X78.69 Y198.427
X77.935 Y198.637
X77.808 Y198.676
X77.065 Y198.926
X76.947 Y198.969
X76.218 Y199.256
X76.098 Y199.307
X75.384 Y199.632
X75.263 Y199.691
X74.566 Y200.055
X74.454 Y200.117
X73.775 Y200.517
X73.66 Y200.589
X73.001 Y201.027
X72.895 Y201.101
X72.258 Y201.574
X72.169 Y201.643
X71.705 Y202.021
X71.639 Y202.076
X71.489 Y202.207
X71.482 Y202.213
X71.331 Y202.345
X71.273 Y202.398
X70.836 Y202.807
X70.756 Y202.885
X70.202 Y203.453
X70.109 Y203.553
X69.587 Y204.149
X69.506 Y204.247
X69.019 Y204.865
X68.938 Y204.973
X68.484 Y205.616
X68.412 Y205.724
X67.994 Y206.388
X67.927 Y206.5
X67.544 Y207.184
X67.484 Y207.299
X67.137 Y208.001
X67.082 Y208.12
X66.773 Y208.84
X66.725 Y208.961
X66.453 Y209.696
X66.411 Y209.821
X66.178 Y210.571
X66.143 Y210.695
X65.989 Y211.302
G2 X65.93 Y211.612 I2.423 J0.617
G1 X65.522 Y214.912
X-1.481 Y755.777
G2 X1 Y758.584 I2.481 J0.307
G1 X212.604 Y758.599
G2 X215.104 Y756.099 I0 J-2.5
G1 Y745.059
X215.103 Y745.003
X215.081 Y744.014
X215.079 Y743.946
X215.014 Y742.633
X215.009 Y742.553
X214.902 Y741.245
X214.893 Y741.159
X214.741 Y739.856
X214.731 Y739.781
X214.54 Y738.486
X214.526 Y738.4
X214.29 Y737.113
X214.274 Y737.035
X213.997 Y735.756
X213.979 Y735.677
X213.661 Y734.409
X213.639 Y734.329
X213.279 Y733.072
X213.256 Y732.995
X212.856 Y731.751
X212.83 Y731.673
X212.389 Y730.441
X212.36 Y730.364
X211.878 Y729.146
X211.846 Y729.071
X211.324 Y727.868
X211.29 Y727.792
X210.728 Y726.606
X210.693 Y726.535
X210.092 Y725.365
X210.059 Y725.303
X209.583 Y724.437
X209.552 Y724.383
X209.388 Y724.101
X209.126 Y723.647
X209.109 Y723.618
X208.3 Y722.263
X208.276 Y722.226
X207.165 Y720.438
X207.136 Y720.391
X205.987 Y718.629
X205.958 Y718.586
X204.773 Y716.85
X204.744 Y716.808
X203.525 Y715.097
X203.493 Y715.053
X202.237 Y713.369
X202.205 Y713.327
X200.915 Y711.672
X200.882 Y711.631
X199.556 Y710.002
X199.522 Y709.962
X198.163 Y708.362
X198.13 Y708.323
X196.737 Y706.75
X196.7 Y706.709
X195.274 Y705.168
X195.238 Y705.13
X193.78 Y703.619
X193.743 Y703.581
X192.251 Y702.099
X192.213 Y702.063
X190.691 Y700.613
X190.652 Y700.576
X189.096 Y699.156
X189.064 Y699.127
X187.879 Y698.083
X187.851 Y698.059
X187.454 Y697.719
X187.285 Y697.574
X187.253 Y697.547
X186.73 Y697.112
X186.692 Y697.082
X185.983 Y696.515
X185.935 Y696.477
X185.214 Y695.929
X185.173 Y695.898
X184.44 Y695.364
X184.392 Y695.33
X183.649 Y694.815
X183.602 Y694.784
X182.846 Y694.285
X182.796 Y694.253
X182.03 Y693.773
X181.985 Y693.745
X181.208 Y693.281
X181.161 Y693.253
X180.374 Y692.806
X180.323 Y692.778
X179.527 Y692.35
X179.475 Y692.323
X178.668 Y691.913
X178.617 Y691.888
X177.8 Y691.496
X177.749 Y691.472
X176.924 Y691.099
X176.876 Y691.078
X176.043 Y690.722
X175.987 Y690.699
X175.144 Y690.363
X175.101 Y690.346
X174.465 Y690.106
X174.438 Y690.096
X174.224 Y690.018
X174.212 Y690.014
X173.906 Y689.904
X172.978 Y689.56
X171.744 Y689.088
X170.517 Y688.6
X169.298 Y688.097
X168.086 Y687.578
X166.883 Y687.045
X165.687 Y686.494
X164.498 Y685.929
X163.317 Y685.348
X162.146 Y684.755
X160.983 Y684.143
X159.824 Y683.516
X158.675 Y682.876
X157.538 Y682.222
X156.408 Y681.55
X155.286 Y680.866
X154.174 Y680.167
X153.071 Y679.452
X151.976 Y678.723
X150.891 Y677.981
X149.816 Y677.224
X148.751 Y676.454
X147.697 Y675.67
X146.651 Y674.87
X145.616 Y674.056
X144.589 Y673.23
X143.576 Y672.391
X142.573 Y671.538
X141.582 Y670.671
X140.598 Y669.789
X139.625 Y668.893
X138.902 Y668.212
X138.667 Y667.988
X138.43 Y667.761
X137.721 Y667.07
X136.784 Y666.137
X135.862 Y665.193
X134.952 Y664.239
X134.056 Y663.274
X133.172 Y662.296
X132.302 Y661.308
X131.445 Y660.309
X130.601 Y659.299
X129.771 Y658.279
X128.955 Y657.249
X128.153 Y656.207
X127.363 Y655.156
X126.589 Y654.096
X125.827 Y653.022
X125.081 Y651.943
X124.348 Y650.851
X123.629 Y649.752
X122.926 Y648.642
X122.236 Y647.523
X121.56 Y646.394
X120.899 Y645.258
X120.254 Y644.113
X119.623 Y642.957
X119.007 Y641.795
X118.404 Y640.623
X117.819 Y639.445
X117.249 Y638.256
X116.693 Y637.06
X116.152 Y635.857
X115.626 Y634.643
X115.244 Y633.733
X115.121 Y633.431
X115.116 Y633.42
X115.033 Y633.218
X114.784 Y632.582
X114.467 Y631.72
X114.172 Y630.855
X113.9 Y629.986
X113.648 Y629.109
X113.418 Y628.228
X113.21 Y627.343
X113.023 Y626.448
X112.857 Y625.552
X112.714 Y624.654
X112.593 Y623.751
X112.492 Y622.845
X112.416 Y621.938
X112.36 Y621.024
X112.326 Y620.106
X112.315 Y619.421
Y619.198
X112.343 Y215.795
X112.345 Y215.622
X112.344 Y215.542
X112.332 Y214.979
X112.328 Y214.871
X112.28 Y214.127
X112.269 Y214.009
X112.186 Y213.27
X112.168 Y213.14
X112.047 Y212.41
X112.026 Y212.296
X111.871 Y211.572
X111.841 Y211.448
X111.65 Y210.735
X111.615 Y210.618
X111.39 Y209.917
X111.349 Y209.799
X111.089 Y209.109
X111.044 Y208.998
X110.751 Y208.321
X110.7 Y208.211
X110.375 Y207.55
X110.317 Y207.439
X109.958 Y206.793
X109.896 Y206.687
X109.506 Y206.06
X109.438 Y205.956
X109.016 Y205.347
X108.944 Y205.249
X108.491 Y204.659
X108.411 Y204.56
X107.927 Y203.992
X107.859 Y203.915
X107.477 Y203.502
X107.423 Y203.446
X107.292 Y203.313
X107.285 Y203.306
X107.153 Y203.173
X107.097 Y203.118
X106.689 Y202.732
X106.614 Y202.664
X106.051 Y202.173
X105.951 Y202.09
X105.366 Y201.631
X105.271 Y201.56
X104.667 Y201.131
X104.565 Y201.062
X103.942 Y200.664
X103.832 Y200.598
X103.19 Y200.233
X103.084 Y200.176
X102.427 Y199.843
X102.321 Y199.792
X101.648 Y199.49
X101.527 Y199.44
X100.841 Y199.174
X100.731 Y199.134
X100.031 Y198.9
X99.909 Y198.863
X99.198 Y198.665
X99.082 Y198.635
X98.36 Y198.471
X98.241 Y198.447
X97.511 Y198.318
X97.385 Y198.299
X96.648 Y198.207
X96.526 Y198.195
X95.782 Y198.139
X95.679 Y198.133
X95.117 Y198.114
X95.104
Z-28 F333.3
X95.033 Y198.113 F1000
X94.859
X84.871 Y198
X81.549 Y197.963
G2 X81.234 Y197.98 I-0.028 J2.5
G1 X80.611 Y198.052
X80.481 Y198.07
X79.708 Y198.201
X79.586 Y198.225
X78.821 Y198.394
X78.69 Y198.427
X77.935 Y198.637
X77.808 Y198.676
X77.065 Y198.926
X76.947 Y198.969
X76.218 Y199.256
X76.098 Y199.307
X75.384 Y199.632
X75.263 Y199.691
X74.566 Y200.055
X74.454 Y200.117
X73.775 Y200.517
X73.66 Y200.589
X73.001 Y201.027
X72.895 Y201.101
X72.258 Y201.574
X72.169 Y201.643
X71.705 Y202.021
X71.639 Y202.076
X71.489 Y202.207
X71.482 Y202.213
X71.331 Y202.345
X71.273 Y202.398
X70.836 Y202.807
X70.756 Y202.885
X70.202 Y203.453
X70.109 Y203.553
X69.587 Y204.149
X69.506 Y204.247
X69.019 Y204.865
X68.938 Y204.973
X68.484 Y205.616
X68.412 Y205.724
X67.994 Y206.388
X67.927 Y206.5
X67.544 Y207.184
X67.484 Y207.299
X67.137 Y208.001
X67.082 Y208.12
X66.773 Y208.84
X66.725 Y208.961
X66.453 Y209.696
X66.411 Y209.821
X66.178 Y210.571
X66.143 Y210.695
X65.989 Y211.302
G2 X65.93 Y211.612 I2.423 J0.617
G1 X65.522 Y214.912
X-1.481 Y755.777
G2 X1 Y758.584 I2.481 J0.307
G1 X212.604 Y758.599
G2 X215.104 Y756.099 I0 J-2.5
G1 Y745.059
X215.103 Y745.003
X215.081 Y744.014
X215.079 Y743.946
X215.014 Y742.633
X215.009 Y742.553
X214.902 Y741.245
X214.893 Y741.159
X214.741 Y739.856
X214.731 Y739.781
X214.54 Y738.486
X214.526 Y738.4
X214.29 Y737.113
X214.274 Y737.035
X213.997 Y735.756
X213.979 Y735.677
X213.661 Y734.409
X213.639 Y734.329
X213.279 Y733.072
X213.256 Y732.995
X212.856 Y731.751
X212.83 Y731.673
X212.389 Y730.441
X212.36 Y730.364
X211.878 Y729.146
X211.846 Y729.071
X211.324 Y727.868
X211.29 Y727.792
X210.728 Y726.606
X210.693 Y726.535
X210.092 Y725.365
X210.059 Y725.303
X209.583 Y724.437
X209.552 Y724.383
X209.388 Y724.101
X209.126 Y723.647
X209.109 Y723.618
X208.3 Y722.263
X208.276 Y722.226
X207.165 Y720.438
X207.136 Y720.391
X205.987 Y718.629
X205.958 Y718.586
X204.773 Y716.85
X204.744 Y716.808
X203.525 Y715.097
X203.493 Y715.053
X202.237 Y713.369
X202.205 Y713.327
X200.915 Y711.672
X200.882 Y711.631
X199.556 Y710.002
X199.522 Y709.962
X198.163 Y708.362
X198.13 Y708.323
X196.737 Y706.75
X196.7 Y706.709
X195.274 Y705.168
X195.238 Y705.13
X193.78 Y703.619
X193.743 Y703.581
X192.251 Y702.099
X192.213 Y702.063
X190.691 Y700.613
X190.652 Y700.576
X189.096 Y699.156
X189.064 Y699.127
X187.879 Y698.083
X187.851 Y698.059
X187.454 Y697.719
X187.285 Y697.574
X187.253 Y697.547
X186.73 Y697.112
X186.692 Y697.082
X185.983 Y696.515
X185.935 Y696.477
X185.214 Y695.929
X185.173 Y695.898
X184.44 Y695.364
X184.392 Y695.33
X183.649 Y694.815
X183.602 Y694.784
X182.846 Y694.285
X182.796 Y694.253
X182.03 Y693.773
X181.985 Y693.745
X181.208 Y693.281
X181.161 Y693.253
X180.374 Y692.806
X180.323 Y692.778
X179.527 Y692.35
X179.475 Y692.323
X178.668 Y691.913
X178.617 Y691.888
X177.8 Y691.496
X177.749 Y691.472
X176.924 Y691.099
X176.876 Y691.078
X176.043 Y690.722
X175.987 Y690.699
X175.144 Y690.363
X175.101 Y690.346
X174.465 Y690.106
X174.438 Y690.096
X174.224 Y690.018
X174.212 Y690.014
X173.906 Y689.904
X172.978 Y689.56
X171.744 Y689.088
X170.517 Y688.6
X169.298 Y688.097
X168.086 Y687.578
X166.883 Y687.045
X165.687 Y686.494
X164.498 Y685.929
X163.317 Y685.348
X162.146 Y684.755
X160.983 Y684.143
X159.824 Y683.516
X158.675 Y682.876
X157.538 Y682.222
X156.408 Y681.55
X155.286 Y680.866
X154.174 Y680.167
X153.071 Y679.452
X151.976 Y678.723
X150.891 Y677.981
X149.816 Y677.224
X148.751 Y676.454
X147.697 Y675.67
X146.651 Y674.87
X145.616 Y674.056
X144.589 Y673.23
X143.576 Y672.391
X142.573 Y671.538
X141.582 Y670.671
X140.598 Y669.789
X139.625 Y668.893
X138.902 Y668.212
X138.667 Y667.988
X138.43 Y667.761
X137.721 Y667.07
X136.784 Y666.137
X135.862 Y665.193
X134.952 Y664.239
X134.056 Y663.274
X133.172 Y662.296
X132.302 Y661.308
X131.445 Y660.309
X130.601 Y659.299
X129.771 Y658.279
X128.955 Y657.249
X128.153 Y656.207
X127.363 Y655.156
X126.589 Y654.096
X125.827 Y653.022
X125.081 Y651.943
X124.348 Y650.851
X123.629 Y649.752
X122.926 Y648.642
X122.236 Y647.523
X121.56 Y646.394
X120.899 Y645.258
X120.254 Y644.113
X119.623 Y642.957
X119.007 Y641.795
X118.404 Y640.623
X117.819 Y639.445
X117.249 Y638.256
X116.693 Y637.06
X116.152 Y635.857
X115.626 Y634.643
X115.244 Y633.733
X115.121 Y633.431
X115.116 Y633.42
X115.033 Y633.218
X114.784 Y632.582
X114.467 Y631.72
X114.172 Y630.855
X113.9 Y629.986
X113.648 Y629.109
X113.418 Y628.228
X113.21 Y627.343
X113.023 Y626.448
X112.857 Y625.552
X112.714 Y624.654
X112.593 Y623.751
X112.492 Y622.845
X112.416 Y621.938
X112.36 Y621.024
X112.326 Y620.106
X112.315 Y619.421
Y619.198
X112.343 Y215.795
X112.345 Y215.622
X112.344 Y215.542
X112.332 Y214.979
X112.328 Y214.871
X112.28 Y214.127
X112.269 Y214.009
X112.186 Y213.27
X112.168 Y213.14
X112.047 Y212.41
X112.026 Y212.296
X111.871 Y211.572
X111.841 Y211.448
X111.65 Y210.735
X111.615 Y210.618
X111.39 Y209.917
X111.349 Y209.799
X111.089 Y209.109
X111.044 Y208.998
X110.751 Y208.321
X110.7 Y208.211
X110.375 Y207.55
X110.317 Y207.439
X109.958 Y206.793
X109.896 Y206.687
X109.506 Y206.06
X109.438 Y205.956
X109.016 Y205.347
X108.944 Y205.249
X108.491 Y204.659
X108.411 Y204.56
X107.927 Y203.992
X107.859 Y203.915
X107.477 Y203.502
X107.423 Y203.446
X107.292 Y203.313
X107.285 Y203.306
X107.153 Y203.173
X107.097 Y203.118
X106.689 Y202.732
X106.614 Y202.664
X106.051 Y202.173
X105.951 Y202.09
X105.366 Y201.631
X105.271 Y201.56
X104.667 Y201.131
X104.565 Y201.062
X103.942 Y200.664
X103.832 Y200.598
X103.19 Y200.233
X103.084 Y200.176
X102.427 Y199.843
X102.321 Y199.792
X101.648 Y199.49
X101.527 Y199.44
X100.841 Y199.174
X100.731 Y199.134
X100.031 Y198.9
X99.909 Y198.863
X99.198 Y198.665
X99.082 Y198.635
X98.36 Y198.471
X98.241 Y198.447
X97.511 Y198.318
X97.385 Y198.299
X96.648 Y198.207
X96.526 Y198.195
X95.782 Y198.139
X95.679 Y198.133
X95.117 Y198.114
X95.104
Z5
G0 Z15

M9
M5
M30
