(MonaSattelhalterNase_2)
(T4 D=5 CR=0 - ZMIN=-28 - flat end mill)
G90 G94
G17
G21
(-Attention- Property Safe Retracts is set to Clearance Height.)
(Ensure the clearance height will clear the part and or fixtures.)
(Raise the Z-axis to a safe height before starting the program.)

(2D Contour1 2)
T4
S5000 M3
G17 G90 G94
G54
M8
G0 X136.814 Y638.997
Z15
G0 Z5
G1 Z3 F333.3
Z-5
X136.885 Y638.998 F1000
X137.059
X147.047 Y639.11
X150.368 Y639.147
G2 X150.679 Y639.131 I0.028 J-2.5
G1 X151.302 Y639.06
X151.436 Y639.041
X152.21 Y638.91
X152.335 Y638.885
X153.1 Y638.715
X153.225 Y638.684
X153.98 Y638.475
X154.112 Y638.435
X154.853 Y638.185
X154.973 Y638.141
X155.702 Y637.853
X155.819 Y637.803
X156.533 Y637.478
X156.654 Y637.419
X157.351 Y637.055
X157.462 Y636.994
X158.142 Y636.594
X158.256 Y636.523
X158.915 Y636.086
X159.024 Y636.009
X159.662 Y635.535
X159.748 Y635.468
X160.213 Y635.09
X160.28 Y635.033
X160.58 Y634.771
X160.649 Y634.709
X161.085 Y634.299
X161.159 Y634.227
X161.715 Y633.659
X161.81 Y633.555
X162.331 Y632.959
X162.41 Y632.865
X162.898 Y632.247
X162.983 Y632.134
X163.435 Y631.491
X163.503 Y631.389
X163.923 Y630.725
X163.992 Y630.609
X164.374 Y629.926
X164.434 Y629.813
X164.781 Y629.11
X164.837 Y628.987
X165.145 Y628.268
X165.192 Y628.152
X165.464 Y627.417
X165.507 Y627.288
X165.739 Y626.538
X165.773 Y626.418
X165.928 Y625.811
G2 X165.987 Y625.5 I-2.422 J-0.619
G1 X166.396 Y622.2
X233.399 Y81.333
G2 X230.918 Y78.526 I-2.481 J-0.307
G1 X19.314 Y78.511
G2 X16.814 Y81.011 I0 J2.5
G1 Y92.052
X16.815 Y92.107
X16.836 Y93.094
X16.839 Y93.163
X16.904 Y94.477
X16.909 Y94.558
X17.017 Y95.867
X17.025 Y95.949
X17.175 Y97.251
X17.186 Y97.332
X17.379 Y98.627
X17.392 Y98.708
X17.627 Y99.995
X17.643 Y100.075
X17.92 Y101.354
X17.939 Y101.434
X18.257 Y102.702
X18.278 Y102.78
X18.637 Y104.038
X18.661 Y104.117
X19.062 Y105.362
X19.089 Y105.44
X19.53 Y106.671
X19.558 Y106.746
X20.04 Y107.964
X20.071 Y108.04
X20.593 Y109.243
X20.628 Y109.318
X21.19 Y110.504
X21.225 Y110.577
X21.827 Y111.747
X21.859 Y111.808
X22.335 Y112.674
X22.363 Y112.723
X22.528 Y113.008
X22.792 Y113.463
X22.809 Y113.492
X23.619 Y114.848
X23.642 Y114.886
X24.753 Y116.674
X24.782 Y116.719
X25.93 Y118.481
X25.959 Y118.525
X27.144 Y120.261
X27.173 Y120.304
X28.394 Y122.015
X28.425 Y122.058
X29.681 Y123.741
X29.712 Y123.782
X31.003 Y125.439
X31.037 Y125.481
X32.362 Y127.109
X32.395 Y127.149
X33.754 Y128.749
X33.789 Y128.789
X35.181 Y130.361
X35.217 Y130.4
X36.643 Y131.942
X36.68 Y131.981
X38.139 Y133.493
X38.176 Y133.531
X39.667 Y135.012
X39.704 Y135.048
X41.227 Y136.499
X41.267 Y136.536
X42.821 Y137.954
X42.853 Y137.982
X44.038 Y139.027
X44.067 Y139.052
X44.464 Y139.392
X44.635 Y139.538
X44.667 Y139.565
X45.19 Y140
X45.227 Y140.03
X45.936 Y140.596
X45.981 Y140.632
X46.702 Y141.181
X46.746 Y141.213
X47.478 Y141.746
X47.525 Y141.779
X48.269 Y142.295
X48.317 Y142.328
X49.072 Y142.826
X49.119 Y142.856
X49.885 Y143.337
X49.932 Y143.366
X50.709 Y143.83
X50.759 Y143.859
X51.545 Y144.305
X51.593 Y144.331
X52.39 Y144.76
X52.442 Y144.788
X53.249 Y145.198
X53.301 Y145.224
X54.118 Y145.615
X54.166 Y145.637
X54.991 Y146.011
X55.044 Y146.034
X55.878 Y146.389
X55.928 Y146.41
X56.771 Y146.747
X56.818 Y146.765
X57.455 Y147.005
X57.498 Y147.021
X57.706 Y147.095
X58.009 Y147.205
X58.938 Y147.549
X60.174 Y148.023
X61.401 Y148.511
X62.62 Y149.014
X63.831 Y149.533
X65.034 Y150.066
X66.23 Y150.617
X67.419 Y151.182
X68.601 Y151.763
X69.772 Y152.357
X70.936 Y152.968
X72.094 Y153.594
X73.241 Y154.234
X74.379 Y154.889
X75.51 Y155.561
X76.632 Y156.245
X77.744 Y156.945
X78.848 Y157.659
X79.942 Y158.387
X81.025 Y159.128
X82.101 Y159.887
X83.167 Y160.657
X84.221 Y161.441
X85.266 Y162.24
X86.302 Y163.054
X87.327 Y163.88
X88.341 Y164.72
X89.345 Y165.574
X90.338 Y166.441
X91.32 Y167.321
X92.292 Y168.217
X93.016 Y168.899
X93.251 Y169.123
X93.486 Y169.348
X94.198 Y170.042
X95.134 Y170.974
X96.056 Y171.917
X96.966 Y172.872
X97.862 Y173.837
X98.746 Y174.816
X99.616 Y175.803
X100.473 Y176.802
X101.316 Y177.811
X102.146 Y178.832
X102.962 Y179.863
X103.765 Y180.903
X104.553 Y181.954
X105.329 Y183.016
X106.09 Y184.088
X106.837 Y185.168
X107.569 Y186.258
X108.288 Y187.359
X108.993 Y188.47
X109.683 Y189.587
X110.358 Y190.716
X111.018 Y191.852
X111.664 Y192.998
X112.295 Y194.154
X112.911 Y195.316
X113.513 Y196.487
X114.099 Y197.667
X114.669 Y198.855
X115.225 Y200.051
X115.765 Y201.253
X116.291 Y202.469
X116.675 Y203.379
X116.797 Y203.679
X116.802 Y203.69
X116.885 Y203.892
X117.133 Y204.529
X117.452 Y205.392
X117.746 Y206.255
X118.018 Y207.125
X118.269 Y208.001
X118.499 Y208.883
X118.708 Y209.77
X118.895 Y210.66
X119.06 Y211.557
X119.203 Y212.458
X119.325 Y213.36
X119.425 Y214.266
X119.502 Y215.174
X119.558 Y216.086
X119.592 Y217.005
X119.603 Y217.69
Y217.913
X119.575 Y621.308
X119.572 Y621.476
X119.573 Y621.574
X119.586 Y622.135
X119.59 Y622.234
X119.637 Y622.98
X119.648 Y623.106
X119.732 Y623.843
X119.749 Y623.964
X119.869 Y624.696
X119.892 Y624.82
X120.048 Y625.542
X120.077 Y625.66
X120.268 Y626.374
X120.302 Y626.491
X120.527 Y627.193
X120.567 Y627.309
X120.826 Y627.999
X120.873 Y628.114
X121.166 Y628.79
X121.218 Y628.902
X121.544 Y629.563
X121.601 Y629.671
X121.96 Y630.317
X122.021 Y630.422
X122.411 Y631.05
X122.481 Y631.156
X122.903 Y631.764
X122.973 Y631.86
X123.426 Y632.451
X123.507 Y632.551
X123.991 Y633.119
X124.059 Y633.195
X124.44 Y633.607
X124.494 Y633.664
X124.626 Y633.798
X124.633 Y633.805
X124.765 Y633.938
X124.821 Y633.993
X125.229 Y634.379
X125.306 Y634.449
X125.869 Y634.939
X125.963 Y635.017
X126.547 Y635.477
X126.648 Y635.552
X127.253 Y635.981
X127.355 Y636.05
X127.979 Y636.447
X128.082 Y636.51
X128.723 Y636.876
X128.834 Y636.936
X129.492 Y637.269
X129.6 Y637.32
X130.273 Y637.621
X130.387 Y637.669
X131.073 Y637.936
X131.19 Y637.978
X131.89 Y638.211
X132.006 Y638.246
X132.717 Y638.445
X132.837 Y638.476
X133.558 Y638.64
X133.68 Y638.664
X134.41 Y638.792
X134.529 Y638.81
X135.266 Y638.903
X135.395 Y638.916
X136.139 Y638.971
X136.234 Y638.976
X136.796 Y638.996
X136.814 Y638.997
Z-10 F333.3
X136.885 Y638.998 F1000
X137.059
X147.047 Y639.11
X150.368 Y639.147
G2 X150.679 Y639.131 I0.028 J-2.5
G1 X151.302 Y639.06
X151.436 Y639.041
X152.21 Y638.91
X152.335 Y638.885
X153.1 Y638.715
X153.225 Y638.684
X153.98 Y638.475
X154.112 Y638.435
X154.853 Y638.185
X154.973 Y638.141
X155.702 Y637.853
X155.819 Y637.803
X156.533 Y637.478
X156.654 Y637.419
X157.351 Y637.055
X157.462 Y636.994
X158.142 Y636.594
X158.256 Y636.523
X158.915 Y636.086
X159.024 Y636.009
X159.662 Y635.535
X159.748 Y635.468
X160.213 Y635.09
X160.28 Y635.033
X160.58 Y634.771
X160.649 Y634.709
X161.085 Y634.299
X161.159 Y634.227
X161.715 Y633.659
X161.81 Y633.555
X162.331 Y632.959
X162.41 Y632.865
X162.898 Y632.247
X162.983 Y632.134
X163.435 Y631.491
X163.503 Y631.389
X163.923 Y630.725
X163.992 Y630.609
X164.374 Y629.926
X164.434 Y629.813
X164.781 Y629.11
X164.837 Y628.987
X165.145 Y628.268
X165.192 Y628.152
X165.464 Y627.417
X165.507 Y627.288
X165.739 Y626.538
X165.773 Y626.418
X165.928 Y625.811
G2 X165.987 Y625.5 I-2.422 J-0.619
G1 X166.396 Y622.2
X233.399 Y81.333
G2 X230.918 Y78.526 I-2.481 J-0.307
G1 X19.314 Y78.511
G2 X16.814 Y81.011 I0 J2.5
G1 Y92.052
X16.815 Y92.107
X16.836 Y93.094
X16.839 Y93.163
X16.904 Y94.477
X16.909 Y94.558
X17.017 Y95.867
X17.025 Y95.949
X17.175 Y97.251
X17.186 Y97.332
X17.379 Y98.627
X17.392 Y98.708
X17.627 Y99.995
X17.643 Y100.075
X17.92 Y101.354
X17.939 Y101.434
X18.257 Y102.702
X18.278 Y102.78
X18.637 Y104.038
X18.661 Y104.117
X19.062 Y105.362
X19.089 Y105.44
X19.53 Y106.671
X19.558 Y106.746
X20.04 Y107.964
X20.071 Y108.04
X20.593 Y109.243
X20.628 Y109.318
X21.19 Y110.504
X21.225 Y110.577
X21.827 Y111.747
X21.859 Y111.808
X22.335 Y112.674
X22.363 Y112.723
X22.528 Y113.008
X22.792 Y113.463
X22.809 Y113.492
X23.619 Y114.848
X23.642 Y114.886
X24.753 Y116.674
X24.782 Y116.719
X25.93 Y118.481
X25.959 Y118.525
X27.144 Y120.261
X27.173 Y120.304
X28.394 Y122.015
X28.425 Y122.058
X29.681 Y123.741
X29.712 Y123.782
X31.003 Y125.439
X31.037 Y125.481
X32.362 Y127.109
X32.395 Y127.149
X33.754 Y128.749
X33.789 Y128.789
X35.181 Y130.361
X35.217 Y130.4
X36.643 Y131.942
X36.68 Y131.981
X38.139 Y133.493
X38.176 Y133.531
X39.667 Y135.012
X39.704 Y135.048
X41.227 Y136.499
X41.267 Y136.536
X42.821 Y137.954
X42.853 Y137.982
X44.038 Y139.027
X44.067 Y139.052
X44.464 Y139.392
X44.635 Y139.538
X44.667 Y139.565
X45.19 Y140
X45.227 Y140.03
X45.936 Y140.596
X45.981 Y140.632
X46.702 Y141.181
X46.746 Y141.213
X47.478 Y141.746
X47.525 Y141.779
X48.269 Y142.295
X48.317 Y142.328
X49.072 Y142.826
X49.119 Y142.856
X49.885 Y143.337
X49.932 Y143.366
X50.709 Y143.83
X50.759 Y143.859
X51.545 Y144.305
X51.593 Y144.331
X52.39 Y144.76
X52.442 Y144.788
X53.249 Y145.198
X53.301 Y145.224
X54.118 Y145.615
X54.166 Y145.637
X54.991 Y146.011
X55.044 Y146.034
X55.878 Y146.389
X55.928 Y146.41
X56.771 Y146.747
X56.818 Y146.765
X57.455 Y147.005
X57.498 Y147.021
X57.706 Y147.095
X58.009 Y147.205
X58.938 Y147.549
X60.174 Y148.023
X61.401 Y148.511
X62.62 Y149.014
X63.831 Y149.533
X65.034 Y150.066
X66.23 Y150.617
X67.419 Y151.182
X68.601 Y151.763
X69.772 Y152.357
X70.936 Y152.968
X72.094 Y153.594
X73.241 Y154.234
X74.379 Y154.889
X75.51 Y155.561
X76.632 Y156.245
X77.744 Y156.945
X78.848 Y157.659
X79.942 Y158.387
X81.025 Y159.128
X82.101 Y159.887
X83.167 Y160.657
X84.221 Y161.441
X85.266 Y162.24
X86.302 Y163.054
X87.327 Y163.88
X88.341 Y164.72
X89.345 Y165.574
X90.338 Y166.441
X91.32 Y167.321
X92.292 Y168.217
X93.016 Y168.899
X93.251 Y169.123
X93.486 Y169.348
X94.198 Y170.042
X95.134 Y170.974
X96.056 Y171.917
X96.966 Y172.872
X97.862 Y173.837
X98.746 Y174.816
X99.616 Y175.803
X100.473 Y176.802
X101.316 Y177.811
X102.146 Y178.832
X102.962 Y179.863
X103.765 Y180.903
X104.553 Y181.954
X105.329 Y183.016
X106.09 Y184.088
X106.837 Y185.168
X107.569 Y186.258
X108.288 Y187.359
X108.993 Y188.47
X109.683 Y189.587
X110.358 Y190.716
X111.018 Y191.852
X111.664 Y192.998
X112.295 Y194.154
X112.911 Y195.316
X113.513 Y196.487
X114.099 Y197.667
X114.669 Y198.855
X115.225 Y200.051
X115.765 Y201.253
X116.291 Y202.469
X116.675 Y203.379
X116.797 Y203.679
X116.802 Y203.69
X116.885 Y203.892
X117.133 Y204.529
X117.452 Y205.392
X117.746 Y206.255
X118.018 Y207.125
X118.269 Y208.001
X118.499 Y208.883
X118.708 Y209.77
X118.895 Y210.66
X119.06 Y211.557
X119.203 Y212.458
X119.325 Y213.36
X119.425 Y214.266
X119.502 Y215.174
X119.558 Y216.086
X119.592 Y217.005
X119.603 Y217.69
Y217.913
X119.575 Y621.308
X119.572 Y621.476
X119.573 Y621.574
X119.586 Y622.135
X119.59 Y622.234
X119.637 Y622.98
X119.648 Y623.106
X119.732 Y623.843
X119.749 Y623.964
X119.869 Y624.696
X119.892 Y624.82
X120.048 Y625.542
X120.077 Y625.66
X120.268 Y626.374
X120.302 Y626.491
X120.527 Y627.193
X120.567 Y627.309
X120.826 Y627.999
X120.873 Y628.114
X121.166 Y628.79
X121.218 Y628.902
X121.544 Y629.563
X121.601 Y629.671
X121.96 Y630.317
X122.021 Y630.422
X122.411 Y631.05
X122.481 Y631.156
X122.903 Y631.764
X122.973 Y631.86
X123.426 Y632.451
X123.507 Y632.551
X123.991 Y633.119
X124.059 Y633.195
X124.44 Y633.607
X124.494 Y633.664
X124.626 Y633.798
X124.633 Y633.805
X124.765 Y633.938
X124.821 Y633.993
X125.229 Y634.379
X125.306 Y634.449
X125.869 Y634.939
X125.963 Y635.017
X126.547 Y635.477
X126.648 Y635.552
X127.253 Y635.981
X127.355 Y636.05
X127.979 Y636.447
X128.082 Y636.51
X128.723 Y636.876
X128.834 Y636.936
X129.492 Y637.269
X129.6 Y637.32
X130.273 Y637.621
X130.387 Y637.669
X131.073 Y637.936
X131.19 Y637.978
X131.89 Y638.211
X132.006 Y638.246
X132.717 Y638.445
X132.837 Y638.476
X133.558 Y638.64
X133.68 Y638.664
X134.41 Y638.792
X134.529 Y638.81
X135.266 Y638.903
X135.395 Y638.916
X136.139 Y638.971
X136.234 Y638.976
X136.796 Y638.996
X136.814 Y638.997
Z-15 F333.3
X136.885 Y638.998 F1000
X137.059
X147.047 Y639.11
X150.368 Y639.147
G2 X150.679 Y639.131 I0.028 J-2.5
G1 X151.302 Y639.06
X151.436 Y639.041
X152.21 Y638.91
X152.335 Y638.885
X153.1 Y638.715
X153.225 Y638.684
X153.98 Y638.475
X154.112 Y638.435
X154.853 Y638.185
X154.973 Y638.141
X155.702 Y637.853
X155.819 Y637.803
X156.533 Y637.478
X156.654 Y637.419
X157.351 Y637.055
X157.462 Y636.994
X158.142 Y636.594
X158.256 Y636.523
X158.915 Y636.086
X159.024 Y636.009
X159.662 Y635.535
X159.748 Y635.468
X160.213 Y635.09
X160.28 Y635.033
X160.58 Y634.771
X160.649 Y634.709
X161.085 Y634.299
X161.159 Y634.227
X161.715 Y633.659
X161.81 Y633.555
X162.331 Y632.959
X162.41 Y632.865
X162.898 Y632.247
X162.983 Y632.134
X163.435 Y631.491
X163.503 Y631.389
X163.923 Y630.725
X163.992 Y630.609
X164.374 Y629.926
X164.434 Y629.813
X164.781 Y629.11
X164.837 Y628.987
X165.145 Y628.268
X165.192 Y628.152
X165.464 Y627.417
X165.507 Y627.288
X165.739 Y626.538
X165.773 Y626.418
X165.928 Y625.811
G2 X165.987 Y625.5 I-2.422 J-0.619
G1 X166.396 Y622.2
X233.399 Y81.333
G2 X230.918 Y78.526 I-2.481 J-0.307
G1 X19.314 Y78.511
G2 X16.814 Y81.011 I0 J2.5
G1 Y92.052
X16.815 Y92.107
X16.836 Y93.094
X16.839 Y93.163
X16.904 Y94.477
X16.909 Y94.558
X17.017 Y95.867
X17.025 Y95.949
X17.175 Y97.251
X17.186 Y97.332
X17.379 Y98.627
X17.392 Y98.708
X17.627 Y99.995
X17.643 Y100.075
X17.92 Y101.354
X17.939 Y101.434
X18.257 Y102.702
X18.278 Y102.78
X18.637 Y104.038
X18.661 Y104.117
X19.062 Y105.362
X19.089 Y105.44
X19.53 Y106.671
X19.558 Y106.746
X20.04 Y107.964
X20.071 Y108.04
X20.593 Y109.243
X20.628 Y109.318
X21.19 Y110.504
X21.225 Y110.577
X21.827 Y111.747
X21.859 Y111.808
X22.335 Y112.674
X22.363 Y112.723
X22.528 Y113.008
X22.792 Y113.463
X22.809 Y113.492
X23.619 Y114.848
X23.642 Y114.886
X24.753 Y116.674
X24.782 Y116.719
X25.93 Y118.481
X25.959 Y118.525
X27.144 Y120.261
X27.173 Y120.304
X28.394 Y122.015
X28.425 Y122.058
X29.681 Y123.741
X29.712 Y123.782
X31.003 Y125.439
X31.037 Y125.481
X32.362 Y127.109
X32.395 Y127.149
X33.754 Y128.749
X33.789 Y128.789
X35.181 Y130.361
X35.217 Y130.4
X36.643 Y131.942
X36.68 Y131.981
X38.139 Y133.493
X38.176 Y133.531
X39.667 Y135.012
X39.704 Y135.048
X41.227 Y136.499
X41.267 Y136.536
X42.821 Y137.954
X42.853 Y137.982
X44.038 Y139.027
X44.067 Y139.052
X44.464 Y139.392
X44.635 Y139.538
X44.667 Y139.565
X45.19 Y140
X45.227 Y140.03
X45.936 Y140.596
X45.981 Y140.632
X46.702 Y141.181
X46.746 Y141.213
X47.478 Y141.746
X47.525 Y141.779
X48.269 Y142.295
X48.317 Y142.328
X49.072 Y142.826
X49.119 Y142.856
X49.885 Y143.337
X49.932 Y143.366
X50.709 Y143.83
X50.759 Y143.859
X51.545 Y144.305
X51.593 Y144.331
X52.39 Y144.76
X52.442 Y144.788
X53.249 Y145.198
X53.301 Y145.224
X54.118 Y145.615
X54.166 Y145.637
X54.991 Y146.011
X55.044 Y146.034
X55.878 Y146.389
X55.928 Y146.41
X56.771 Y146.747
X56.818 Y146.765
X57.455 Y147.005
X57.498 Y147.021
X57.706 Y147.095
X58.009 Y147.205
X58.938 Y147.549
X60.174 Y148.023
X61.401 Y148.511
X62.62 Y149.014
X63.831 Y149.533
X65.034 Y150.066
X66.23 Y150.617
X67.419 Y151.182
X68.601 Y151.763
X69.772 Y152.357
X70.936 Y152.968
X72.094 Y153.594
X73.241 Y154.234
X74.379 Y154.889
X75.51 Y155.561
X76.632 Y156.245
X77.744 Y156.945
X78.848 Y157.659
X79.942 Y158.387
X81.025 Y159.128
X82.101 Y159.887
X83.167 Y160.657
X84.221 Y161.441
X85.266 Y162.24
X86.302 Y163.054
X87.327 Y163.88
X88.341 Y164.72
X89.345 Y165.574
X90.338 Y166.441
X91.32 Y167.321
X92.292 Y168.217
X93.016 Y168.899
X93.251 Y169.123
X93.486 Y169.348
X94.198 Y170.042
X95.134 Y170.974
X96.056 Y171.917
X96.966 Y172.872
X97.862 Y173.837
X98.746 Y174.816
X99.616 Y175.803
X100.473 Y176.802
X101.316 Y177.811
X102.146 Y178.832
X102.962 Y179.863
X103.765 Y180.903
X104.553 Y181.954
X105.329 Y183.016
X106.09 Y184.088
X106.837 Y185.168
X107.569 Y186.258
X108.288 Y187.359
X108.993 Y188.47
X109.683 Y189.587
X110.358 Y190.716
X111.018 Y191.852
X111.664 Y192.998
X112.295 Y194.154
X112.911 Y195.316
X113.513 Y196.487
X114.099 Y197.667
X114.669 Y198.855
X115.225 Y200.051
X115.765 Y201.253
X116.291 Y202.469
X116.675 Y203.379
X116.797 Y203.679
X116.802 Y203.69
X116.885 Y203.892
X117.133 Y204.529
X117.452 Y205.392
X117.746 Y206.255
X118.018 Y207.125
X118.269 Y208.001
X118.499 Y208.883
X118.708 Y209.77
X118.895 Y210.66
X119.06 Y211.557
X119.203 Y212.458
X119.325 Y213.36
X119.425 Y214.266
X119.502 Y215.174
X119.558 Y216.086
X119.592 Y217.005
X119.603 Y217.69
Y217.913
X119.575 Y621.308
X119.572 Y621.476
X119.573 Y621.574
X119.586 Y622.135
X119.59 Y622.234
X119.637 Y622.98
X119.648 Y623.106
X119.732 Y623.843
X119.749 Y623.964
X119.869 Y624.696
X119.892 Y624.82
X120.048 Y625.542
X120.077 Y625.66
X120.268 Y626.374
X120.302 Y626.491
X120.527 Y627.193
X120.567 Y627.309
X120.826 Y627.999
X120.873 Y628.114
X121.166 Y628.79
X121.218 Y628.902
X121.544 Y629.563
X121.601 Y629.671
X121.96 Y630.317
X122.021 Y630.422
X122.411 Y631.05
X122.481 Y631.156
X122.903 Y631.764
X122.973 Y631.86
X123.426 Y632.451
X123.507 Y632.551
X123.991 Y633.119
X124.059 Y633.195
X124.44 Y633.607
X124.494 Y633.664
X124.626 Y633.798
X124.633 Y633.805
X124.765 Y633.938
X124.821 Y633.993
X125.229 Y634.379
X125.306 Y634.449
X125.869 Y634.939
X125.963 Y635.017
X126.547 Y635.477
X126.648 Y635.552
X127.253 Y635.981
X127.355 Y636.05
X127.979 Y636.447
X128.082 Y636.51
X128.723 Y636.876
X128.834 Y636.936
X129.492 Y637.269
X129.6 Y637.32
X130.273 Y637.621
X130.387 Y637.669
X131.073 Y637.936
X131.19 Y637.978
X131.89 Y638.211
X132.006 Y638.246
X132.717 Y638.445
X132.837 Y638.476
X133.558 Y638.64
X133.68 Y638.664
X134.41 Y638.792
X134.529 Y638.81
X135.266 Y638.903
X135.395 Y638.916
X136.139 Y638.971
X136.234 Y638.976
X136.796 Y638.996
X136.814 Y638.997
Z-20 F333.3
X136.885 Y638.998 F1000
X137.059
X147.047 Y639.11
X150.368 Y639.147
G2 X150.679 Y639.131 I0.028 J-2.5
G1 X151.302 Y639.06
X151.436 Y639.041
X152.21 Y638.91
X152.335 Y638.885
X153.1 Y638.715
X153.225 Y638.684
X153.98 Y638.475
X154.112 Y638.435
X154.853 Y638.185
X154.973 Y638.141
X155.702 Y637.853
X155.819 Y637.803
X156.533 Y637.478
X156.654 Y637.419
X157.351 Y637.055
X157.462 Y636.994
X158.142 Y636.594
X158.256 Y636.523
X158.915 Y636.086
X159.024 Y636.009
X159.662 Y635.535
X159.748 Y635.468
X160.213 Y635.09
X160.28 Y635.033
X160.58 Y634.771
X160.649 Y634.709
X161.085 Y634.299
X161.159 Y634.227
X161.715 Y633.659
X161.81 Y633.555
X162.331 Y632.959
X162.41 Y632.865
X162.898 Y632.247
X162.983 Y632.134
X163.435 Y631.491
X163.503 Y631.389
X163.923 Y630.725
X163.992 Y630.609
X164.374 Y629.926
X164.434 Y629.813
X164.781 Y629.11
X164.837 Y628.987
X165.145 Y628.268
X165.192 Y628.152
X165.464 Y627.417
X165.507 Y627.288
X165.739 Y626.538
X165.773 Y626.418
X165.928 Y625.811
G2 X165.987 Y625.5 I-2.422 J-0.619
G1 X166.396 Y622.2
X233.399 Y81.333
G2 X230.918 Y78.526 I-2.481 J-0.307
G1 X19.314 Y78.511
G2 X16.814 Y81.011 I0 J2.5
G1 Y92.052
X16.815 Y92.107
X16.836 Y93.094
X16.839 Y93.163
X16.904 Y94.477
X16.909 Y94.558
X17.017 Y95.867
X17.025 Y95.949
X17.175 Y97.251
X17.186 Y97.332
X17.379 Y98.627
X17.392 Y98.708
X17.627 Y99.995
X17.643 Y100.075
X17.92 Y101.354
X17.939 Y101.434
X18.257 Y102.702
X18.278 Y102.78
X18.637 Y104.038
X18.661 Y104.117
X19.062 Y105.362
X19.089 Y105.44
X19.53 Y106.671
X19.558 Y106.746
X20.04 Y107.964
X20.071 Y108.04
X20.593 Y109.243
X20.628 Y109.318
X21.19 Y110.504
X21.225 Y110.577
X21.827 Y111.747
X21.859 Y111.808
X22.335 Y112.674
X22.363 Y112.723
X22.528 Y113.008
X22.792 Y113.463
X22.809 Y113.492
X23.619 Y114.848
X23.642 Y114.886
X24.753 Y116.674
X24.782 Y116.719
X25.93 Y118.481
X25.959 Y118.525
X27.144 Y120.261
X27.173 Y120.304
X28.394 Y122.015
X28.425 Y122.058
X29.681 Y123.741
X29.712 Y123.782
X31.003 Y125.439
X31.037 Y125.481
X32.362 Y127.109
X32.395 Y127.149
X33.754 Y128.749
X33.789 Y128.789
X35.181 Y130.361
X35.217 Y130.4
X36.643 Y131.942
X36.68 Y131.981
X38.139 Y133.493
X38.176 Y133.531
X39.667 Y135.012
X39.704 Y135.048
X41.227 Y136.499
X41.267 Y136.536
X42.821 Y137.954
X42.853 Y137.982
X44.038 Y139.027
X44.067 Y139.052
X44.464 Y139.392
X44.635 Y139.538
X44.667 Y139.565
X45.19 Y140
X45.227 Y140.03
X45.936 Y140.596
X45.981 Y140.632
X46.702 Y141.181
X46.746 Y141.213
X47.478 Y141.746
X47.525 Y141.779
X48.269 Y142.295
X48.317 Y142.328
X49.072 Y142.826
X49.119 Y142.856
X49.885 Y143.337
X49.932 Y143.366
X50.709 Y143.83
X50.759 Y143.859
X51.545 Y144.305
X51.593 Y144.331
X52.39 Y144.76
X52.442 Y144.788
X53.249 Y145.198
X53.301 Y145.224
X54.118 Y145.615
X54.166 Y145.637
X54.991 Y146.011
X55.044 Y146.034
X55.878 Y146.389
X55.928 Y146.41
X56.771 Y146.747
X56.818 Y146.765
X57.455 Y147.005
X57.498 Y147.021
X57.706 Y147.095
X58.009 Y147.205
X58.938 Y147.549
X60.174 Y148.023
X61.401 Y148.511
X62.62 Y149.014
X63.831 Y149.533
X65.034 Y150.066
X66.23 Y150.617
X67.419 Y151.182
X68.601 Y151.763
X69.772 Y152.357
X70.936 Y152.968
X72.094 Y153.594
X73.241 Y154.234
X74.379 Y154.889
X75.51 Y155.561
X76.632 Y156.245
X77.744 Y156.945
X78.848 Y157.659
X79.942 Y158.387
X81.025 Y159.128
X82.101 Y159.887
X83.167 Y160.657
X84.221 Y161.441
X85.266 Y162.24
X86.302 Y163.054
X87.327 Y163.88
X88.341 Y164.72
X89.345 Y165.574
X90.338 Y166.441
X91.32 Y167.321
X92.292 Y168.217
X93.016 Y168.899
X93.251 Y169.123
X93.486 Y169.348
X94.198 Y170.042
X95.134 Y170.974
X96.056 Y171.917
X96.966 Y172.872
X97.862 Y173.837
X98.746 Y174.816
X99.616 Y175.803
X100.473 Y176.802
X101.316 Y177.811
X102.146 Y178.832
X102.962 Y179.863
X103.765 Y180.903
X104.553 Y181.954
X105.329 Y183.016
X106.09 Y184.088
X106.837 Y185.168
X107.569 Y186.258
X108.288 Y187.359
X108.993 Y188.47
X109.683 Y189.587
X110.358 Y190.716
X111.018 Y191.852
X111.664 Y192.998
X112.295 Y194.154
X112.911 Y195.316
X113.513 Y196.487
X114.099 Y197.667
X114.669 Y198.855
X115.225 Y200.051
X115.765 Y201.253
X116.291 Y202.469
X116.675 Y203.379
X116.797 Y203.679
X116.802 Y203.69
X116.885 Y203.892
X117.133 Y204.529
X117.452 Y205.392
X117.746 Y206.255
X118.018 Y207.125
X118.269 Y208.001
X118.499 Y208.883
X118.708 Y209.77
X118.895 Y210.66
X119.06 Y211.557
X119.203 Y212.458
X119.325 Y213.36
X119.425 Y214.266
X119.502 Y215.174
X119.558 Y216.086
X119.592 Y217.005
X119.603 Y217.69
Y217.913
X119.575 Y621.308
X119.572 Y621.476
X119.573 Y621.574
X119.586 Y622.135
X119.59 Y622.234
X119.637 Y622.98
X119.648 Y623.106
X119.732 Y623.843
X119.749 Y623.964
X119.869 Y624.696
X119.892 Y624.82
X120.048 Y625.542
X120.077 Y625.66
X120.268 Y626.374
X120.302 Y626.491
X120.527 Y627.193
X120.567 Y627.309
X120.826 Y627.999
X120.873 Y628.114
X121.166 Y628.79
X121.218 Y628.902
X121.544 Y629.563
X121.601 Y629.671
X121.96 Y630.317
X122.021 Y630.422
X122.411 Y631.05
X122.481 Y631.156
X122.903 Y631.764
X122.973 Y631.86
X123.426 Y632.451
X123.507 Y632.551
X123.991 Y633.119
X124.059 Y633.195
X124.44 Y633.607
X124.494 Y633.664
X124.626 Y633.798
X124.633 Y633.805
X124.765 Y633.938
X124.821 Y633.993
X125.229 Y634.379
X125.306 Y634.449
X125.869 Y634.939
X125.963 Y635.017
X126.547 Y635.477
X126.648 Y635.552
X127.253 Y635.981
X127.355 Y636.05
X127.979 Y636.447
X128.082 Y636.51
X128.723 Y636.876
X128.834 Y636.936
X129.492 Y637.269
X129.6 Y637.32
X130.273 Y637.621
X130.387 Y637.669
X131.073 Y637.936
X131.19 Y637.978
X131.89 Y638.211
X132.006 Y638.246
X132.717 Y638.445
X132.837 Y638.476
X133.558 Y638.64
X133.68 Y638.664
X134.41 Y638.792
X134.529 Y638.81
X135.266 Y638.903
X135.395 Y638.916
X136.139 Y638.971
X136.234 Y638.976
X136.796 Y638.996
X136.814 Y638.997
Z-25 F333.3
X136.885 Y638.998 F1000
X137.059
X147.047 Y639.11
X150.368 Y639.147
G2 X150.679 Y639.131 I0.028 J-2.5
G1 X151.302 Y639.06
X151.436 Y639.041
X152.21 Y638.91
X152.335 Y638.885
X153.1 Y638.715
X153.225 Y638.684
X153.98 Y638.475
X154.112 Y638.435
X154.853 Y638.185
X154.973 Y638.141
X155.702 Y637.853
X155.819 Y637.803
X156.533 Y637.478
X156.654 Y637.419
X157.351 Y637.055
X157.462 Y636.994
X158.142 Y636.594
X158.256 Y636.523
X158.915 Y636.086
X159.024 Y636.009
X159.662 Y635.535
X159.748 Y635.468
X160.213 Y635.09
X160.28 Y635.033
X160.58 Y634.771
X160.649 Y634.709
X161.085 Y634.299
X161.159 Y634.227
X161.715 Y633.659
X161.81 Y633.555
X162.331 Y632.959
X162.41 Y632.865
X162.898 Y632.247
X162.983 Y632.134
X163.435 Y631.491
X163.503 Y631.389
X163.923 Y630.725
X163.992 Y630.609
X164.374 Y629.926
X164.434 Y629.813
X164.781 Y629.11
X164.837 Y628.987
X165.145 Y628.268
X165.192 Y628.152
X165.464 Y627.417
X165.507 Y627.288
X165.739 Y626.538
X165.773 Y626.418
X165.928 Y625.811
G2 X165.987 Y625.5 I-2.422 J-0.619
G1 X166.396 Y622.2
X233.399 Y81.333
G2 X230.918 Y78.526 I-2.481 J-0.307
G1 X19.314 Y78.511
G2 X16.814 Y81.011 I0 J2.5
G1 Y92.052
X16.815 Y92.107
X16.836 Y93.094
X16.839 Y93.163
X16.904 Y94.477
X16.909 Y94.558
X17.017 Y95.867
X17.025 Y95.949
X17.175 Y97.251
X17.186 Y97.332
X17.379 Y98.627
X17.392 Y98.708
X17.627 Y99.995
X17.643 Y100.075
X17.92 Y101.354
X17.939 Y101.434
X18.257 Y102.702
X18.278 Y102.78
X18.637 Y104.038
X18.661 Y104.117
X19.062 Y105.362
X19.089 Y105.44
X19.53 Y106.671
X19.558 Y106.746
X20.04 Y107.964
X20.071 Y108.04
X20.593 Y109.243
X20.628 Y109.318
X21.19 Y110.504
X21.225 Y110.577
X21.827 Y111.747
X21.859 Y111.808
X22.335 Y112.674
X22.363 Y112.723
X22.528 Y113.008
X22.792 Y113.463
X22.809 Y113.492
X23.619 Y114.848
X23.642 Y114.886
X24.753 Y116.674
X24.782 Y116.719
X25.93 Y118.481
X25.959 Y118.525
X27.144 Y120.261
X27.173 Y120.304
X28.394 Y122.015
X28.425 Y122.058
X29.681 Y123.741
X29.712 Y123.782
X31.003 Y125.439
X31.037 Y125.481
X32.362 Y127.109
X32.395 Y127.149
X33.754 Y128.749
X33.789 Y128.789
X35.181 Y130.361
X35.217 Y130.4
X36.643 Y131.942
X36.68 Y131.981
X38.139 Y133.493
X38.176 Y133.531
X39.667 Y135.012
X39.704 Y135.048
X41.227 Y136.499
X41.267 Y136.536
X42.821 Y137.954
X42.853 Y137.982
X44.038 Y139.027
X44.067 Y139.052
X44.464 Y139.392
X44.635 Y139.538
X44.667 Y139.565
X45.19 Y140
X45.227 Y140.03
X45.936 Y140.596
X45.981 Y140.632
X46.702 Y141.181
X46.746 Y141.213
X47.478 Y141.746
X47.525 Y141.779
X48.269 Y142.295
X48.317 Y142.328
X49.072 Y142.826
X49.119 Y142.856
X49.885 Y143.337
X49.932 Y143.366
X50.709 Y143.83
X50.759 Y143.859
X51.545 Y144.305
X51.593 Y144.331
X52.39 Y144.76
X52.442 Y144.788
X53.249 Y145.198
X53.301 Y145.224
X54.118 Y145.615
X54.166 Y145.637
X54.991 Y146.011
X55.044 Y146.034
X55.878 Y146.389
X55.928 Y146.41
X56.771 Y146.747
X56.818 Y146.765
X57.455 Y147.005
X57.498 Y147.021
X57.706 Y147.095
X58.009 Y147.205
X58.938 Y147.549
X60.174 Y148.023
X61.401 Y148.511
X62.62 Y149.014
X63.831 Y149.533
X65.034 Y150.066
X66.23 Y150.617
X67.419 Y151.182
X68.601 Y151.763
X69.772 Y152.357
X70.936 Y152.968
X72.094 Y153.594
X73.241 Y154.234
X74.379 Y154.889
X75.51 Y155.561
X76.632 Y156.245
X77.744 Y156.945
X78.848 Y157.659
X79.942 Y158.387
X81.025 Y159.128
X82.101 Y159.887
X83.167 Y160.657
X84.221 Y161.441
X85.266 Y162.24
X86.302 Y163.054
X87.327 Y163.88
X88.341 Y164.72
X89.345 Y165.574
X90.338 Y166.441
X91.32 Y167.321
X92.292 Y168.217
X93.016 Y168.899
X93.251 Y169.123
X93.486 Y169.348
X94.198 Y170.042
X95.134 Y170.974
X96.056 Y171.917
X96.966 Y172.872
X97.862 Y173.837
X98.746 Y174.816
X99.616 Y175.803
X100.473 Y176.802
X101.316 Y177.811
X102.146 Y178.832
X102.962 Y179.863
X103.765 Y180.903
X104.553 Y181.954
X105.329 Y183.016
X106.09 Y184.088
X106.837 Y185.168
X107.569 Y186.258
X108.288 Y187.359
X108.993 Y188.47
X109.683 Y189.587
X110.358 Y190.716
X111.018 Y191.852
X111.664 Y192.998
X112.295 Y194.154
X112.911 Y195.316
X113.513 Y196.487
X114.099 Y197.667
X114.669 Y198.855
X115.225 Y200.051
X115.765 Y201.253
X116.291 Y202.469
X116.675 Y203.379
X116.797 Y203.679
X116.802 Y203.69
X116.885 Y203.892
X117.133 Y204.529
X117.452 Y205.392
X117.746 Y206.255
X118.018 Y207.125
X118.269 Y208.001
X118.499 Y208.883
X118.708 Y209.77
X118.895 Y210.66
X119.06 Y211.557
X119.203 Y212.458
X119.325 Y213.36
X119.425 Y214.266
X119.502 Y215.174
X119.558 Y216.086
X119.592 Y217.005
X119.603 Y217.69
Y217.913
X119.575 Y621.308
X119.572 Y621.476
X119.573 Y621.574
X119.586 Y622.135
X119.59 Y622.234
X119.637 Y622.98
X119.648 Y623.106
X119.732 Y623.843
X119.749 Y623.964
X119.869 Y624.696
X119.892 Y624.82
X120.048 Y625.542
X120.077 Y625.66
X120.268 Y626.374
X120.302 Y626.491
X120.527 Y627.193
X120.567 Y627.309
X120.826 Y627.999
X120.873 Y628.114
X121.166 Y628.79
X121.218 Y628.902
X121.544 Y629.563
X121.601 Y629.671
X121.96 Y630.317
X122.021 Y630.422
X122.411 Y631.05
X122.481 Y631.156
X122.903 Y631.764
X122.973 Y631.86
X123.426 Y632.451
X123.507 Y632.551
X123.991 Y633.119
X124.059 Y633.195
X124.44 Y633.607
X124.494 Y633.664
X124.626 Y633.798
X124.633 Y633.805
X124.765 Y633.938
X124.821 Y633.993
X125.229 Y634.379
X125.306 Y634.449
X125.869 Y634.939
X125.963 Y635.017
X126.547 Y635.477
X126.648 Y635.552
X127.253 Y635.981
X127.355 Y636.05
X127.979 Y636.447
X128.082 Y636.51
X128.723 Y636.876
X128.834 Y636.936
X129.492 Y637.269
X129.6 Y637.32
X130.273 Y637.621
X130.387 Y637.669
X131.073 Y637.936
X131.19 Y637.978
X131.89 Y638.211
X132.006 Y638.246
X132.717 Y638.445
X132.837 Y638.476
X133.558 Y638.64
X133.68 Y638.664
X134.41 Y638.792
X134.529 Y638.81
X135.266 Y638.903
X135.395 Y638.916
X136.139 Y638.971
X136.234 Y638.976
X136.796 Y638.996
X136.814 Y638.997
Z-28 F333.3
X136.885 Y638.998 F1000
X137.059
X147.047 Y639.11
X150.368 Y639.147
G2 X150.679 Y639.131 I0.028 J-2.5
G1 X151.302 Y639.06
X151.436 Y639.041
X152.21 Y638.91
X152.335 Y638.885
X153.1 Y638.715
X153.225 Y638.684
X153.98 Y638.475
X154.112 Y638.435
X154.853 Y638.185
X154.973 Y638.141
X155.702 Y637.853
X155.819 Y637.803
X156.533 Y637.478
X156.654 Y637.419
X157.351 Y637.055
X157.462 Y636.994
X158.142 Y636.594
X158.256 Y636.523
X158.915 Y636.086
X159.024 Y636.009
X159.662 Y635.535
X159.748 Y635.468
X160.213 Y635.09
X160.28 Y635.033
X160.58 Y634.771
X160.649 Y634.709
X161.085 Y634.299
X161.159 Y634.227
X161.715 Y633.659
X161.81 Y633.555
X162.331 Y632.959
X162.41 Y632.865
X162.898 Y632.247
X162.983 Y632.134
X163.435 Y631.491
X163.503 Y631.389
X163.923 Y630.725
X163.992 Y630.609
X164.374 Y629.926
X164.434 Y629.813
X164.781 Y629.11
X164.837 Y628.987
X165.145 Y628.268
X165.192 Y628.152
X165.464 Y627.417
X165.507 Y627.288
X165.739 Y626.538
X165.773 Y626.418
X165.928 Y625.811
G2 X165.987 Y625.5 I-2.422 J-0.619
G1 X166.396 Y622.2
X233.399 Y81.333
G2 X230.918 Y78.526 I-2.481 J-0.307
G1 X19.314 Y78.511
G2 X16.814 Y81.011 I0 J2.5
G1 Y92.052
X16.815 Y92.107
X16.836 Y93.094
X16.839 Y93.163
X16.904 Y94.477
X16.909 Y94.558
X17.017 Y95.867
X17.025 Y95.949
X17.175 Y97.251
X17.186 Y97.332
X17.379 Y98.627
X17.392 Y98.708
X17.627 Y99.995
X17.643 Y100.075
X17.92 Y101.354
X17.939 Y101.434
X18.257 Y102.702
X18.278 Y102.78
X18.637 Y104.038
X18.661 Y104.117
X19.062 Y105.362
X19.089 Y105.44
X19.53 Y106.671
X19.558 Y106.746
X20.04 Y107.964
X20.071 Y108.04
X20.593 Y109.243
X20.628 Y109.318
X21.19 Y110.504
X21.225 Y110.577
X21.827 Y111.747
X21.859 Y111.808
X22.335 Y112.674
X22.363 Y112.723
X22.528 Y113.008
X22.792 Y113.463
X22.809 Y113.492
X23.619 Y114.848
X23.642 Y114.886
X24.753 Y116.674
X24.782 Y116.719
X25.93 Y118.481
X25.959 Y118.525
X27.144 Y120.261
X27.173 Y120.304
X28.394 Y122.015
X28.425 Y122.058
X29.681 Y123.741
X29.712 Y123.782
X31.003 Y125.439
X31.037 Y125.481
X32.362 Y127.109
X32.395 Y127.149
X33.754 Y128.749
X33.789 Y128.789
X35.181 Y130.361
X35.217 Y130.4
X36.643 Y131.942
X36.68 Y131.981
X38.139 Y133.493
X38.176 Y133.531
X39.667 Y135.012
X39.704 Y135.048
X41.227 Y136.499
X41.267 Y136.536
X42.821 Y137.954
X42.853 Y137.982
X44.038 Y139.027
X44.067 Y139.052
X44.464 Y139.392
X44.635 Y139.538
X44.667 Y139.565
X45.19 Y140
X45.227 Y140.03
X45.936 Y140.596
X45.981 Y140.632
X46.702 Y141.181
X46.746 Y141.213
X47.478 Y141.746
X47.525 Y141.779
X48.269 Y142.295
X48.317 Y142.328
X49.072 Y142.826
X49.119 Y142.856
X49.885 Y143.337
X49.932 Y143.366
X50.709 Y143.83
X50.759 Y143.859
X51.545 Y144.305
X51.593 Y144.331
X52.39 Y144.76
X52.442 Y144.788
X53.249 Y145.198
X53.301 Y145.224
X54.118 Y145.615
X54.166 Y145.637
X54.991 Y146.011
X55.044 Y146.034
X55.878 Y146.389
X55.928 Y146.41
X56.771 Y146.747
X56.818 Y146.765
X57.455 Y147.005
X57.498 Y147.021
X57.706 Y147.095
X58.009 Y147.205
X58.938 Y147.549
X60.174 Y148.023
X61.401 Y148.511
X62.62 Y149.014
X63.831 Y149.533
X65.034 Y150.066
X66.23 Y150.617
X67.419 Y151.182
X68.601 Y151.763
X69.772 Y152.357
X70.936 Y152.968
X72.094 Y153.594
X73.241 Y154.234
X74.379 Y154.889
X75.51 Y155.561
X76.632 Y156.245
X77.744 Y156.945
X78.848 Y157.659
X79.942 Y158.387
X81.025 Y159.128
X82.101 Y159.887
X83.167 Y160.657
X84.221 Y161.441
X85.266 Y162.24
X86.302 Y163.054
X87.327 Y163.88
X88.341 Y164.72
X89.345 Y165.574
X90.338 Y166.441
X91.32 Y167.321
X92.292 Y168.217
X93.016 Y168.899
X93.251 Y169.123
X93.486 Y169.348
X94.198 Y170.042
X95.134 Y170.974
X96.056 Y171.917
X96.966 Y172.872
X97.862 Y173.837
X98.746 Y174.816
X99.616 Y175.803
X100.473 Y176.802
X101.316 Y177.811
X102.146 Y178.832
X102.962 Y179.863
X103.765 Y180.903
X104.553 Y181.954
X105.329 Y183.016
X106.09 Y184.088
X106.837 Y185.168
X107.569 Y186.258
X108.288 Y187.359
X108.993 Y188.47
X109.683 Y189.587
X110.358 Y190.716
X111.018 Y191.852
X111.664 Y192.998
X112.295 Y194.154
X112.911 Y195.316
X113.513 Y196.487
X114.099 Y197.667
X114.669 Y198.855
X115.225 Y200.051
X115.765 Y201.253
X116.291 Y202.469
X116.675 Y203.379
X116.797 Y203.679
X116.802 Y203.69
X116.885 Y203.892
X117.133 Y204.529
X117.452 Y205.392
X117.746 Y206.255
X118.018 Y207.125
X118.269 Y208.001
X118.499 Y208.883
X118.708 Y209.77
X118.895 Y210.66
X119.06 Y211.557
X119.203 Y212.458
X119.325 Y213.36
X119.425 Y214.266
X119.502 Y215.174
X119.558 Y216.086
X119.592 Y217.005
X119.603 Y217.69
Y217.913
X119.575 Y621.308
X119.572 Y621.476
X119.573 Y621.574
X119.586 Y622.135
X119.59 Y622.234
X119.637 Y622.98
X119.648 Y623.106
X119.732 Y623.843
X119.749 Y623.964
X119.869 Y624.696
X119.892 Y624.82
X120.048 Y625.542
X120.077 Y625.66
X120.268 Y626.374
X120.302 Y626.491
X120.527 Y627.193
X120.567 Y627.309
X120.826 Y627.999
X120.873 Y628.114
X121.166 Y628.79
X121.218 Y628.902
X121.544 Y629.563
X121.601 Y629.671
X121.96 Y630.317
X122.021 Y630.422
X122.411 Y631.05
X122.481 Y631.156
X122.903 Y631.764
X122.973 Y631.86
X123.426 Y632.451
X123.507 Y632.551
X123.991 Y633.119
X124.059 Y633.195
X124.44 Y633.607
X124.494 Y633.664
X124.626 Y633.798
X124.633 Y633.805
X124.765 Y633.938
X124.821 Y633.993
X125.229 Y634.379
X125.306 Y634.449
X125.869 Y634.939
X125.963 Y635.017
X126.547 Y635.477
X126.648 Y635.552
X127.253 Y635.981
X127.355 Y636.05
X127.979 Y636.447
X128.082 Y636.51
X128.723 Y636.876
X128.834 Y636.936
X129.492 Y637.269
X129.6 Y637.32
X130.273 Y637.621
X130.387 Y637.669
X131.073 Y637.936
X131.19 Y637.978
X131.89 Y638.211
X132.006 Y638.246
X132.717 Y638.445
X132.837 Y638.476
X133.558 Y638.64
X133.68 Y638.664
X134.41 Y638.792
X134.529 Y638.81
X135.266 Y638.903
X135.395 Y638.916
X136.139 Y638.971
X136.234 Y638.976
X136.796 Y638.996
X136.814 Y638.997
Z5
G0 Z15

M9
M5
M30
