(MonaSattelhalterNase_4)
(T4 D=5 CR=0 - ZMIN=-28 - flat end mill)
G90 G94
G17
G21
(-Attention- Property Safe Retracts is set to Clearance Height.)
(Ensure the clearance height will clear the part and or fixtures.)
(Raise the Z-axis to a safe height before starting the program.)

(2D Contour1 4)
T4
S5000 M3
G17 G90 G94
G54
M8
G0 X305.218 Y558.986
Z15
G0 Z5
G1 Z3 F333.3
Z-5
X305.289 Y558.987 F1000
X305.462
X315.451 Y559.099
X318.771 Y559.136
G2 X319.086 Y559.119 I0.028 J-2.5
G1 X319.709 Y559.047
X319.836 Y559.029
X320.61 Y558.899
X320.738 Y558.874
X321.503 Y558.704
X321.635 Y558.672
X322.389 Y558.461
X322.507 Y558.424
X323.25 Y558.176
X323.375 Y558.131
X324.105 Y557.843
X324.225 Y557.792
X324.938 Y557.467
X325.057 Y557.409
X325.755 Y557.045
X325.868 Y556.982
X326.547 Y556.582
X326.661 Y556.511
X327.319 Y556.074
X327.425 Y555.999
X328.064 Y555.525
X328.154 Y555.455
X328.618 Y555.077
X328.691 Y555.016
X328.83 Y554.893
X328.971 Y554.772
X329.053 Y554.698
X329.489 Y554.288
X329.564 Y554.214
X330.119 Y553.646
X330.212 Y553.546
X330.734 Y552.95
X330.817 Y552.85
X331.304 Y552.232
X331.382 Y552.127
X331.836 Y551.484
X331.908 Y551.376
X332.327 Y550.712
X332.394 Y550.601
X332.777 Y549.918
X332.839 Y549.799
X333.185 Y549.096
X333.239 Y548.979
X333.548 Y548.26
X333.597 Y548.138
X333.868 Y547.403
X333.909 Y547.283
X334.143 Y546.533
X334.179 Y546.405
X334.333 Y545.8
G2 X334.391 Y545.49 I-2.423 J-0.617
G1 X334.8 Y542.188
X401.802 Y1.322
G2 X399.321 Y-1.485 I-2.481 J-0.307
G1 X187.718 Y-1.5
G2 X185.218 Y1 I0 J2.5
G1 Y12.041
X185.219 Y12.094
X185.24 Y13.082
X185.242 Y13.152
X185.307 Y14.465
X185.313 Y14.549
X185.422 Y15.858
X185.429 Y15.936
X185.579 Y17.239
X185.59 Y17.321
X185.783 Y18.616
X185.796 Y18.695
X186.03 Y19.982
X186.047 Y20.065
X186.324 Y21.343
X186.342 Y21.421
X186.66 Y22.69
X186.681 Y22.768
X187.04 Y24.025
X187.065 Y24.107
X187.467 Y25.352
X187.493 Y25.428
X187.935 Y26.66
X187.962 Y26.732
X188.442 Y27.95
X188.475 Y28.029
X188.997 Y29.232
X189.031 Y29.308
X189.594 Y30.494
X189.63 Y30.565
X190.23 Y31.735
X190.264 Y31.798
X190.741 Y32.664
X190.761 Y32.699
X190.924 Y32.984
X190.931 Y32.996
X191.195 Y33.452
X191.212 Y33.482
X192.023 Y34.838
X192.046 Y34.875
X193.158 Y36.663
X193.186 Y36.706
X194.333 Y38.468
X194.362 Y38.513
X195.546 Y40.249
X195.577 Y40.293
X196.798 Y42.003
X196.829 Y42.046
X198.085 Y43.729
X198.117 Y43.771
X199.407 Y45.427
X199.44 Y45.469
X200.765 Y47.097
X200.799 Y47.138
X202.159 Y48.739
X202.193 Y48.778
X203.586 Y50.35
X203.621 Y50.388
X205.046 Y51.93
X205.084 Y51.97
X206.544 Y53.482
X206.579 Y53.518
X208.069 Y54.999
X208.109 Y55.038
X209.633 Y56.488
X209.67 Y56.523
X211.224 Y57.942
X211.256 Y57.971
X212.44 Y59.015
X212.468 Y59.039
X212.868 Y59.382
X212.877 Y59.389
X213.051 Y59.537
X213.071 Y59.554
X213.595 Y59.989
X213.631 Y60.018
X214.339 Y60.584
X214.384 Y60.619
X215.105 Y61.169
X215.15 Y61.202
X215.882 Y61.735
X215.929 Y61.768
X216.673 Y62.284
X216.721 Y62.316
X217.477 Y62.815
X217.522 Y62.844
X218.287 Y63.325
X218.336 Y63.355
X219.112 Y63.819
X219.163 Y63.848
X219.951 Y64.294
X219.999 Y64.321
X220.796 Y64.749
X220.846 Y64.776
X221.653 Y65.186
X221.702 Y65.21
X222.517 Y65.602
X222.57 Y65.626
X223.395 Y66
X223.448 Y66.023
X224.283 Y66.378
X224.334 Y66.399
X225.176 Y66.736
X225.22 Y66.753
X225.857 Y66.993
X225.895 Y67.007
X226.107 Y67.083
X226.414 Y67.194
X227.343 Y67.538
X228.578 Y68.011
X229.804 Y68.498
X231.023 Y69.001
X232.234 Y69.52
X233.438 Y70.055
X234.634 Y70.605
X235.823 Y71.17
X237.003 Y71.75
X238.176 Y72.346
X239.342 Y72.957
X240.497 Y73.582
X241.645 Y74.223
X242.783 Y74.878
X243.914 Y75.549
X245.036 Y76.233
X246.148 Y76.933
X247.252 Y77.647
X248.345 Y78.375
X249.43 Y79.118
X250.504 Y79.874
X251.57 Y80.646
X252.626 Y81.43
X253.67 Y82.229
X254.707 Y83.042
X255.73 Y83.868
X256.744 Y84.709
X257.75 Y85.563
X258.742 Y86.429
X259.723 Y87.31
X260.697 Y88.206
X261.417 Y88.884
X261.652 Y89.11
X261.656 Y89.114
X261.893 Y89.339
X262.602 Y90.03
X263.537 Y90.962
X264.459 Y91.905
X265.369 Y92.861
X266.267 Y93.826
X267.15 Y94.803
X268.02 Y95.791
X268.877 Y96.79
X269.72 Y97.8
X270.55 Y98.82
X271.366 Y99.85
X272.168 Y100.892
X272.958 Y101.943
X273.733 Y103.005
X274.495 Y104.077
X275.241 Y105.158
X275.974 Y106.248
X276.691 Y107.348
X277.395 Y108.457
X278.086 Y109.578
X278.762 Y110.706
X279.422 Y111.842
X280.068 Y112.987
X280.698 Y114.142
X281.316 Y115.306
X281.918 Y116.476
X282.502 Y117.655
X283.073 Y118.843
X283.629 Y120.039
X284.169 Y121.242
X284.695 Y122.456
X285.078 Y123.366
X285.198 Y123.664
X285.205 Y123.679
X285.289 Y123.882
X285.538 Y124.518
X285.854 Y125.379
X286.149 Y126.245
X286.423 Y127.115
X286.674 Y127.991
X286.904 Y128.872
X287.112 Y129.756
X287.298 Y130.65
X287.464 Y131.547
X287.607 Y132.446
X287.729 Y133.348
X287.829 Y134.255
X287.906 Y135.162
X287.961 Y136.074
X287.995 Y136.995
X288.007 Y137.68
Y137.902
X287.978 Y541.304
X287.976 Y541.478
X287.977 Y541.563
X287.99 Y542.124
X287.994 Y542.223
X288.041 Y542.969
X288.052 Y543.092
X288.135 Y543.829
X288.152 Y543.957
X288.273 Y544.689
X288.296 Y544.809
X288.452 Y545.531
X288.48 Y545.646
X288.67 Y546.36
X288.705 Y546.48
X288.93 Y547.182
X288.972 Y547.301
X289.232 Y547.991
X289.277 Y548.103
X289.57 Y548.779
X289.622 Y548.891
X289.948 Y549.552
X290.006 Y549.662
X290.365 Y550.307
X290.424 Y550.408
X290.814 Y551.037
X290.885 Y551.146
X291.307 Y551.753
X291.377 Y551.849
X291.83 Y552.44
X291.909 Y552.539
X292.392 Y553.107
X292.464 Y553.187
X292.846 Y553.599
X292.905 Y553.66
X293.033 Y553.79
X293.162 Y553.92
X293.225 Y553.982
X293.633 Y554.368
X293.71 Y554.438
X294.273 Y554.928
X294.365 Y555.005
X294.948 Y555.465
X295.053 Y555.542
X295.659 Y555.971
X295.759 Y556.039
X296.383 Y556.436
X296.486 Y556.499
X297.127 Y556.865
X297.238 Y556.925
X297.896 Y557.258
X298.003 Y557.309
X298.675 Y557.61
X298.793 Y557.659
X299.481 Y557.926
X299.593 Y557.966
X300.291 Y558.199
X300.409 Y558.235
X301.12 Y558.435
X301.24 Y558.465
X301.961 Y558.629
X302.084 Y558.654
X302.815 Y558.782
X302.933 Y558.799
X303.67 Y558.892
X303.799 Y558.905
X304.544 Y558.96
X304.639 Y558.965
X305.2 Y558.985
X305.218 Y558.986
Z-10 F333.3
X305.289 Y558.987 F1000
X305.462
X315.451 Y559.099
X318.771 Y559.136
G2 X319.086 Y559.119 I0.028 J-2.5
G1 X319.709 Y559.047
X319.836 Y559.029
X320.61 Y558.899
X320.738 Y558.874
X321.503 Y558.704
X321.635 Y558.672
X322.389 Y558.461
X322.507 Y558.424
X323.25 Y558.176
X323.375 Y558.131
X324.105 Y557.843
X324.225 Y557.792
X324.938 Y557.467
X325.057 Y557.409
X325.755 Y557.045
X325.868 Y556.982
X326.547 Y556.582
X326.661 Y556.511
X327.319 Y556.074
X327.425 Y555.999
X328.064 Y555.525
X328.154 Y555.455
X328.618 Y555.077
X328.691 Y555.016
X328.83 Y554.893
X328.971 Y554.772
X329.053 Y554.698
X329.489 Y554.288
X329.564 Y554.214
X330.119 Y553.646
X330.212 Y553.546
X330.734 Y552.95
X330.817 Y552.85
X331.304 Y552.232
X331.382 Y552.127
X331.836 Y551.484
X331.908 Y551.376
X332.327 Y550.712
X332.394 Y550.601
X332.777 Y549.918
X332.839 Y549.799
X333.185 Y549.096
X333.239 Y548.979
X333.548 Y548.26
X333.597 Y548.138
X333.868 Y547.403
X333.909 Y547.283
X334.143 Y546.533
X334.179 Y546.405
X334.333 Y545.8
G2 X334.391 Y545.49 I-2.423 J-0.617
G1 X334.8 Y542.188
X401.802 Y1.322
G2 X399.321 Y-1.485 I-2.481 J-0.307
G1 X187.718 Y-1.5
G2 X185.218 Y1 I0 J2.5
G1 Y12.041
X185.219 Y12.094
X185.24 Y13.082
X185.242 Y13.152
X185.307 Y14.465
X185.313 Y14.549
X185.422 Y15.858
X185.429 Y15.936
X185.579 Y17.239
X185.59 Y17.321
X185.783 Y18.616
X185.796 Y18.695
X186.03 Y19.982
X186.047 Y20.065
X186.324 Y21.343
X186.342 Y21.421
X186.66 Y22.69
X186.681 Y22.768
X187.04 Y24.025
X187.065 Y24.107
X187.467 Y25.352
X187.493 Y25.428
X187.935 Y26.66
X187.962 Y26.732
X188.442 Y27.95
X188.475 Y28.029
X188.997 Y29.232
X189.031 Y29.308
X189.594 Y30.494
X189.63 Y30.565
X190.23 Y31.735
X190.264 Y31.798
X190.741 Y32.664
X190.761 Y32.699
X190.924 Y32.984
X190.931 Y32.996
X191.195 Y33.452
X191.212 Y33.482
X192.023 Y34.838
X192.046 Y34.875
X193.158 Y36.663
X193.186 Y36.706
X194.333 Y38.468
X194.362 Y38.513
X195.546 Y40.249
X195.577 Y40.293
X196.798 Y42.003
X196.829 Y42.046
X198.085 Y43.729
X198.117 Y43.771
X199.407 Y45.427
X199.44 Y45.469
X200.765 Y47.097
X200.799 Y47.138
X202.159 Y48.739
X202.193 Y48.778
X203.586 Y50.35
X203.621 Y50.388
X205.046 Y51.93
X205.084 Y51.97
X206.544 Y53.482
X206.579 Y53.518
X208.069 Y54.999
X208.109 Y55.038
X209.633 Y56.488
X209.67 Y56.523
X211.224 Y57.942
X211.256 Y57.971
X212.44 Y59.015
X212.468 Y59.039
X212.868 Y59.382
X212.877 Y59.389
X213.051 Y59.537
X213.071 Y59.554
X213.595 Y59.989
X213.631 Y60.018
X214.339 Y60.584
X214.384 Y60.619
X215.105 Y61.169
X215.15 Y61.202
X215.882 Y61.735
X215.929 Y61.768
X216.673 Y62.284
X216.721 Y62.316
X217.477 Y62.815
X217.522 Y62.844
X218.287 Y63.325
X218.336 Y63.355
X219.112 Y63.819
X219.163 Y63.848
X219.951 Y64.294
X219.999 Y64.321
X220.796 Y64.749
X220.846 Y64.776
X221.653 Y65.186
X221.702 Y65.21
X222.517 Y65.602
X222.57 Y65.626
X223.395 Y66
X223.448 Y66.023
X224.283 Y66.378
X224.334 Y66.399
X225.176 Y66.736
X225.22 Y66.753
X225.857 Y66.993
X225.895 Y67.007
X226.107 Y67.083
X226.414 Y67.194
X227.343 Y67.538
X228.578 Y68.011
X229.804 Y68.498
X231.023 Y69.001
X232.234 Y69.52
X233.438 Y70.055
X234.634 Y70.605
X235.823 Y71.17
X237.003 Y71.75
X238.176 Y72.346
X239.342 Y72.957
X240.497 Y73.582
X241.645 Y74.223
X242.783 Y74.878
X243.914 Y75.549
X245.036 Y76.233
X246.148 Y76.933
X247.252 Y77.647
X248.345 Y78.375
X249.43 Y79.118
X250.504 Y79.874
X251.57 Y80.646
X252.626 Y81.43
X253.67 Y82.229
X254.707 Y83.042
X255.73 Y83.868
X256.744 Y84.709
X257.75 Y85.563
X258.742 Y86.429
X259.723 Y87.31
X260.697 Y88.206
X261.417 Y88.884
X261.652 Y89.11
X261.656 Y89.114
X261.893 Y89.339
X262.602 Y90.03
X263.537 Y90.962
X264.459 Y91.905
X265.369 Y92.861
X266.267 Y93.826
X267.15 Y94.803
X268.02 Y95.791
X268.877 Y96.79
X269.72 Y97.8
X270.55 Y98.82
X271.366 Y99.85
X272.168 Y100.892
X272.958 Y101.943
X273.733 Y103.005
X274.495 Y104.077
X275.241 Y105.158
X275.974 Y106.248
X276.691 Y107.348
X277.395 Y108.457
X278.086 Y109.578
X278.762 Y110.706
X279.422 Y111.842
X280.068 Y112.987
X280.698 Y114.142
X281.316 Y115.306
X281.918 Y116.476
X282.502 Y117.655
X283.073 Y118.843
X283.629 Y120.039
X284.169 Y121.242
X284.695 Y122.456
X285.078 Y123.366
X285.198 Y123.664
X285.205 Y123.679
X285.289 Y123.882
X285.538 Y124.518
X285.854 Y125.379
X286.149 Y126.245
X286.423 Y127.115
X286.674 Y127.991
X286.904 Y128.872
X287.112 Y129.756
X287.298 Y130.65
X287.464 Y131.547
X287.607 Y132.446
X287.729 Y133.348
X287.829 Y134.255
X287.906 Y135.162
X287.961 Y136.074
X287.995 Y136.995
X288.007 Y137.68
Y137.902
X287.978 Y541.304
X287.976 Y541.478
X287.977 Y541.563
X287.99 Y542.124
X287.994 Y542.223
X288.041 Y542.969
X288.052 Y543.092
X288.135 Y543.829
X288.152 Y543.957
X288.273 Y544.689
X288.296 Y544.809
X288.452 Y545.531
X288.48 Y545.646
X288.67 Y546.36
X288.705 Y546.48
X288.93 Y547.182
X288.972 Y547.301
X289.232 Y547.991
X289.277 Y548.103
X289.57 Y548.779
X289.622 Y548.891
X289.948 Y549.552
X290.006 Y549.662
X290.365 Y550.307
X290.424 Y550.408
X290.814 Y551.037
X290.885 Y551.146
X291.307 Y551.753
X291.377 Y551.849
X291.83 Y552.44
X291.909 Y552.539
X292.392 Y553.107
X292.464 Y553.187
X292.846 Y553.599
X292.905 Y553.66
X293.033 Y553.79
X293.162 Y553.92
X293.225 Y553.982
X293.633 Y554.368
X293.71 Y554.438
X294.273 Y554.928
X294.365 Y555.005
X294.948 Y555.465
X295.053 Y555.542
X295.659 Y555.971
X295.759 Y556.039
X296.383 Y556.436
X296.486 Y556.499
X297.127 Y556.865
X297.238 Y556.925
X297.896 Y557.258
X298.003 Y557.309
X298.675 Y557.61
X298.793 Y557.659
X299.481 Y557.926
X299.593 Y557.966
X300.291 Y558.199
X300.409 Y558.235
X301.12 Y558.435
X301.24 Y558.465
X301.961 Y558.629
X302.084 Y558.654
X302.815 Y558.782
X302.933 Y558.799
X303.67 Y558.892
X303.799 Y558.905
X304.544 Y558.96
X304.639 Y558.965
X305.2 Y558.985
X305.218 Y558.986
Z-15 F333.3
X305.289 Y558.987 F1000
X305.462
X315.451 Y559.099
X318.771 Y559.136
G2 X319.086 Y559.119 I0.028 J-2.5
G1 X319.709 Y559.047
X319.836 Y559.029
X320.61 Y558.899
X320.738 Y558.874
X321.503 Y558.704
X321.635 Y558.672
X322.389 Y558.461
X322.507 Y558.424
X323.25 Y558.176
X323.375 Y558.131
X324.105 Y557.843
X324.225 Y557.792
X324.938 Y557.467
X325.057 Y557.409
X325.755 Y557.045
X325.868 Y556.982
X326.547 Y556.582
X326.661 Y556.511
X327.319 Y556.074
X327.425 Y555.999
X328.064 Y555.525
X328.154 Y555.455
X328.618 Y555.077
X328.691 Y555.016
X328.83 Y554.893
X328.971 Y554.772
X329.053 Y554.698
X329.489 Y554.288
X329.564 Y554.214
X330.119 Y553.646
X330.212 Y553.546
X330.734 Y552.95
X330.817 Y552.85
X331.304 Y552.232
X331.382 Y552.127
X331.836 Y551.484
X331.908 Y551.376
X332.327 Y550.712
X332.394 Y550.601
X332.777 Y549.918
X332.839 Y549.799
X333.185 Y549.096
X333.239 Y548.979
X333.548 Y548.26
X333.597 Y548.138
X333.868 Y547.403
X333.909 Y547.283
X334.143 Y546.533
X334.179 Y546.405
X334.333 Y545.8
G2 X334.391 Y545.49 I-2.423 J-0.617
G1 X334.8 Y542.188
X401.802 Y1.322
G2 X399.321 Y-1.485 I-2.481 J-0.307
G1 X187.718 Y-1.5
G2 X185.218 Y1 I0 J2.5
G1 Y12.041
X185.219 Y12.094
X185.24 Y13.082
X185.242 Y13.152
X185.307 Y14.465
X185.313 Y14.549
X185.422 Y15.858
X185.429 Y15.936
X185.579 Y17.239
X185.59 Y17.321
X185.783 Y18.616
X185.796 Y18.695
X186.03 Y19.982
X186.047 Y20.065
X186.324 Y21.343
X186.342 Y21.421
X186.66 Y22.69
X186.681 Y22.768
X187.04 Y24.025
X187.065 Y24.107
X187.467 Y25.352
X187.493 Y25.428
X187.935 Y26.66
X187.962 Y26.732
X188.442 Y27.95
X188.475 Y28.029
X188.997 Y29.232
X189.031 Y29.308
X189.594 Y30.494
X189.63 Y30.565
X190.23 Y31.735
X190.264 Y31.798
X190.741 Y32.664
X190.761 Y32.699
X190.924 Y32.984
X190.931 Y32.996
X191.195 Y33.452
X191.212 Y33.482
X192.023 Y34.838
X192.046 Y34.875
X193.158 Y36.663
X193.186 Y36.706
X194.333 Y38.468
X194.362 Y38.513
X195.546 Y40.249
X195.577 Y40.293
X196.798 Y42.003
X196.829 Y42.046
X198.085 Y43.729
X198.117 Y43.771
X199.407 Y45.427
X199.44 Y45.469
X200.765 Y47.097
X200.799 Y47.138
X202.159 Y48.739
X202.193 Y48.778
X203.586 Y50.35
X203.621 Y50.388
X205.046 Y51.93
X205.084 Y51.97
X206.544 Y53.482
X206.579 Y53.518
X208.069 Y54.999
X208.109 Y55.038
X209.633 Y56.488
X209.67 Y56.523
X211.224 Y57.942
X211.256 Y57.971
X212.44 Y59.015
X212.468 Y59.039
X212.868 Y59.382
X212.877 Y59.389
X213.051 Y59.537
X213.071 Y59.554
X213.595 Y59.989
X213.631 Y60.018
X214.339 Y60.584
X214.384 Y60.619
X215.105 Y61.169
X215.15 Y61.202
X215.882 Y61.735
X215.929 Y61.768
X216.673 Y62.284
X216.721 Y62.316
X217.477 Y62.815
X217.522 Y62.844
X218.287 Y63.325
X218.336 Y63.355
X219.112 Y63.819
X219.163 Y63.848
X219.951 Y64.294
X219.999 Y64.321
X220.796 Y64.749
X220.846 Y64.776
X221.653 Y65.186
X221.702 Y65.21
X222.517 Y65.602
X222.57 Y65.626
X223.395 Y66
X223.448 Y66.023
X224.283 Y66.378
X224.334 Y66.399
X225.176 Y66.736
X225.22 Y66.753
X225.857 Y66.993
X225.895 Y67.007
X226.107 Y67.083
X226.414 Y67.194
X227.343 Y67.538
X228.578 Y68.011
X229.804 Y68.498
X231.023 Y69.001
X232.234 Y69.52
X233.438 Y70.055
X234.634 Y70.605
X235.823 Y71.17
X237.003 Y71.75
X238.176 Y72.346
X239.342 Y72.957
X240.497 Y73.582
X241.645 Y74.223
X242.783 Y74.878
X243.914 Y75.549
X245.036 Y76.233
X246.148 Y76.933
X247.252 Y77.647
X248.345 Y78.375
X249.43 Y79.118
X250.504 Y79.874
X251.57 Y80.646
X252.626 Y81.43
X253.67 Y82.229
X254.707 Y83.042
X255.73 Y83.868
X256.744 Y84.709
X257.75 Y85.563
X258.742 Y86.429
X259.723 Y87.31
X260.697 Y88.206
X261.417 Y88.884
X261.652 Y89.11
X261.656 Y89.114
X261.893 Y89.339
X262.602 Y90.03
X263.537 Y90.962
X264.459 Y91.905
X265.369 Y92.861
X266.267 Y93.826
X267.15 Y94.803
X268.02 Y95.791
X268.877 Y96.79
X269.72 Y97.8
X270.55 Y98.82
X271.366 Y99.85
X272.168 Y100.892
X272.958 Y101.943
X273.733 Y103.005
X274.495 Y104.077
X275.241 Y105.158
X275.974 Y106.248
X276.691 Y107.348
X277.395 Y108.457
X278.086 Y109.578
X278.762 Y110.706
X279.422 Y111.842
X280.068 Y112.987
X280.698 Y114.142
X281.316 Y115.306
X281.918 Y116.476
X282.502 Y117.655
X283.073 Y118.843
X283.629 Y120.039
X284.169 Y121.242
X284.695 Y122.456
X285.078 Y123.366
X285.198 Y123.664
X285.205 Y123.679
X285.289 Y123.882
X285.538 Y124.518
X285.854 Y125.379
X286.149 Y126.245
X286.423 Y127.115
X286.674 Y127.991
X286.904 Y128.872
X287.112 Y129.756
X287.298 Y130.65
X287.464 Y131.547
X287.607 Y132.446
X287.729 Y133.348
X287.829 Y134.255
X287.906 Y135.162
X287.961 Y136.074
X287.995 Y136.995
X288.007 Y137.68
Y137.902
X287.978 Y541.304
X287.976 Y541.478
X287.977 Y541.563
X287.99 Y542.124
X287.994 Y542.223
X288.041 Y542.969
X288.052 Y543.092
X288.135 Y543.829
X288.152 Y543.957
X288.273 Y544.689
X288.296 Y544.809
X288.452 Y545.531
X288.48 Y545.646
X288.67 Y546.36
X288.705 Y546.48
X288.93 Y547.182
X288.972 Y547.301
X289.232 Y547.991
X289.277 Y548.103
X289.57 Y548.779
X289.622 Y548.891
X289.948 Y549.552
X290.006 Y549.662
X290.365 Y550.307
X290.424 Y550.408
X290.814 Y551.037
X290.885 Y551.146
X291.307 Y551.753
X291.377 Y551.849
X291.83 Y552.44
X291.909 Y552.539
X292.392 Y553.107
X292.464 Y553.187
X292.846 Y553.599
X292.905 Y553.66
X293.033 Y553.79
X293.162 Y553.92
X293.225 Y553.982
X293.633 Y554.368
X293.71 Y554.438
X294.273 Y554.928
X294.365 Y555.005
X294.948 Y555.465
X295.053 Y555.542
X295.659 Y555.971
X295.759 Y556.039
X296.383 Y556.436
X296.486 Y556.499
X297.127 Y556.865
X297.238 Y556.925
X297.896 Y557.258
X298.003 Y557.309
X298.675 Y557.61
X298.793 Y557.659
X299.481 Y557.926
X299.593 Y557.966
X300.291 Y558.199
X300.409 Y558.235
X301.12 Y558.435
X301.24 Y558.465
X301.961 Y558.629
X302.084 Y558.654
X302.815 Y558.782
X302.933 Y558.799
X303.67 Y558.892
X303.799 Y558.905
X304.544 Y558.96
X304.639 Y558.965
X305.2 Y558.985
X305.218 Y558.986
Z-20 F333.3
X305.289 Y558.987 F1000
X305.462
X315.451 Y559.099
X318.771 Y559.136
G2 X319.086 Y559.119 I0.028 J-2.5
G1 X319.709 Y559.047
X319.836 Y559.029
X320.61 Y558.899
X320.738 Y558.874
X321.503 Y558.704
X321.635 Y558.672
X322.389 Y558.461
X322.507 Y558.424
X323.25 Y558.176
X323.375 Y558.131
X324.105 Y557.843
X324.225 Y557.792
X324.938 Y557.467
X325.057 Y557.409
X325.755 Y557.045
X325.868 Y556.982
X326.547 Y556.582
X326.661 Y556.511
X327.319 Y556.074
X327.425 Y555.999
X328.064 Y555.525
X328.154 Y555.455
X328.618 Y555.077
X328.691 Y555.016
X328.83 Y554.893
X328.971 Y554.772
X329.053 Y554.698
X329.489 Y554.288
X329.564 Y554.214
X330.119 Y553.646
X330.212 Y553.546
X330.734 Y552.95
X330.817 Y552.85
X331.304 Y552.232
X331.382 Y552.127
X331.836 Y551.484
X331.908 Y551.376
X332.327 Y550.712
X332.394 Y550.601
X332.777 Y549.918
X332.839 Y549.799
X333.185 Y549.096
X333.239 Y548.979
X333.548 Y548.26
X333.597 Y548.138
X333.868 Y547.403
X333.909 Y547.283
X334.143 Y546.533
X334.179 Y546.405
X334.333 Y545.8
G2 X334.391 Y545.49 I-2.423 J-0.617
G1 X334.8 Y542.188
X401.802 Y1.322
G2 X399.321 Y-1.485 I-2.481 J-0.307
G1 X187.718 Y-1.5
G2 X185.218 Y1 I0 J2.5
G1 Y12.041
X185.219 Y12.094
X185.24 Y13.082
X185.242 Y13.152
X185.307 Y14.465
X185.313 Y14.549
X185.422 Y15.858
X185.429 Y15.936
X185.579 Y17.239
X185.59 Y17.321
X185.783 Y18.616
X185.796 Y18.695
X186.03 Y19.982
X186.047 Y20.065
X186.324 Y21.343
X186.342 Y21.421
X186.66 Y22.69
X186.681 Y22.768
X187.04 Y24.025
X187.065 Y24.107
X187.467 Y25.352
X187.493 Y25.428
X187.935 Y26.66
X187.962 Y26.732
X188.442 Y27.95
X188.475 Y28.029
X188.997 Y29.232
X189.031 Y29.308
X189.594 Y30.494
X189.63 Y30.565
X190.23 Y31.735
X190.264 Y31.798
X190.741 Y32.664
X190.761 Y32.699
X190.924 Y32.984
X190.931 Y32.996
X191.195 Y33.452
X191.212 Y33.482
X192.023 Y34.838
X192.046 Y34.875
X193.158 Y36.663
X193.186 Y36.706
X194.333 Y38.468
X194.362 Y38.513
X195.546 Y40.249
X195.577 Y40.293
X196.798 Y42.003
X196.829 Y42.046
X198.085 Y43.729
X198.117 Y43.771
X199.407 Y45.427
X199.44 Y45.469
X200.765 Y47.097
X200.799 Y47.138
X202.159 Y48.739
X202.193 Y48.778
X203.586 Y50.35
X203.621 Y50.388
X205.046 Y51.93
X205.084 Y51.97
X206.544 Y53.482
X206.579 Y53.518
X208.069 Y54.999
X208.109 Y55.038
X209.633 Y56.488
X209.67 Y56.523
X211.224 Y57.942
X211.256 Y57.971
X212.44 Y59.015
X212.468 Y59.039
X212.868 Y59.382
X212.877 Y59.389
X213.051 Y59.537
X213.071 Y59.554
X213.595 Y59.989
X213.631 Y60.018
X214.339 Y60.584
X214.384 Y60.619
X215.105 Y61.169
X215.15 Y61.202
X215.882 Y61.735
X215.929 Y61.768
X216.673 Y62.284
X216.721 Y62.316
X217.477 Y62.815
X217.522 Y62.844
X218.287 Y63.325
X218.336 Y63.355
X219.112 Y63.819
X219.163 Y63.848
X219.951 Y64.294
X219.999 Y64.321
X220.796 Y64.749
X220.846 Y64.776
X221.653 Y65.186
X221.702 Y65.21
X222.517 Y65.602
X222.57 Y65.626
X223.395 Y66
X223.448 Y66.023
X224.283 Y66.378
X224.334 Y66.399
X225.176 Y66.736
X225.22 Y66.753
X225.857 Y66.993
X225.895 Y67.007
X226.107 Y67.083
X226.414 Y67.194
X227.343 Y67.538
X228.578 Y68.011
X229.804 Y68.498
X231.023 Y69.001
X232.234 Y69.52
X233.438 Y70.055
X234.634 Y70.605
X235.823 Y71.17
X237.003 Y71.75
X238.176 Y72.346
X239.342 Y72.957
X240.497 Y73.582
X241.645 Y74.223
X242.783 Y74.878
X243.914 Y75.549
X245.036 Y76.233
X246.148 Y76.933
X247.252 Y77.647
X248.345 Y78.375
X249.43 Y79.118
X250.504 Y79.874
X251.57 Y80.646
X252.626 Y81.43
X253.67 Y82.229
X254.707 Y83.042
X255.73 Y83.868
X256.744 Y84.709
X257.75 Y85.563
X258.742 Y86.429
X259.723 Y87.31
X260.697 Y88.206
X261.417 Y88.884
X261.652 Y89.11
X261.656 Y89.114
X261.893 Y89.339
X262.602 Y90.03
X263.537 Y90.962
X264.459 Y91.905
X265.369 Y92.861
X266.267 Y93.826
X267.15 Y94.803
X268.02 Y95.791
X268.877 Y96.79
X269.72 Y97.8
X270.55 Y98.82
X271.366 Y99.85
X272.168 Y100.892
X272.958 Y101.943
X273.733 Y103.005
X274.495 Y104.077
X275.241 Y105.158
X275.974 Y106.248
X276.691 Y107.348
X277.395 Y108.457
X278.086 Y109.578
X278.762 Y110.706
X279.422 Y111.842
X280.068 Y112.987
X280.698 Y114.142
X281.316 Y115.306
X281.918 Y116.476
X282.502 Y117.655
X283.073 Y118.843
X283.629 Y120.039
X284.169 Y121.242
X284.695 Y122.456
X285.078 Y123.366
X285.198 Y123.664
X285.205 Y123.679
X285.289 Y123.882
X285.538 Y124.518
X285.854 Y125.379
X286.149 Y126.245
X286.423 Y127.115
X286.674 Y127.991
X286.904 Y128.872
X287.112 Y129.756
X287.298 Y130.65
X287.464 Y131.547
X287.607 Y132.446
X287.729 Y133.348
X287.829 Y134.255
X287.906 Y135.162
X287.961 Y136.074
X287.995 Y136.995
X288.007 Y137.68
Y137.902
X287.978 Y541.304
X287.976 Y541.478
X287.977 Y541.563
X287.99 Y542.124
X287.994 Y542.223
X288.041 Y542.969
X288.052 Y543.092
X288.135 Y543.829
X288.152 Y543.957
X288.273 Y544.689
X288.296 Y544.809
X288.452 Y545.531
X288.48 Y545.646
X288.67 Y546.36
X288.705 Y546.48
X288.93 Y547.182
X288.972 Y547.301
X289.232 Y547.991
X289.277 Y548.103
X289.57 Y548.779
X289.622 Y548.891
X289.948 Y549.552
X290.006 Y549.662
X290.365 Y550.307
X290.424 Y550.408
X290.814 Y551.037
X290.885 Y551.146
X291.307 Y551.753
X291.377 Y551.849
X291.83 Y552.44
X291.909 Y552.539
X292.392 Y553.107
X292.464 Y553.187
X292.846 Y553.599
X292.905 Y553.66
X293.033 Y553.79
X293.162 Y553.92
X293.225 Y553.982
X293.633 Y554.368
X293.71 Y554.438
X294.273 Y554.928
X294.365 Y555.005
X294.948 Y555.465
X295.053 Y555.542
X295.659 Y555.971
X295.759 Y556.039
X296.383 Y556.436
X296.486 Y556.499
X297.127 Y556.865
X297.238 Y556.925
X297.896 Y557.258
X298.003 Y557.309
X298.675 Y557.61
X298.793 Y557.659
X299.481 Y557.926
X299.593 Y557.966
X300.291 Y558.199
X300.409 Y558.235
X301.12 Y558.435
X301.24 Y558.465
X301.961 Y558.629
X302.084 Y558.654
X302.815 Y558.782
X302.933 Y558.799
X303.67 Y558.892
X303.799 Y558.905
X304.544 Y558.96
X304.639 Y558.965
X305.2 Y558.985
X305.218 Y558.986
Z-25 F333.3
X305.289 Y558.987 F1000
X305.462
X315.451 Y559.099
X318.771 Y559.136
G2 X319.086 Y559.119 I0.028 J-2.5
G1 X319.709 Y559.047
X319.836 Y559.029
X320.61 Y558.899
X320.738 Y558.874
X321.503 Y558.704
X321.635 Y558.672
X322.389 Y558.461
X322.507 Y558.424
X323.25 Y558.176
X323.375 Y558.131
X324.105 Y557.843
X324.225 Y557.792
X324.938 Y557.467
X325.057 Y557.409
X325.755 Y557.045
X325.868 Y556.982
X326.547 Y556.582
X326.661 Y556.511
X327.319 Y556.074
X327.425 Y555.999
X328.064 Y555.525
X328.154 Y555.455
X328.618 Y555.077
X328.691 Y555.016
X328.83 Y554.893
X328.971 Y554.772
X329.053 Y554.698
X329.489 Y554.288
X329.564 Y554.214
X330.119 Y553.646
X330.212 Y553.546
X330.734 Y552.95
X330.817 Y552.85
X331.304 Y552.232
X331.382 Y552.127
X331.836 Y551.484
X331.908 Y551.376
X332.327 Y550.712
X332.394 Y550.601
X332.777 Y549.918
X332.839 Y549.799
X333.185 Y549.096
X333.239 Y548.979
X333.548 Y548.26
X333.597 Y548.138
X333.868 Y547.403
X333.909 Y547.283
X334.143 Y546.533
X334.179 Y546.405
X334.333 Y545.8
G2 X334.391 Y545.49 I-2.423 J-0.617
G1 X334.8 Y542.188
X401.802 Y1.322
G2 X399.321 Y-1.485 I-2.481 J-0.307
G1 X187.718 Y-1.5
G2 X185.218 Y1 I0 J2.5
G1 Y12.041
X185.219 Y12.094
X185.24 Y13.082
X185.242 Y13.152
X185.307 Y14.465
X185.313 Y14.549
X185.422 Y15.858
X185.429 Y15.936
X185.579 Y17.239
X185.59 Y17.321
X185.783 Y18.616
X185.796 Y18.695
X186.03 Y19.982
X186.047 Y20.065
X186.324 Y21.343
X186.342 Y21.421
X186.66 Y22.69
X186.681 Y22.768
X187.04 Y24.025
X187.065 Y24.107
X187.467 Y25.352
X187.493 Y25.428
X187.935 Y26.66
X187.962 Y26.732
X188.442 Y27.95
X188.475 Y28.029
X188.997 Y29.232
X189.031 Y29.308
X189.594 Y30.494
X189.63 Y30.565
X190.23 Y31.735
X190.264 Y31.798
X190.741 Y32.664
X190.761 Y32.699
X190.924 Y32.984
X190.931 Y32.996
X191.195 Y33.452
X191.212 Y33.482
X192.023 Y34.838
X192.046 Y34.875
X193.158 Y36.663
X193.186 Y36.706
X194.333 Y38.468
X194.362 Y38.513
X195.546 Y40.249
X195.577 Y40.293
X196.798 Y42.003
X196.829 Y42.046
X198.085 Y43.729
X198.117 Y43.771
X199.407 Y45.427
X199.44 Y45.469
X200.765 Y47.097
X200.799 Y47.138
X202.159 Y48.739
X202.193 Y48.778
X203.586 Y50.35
X203.621 Y50.388
X205.046 Y51.93
X205.084 Y51.97
X206.544 Y53.482
X206.579 Y53.518
X208.069 Y54.999
X208.109 Y55.038
X209.633 Y56.488
X209.67 Y56.523
X211.224 Y57.942
X211.256 Y57.971
X212.44 Y59.015
X212.468 Y59.039
X212.868 Y59.382
X212.877 Y59.389
X213.051 Y59.537
X213.071 Y59.554
X213.595 Y59.989
X213.631 Y60.018
X214.339 Y60.584
X214.384 Y60.619
X215.105 Y61.169
X215.15 Y61.202
X215.882 Y61.735
X215.929 Y61.768
X216.673 Y62.284
X216.721 Y62.316
X217.477 Y62.815
X217.522 Y62.844
X218.287 Y63.325
X218.336 Y63.355
X219.112 Y63.819
X219.163 Y63.848
X219.951 Y64.294
X219.999 Y64.321
X220.796 Y64.749
X220.846 Y64.776
X221.653 Y65.186
X221.702 Y65.21
X222.517 Y65.602
X222.57 Y65.626
X223.395 Y66
X223.448 Y66.023
X224.283 Y66.378
X224.334 Y66.399
X225.176 Y66.736
X225.22 Y66.753
X225.857 Y66.993
X225.895 Y67.007
X226.107 Y67.083
X226.414 Y67.194
X227.343 Y67.538
X228.578 Y68.011
X229.804 Y68.498
X231.023 Y69.001
X232.234 Y69.52
X233.438 Y70.055
X234.634 Y70.605
X235.823 Y71.17
X237.003 Y71.75
X238.176 Y72.346
X239.342 Y72.957
X240.497 Y73.582
X241.645 Y74.223
X242.783 Y74.878
X243.914 Y75.549
X245.036 Y76.233
X246.148 Y76.933
X247.252 Y77.647
X248.345 Y78.375
X249.43 Y79.118
X250.504 Y79.874
X251.57 Y80.646
X252.626 Y81.43
X253.67 Y82.229
X254.707 Y83.042
X255.73 Y83.868
X256.744 Y84.709
X257.75 Y85.563
X258.742 Y86.429
X259.723 Y87.31
X260.697 Y88.206
X261.417 Y88.884
X261.652 Y89.11
X261.656 Y89.114
X261.893 Y89.339
X262.602 Y90.03
X263.537 Y90.962
X264.459 Y91.905
X265.369 Y92.861
X266.267 Y93.826
X267.15 Y94.803
X268.02 Y95.791
X268.877 Y96.79
X269.72 Y97.8
X270.55 Y98.82
X271.366 Y99.85
X272.168 Y100.892
X272.958 Y101.943
X273.733 Y103.005
X274.495 Y104.077
X275.241 Y105.158
X275.974 Y106.248
X276.691 Y107.348
X277.395 Y108.457
X278.086 Y109.578
X278.762 Y110.706
X279.422 Y111.842
X280.068 Y112.987
X280.698 Y114.142
X281.316 Y115.306
X281.918 Y116.476
X282.502 Y117.655
X283.073 Y118.843
X283.629 Y120.039
X284.169 Y121.242
X284.695 Y122.456
X285.078 Y123.366
X285.198 Y123.664
X285.205 Y123.679
X285.289 Y123.882
X285.538 Y124.518
X285.854 Y125.379
X286.149 Y126.245
X286.423 Y127.115
X286.674 Y127.991
X286.904 Y128.872
X287.112 Y129.756
X287.298 Y130.65
X287.464 Y131.547
X287.607 Y132.446
X287.729 Y133.348
X287.829 Y134.255
X287.906 Y135.162
X287.961 Y136.074
X287.995 Y136.995
X288.007 Y137.68
Y137.902
X287.978 Y541.304
X287.976 Y541.478
X287.977 Y541.563
X287.99 Y542.124
X287.994 Y542.223
X288.041 Y542.969
X288.052 Y543.092
X288.135 Y543.829
X288.152 Y543.957
X288.273 Y544.689
X288.296 Y544.809
X288.452 Y545.531
X288.48 Y545.646
X288.67 Y546.36
X288.705 Y546.48
X288.93 Y547.182
X288.972 Y547.301
X289.232 Y547.991
X289.277 Y548.103
X289.57 Y548.779
X289.622 Y548.891
X289.948 Y549.552
X290.006 Y549.662
X290.365 Y550.307
X290.424 Y550.408
X290.814 Y551.037
X290.885 Y551.146
X291.307 Y551.753
X291.377 Y551.849
X291.83 Y552.44
X291.909 Y552.539
X292.392 Y553.107
X292.464 Y553.187
X292.846 Y553.599
X292.905 Y553.66
X293.033 Y553.79
X293.162 Y553.92
X293.225 Y553.982
X293.633 Y554.368
X293.71 Y554.438
X294.273 Y554.928
X294.365 Y555.005
X294.948 Y555.465
X295.053 Y555.542
X295.659 Y555.971
X295.759 Y556.039
X296.383 Y556.436
X296.486 Y556.499
X297.127 Y556.865
X297.238 Y556.925
X297.896 Y557.258
X298.003 Y557.309
X298.675 Y557.61
X298.793 Y557.659
X299.481 Y557.926
X299.593 Y557.966
X300.291 Y558.199
X300.409 Y558.235
X301.12 Y558.435
X301.24 Y558.465
X301.961 Y558.629
X302.084 Y558.654
X302.815 Y558.782
X302.933 Y558.799
X303.67 Y558.892
X303.799 Y558.905
X304.544 Y558.96
X304.639 Y558.965
X305.2 Y558.985
X305.218 Y558.986
Z-28 F333.3
X305.289 Y558.987 F1000
X305.462
X315.451 Y559.099
X318.771 Y559.136
G2 X319.086 Y559.119 I0.028 J-2.5
G1 X319.709 Y559.047
X319.836 Y559.029
X320.61 Y558.899
X320.738 Y558.874
X321.503 Y558.704
X321.635 Y558.672
X322.389 Y558.461
X322.507 Y558.424
X323.25 Y558.176
X323.375 Y558.131
X324.105 Y557.843
X324.225 Y557.792
X324.938 Y557.467
X325.057 Y557.409
X325.755 Y557.045
X325.868 Y556.982
X326.547 Y556.582
X326.661 Y556.511
X327.319 Y556.074
X327.425 Y555.999
X328.064 Y555.525
X328.154 Y555.455
X328.618 Y555.077
X328.691 Y555.016
X328.83 Y554.893
X328.971 Y554.772
X329.053 Y554.698
X329.489 Y554.288
X329.564 Y554.214
X330.119 Y553.646
X330.212 Y553.546
X330.734 Y552.95
X330.817 Y552.85
X331.304 Y552.232
X331.382 Y552.127
X331.836 Y551.484
X331.908 Y551.376
X332.327 Y550.712
X332.394 Y550.601
X332.777 Y549.918
X332.839 Y549.799
X333.185 Y549.096
X333.239 Y548.979
X333.548 Y548.26
X333.597 Y548.138
X333.868 Y547.403
X333.909 Y547.283
X334.143 Y546.533
X334.179 Y546.405
X334.333 Y545.8
G2 X334.391 Y545.49 I-2.423 J-0.617
G1 X334.8 Y542.188
X401.802 Y1.322
G2 X399.321 Y-1.485 I-2.481 J-0.307
G1 X187.718 Y-1.5
G2 X185.218 Y1 I0 J2.5
G1 Y12.041
X185.219 Y12.094
X185.24 Y13.082
X185.242 Y13.152
X185.307 Y14.465
X185.313 Y14.549
X185.422 Y15.858
X185.429 Y15.936
X185.579 Y17.239
X185.59 Y17.321
X185.783 Y18.616
X185.796 Y18.695
X186.03 Y19.982
X186.047 Y20.065
X186.324 Y21.343
X186.342 Y21.421
X186.66 Y22.69
X186.681 Y22.768
X187.04 Y24.025
X187.065 Y24.107
X187.467 Y25.352
X187.493 Y25.428
X187.935 Y26.66
X187.962 Y26.732
X188.442 Y27.95
X188.475 Y28.029
X188.997 Y29.232
X189.031 Y29.308
X189.594 Y30.494
X189.63 Y30.565
X190.23 Y31.735
X190.264 Y31.798
X190.741 Y32.664
X190.761 Y32.699
X190.924 Y32.984
X190.931 Y32.996
X191.195 Y33.452
X191.212 Y33.482
X192.023 Y34.838
X192.046 Y34.875
X193.158 Y36.663
X193.186 Y36.706
X194.333 Y38.468
X194.362 Y38.513
X195.546 Y40.249
X195.577 Y40.293
X196.798 Y42.003
X196.829 Y42.046
X198.085 Y43.729
X198.117 Y43.771
X199.407 Y45.427
X199.44 Y45.469
X200.765 Y47.097
X200.799 Y47.138
X202.159 Y48.739
X202.193 Y48.778
X203.586 Y50.35
X203.621 Y50.388
X205.046 Y51.93
X205.084 Y51.97
X206.544 Y53.482
X206.579 Y53.518
X208.069 Y54.999
X208.109 Y55.038
X209.633 Y56.488
X209.67 Y56.523
X211.224 Y57.942
X211.256 Y57.971
X212.44 Y59.015
X212.468 Y59.039
X212.868 Y59.382
X212.877 Y59.389
X213.051 Y59.537
X213.071 Y59.554
X213.595 Y59.989
X213.631 Y60.018
X214.339 Y60.584
X214.384 Y60.619
X215.105 Y61.169
X215.15 Y61.202
X215.882 Y61.735
X215.929 Y61.768
X216.673 Y62.284
X216.721 Y62.316
X217.477 Y62.815
X217.522 Y62.844
X218.287 Y63.325
X218.336 Y63.355
X219.112 Y63.819
X219.163 Y63.848
X219.951 Y64.294
X219.999 Y64.321
X220.796 Y64.749
X220.846 Y64.776
X221.653 Y65.186
X221.702 Y65.21
X222.517 Y65.602
X222.57 Y65.626
X223.395 Y66
X223.448 Y66.023
X224.283 Y66.378
X224.334 Y66.399
X225.176 Y66.736
X225.22 Y66.753
X225.857 Y66.993
X225.895 Y67.007
X226.107 Y67.083
X226.414 Y67.194
X227.343 Y67.538
X228.578 Y68.011
X229.804 Y68.498
X231.023 Y69.001
X232.234 Y69.52
X233.438 Y70.055
X234.634 Y70.605
X235.823 Y71.17
X237.003 Y71.75
X238.176 Y72.346
X239.342 Y72.957
X240.497 Y73.582
X241.645 Y74.223
X242.783 Y74.878
X243.914 Y75.549
X245.036 Y76.233
X246.148 Y76.933
X247.252 Y77.647
X248.345 Y78.375
X249.43 Y79.118
X250.504 Y79.874
X251.57 Y80.646
X252.626 Y81.43
X253.67 Y82.229
X254.707 Y83.042
X255.73 Y83.868
X256.744 Y84.709
X257.75 Y85.563
X258.742 Y86.429
X259.723 Y87.31
X260.697 Y88.206
X261.417 Y88.884
X261.652 Y89.11
X261.656 Y89.114
X261.893 Y89.339
X262.602 Y90.03
X263.537 Y90.962
X264.459 Y91.905
X265.369 Y92.861
X266.267 Y93.826
X267.15 Y94.803
X268.02 Y95.791
X268.877 Y96.79
X269.72 Y97.8
X270.55 Y98.82
X271.366 Y99.85
X272.168 Y100.892
X272.958 Y101.943
X273.733 Y103.005
X274.495 Y104.077
X275.241 Y105.158
X275.974 Y106.248
X276.691 Y107.348
X277.395 Y108.457
X278.086 Y109.578
X278.762 Y110.706
X279.422 Y111.842
X280.068 Y112.987
X280.698 Y114.142
X281.316 Y115.306
X281.918 Y116.476
X282.502 Y117.655
X283.073 Y118.843
X283.629 Y120.039
X284.169 Y121.242
X284.695 Y122.456
X285.078 Y123.366
X285.198 Y123.664
X285.205 Y123.679
X285.289 Y123.882
X285.538 Y124.518
X285.854 Y125.379
X286.149 Y126.245
X286.423 Y127.115
X286.674 Y127.991
X286.904 Y128.872
X287.112 Y129.756
X287.298 Y130.65
X287.464 Y131.547
X287.607 Y132.446
X287.729 Y133.348
X287.829 Y134.255
X287.906 Y135.162
X287.961 Y136.074
X287.995 Y136.995
X288.007 Y137.68
Y137.902
X287.978 Y541.304
X287.976 Y541.478
X287.977 Y541.563
X287.99 Y542.124
X287.994 Y542.223
X288.041 Y542.969
X288.052 Y543.092
X288.135 Y543.829
X288.152 Y543.957
X288.273 Y544.689
X288.296 Y544.809
X288.452 Y545.531
X288.48 Y545.646
X288.67 Y546.36
X288.705 Y546.48
X288.93 Y547.182
X288.972 Y547.301
X289.232 Y547.991
X289.277 Y548.103
X289.57 Y548.779
X289.622 Y548.891
X289.948 Y549.552
X290.006 Y549.662
X290.365 Y550.307
X290.424 Y550.408
X290.814 Y551.037
X290.885 Y551.146
X291.307 Y551.753
X291.377 Y551.849
X291.83 Y552.44
X291.909 Y552.539
X292.392 Y553.107
X292.464 Y553.187
X292.846 Y553.599
X292.905 Y553.66
X293.033 Y553.79
X293.162 Y553.92
X293.225 Y553.982
X293.633 Y554.368
X293.71 Y554.438
X294.273 Y554.928
X294.365 Y555.005
X294.948 Y555.465
X295.053 Y555.542
X295.659 Y555.971
X295.759 Y556.039
X296.383 Y556.436
X296.486 Y556.499
X297.127 Y556.865
X297.238 Y556.925
X297.896 Y557.258
X298.003 Y557.309
X298.675 Y557.61
X298.793 Y557.659
X299.481 Y557.926
X299.593 Y557.966
X300.291 Y558.199
X300.409 Y558.235
X301.12 Y558.435
X301.24 Y558.465
X301.961 Y558.629
X302.084 Y558.654
X302.815 Y558.782
X302.933 Y558.799
X303.67 Y558.892
X303.799 Y558.905
X304.544 Y558.96
X304.639 Y558.965
X305.2 Y558.985
X305.218 Y558.986
Z5
G0 Z15

M9
M5
M30
