(Nierentisch)
(T1 D=6 CR=0 - ZMIN=-35 - Schaftfrser)
G90 G94
G17
G21
G28 G91 Z0
G90

(2D-Kontur1)
T1
S5000 M3
G17 G90 G94
G54
M8
G0 X512.753 Y772.105
Z15
G0 Z5
G1 Z1 F333.3
Z-3
X512.795 Y772.111 F1000
X514.088 Y772.266
X514.128 Y772.27
X515.419 Y772.407
X515.46 Y772.411
X516.748 Y772.53
X516.791 Y772.534
X518.077 Y772.634
X518.121 Y772.637
X519.405 Y772.718
X519.447 Y772.72
X520.728 Y772.783
X520.77 Y772.785
X522.049 Y772.83
X522.095 Y772.831
X523.371 Y772.856
X523.414 Y772.857
X524.687 Y772.864
X524.731
X526.003 Y772.852
X526.048 Y772.851
X527.316 Y772.82
X527.361 Y772.819
X528.627 Y772.769
X528.673 Y772.767
X529.937 Y772.698
X529.982 Y772.695
X531.243 Y772.607
X531.291 Y772.603
X532.549 Y772.495
X532.594 Y772.491
X533.85 Y772.364
X533.895 Y772.359
X535.148 Y772.213
X535.196 Y772.207
X536.446 Y772.041
X536.491 Y772.035
X537.739 Y771.85
X537.786 Y771.842
X539.031 Y771.637
X539.079 Y771.629
X540.321 Y771.404
X540.366 Y771.395
X541.605 Y771.151
X541.651 Y771.142
X542.888 Y770.878
X542.935 Y770.868
X544.169 Y770.584
X544.213 Y770.573
X545.444 Y770.27
X545.492 Y770.258
X546.72 Y769.934
X546.766 Y769.921
X547.991 Y769.577
X548.034 Y769.565
X549.256 Y769.202
X549.303 Y769.188
X550.523 Y768.804
X550.568 Y768.789
X551.784 Y768.385
X551.829 Y768.37
X553.043 Y767.945
X553.085 Y767.929
X554.295 Y767.485
X554.34 Y767.469
X555.548 Y767.004
X555.591 Y766.987
X556.795 Y766.502
X556.838 Y766.484
X558.04 Y765.978
X558.082 Y765.96
X559.28 Y765.434
X559.323 Y765.415
X560.518 Y764.868
X560.558 Y764.849
X561.75 Y764.282
X561.791 Y764.262
X562.98 Y763.674
X563.02 Y763.654
X564.206 Y763.045
X564.245 Y763.024
X565.427 Y762.395
X565.466 Y762.374
X566.645 Y761.724
X566.684 Y761.703
X567.86 Y761.032
X567.896 Y761.011
X569.069 Y760.32
X569.108 Y760.296
X570.277 Y759.583
X570.312 Y759.562
X571.478 Y758.829
X571.515 Y758.805
X572.677 Y758.05
X572.712 Y758.028
X573.871 Y757.253
X573.904 Y757.23
X575.06 Y756.434
X575.096 Y756.409
X576.248 Y755.591
X576.279 Y755.569
X577.428 Y754.731
X577.46 Y754.707
X578.605 Y753.848
X578.637 Y753.823
X579.779 Y752.942
X579.81 Y752.919
X580.948 Y752.017
X580.979 Y751.993
X582.113 Y751.071
X582.144 Y751.045
X583.275 Y750.1
X583.301 Y750.078
X584.429 Y749.113
X584.458 Y749.087
X585.581 Y748.101
X585.608 Y748.078
X586.729 Y747.07
X586.757 Y747.045
X587.873 Y746.016
X587.899 Y745.991
X589.011 Y744.941
X589.035 Y744.918
X590.144 Y743.847
X590.17 Y743.822
X591.275 Y742.729
X591.299 Y742.705
X592.4 Y741.591
X592.423 Y741.567
X593.52 Y740.432
X593.543 Y740.408
X594.637 Y739.251
X594.66 Y739.226
X595.749 Y738.048
X595.77 Y738.025
X596.855 Y736.826
X596.876 Y736.803
X597.958 Y735.582
X597.98 Y735.557
X599.057 Y734.315
X599.076 Y734.292
X600.149 Y733.029
X600.169 Y733.006
X601.238 Y731.722
X601.257 Y731.699
X602.322 Y730.393
X602.34 Y730.37
X603.401 Y729.043
X603.419 Y729.02
X604.476 Y727.671
X604.494 Y727.649
X605.546 Y726.28
X605.563 Y726.257
X606.611 Y724.866
X606.628 Y724.844
X607.672 Y723.431
X607.688 Y723.409
X608.727 Y721.976
X608.743 Y721.954
X609.778 Y720.499
X609.792 Y720.478
X610.823 Y719.002
X610.839 Y718.98
X611.865 Y717.483
X611.879 Y717.462
X612.901 Y715.944
X612.915 Y715.922
X613.932 Y714.382
X613.945 Y714.363
X614.958 Y712.803
X614.972 Y712.781
X615.98 Y711.199
X615.993 Y711.178
X616.996 Y709.575
X617.008 Y709.556
X618.007 Y707.932
X618.019 Y707.912
X619.013 Y706.268
X619.026 Y706.247
X620.015 Y704.581
X620.026 Y704.563
X621.011 Y702.876
X621.022 Y702.856
X622.001 Y701.148
X622.012 Y701.13
X622.987 Y699.401
X622.998 Y699.382
X623.968 Y697.633
X623.978 Y697.614
X624.943 Y695.844
X624.953 Y695.825
X625.913 Y694.034
X625.923 Y694.016
X626.878 Y692.205
X626.887 Y692.187
X627.837 Y690.355
X627.846 Y690.337
X628.792 Y688.484
X628.801 Y688.466
X629.74 Y686.593
X629.748 Y686.577
X630.683 Y684.684
X630.692 Y684.665
X631.621 Y682.751
X631.629 Y682.734
X632.553 Y680.799
X632.561 Y680.783
X633.48 Y678.829
X633.488 Y678.811
X634.401 Y676.836
X634.409 Y676.82
X635.316 Y674.825
X635.324 Y674.808
X636.226 Y672.793
X636.233 Y672.777
X637.13 Y670.742
X637.137 Y670.725
X638.028 Y668.67
X638.035 Y668.655
X638.921 Y666.58
X638.928 Y666.564
X639.808 Y664.47
X639.814 Y664.455
X640.689 Y662.34
X640.695 Y662.324
X641.564 Y660.19
X641.571 Y660.174
X642.433 Y658.021
X642.438 Y658.008
X643.296 Y655.835
X643.303 Y655.819
X644.154 Y653.627
X644.159 Y653.612
X645.004 Y651.4
X645.009 Y651.387
X645.849 Y649.156
X645.855 Y649.141
X646.688 Y646.891
X646.694 Y646.876
X647.521 Y644.607
X647.526 Y644.594
X648.347 Y642.307
X648.352 Y642.292
X649.167 Y639.985
X649.171 Y639.972
X649.98 Y637.647
X649.985 Y637.634
X650.788 Y635.291
X650.793 Y635.276
X651.589 Y632.914
X651.594 Y632.9
X652.383 Y630.519
X652.386 Y630.507
X653.17 Y628.109
X653.175 Y628.095
X653.952 Y625.678
X653.956 Y625.665
X654.726 Y623.231
X654.731 Y623.217
X655.494 Y620.764
X655.497 Y620.752
X656.254 Y618.282
X656.258 Y618.27
X657.009 Y615.782
X657.013 Y615.768
X657.756 Y613.263
X657.76 Y613.251
X658.497 Y610.728
X658.501 Y610.715
X659.23 Y608.175
X659.233 Y608.164
X659.956 Y605.608
X659.959 Y605.595
X660.675 Y603.021
X660.679 Y603.009
X661.388 Y600.418
X661.391 Y600.405
X662.092 Y597.798
X662.095 Y597.787
X662.79 Y595.164
X662.793 Y595.151
X663.48 Y592.512
X663.484 Y592.499
X664.163 Y589.843
X664.165 Y589.833
X664.838 Y587.161
X664.841 Y587.148
X665.506 Y584.46
X665.509 Y584.448
X666.166 Y581.744
X666.169 Y581.734
X666.819 Y579.015
X666.822 Y579.003
X667.464 Y576.269
X667.466 Y576.257
X668.1 Y573.507
X668.103 Y573.497
X668.73 Y570.733
X668.732 Y570.721
X669.351 Y567.942
X669.354 Y567.93
X669.964 Y565.136
X669.966 Y565.126
X670.569 Y562.317
X670.571 Y562.306
X671.166 Y559.484
X671.169 Y559.473
X671.756 Y556.636
X671.758 Y556.624
X672.336 Y553.774
X672.338 Y553.763
X672.908 Y550.898
X672.91 Y550.888
X673.472 Y548.011
X673.475 Y548
X674.028 Y545.109
X674.03 Y545.098
X674.575 Y542.194
X674.577 Y542.183
X675.113 Y539.266
X675.114 Y539.256
X675.642 Y536.327
X675.644 Y536.316
X676.163 Y533.374
X676.165 Y533.363
X676.675 Y530.409
X676.677 Y530.399
X677.178 Y527.433
X677.18 Y527.423
X677.673 Y524.445
X677.675 Y524.434
X678.158 Y521.445
X678.159 Y521.434
X678.633 Y518.433
X678.635 Y518.423
X679.1 Y515.411
X679.101 Y515.401
X679.557 Y512.379
X679.559 Y512.367
X680.005 Y509.334
X680.007 Y509.324
X680.444 Y506.28
X680.445 Y506.27
X680.872 Y503.217
X680.873 Y503.207
X681.291 Y500.143
X681.293 Y500.132
X681.701 Y497.059
X681.702 Y497.048
X682.1 Y493.966
X682.102 Y493.957
X682.491 Y490.866
X682.492 Y490.854
X682.87 Y487.753
X682.871 Y487.744
X683.24 Y484.636
X683.241 Y484.624
X683.599 Y481.506
X683.6 Y481.497
X683.949 Y478.372
X683.951 Y478.36
X684.288 Y475.227
X684.289 Y475.218
X684.617 Y472.078
X684.618 Y472.067
X684.935 Y468.92
X684.936 Y468.91
X685.243 Y465.755
X685.244 Y465.743
X685.539 Y462.582
X685.54 Y462.572
X685.825 Y459.405
X685.826 Y459.395
X686.101 Y456.221
X686.102 Y456.209
X686.365 Y453.03
X686.366 Y453.021
X686.619 Y449.837
Y449.825
X686.86 Y446.635
X686.861 Y446.624
X687.091 Y443.429
X687.092 Y443.419
X687.311 Y440.22
X687.312 Y440.208
X687.519 Y437.005
Y436.995
X687.715 Y433.788
X687.716 Y433.777
X687.9 Y430.566
X687.901 Y430.555
X688.074 Y427.341
Y427.329
X688.234 Y424.112
X688.235 Y424.102
X688.384 Y420.883
Y420.871
X688.521 Y417.649
X688.522 Y417.638
X688.647 Y414.415
Y414.404
X688.76 Y411.178
X688.761 Y411.166
X688.861 Y407.94
Y407.929
X688.949 Y404.702
Y404.691
X689.025 Y401.463
Y401.451
X689.088 Y398.222
X689.089 Y398.209
X689.139 Y394.981
Y394.969
X689.176 Y391.742
Y391.731
X689.201 Y388.504
Y388.492
X689.213 Y385.266
Y385.254
X689.212 Y382.029
Y382.016
X689.197 Y378.794
Y378.782
X689.169 Y375.562
Y375.55
X689.128 Y372.332
Y372.32
X689.074 Y369.104
X689.073 Y369.09
X689.005 Y365.879
Y365.866
X688.923 Y362.657
Y362.645
X688.828 Y359.441
X688.827 Y359.428
X688.718 Y356.227
Y356.214
X688.595 Y353.018
X688.594 Y353.004
X688.457 Y349.813
Y349.8
X688.306 Y346.614
X688.305 Y346.601
X688.14 Y343.421
X688.139 Y343.407
X687.96 Y340.232
X687.959 Y340.218
X687.765 Y337.05
Y337.036
X687.557 Y333.874
X687.556 Y333.86
X687.334 Y330.705
X687.333 Y330.691
X687.096 Y327.543
X687.094 Y327.528
X686.842 Y324.388
X686.841 Y324.374
X686.575 Y321.241
X686.574 Y321.226
X686.293 Y318.102
X686.292 Y318.088
X685.997 Y314.972
X685.995 Y314.956
X685.684 Y311.848
X685.683 Y311.834
X685.358 Y308.736
X685.356 Y308.72
X685.015 Y305.631
X685.013 Y305.616
X684.658 Y302.536
X684.656 Y302.52
X684.285 Y299.45
X684.283 Y299.434
X683.897 Y296.375
X683.895 Y296.36
X683.494 Y293.311
X683.492 Y293.295
X683.076 Y290.256
X683.074 Y290.239
X682.642 Y287.212
X682.64 Y287.196
X682.193 Y284.18
X682.19 Y284.164
X681.728 Y281.159
X681.725 Y281.142
X681.247 Y278.149
X681.245 Y278.133
X680.752 Y275.152
X680.749 Y275.134
X680.24 Y272.166
X680.237 Y272.149
X679.713 Y269.193
X679.71 Y269.176
X679.17 Y266.232
X679.167 Y266.215
X678.612 Y263.285
X678.608 Y263.267
X678.037 Y260.35
X678.034 Y260.332
X677.447 Y257.428
X677.443 Y257.41
X676.841 Y254.52
X676.837 Y254.502
X676.219 Y251.625
X676.215 Y251.606
X675.581 Y248.744
X675.577 Y248.726
X674.928 Y245.878
X674.924 Y245.859
X674.259 Y243.026
X674.254 Y243.009
X673.574 Y240.19
X673.569 Y240.17
X672.872 Y237.365
X672.868 Y237.346
X672.156 Y234.557
X672.151 Y234.538
X671.424 Y231.764
X671.419 Y231.745
X670.676 Y228.987
X670.67 Y228.967
X669.911 Y226.223
X669.906 Y226.203
X669.131 Y223.476
X669.125 Y223.457
X668.335 Y220.745
X668.329 Y220.724
X667.523 Y218.029
X667.517 Y218.009
X666.695 Y215.329
X666.689 Y215.309
X665.852 Y212.646
X665.846 Y212.627
X664.994 Y209.98
X664.987 Y209.959
X664.118 Y207.328
X664.111 Y207.309
X663.228 Y204.696
X663.221 Y204.674
X662.321 Y202.077
X662.314 Y202.057
X661.4 Y199.478
X661.392 Y199.457
X660.462 Y196.894
X660.454 Y196.872
X659.508 Y194.327
X659.5 Y194.306
X658.539 Y191.778
X658.531 Y191.757
X657.555 Y189.247
X657.546 Y189.225
X656.554 Y186.732
X656.546 Y186.711
X655.54 Y184.236
X655.531 Y184.214
X654.509 Y181.757
X654.5 Y181.735
X653.462 Y179.295
X653.452 Y179.273
X652.4 Y176.852
X652.391 Y176.831
X651.324 Y174.428
X651.314 Y174.405
X650.231 Y172.019
X650.221 Y171.997
X649.124 Y169.631
X649.114 Y169.609
X648.002 Y167.26
X647.991 Y167.238
X646.864 Y164.908
X646.853 Y164.885
X645.711 Y162.573
X645.699 Y162.55
X644.542 Y160.258
X644.531 Y160.236
X643.359 Y157.961
X643.347 Y157.939
X642.161 Y155.684
X642.15 Y155.662
X640.95 Y153.425
X640.937 Y153.402
X639.722 Y151.184
X639.709 Y151.16
X638.479 Y148.962
X638.467 Y148.94
X637.223 Y146.76
X637.21 Y146.738
X635.952 Y144.577
X635.938 Y144.553
X634.665 Y142.412
X634.651 Y142.39
X633.364 Y140.267
X633.35 Y140.244
X632.049 Y138.141
X632.035 Y138.118
X630.72 Y136.035
X630.706 Y136.013
X629.378 Y133.948
X629.363 Y133.924
X628.02 Y131.879
X628.004 Y131.856
X626.647 Y129.831
X626.632 Y129.809
X625.262 Y127.803
X625.247 Y127.78
X623.863 Y125.793
X623.846 Y125.77
X622.448 Y123.803
X622.432 Y123.781
X621.021 Y121.834
X621.005 Y121.811
X619.58 Y119.883
X619.563 Y119.86
X618.125 Y117.952
X618.108 Y117.93
X616.657 Y116.042
X616.639 Y116.019
X615.175 Y114.151
X615.157 Y114.129
X613.679 Y112.28
X613.662 Y112.258
X612.172 Y110.429
X612.153 Y110.406
X610.649 Y108.597
X610.631 Y108.576
X609.115 Y106.786
X609.096 Y106.763
X607.567 Y104.994
X607.548 Y104.973
X606.006 Y103.223
X605.987 Y103.201
X604.433 Y101.471
X604.412 Y101.449
X602.845 Y99.74
X602.826 Y99.719
X601.247 Y98.029
X601.227 Y98.008
X599.636 Y96.338
X599.615 Y96.316
X598.011 Y94.665
X597.991 Y94.645
X596.376 Y93.015
X596.355 Y92.993
X594.727 Y91.383
X594.706 Y91.363
X593.067 Y89.772
X593.045 Y89.751
X591.393 Y88.18
X591.372 Y88.16
X589.709 Y86.609
X589.688 Y86.59
X588.013 Y85.059
X587.991 Y85.039
X586.305 Y83.528
X586.283 Y83.507
X584.585 Y82.016
X584.563 Y81.998
X582.855 Y80.526
X582.832 Y80.506
X581.112 Y79.055
X581.089 Y79.036
X579.358 Y77.604
X579.335 Y77.585
X577.593 Y76.173
X577.57 Y76.155
X575.818 Y74.763
X575.794 Y74.744
X574.03 Y73.372
X574.007 Y73.354
X572.233 Y72.001
X572.21 Y71.984
X570.426 Y70.65
X570.401 Y70.632
X568.607 Y69.319
X568.583 Y69.302
X566.778 Y68.008
X566.753 Y67.991
X564.937 Y66.716
X564.914 Y66.7
X563.089 Y65.445
X563.064 Y65.429
X561.229 Y64.194
X561.205 Y64.177
X559.36 Y62.962
X559.335 Y62.945
X557.48 Y61.749
X557.455 Y61.733
X555.59 Y60.556
X555.566 Y60.541
X553.693 Y59.384
X553.667 Y59.368
X551.783 Y58.23
X551.759 Y58.215
X549.867 Y57.096
X549.842 Y57.082
X547.941 Y55.982
X547.916 Y55.967
X546.005 Y54.886
X545.98 Y54.873
X544.061 Y53.811
X544.036 Y53.797
X542.108 Y52.754
X542.083 Y52.741
X540.147 Y51.717
X540.122 Y51.704
X538.177 Y50.699
X538.152 Y50.687
X536.199 Y49.701
X536.173 Y49.688
X534.211 Y48.721
X534.187 Y48.709
X532.218 Y47.76
X532.192 Y47.748
X530.214 Y46.818
X530.19 Y46.806
X528.205 Y45.895
X528.18 Y45.884
X526.187 Y44.991
X526.162 Y44.98
X524.162 Y44.105
X524.137 Y44.094
X522.129 Y43.238
X522.103 Y43.227
X520.087 Y42.39
X520.063 Y42.38
X518.041 Y41.56
X518.016 Y41.55
X515.987 Y40.749
X515.963 Y40.739
X513.927 Y39.955
X513.902 Y39.946
X511.859 Y39.18
X511.834 Y39.171
X509.784 Y38.423
X509.76 Y38.415
X507.704 Y37.685
X507.679 Y37.676
X505.617 Y36.964
X505.593 Y36.956
X503.524 Y36.261
X503.5 Y36.253
X501.426 Y35.576
X501.402 Y35.568
X499.321 Y34.908
X499.297 Y34.901
X497.211 Y34.259
X497.187 Y34.251
X495.095 Y33.626
X495.071 Y33.619
X492.973 Y33.011
X492.95 Y33.005
X490.848 Y32.414
X490.824 Y32.407
X488.716 Y31.834
X488.692 Y31.827
X486.578 Y31.27
X486.555 Y31.264
X484.437 Y30.724
X484.415 Y30.719
X482.293 Y30.195
X482.269 Y30.189
X480.141 Y29.682
X480.118 Y29.677
X477.986 Y29.187
X477.964 Y29.182
X475.828 Y28.708
X475.805 Y28.703
X473.664 Y28.245
X473.642 Y28.24
X471.497 Y27.799
X471.475 Y27.794
X469.326 Y27.369
X469.304 Y27.365
X467.152 Y26.955
X467.13 Y26.951
X464.974 Y26.558
X464.952 Y26.554
X462.792 Y26.176
X462.77 Y26.172
X460.607 Y25.81
X460.586 Y25.807
X458.42 Y25.46
X458.398 Y25.457
X456.228 Y25.126
X456.208 Y25.123
X454.036 Y24.807
X454.014 Y24.804
X451.839 Y24.503
X451.819 Y24.501
X449.641 Y24.215
X449.62 Y24.213
X447.44 Y23.942
X447.42 Y23.94
X445.237 Y23.684
X445.216 Y23.682
X443.031 Y23.442
X443.011 Y23.439
X440.824 Y23.213
X440.804 Y23.211
X438.615 Y23
X438.595 Y22.998
X436.404 Y22.802
X436.385 Y22.8
X434.193 Y22.617
X434.173 Y22.616
X431.979 Y22.448
X431.96 Y22.446
X429.764 Y22.292
X429.745 Y22.291
X427.549 Y22.151
X427.53 Y22.15
X425.332 Y22.023
X425.313 Y22.022
X423.115 Y21.91
X423.096 Y21.909
X420.896 Y21.81
X420.878
X418.678 Y21.725
X418.66 Y21.724
X416.46 Y21.652
X416.442
X414.241 Y21.593
X414.222
X412.021 Y21.548
X412.003
X409.801 Y21.516
X409.784 Y21.515
X407.583 Y21.496
X407.565
X405.364 Y21.49
X405.347
X403.146 Y21.497
X403.129
X400.929 Y21.516
X400.912
X398.713 Y21.548
X398.696
X396.497 Y21.593
X396.48
X394.282 Y21.65
X394.265
X392.068 Y21.719
X392.052
X389.856 Y21.8
X389.839 Y21.801
X387.645 Y21.893
X387.629 Y21.894
X385.436 Y21.999
X385.42
X383.229 Y22.116
X383.213
X381.023 Y22.244
X381.007 Y22.245
X378.819 Y22.385
X378.804 Y22.386
X376.619 Y22.536
X376.603 Y22.537
X374.419 Y22.699
X374.404 Y22.7
X372.223 Y22.874
X372.208 Y22.875
X370.029 Y23.059
X370.013 Y23.06
X367.837 Y23.255
X367.822 Y23.256
X365.648 Y23.462
X365.633 Y23.463
X363.462 Y23.68
X363.448 Y23.681
X361.281 Y23.908
X361.266 Y23.91
X359.101 Y24.147
X359.087 Y24.149
X356.926 Y24.396
X356.911 Y24.398
X354.752 Y24.656
X354.738 Y24.658
X352.584 Y24.926
X352.57 Y24.927
X350.419 Y25.205
X350.404 Y25.207
X348.257 Y25.495
X348.244 Y25.497
X346.1 Y25.794
X346.086 Y25.796
X343.947 Y26.103
X343.933 Y26.105
X341.798 Y26.422
X341.784 Y26.424
X339.653 Y26.75
X339.64 Y26.752
X337.514 Y27.088
X337.5 Y27.09
X335.378 Y27.434
X335.365 Y27.436
X333.248 Y27.79
X333.235 Y27.792
X331.122 Y28.155
X331.108 Y28.157
X329.001 Y28.528
X328.989 Y28.531
X326.886 Y28.911
X326.872 Y28.913
X324.775 Y29.302
X324.762 Y29.304
X322.67 Y29.701
X322.651 Y29.705
X318.484 Y30.525
X318.459 Y30.53
X314.314 Y31.382
X314.289 Y31.387
X310.168 Y32.271
X310.143 Y32.277
X306.046 Y33.192
X306.021 Y33.197
X301.95 Y34.143
X301.926 Y34.148
X297.882 Y35.123
X297.858 Y35.129
X293.841 Y36.132
X293.817 Y36.138
X289.828 Y37.169
X289.805 Y37.176
X285.845 Y38.234
X285.821 Y38.24
X281.891 Y39.324
X281.873 Y39.329
X279.92 Y39.881
X279.909 Y39.884
X277.964 Y40.442
X277.952 Y40.445
X276.014 Y41.01
X276.002 Y41.013
X274.073 Y41.583
X274.063 Y41.587
X272.141 Y42.163
X272.129 Y42.166
X270.216 Y42.749
X270.204 Y42.752
X268.3 Y43.34
X268.289 Y43.344
X266.392 Y43.937
X266.38 Y43.941
X264.492 Y44.541
X264.481 Y44.544
X262.602 Y45.149
X262.59 Y45.153
X260.72 Y45.764
X260.709 Y45.767
X258.847 Y46.383
X258.835 Y46.387
X256.983 Y47.008
X256.972 Y47.012
X255.128 Y47.638
X255.116 Y47.642
X253.282 Y48.274
X253.271 Y48.278
X251.445 Y48.915
X251.433 Y48.919
X249.617 Y49.561
X249.606 Y49.565
X247.8 Y50.211
X247.789 Y50.215
X245.991 Y50.867
X245.979 Y50.871
X244.192 Y51.528
X244.18 Y51.532
X242.402 Y52.193
X242.391 Y52.197
X240.622 Y52.863
X240.61 Y52.868
X238.852 Y53.538
X238.841 Y53.542
X237.092 Y54.217
X237.08 Y54.222
X235.341 Y54.901
X235.33 Y54.906
X233.601 Y55.59
X233.588 Y55.595
X231.87 Y56.283
X231.859 Y56.287
X230.15 Y56.98
X230.138 Y56.985
X228.44 Y57.681
X228.428 Y57.686
X226.74 Y58.387
X226.728 Y58.392
X225.051 Y59.097
X225.04 Y59.102
X223.372 Y59.811
X223.359 Y59.817
X221.703 Y60.53
X221.692 Y60.535
X220.046 Y61.252
X220.034 Y61.257
X218.399 Y61.978
X218.387 Y61.984
X216.762 Y62.709
X216.749 Y62.714
X215.135 Y63.443
X215.123 Y63.449
X213.52 Y64.181
X213.508 Y64.187
X211.916 Y64.923
X211.903 Y64.929
X210.322 Y65.669
X210.31 Y65.675
X208.74 Y66.419
X208.728 Y66.424
X207.168 Y67.172
X207.154 Y67.178
X205.607 Y67.929
X205.595 Y67.935
X204.058 Y68.69
X204.045 Y68.696
X202.519 Y69.454
X202.506 Y69.461
X200.992 Y70.222
X200.979 Y70.228
X199.476 Y70.993
X199.463 Y71
X197.971 Y71.768
X197.958 Y71.775
X196.478 Y72.547
X196.464 Y72.554
X194.996 Y73.33
X194.984 Y73.336
X193.526 Y74.115
X193.511 Y74.122
X192.066 Y74.904
X192.053 Y74.911
X190.619 Y75.696
X190.606 Y75.704
X189.183 Y76.492
X189.168 Y76.5
X187.758 Y77.292
X187.745 Y77.299
X186.346 Y78.094
X186.332 Y78.102
X184.945 Y78.9
X184.931 Y78.908
X183.555 Y79.709
X183.54 Y79.718
X182.177 Y80.523
X182.164 Y80.531
X180.812 Y81.338
X180.797 Y81.347
X179.457 Y82.158
X179.442 Y82.167
X178.115 Y82.981
X178.101 Y82.989
X176.785 Y83.806
X176.77 Y83.815
X175.466 Y84.635
X175.451 Y84.645
X174.159 Y85.468
X174.144 Y85.477
X172.864 Y86.303
X172.848 Y86.314
X171.581 Y87.143
X171.567 Y87.152
X170.311 Y87.985
X170.295 Y87.995
X169.052 Y88.831
X169.037 Y88.84
X167.805 Y89.679
X167.789 Y89.69
X166.57 Y90.531
X166.553 Y90.543
X165.347 Y91.387
X165.333 Y91.397
X164.138 Y92.245
X164.121 Y92.257
X162.939 Y93.107
X162.923 Y93.119
X161.753 Y93.972
X161.737 Y93.984
X160.579 Y94.84
X160.563 Y94.852
X159.417 Y95.711
X159.4 Y95.724
X158.267 Y96.587
X158.25 Y96.6
X157.13 Y97.466
X157.114 Y97.478
X156.005 Y98.346
X155.989 Y98.359
X154.893 Y99.23
X154.875 Y99.245
X153.791 Y100.12
X153.774 Y100.133
X152.703 Y101.01
X152.685 Y101.025
X151.626 Y101.906
X151.61 Y101.92
X150.564 Y102.803
X150.546 Y102.818
X149.512 Y103.705
X149.496 Y103.719
X148.474 Y104.608
X148.455 Y104.624
X147.446 Y105.517
X147.428 Y105.534
X146.432 Y106.43
X146.416 Y106.444
X145.431 Y107.343
X145.411 Y107.361
X144.44 Y108.263
X144.423 Y108.279
X143.464 Y109.184
X143.447 Y109.201
X142.5 Y110.109
X142.482 Y110.125
X141.547 Y111.036
X141.528 Y111.056
X140.607 Y111.97
X140.589 Y111.987
X139.679 Y112.905
X139.66 Y112.925
X138.764 Y113.846
X138.749 Y113.862
X137.864 Y114.785
X137.844 Y114.805
X136.972 Y115.732
X136.952 Y115.754
X136.093 Y116.685
X136.077 Y116.703
X135.23 Y117.636
X135.21 Y117.657
X134.376 Y118.594
X134.359 Y118.614
X133.537 Y119.554
X133.519 Y119.574
X132.709 Y120.517
X132.69 Y120.54
X131.893 Y121.487
X131.876 Y121.507
X131.091 Y122.456
X131.071 Y122.481
X130.299 Y123.435
X130.281 Y123.457
X129.522 Y124.413
X129.506 Y124.434
X128.758 Y125.394
X128.739 Y125.418
X128.004 Y126.381
X127.985 Y126.406
X127.263 Y127.373
X127.246 Y127.396
X126.536 Y128.366
X126.519 Y128.389
X125.821 Y129.362
X125.802 Y129.39
X125.117 Y130.368
X125.101 Y130.391
X124.428 Y131.371
X124.411 Y131.396
X123.75 Y132.38
X123.731 Y132.408
X123.083 Y133.396
X123.067 Y133.421
X122.431 Y134.412
X122.413 Y134.44
X121.79 Y135.435
X121.776 Y135.459
X121.164 Y136.457
X121.146 Y136.486
X120.547 Y137.488
X120.531 Y137.515
X119.944 Y138.521
X119.927 Y138.55
X119.353 Y139.559
X119.337 Y139.588
X118.775 Y140.602
X118.761 Y140.627
X118.21 Y141.644
X118.194 Y141.673
X117.656 Y142.693
X117.64 Y142.725
X117.115 Y143.75
X117.102 Y143.776
X116.588 Y144.804
X116.573 Y144.834
X116.071 Y145.866
X116.056 Y145.898
X115.567 Y146.935
X115.554 Y146.962
X115.076 Y148.002
X115.062 Y148.034
X114.597 Y149.078
X114.583 Y149.109
X114.13 Y150.157
X114.119 Y150.184
X113.677 Y151.235
X113.663 Y151.269
X113.234 Y152.325
X113.221 Y152.357
X112.804 Y153.418
X112.793 Y153.445
X112.387 Y154.509
X112.375 Y154.543
X111.982 Y155.611
X111.971 Y155.64
X111.589 Y156.712
X111.578 Y156.744
X111.208 Y157.821
X111.197 Y157.853
X110.839 Y158.934
X110.829 Y158.966
X110.483 Y160.051
X110.474 Y160.08
X110.139 Y161.169
X110.129 Y161.202
X109.806 Y162.296
X109.797 Y162.327
X109.486 Y163.425
X109.477 Y163.457
X109.178 Y164.559
X109.17 Y164.59
X108.882 Y165.697
X108.873 Y165.729
X108.597 Y166.84
X108.59 Y166.87
X108.325 Y167.986
X108.318 Y168.018
X108.065 Y169.138
X108.058 Y169.17
X107.817 Y170.294
X107.81 Y170.324
X107.58 Y171.453
X107.574 Y171.483
X107.355 Y172.617
X107.349 Y172.649
X107.142 Y173.787
X107.137 Y173.817
X106.941 Y174.96
X106.936 Y174.992
X106.752 Y176.14
X106.747 Y176.169
X106.574 Y177.321
X106.57 Y177.351
X106.408 Y178.508
X106.404 Y178.537
X106.253 Y179.699
X106.249 Y179.731
X106.11 Y180.897
X106.107 Y180.924
X105.978 Y182.094
X105.975 Y182.126
X105.858 Y183.303
X105.855 Y183.332
X105.749 Y184.512
X105.747 Y184.54
X105.652 Y185.726
X105.649 Y185.755
X105.565 Y186.946
X105.563 Y186.977
X105.491 Y188.173
X105.49 Y188.198
X105.428 Y189.398
X105.427 Y189.424
X105.375 Y190.63
X105.374 Y190.66
X105.334 Y191.87
X105.333 Y191.897
X105.304 Y193.113
X105.303 Y193.138
X105.284 Y194.359
Y194.389
X105.277 Y195.615
Y195.637
X105.279 Y196.867
Y196.896
X105.293 Y198.132
X105.294 Y198.156
X105.318 Y199.398
Y199.424
X105.353 Y200.67
X105.354 Y200.696
X105.4 Y201.948
X105.401 Y201.972
X105.457 Y203.228
X105.458 Y203.251
X105.524 Y204.513
X105.526 Y204.538
X105.603 Y205.806
X105.604 Y205.829
X105.691 Y207.101
X105.693 Y207.125
X105.791 Y208.403
X105.793 Y208.425
X105.901 Y209.709
X105.903 Y209.732
X106.021 Y211.02
X106.023 Y211.044
X106.152 Y212.338
X106.154 Y212.357
X106.292 Y213.657
X106.294 Y213.681
X106.443 Y214.985
X106.446 Y215.005
X106.605 Y216.315
X106.607 Y216.336
X106.776 Y217.652
X106.779 Y217.673
X106.958 Y218.994
X106.961 Y219.014
X107.15 Y220.341
X107.153 Y220.361
X107.352 Y221.693
X107.355 Y221.713
X107.564 Y223.05
X107.567 Y223.07
X107.786 Y224.413
X107.789 Y224.432
X108.018 Y225.781
X108.021 Y225.798
X108.259 Y227.152
X108.263 Y227.171
X108.511 Y228.531
X108.514 Y228.55
X108.772 Y229.915
X108.776 Y229.934
X109.044 Y231.305
X109.047 Y231.321
X109.324 Y232.697
X109.327 Y232.713
X109.613 Y234.095
X109.617 Y234.115
X109.914 Y235.503
X109.917 Y235.517
X110.222 Y236.91
X110.226 Y236.927
X110.541 Y238.326
X110.545 Y238.344
X110.87 Y239.748
X110.874 Y239.762
X111.208 Y241.173
X111.211 Y241.187
X111.554 Y242.603
X111.558 Y242.62
X111.911 Y244.041
X111.915 Y244.054
X112.276 Y245.481
X112.28 Y245.497
X112.651 Y246.93
X112.655 Y246.944
X113.035 Y248.382
X113.038 Y248.396
X113.427 Y249.84
X113.432 Y249.856
X113.831 Y251.306
X113.834 Y251.318
X114.241 Y252.773
X114.245 Y252.787
X114.661 Y254.248
X114.664 Y254.261
X115.089 Y255.728
X115.093 Y255.741
X115.527 Y257.213
X115.531 Y257.226
X115.974 Y258.704
X115.978 Y258.717
X116.43 Y260.201
X116.434 Y260.212
X116.894 Y261.702
X116.898 Y261.714
X117.367 Y263.209
X117.37 Y263.221
X117.848 Y264.722
X117.852 Y264.733
X118.338 Y266.239
X118.342 Y266.251
X118.837 Y267.763
X118.841 Y267.776
X119.345 Y269.293
X119.348 Y269.303
X119.86 Y270.826
X119.864 Y270.836
X120.384 Y272.365
X120.388 Y272.376
X120.917 Y273.911
X120.92 Y273.922
X121.457 Y275.462
X121.461 Y275.474
X122.007 Y277.019
X122.013 Y277.033
X123.129 Y280.141
X123.135 Y280.16
X124.283 Y283.29
X124.291 Y283.31
X125.473 Y286.462
X125.48 Y286.48
X126.693 Y289.655
X126.7 Y289.673
X127.945 Y292.869
X127.951 Y292.886
X129.227 Y296.104
X129.234 Y296.121
X130.542 Y299.36
X130.549 Y299.376
X131.887 Y302.637
X131.893 Y302.652
X133.261 Y305.934
X133.268 Y305.95
X134.667 Y309.253
X134.673 Y309.267
X136.101 Y312.591
X136.107 Y312.606
X137.565 Y315.95
X137.571 Y315.964
X139.058 Y319.329
X139.064 Y319.342
X140.579 Y322.727
X140.585 Y322.74
X142.129 Y326.145
X142.134 Y326.157
X143.706 Y329.582
X143.712 Y329.595
X145.312 Y333.039
X145.318 Y333.051
X146.945 Y336.514
X146.95 Y336.525
X148.604 Y340.007
X148.61 Y340.019
X150.291 Y343.52
X150.296 Y343.53
X152.003 Y347.049
X152.008 Y347.061
X153.742 Y350.598
X153.747 Y350.607
X155.506 Y354.162
X155.511 Y354.172
X157.295 Y357.744
X157.3 Y357.755
X159.11 Y361.344
X159.115 Y361.353
X160.949 Y364.959
X160.954 Y364.969
X162.813 Y368.591
X162.818 Y368.6
X164.701 Y372.237
X164.705 Y372.246
X166.612 Y375.9
X166.617 Y375.909
X168.547 Y379.578
X168.552 Y379.586
X170.505 Y383.269
X170.509 Y383.278
X172.485 Y386.976
X172.49 Y386.984
X174.489 Y390.696
X174.493 Y390.704
X176.513 Y394.43
X176.517 Y394.438
X178.56 Y398.177
X178.565 Y398.185
X180.629 Y401.936
X180.633 Y401.944
X182.718 Y405.708
X182.722 Y405.715
X184.828 Y409.491
X184.832 Y409.499
X186.959 Y413.287
X186.963 Y413.294
X189.11 Y417.092
X189.114 Y417.099
X191.28 Y420.908
X191.285 Y420.916
X193.472 Y424.735
X193.475 Y424.741
X195.68 Y428.57
X195.685 Y428.578
X197.91 Y432.416
X197.913 Y432.422
X200.156 Y436.269
X200.161 Y436.277
X202.423 Y440.131
X202.426 Y440.136
X204.705 Y443.999
X204.71 Y444.007
X207.008 Y447.876
X207.011 Y447.882
X209.325 Y451.758
X209.329 Y451.765
X211.661 Y455.648
X211.665 Y455.655
X214.014 Y459.542
X214.018 Y459.548
X216.383 Y463.441
X216.387 Y463.447
X218.768 Y467.345
X218.772 Y467.352
X221.169 Y471.253
X221.173 Y471.259
X223.586 Y475.164
X223.59 Y475.17
X226.017 Y479.077
X226.021 Y479.084
X228.464 Y482.994
X228.468 Y483
X230.926 Y486.912
X230.93 Y486.918
X233.401 Y490.83
X233.405 Y490.837
X235.891 Y494.75
X235.895 Y494.756
X238.394 Y498.669
X238.398 Y498.675
X240.911 Y502.588
X240.915 Y502.595
X243.441 Y506.506
X243.445 Y506.512
X245.984 Y510.421
X245.988 Y510.428
X248.54 Y514.335
X248.544 Y514.34
X251.107 Y518.244
X251.112 Y518.251
X253.688 Y522.151
X253.692 Y522.158
X256.279 Y526.053
X256.283 Y526.059
X258.882 Y529.95
X258.887 Y529.957
X261.497 Y533.842
X261.501 Y533.848
X264.121 Y537.727
X264.126 Y537.734
X266.757 Y541.606
X266.762 Y541.613
X269.404 Y545.477
X269.408 Y545.484
X272.059 Y549.34
X272.064 Y549.347
X274.725 Y553.194
X274.73 Y553.201
X277.4 Y557.038
X277.404 Y557.044
X280.083 Y560.872
X280.088 Y560.88
X282.776 Y564.696
X282.781 Y564.703
X285.478 Y568.508
X285.484 Y568.515
X288.189 Y572.307
X288.194 Y572.314
X290.907 Y576.094
X290.912 Y576.102
X293.633 Y579.868
X293.639 Y579.875
X296.367 Y583.627
X296.372 Y583.634
X299.107 Y587.371
X299.113 Y587.379
X301.855 Y591.1
X301.861 Y591.108
X304.61 Y594.812
X304.616 Y594.82
X307.371 Y598.507
X307.377 Y598.515
X310.138 Y602.184
X310.144 Y602.192
X312.911 Y605.843
X312.918 Y605.852
X315.691 Y609.483
X315.697 Y609.491
X318.475 Y613.102
X318.482 Y613.111
X321.265 Y616.702
X321.272 Y616.71
X324.059 Y620.279
X324.066 Y620.289
X326.858 Y623.835
X326.865 Y623.844
X329.662 Y627.368
X329.669 Y627.377
X332.469 Y630.877
X332.477 Y630.887
X335.282 Y634.363
X335.29 Y634.372
X338.097 Y637.822
X338.105 Y637.832
X340.916 Y641.257
X340.924 Y641.267
X343.738 Y644.665
X343.747 Y644.676
X346.564 Y648.046
X346.573 Y648.056
X349.392 Y651.399
X349.401 Y651.41
X352.222 Y654.723
X352.231 Y654.734
X355.055 Y658.018
X355.065 Y658.029
X357.89 Y661.282
X357.9 Y661.293
X360.727 Y664.516
X360.737 Y664.528
X363.565 Y667.718
X363.575 Y667.73
X366.404 Y670.888
X366.415 Y670.9
X369.244 Y674.024
X369.256 Y674.037
X372.087 Y677.127
X372.098 Y677.139
X374.928 Y680.194
X374.941 Y680.207
X377.772 Y683.226
X377.784 Y683.239
X380.615 Y686.222
X380.628 Y686.236
X383.458 Y689.181
X383.471 Y689.194
X386.301 Y692.102
X386.315 Y692.117
X389.144 Y694.985
X389.158 Y694.999
X391.986 Y697.828
X391.996 Y697.838
X393.41 Y699.238
X393.418 Y699.246
X394.831 Y700.635
X394.839 Y700.643
X396.252 Y702.022
X396.259 Y702.029
X397.671 Y703.398
X397.679 Y703.406
X399.091 Y704.764
X399.099 Y704.772
X400.511 Y706.12
X400.52 Y706.128
X401.931 Y707.465
X401.939 Y707.472
X403.349 Y708.798
X403.358 Y708.807
X404.768 Y710.122
X404.777 Y710.13
X406.187 Y711.435
X406.195 Y711.442
X407.604 Y712.736
X407.613 Y712.744
X409.021 Y714.026
X409.03 Y714.034
X410.437 Y715.305
X410.448 Y715.315
X411.855 Y716.574
X411.864 Y716.582
X413.271 Y717.83
X413.28 Y717.838
X414.685 Y719.075
X414.695 Y719.084
X416.1 Y720.309
X416.111 Y720.318
X417.515 Y721.531
X417.524 Y721.539
X418.927 Y722.741
X418.939 Y722.752
X420.342 Y723.941
X420.352 Y723.949
X421.753 Y725.126
X421.764 Y725.135
X423.165 Y726.301
X423.177 Y726.311
X424.577 Y727.464
X424.587 Y727.472
X425.985 Y728.613
X425.998 Y728.624
X427.396 Y729.752
X427.408 Y729.761
X428.805 Y730.877
X428.817 Y730.887
X430.213 Y731.99
X430.226 Y732
X431.621 Y733.09
X431.633 Y733.099
X433.027 Y734.177
X433.04 Y734.187
X434.433 Y735.252
X434.446 Y735.262
X435.838 Y736.314
X435.852 Y736.325
X437.242 Y737.363
X437.255 Y737.373
X438.645 Y738.399
X438.66 Y738.409
X440.048 Y739.421
X440.063 Y739.432
X441.451 Y740.431
X441.465 Y740.441
X442.851 Y741.426
X442.865 Y741.436
X444.249 Y742.408
X444.266 Y742.42
X445.65 Y743.378
X445.665 Y743.388
X447.047 Y744.332
X447.062 Y744.343
X448.443 Y745.273
X448.46 Y745.285
X449.839 Y746.201
X449.856 Y746.212
X451.235 Y747.115
X451.252 Y747.126
X452.629 Y748.014
X452.646 Y748.025
X454.021 Y748.899
X454.038 Y748.91
X455.412 Y749.77
X455.432 Y749.782
X456.805 Y750.627
X456.823 Y750.638
X458.194 Y751.468
X458.213 Y751.479
X459.583 Y752.295
X459.602 Y752.307
X460.97 Y753.108
X460.989 Y753.119
X462.356 Y753.906
X462.378 Y753.918
X463.743 Y754.689
X463.761 Y754.7
X465.124 Y755.457
X465.147 Y755.469
X466.509 Y756.21
X466.531 Y756.222
X467.892 Y756.948
X467.913 Y756.959
X469.27 Y757.67
X469.294 Y757.682
X470.651 Y758.377
X470.674 Y758.389
X472.03 Y759.069
X472.052 Y759.079
X473.405 Y759.744
X473.431 Y759.757
X474.783 Y760.405
X474.807 Y760.417
X476.158 Y761.05
X476.182 Y761.061
X477.53 Y761.678
X477.557 Y761.69
X478.904 Y762.291
X478.929 Y762.302
X480.274 Y762.887
X480.301 Y762.898
X481.644 Y763.467
X481.67 Y763.478
X483.011 Y764.031
X483.04 Y764.043
X484.379 Y764.579
X484.407 Y764.59
X485.745 Y765.11
X485.772 Y765.121
X487.107 Y765.625
X487.14 Y765.637
X488.474 Y766.123
X488.501 Y766.132
X489.833 Y766.603
X489.865 Y766.615
X491.194 Y767.068
X491.224 Y767.078
X492.552 Y767.515
X492.586 Y767.526
X493.912 Y767.945
X493.942 Y767.954
X495.265 Y768.357
X495.3 Y768.367
X496.622 Y768.752
X496.655 Y768.762
X497.974 Y769.13
X498.008 Y769.139
X499.326 Y769.49
X499.359 Y769.499
X500.674 Y769.833
X500.711 Y769.842
X502.024 Y770.158
X502.059 Y770.166
X503.37 Y770.465
X503.407 Y770.473
X504.716 Y770.754
X504.754 Y770.762
X506.061 Y771.025
X506.099 Y771.032
X507.403 Y771.277
X507.44 Y771.284
X508.742 Y771.512
X508.781 Y771.519
X510.081 Y771.729
X510.122 Y771.735
X511.42 Y771.926
X511.457 Y771.931
X512.753 Y772.105
Z-6 F333.3
X512.795 Y772.111 F1000
X514.088 Y772.266
X514.128 Y772.27
X515.419 Y772.407
X515.46 Y772.411
X516.748 Y772.53
X516.791 Y772.534
X518.077 Y772.634
X518.121 Y772.637
X519.405 Y772.718
X519.447 Y772.72
X520.728 Y772.783
X520.77 Y772.785
X522.049 Y772.83
X522.095 Y772.831
X523.371 Y772.856
X523.414 Y772.857
X524.687 Y772.864
X524.731
X526.003 Y772.852
X526.048 Y772.851
X527.316 Y772.82
X527.361 Y772.819
X528.627 Y772.769
X528.673 Y772.767
X529.937 Y772.698
X529.982 Y772.695
X531.243 Y772.607
X531.291 Y772.603
X532.549 Y772.495
X532.594 Y772.491
X533.85 Y772.364
X533.895 Y772.359
X535.148 Y772.213
X535.196 Y772.207
X536.446 Y772.041
X536.491 Y772.035
X537.739 Y771.85
X537.786 Y771.842
X539.031 Y771.637
X539.079 Y771.629
X540.321 Y771.404
X540.366 Y771.395
X541.605 Y771.151
X541.651 Y771.142
X542.888 Y770.878
X542.935 Y770.868
X544.169 Y770.584
X544.213 Y770.573
X545.444 Y770.27
X545.492 Y770.258
X546.72 Y769.934
X546.766 Y769.921
X547.991 Y769.577
X548.034 Y769.565
X549.256 Y769.202
X549.303 Y769.188
X550.523 Y768.804
X550.568 Y768.789
X551.784 Y768.385
X551.829 Y768.37
X553.043 Y767.945
X553.085 Y767.929
X554.295 Y767.485
X554.34 Y767.469
X555.548 Y767.004
X555.591 Y766.987
X556.795 Y766.502
X556.838 Y766.484
X558.04 Y765.978
X558.082 Y765.96
X559.28 Y765.434
X559.323 Y765.415
X560.518 Y764.868
X560.558 Y764.849
X561.75 Y764.282
X561.791 Y764.262
X562.98 Y763.674
X563.02 Y763.654
X564.206 Y763.045
X564.245 Y763.024
X565.427 Y762.395
X565.466 Y762.374
X566.645 Y761.724
X566.684 Y761.703
X567.86 Y761.032
X567.896 Y761.011
X569.069 Y760.32
X569.108 Y760.296
X570.277 Y759.583
X570.312 Y759.562
X571.478 Y758.829
X571.515 Y758.805
X572.677 Y758.05
X572.712 Y758.028
X573.871 Y757.253
X573.904 Y757.23
X575.06 Y756.434
X575.096 Y756.409
X576.248 Y755.591
X576.279 Y755.569
X577.428 Y754.731
X577.46 Y754.707
X578.605 Y753.848
X578.637 Y753.823
X579.779 Y752.942
X579.81 Y752.919
X580.948 Y752.017
X580.979 Y751.993
X582.113 Y751.071
X582.144 Y751.045
X583.275 Y750.1
X583.301 Y750.078
X584.429 Y749.113
X584.458 Y749.087
X585.581 Y748.101
X585.608 Y748.078
X586.729 Y747.07
X586.757 Y747.045
X587.873 Y746.016
X587.899 Y745.991
X589.011 Y744.941
X589.035 Y744.918
X590.144 Y743.847
X590.17 Y743.822
X591.275 Y742.729
X591.299 Y742.705
X592.4 Y741.591
X592.423 Y741.567
X593.52 Y740.432
X593.543 Y740.408
X594.637 Y739.251
X594.66 Y739.226
X595.749 Y738.048
X595.77 Y738.025
X596.855 Y736.826
X596.876 Y736.803
X597.958 Y735.582
X597.98 Y735.557
X599.057 Y734.315
X599.076 Y734.292
X600.149 Y733.029
X600.169 Y733.006
X601.238 Y731.722
X601.257 Y731.699
X602.322 Y730.393
X602.34 Y730.37
X603.401 Y729.043
X603.419 Y729.02
X604.476 Y727.671
X604.494 Y727.649
X605.546 Y726.28
X605.563 Y726.257
X606.611 Y724.866
X606.628 Y724.844
X607.672 Y723.431
X607.688 Y723.409
X608.727 Y721.976
X608.743 Y721.954
X609.778 Y720.499
X609.792 Y720.478
X610.823 Y719.002
X610.839 Y718.98
X611.865 Y717.483
X611.879 Y717.462
X612.901 Y715.944
X612.915 Y715.922
X613.932 Y714.382
X613.945 Y714.363
X614.958 Y712.803
X614.972 Y712.781
X615.98 Y711.199
X615.993 Y711.178
X616.996 Y709.575
X617.008 Y709.556
X618.007 Y707.932
X618.019 Y707.912
X619.013 Y706.268
X619.026 Y706.247
X620.015 Y704.581
X620.026 Y704.563
X621.011 Y702.876
X621.022 Y702.856
X622.001 Y701.148
X622.012 Y701.13
X622.987 Y699.401
X622.998 Y699.382
X623.968 Y697.633
X623.978 Y697.614
X624.943 Y695.844
X624.953 Y695.825
X625.913 Y694.034
X625.923 Y694.016
X626.878 Y692.205
X626.887 Y692.187
X627.837 Y690.355
X627.846 Y690.337
X628.792 Y688.484
X628.801 Y688.466
X629.74 Y686.593
X629.748 Y686.577
X630.683 Y684.684
X630.692 Y684.665
X631.621 Y682.751
X631.629 Y682.734
X632.553 Y680.799
X632.561 Y680.783
X633.48 Y678.829
X633.488 Y678.811
X634.401 Y676.836
X634.409 Y676.82
X635.316 Y674.825
X635.324 Y674.808
X636.226 Y672.793
X636.233 Y672.777
X637.13 Y670.742
X637.137 Y670.725
X638.028 Y668.67
X638.035 Y668.655
X638.921 Y666.58
X638.928 Y666.564
X639.808 Y664.47
X639.814 Y664.455
X640.689 Y662.34
X640.695 Y662.324
X641.564 Y660.19
X641.571 Y660.174
X642.433 Y658.021
X642.438 Y658.008
X643.296 Y655.835
X643.303 Y655.819
X644.154 Y653.627
X644.159 Y653.612
X645.004 Y651.4
X645.009 Y651.387
X645.849 Y649.156
X645.855 Y649.141
X646.688 Y646.891
X646.694 Y646.876
X647.521 Y644.607
X647.526 Y644.594
X648.347 Y642.307
X648.352 Y642.292
X649.167 Y639.985
X649.171 Y639.972
X649.98 Y637.647
X649.985 Y637.634
X650.788 Y635.291
X650.793 Y635.276
X651.589 Y632.914
X651.594 Y632.9
X652.383 Y630.519
X652.386 Y630.507
X653.17 Y628.109
X653.175 Y628.095
X653.952 Y625.678
X653.956 Y625.665
X654.726 Y623.231
X654.731 Y623.217
X655.494 Y620.764
X655.497 Y620.752
X656.254 Y618.282
X656.258 Y618.27
X657.009 Y615.782
X657.013 Y615.768
X657.756 Y613.263
X657.76 Y613.251
X658.497 Y610.728
X658.501 Y610.715
X659.23 Y608.175
X659.233 Y608.164
X659.956 Y605.608
X659.959 Y605.595
X660.675 Y603.021
X660.679 Y603.009
X661.388 Y600.418
X661.391 Y600.405
X662.092 Y597.798
X662.095 Y597.787
X662.79 Y595.164
X662.793 Y595.151
X663.48 Y592.512
X663.484 Y592.499
X664.163 Y589.843
X664.165 Y589.833
X664.838 Y587.161
X664.841 Y587.148
X665.506 Y584.46
X665.509 Y584.448
X666.166 Y581.744
X666.169 Y581.734
X666.819 Y579.015
X666.822 Y579.003
X667.464 Y576.269
X667.466 Y576.257
X668.1 Y573.507
X668.103 Y573.497
X668.73 Y570.733
X668.732 Y570.721
X669.351 Y567.942
X669.354 Y567.93
X669.964 Y565.136
X669.966 Y565.126
X670.569 Y562.317
X670.571 Y562.306
X671.166 Y559.484
X671.169 Y559.473
X671.756 Y556.636
X671.758 Y556.624
X672.336 Y553.774
X672.338 Y553.763
X672.908 Y550.898
X672.91 Y550.888
X673.472 Y548.011
X673.475 Y548
X674.028 Y545.109
X674.03 Y545.098
X674.575 Y542.194
X674.577 Y542.183
X675.113 Y539.266
X675.114 Y539.256
X675.642 Y536.327
X675.644 Y536.316
X676.163 Y533.374
X676.165 Y533.363
X676.675 Y530.409
X676.677 Y530.399
X677.178 Y527.433
X677.18 Y527.423
X677.673 Y524.445
X677.675 Y524.434
X678.158 Y521.445
X678.159 Y521.434
X678.633 Y518.433
X678.635 Y518.423
X679.1 Y515.411
X679.101 Y515.401
X679.557 Y512.379
X679.559 Y512.367
X680.005 Y509.334
X680.007 Y509.324
X680.444 Y506.28
X680.445 Y506.27
X680.872 Y503.217
X680.873 Y503.207
X681.291 Y500.143
X681.293 Y500.132
X681.701 Y497.059
X681.702 Y497.048
X682.1 Y493.966
X682.102 Y493.957
X682.491 Y490.866
X682.492 Y490.854
X682.87 Y487.753
X682.871 Y487.744
X683.24 Y484.636
X683.241 Y484.624
X683.599 Y481.506
X683.6 Y481.497
X683.949 Y478.372
X683.951 Y478.36
X684.288 Y475.227
X684.289 Y475.218
X684.617 Y472.078
X684.618 Y472.067
X684.935 Y468.92
X684.936 Y468.91
X685.243 Y465.755
X685.244 Y465.743
X685.539 Y462.582
X685.54 Y462.572
X685.825 Y459.405
X685.826 Y459.395
X686.101 Y456.221
X686.102 Y456.209
X686.365 Y453.03
X686.366 Y453.021
X686.619 Y449.837
Y449.825
X686.86 Y446.635
X686.861 Y446.624
X687.091 Y443.429
X687.092 Y443.419
X687.311 Y440.22
X687.312 Y440.208
X687.519 Y437.005
Y436.995
X687.715 Y433.788
X687.716 Y433.777
X687.9 Y430.566
X687.901 Y430.555
X688.074 Y427.341
Y427.329
X688.234 Y424.112
X688.235 Y424.102
X688.384 Y420.883
Y420.871
X688.521 Y417.649
X688.522 Y417.638
X688.647 Y414.415
Y414.404
X688.76 Y411.178
X688.761 Y411.166
X688.861 Y407.94
Y407.929
X688.949 Y404.702
Y404.691
X689.025 Y401.463
Y401.451
X689.088 Y398.222
X689.089 Y398.209
X689.139 Y394.981
Y394.969
X689.176 Y391.742
Y391.731
X689.201 Y388.504
Y388.492
X689.213 Y385.266
Y385.254
X689.212 Y382.029
Y382.016
X689.197 Y378.794
Y378.782
X689.169 Y375.562
Y375.55
X689.128 Y372.332
Y372.32
X689.074 Y369.104
X689.073 Y369.09
X689.005 Y365.879
Y365.866
X688.923 Y362.657
Y362.645
X688.828 Y359.441
X688.827 Y359.428
X688.718 Y356.227
Y356.214
X688.595 Y353.018
X688.594 Y353.004
X688.457 Y349.813
Y349.8
X688.306 Y346.614
X688.305 Y346.601
X688.14 Y343.421
X688.139 Y343.407
X687.96 Y340.232
X687.959 Y340.218
X687.765 Y337.05
Y337.036
X687.557 Y333.874
X687.556 Y333.86
X687.334 Y330.705
X687.333 Y330.691
X687.096 Y327.543
X687.094 Y327.528
X686.842 Y324.388
X686.841 Y324.374
X686.575 Y321.241
X686.574 Y321.226
X686.293 Y318.102
X686.292 Y318.088
X685.997 Y314.972
X685.995 Y314.956
X685.684 Y311.848
X685.683 Y311.834
X685.358 Y308.736
X685.356 Y308.72
X685.015 Y305.631
X685.013 Y305.616
X684.658 Y302.536
X684.656 Y302.52
X684.285 Y299.45
X684.283 Y299.434
X683.897 Y296.375
X683.895 Y296.36
X683.494 Y293.311
X683.492 Y293.295
X683.076 Y290.256
X683.074 Y290.239
X682.642 Y287.212
X682.64 Y287.196
X682.193 Y284.18
X682.19 Y284.164
X681.728 Y281.159
X681.725 Y281.142
X681.247 Y278.149
X681.245 Y278.133
X680.752 Y275.152
X680.749 Y275.134
X680.24 Y272.166
X680.237 Y272.149
X679.713 Y269.193
X679.71 Y269.176
X679.17 Y266.232
X679.167 Y266.215
X678.612 Y263.285
X678.608 Y263.267
X678.037 Y260.35
X678.034 Y260.332
X677.447 Y257.428
X677.443 Y257.41
X676.841 Y254.52
X676.837 Y254.502
X676.219 Y251.625
X676.215 Y251.606
X675.581 Y248.744
X675.577 Y248.726
X674.928 Y245.878
X674.924 Y245.859
X674.259 Y243.026
X674.254 Y243.009
X673.574 Y240.19
X673.569 Y240.17
X672.872 Y237.365
X672.868 Y237.346
X672.156 Y234.557
X672.151 Y234.538
X671.424 Y231.764
X671.419 Y231.745
X670.676 Y228.987
X670.67 Y228.967
X669.911 Y226.223
X669.906 Y226.203
X669.131 Y223.476
X669.125 Y223.457
X668.335 Y220.745
X668.329 Y220.724
X667.523 Y218.029
X667.517 Y218.009
X666.695 Y215.329
X666.689 Y215.309
X665.852 Y212.646
X665.846 Y212.627
X664.994 Y209.98
X664.987 Y209.959
X664.118 Y207.328
X664.111 Y207.309
X663.228 Y204.696
X663.221 Y204.674
X662.321 Y202.077
X662.314 Y202.057
X661.4 Y199.478
X661.392 Y199.457
X660.462 Y196.894
X660.454 Y196.872
X659.508 Y194.327
X659.5 Y194.306
X658.539 Y191.778
X658.531 Y191.757
X657.555 Y189.247
X657.546 Y189.225
X656.554 Y186.732
X656.546 Y186.711
X655.54 Y184.236
X655.531 Y184.214
X654.509 Y181.757
X654.5 Y181.735
X653.462 Y179.295
X653.452 Y179.273
X652.4 Y176.852
X652.391 Y176.831
X651.324 Y174.428
X651.314 Y174.405
X650.231 Y172.019
X650.221 Y171.997
X649.124 Y169.631
X649.114 Y169.609
X648.002 Y167.26
X647.991 Y167.238
X646.864 Y164.908
X646.853 Y164.885
X645.711 Y162.573
X645.699 Y162.55
X644.542 Y160.258
X644.531 Y160.236
X643.359 Y157.961
X643.347 Y157.939
X642.161 Y155.684
X642.15 Y155.662
X640.95 Y153.425
X640.937 Y153.402
X639.722 Y151.184
X639.709 Y151.16
X638.479 Y148.962
X638.467 Y148.94
X637.223 Y146.76
X637.21 Y146.738
X635.952 Y144.577
X635.938 Y144.553
X634.665 Y142.412
X634.651 Y142.39
X633.364 Y140.267
X633.35 Y140.244
X632.049 Y138.141
X632.035 Y138.118
X630.72 Y136.035
X630.706 Y136.013
X629.378 Y133.948
X629.363 Y133.924
X628.02 Y131.879
X628.004 Y131.856
X626.647 Y129.831
X626.632 Y129.809
X625.262 Y127.803
X625.247 Y127.78
X623.863 Y125.793
X623.846 Y125.77
X622.448 Y123.803
X622.432 Y123.781
X621.021 Y121.834
X621.005 Y121.811
X619.58 Y119.883
X619.563 Y119.86
X618.125 Y117.952
X618.108 Y117.93
X616.657 Y116.042
X616.639 Y116.019
X615.175 Y114.151
X615.157 Y114.129
X613.679 Y112.28
X613.662 Y112.258
X612.172 Y110.429
X612.153 Y110.406
X610.649 Y108.597
X610.631 Y108.576
X609.115 Y106.786
X609.096 Y106.763
X607.567 Y104.994
X607.548 Y104.973
X606.006 Y103.223
X605.987 Y103.201
X604.433 Y101.471
X604.412 Y101.449
X602.845 Y99.74
X602.826 Y99.719
X601.247 Y98.029
X601.227 Y98.008
X599.636 Y96.338
X599.615 Y96.316
X598.011 Y94.665
X597.991 Y94.645
X596.376 Y93.015
X596.355 Y92.993
X594.727 Y91.383
X594.706 Y91.363
X593.067 Y89.772
X593.045 Y89.751
X591.393 Y88.18
X591.372 Y88.16
X589.709 Y86.609
X589.688 Y86.59
X588.013 Y85.059
X587.991 Y85.039
X586.305 Y83.528
X586.283 Y83.507
X584.585 Y82.016
X584.563 Y81.998
X582.855 Y80.526
X582.832 Y80.506
X581.112 Y79.055
X581.089 Y79.036
X579.358 Y77.604
X579.335 Y77.585
X577.593 Y76.173
X577.57 Y76.155
X575.818 Y74.763
X575.794 Y74.744
X574.03 Y73.372
X574.007 Y73.354
X572.233 Y72.001
X572.21 Y71.984
X570.426 Y70.65
X570.401 Y70.632
X568.607 Y69.319
X568.583 Y69.302
X566.778 Y68.008
X566.753 Y67.991
X564.937 Y66.716
X564.914 Y66.7
X563.089 Y65.445
X563.064 Y65.429
X561.229 Y64.194
X561.205 Y64.177
X559.36 Y62.962
X559.335 Y62.945
X557.48 Y61.749
X557.455 Y61.733
X555.59 Y60.556
X555.566 Y60.541
X553.693 Y59.384
X553.667 Y59.368
X551.783 Y58.23
X551.759 Y58.215
X549.867 Y57.096
X549.842 Y57.082
X547.941 Y55.982
X547.916 Y55.967
X546.005 Y54.886
X545.98 Y54.873
X544.061 Y53.811
X544.036 Y53.797
X542.108 Y52.754
X542.083 Y52.741
X540.147 Y51.717
X540.122 Y51.704
X538.177 Y50.699
X538.152 Y50.687
X536.199 Y49.701
X536.173 Y49.688
X534.211 Y48.721
X534.187 Y48.709
X532.218 Y47.76
X532.192 Y47.748
X530.214 Y46.818
X530.19 Y46.806
X528.205 Y45.895
X528.18 Y45.884
X526.187 Y44.991
X526.162 Y44.98
X524.162 Y44.105
X524.137 Y44.094
X522.129 Y43.238
X522.103 Y43.227
X520.087 Y42.39
X520.063 Y42.38
X518.041 Y41.56
X518.016 Y41.55
X515.987 Y40.749
X515.963 Y40.739
X513.927 Y39.955
X513.902 Y39.946
X511.859 Y39.18
X511.834 Y39.171
X509.784 Y38.423
X509.76 Y38.415
X507.704 Y37.685
X507.679 Y37.676
X505.617 Y36.964
X505.593 Y36.956
X503.524 Y36.261
X503.5 Y36.253
X501.426 Y35.576
X501.402 Y35.568
X499.321 Y34.908
X499.297 Y34.901
X497.211 Y34.259
X497.187 Y34.251
X495.095 Y33.626
X495.071 Y33.619
X492.973 Y33.011
X492.95 Y33.005
X490.848 Y32.414
X490.824 Y32.407
X488.716 Y31.834
X488.692 Y31.827
X486.578 Y31.27
X486.555 Y31.264
X484.437 Y30.724
X484.415 Y30.719
X482.293 Y30.195
X482.269 Y30.189
X480.141 Y29.682
X480.118 Y29.677
X477.986 Y29.187
X477.964 Y29.182
X475.828 Y28.708
X475.805 Y28.703
X473.664 Y28.245
X473.642 Y28.24
X471.497 Y27.799
X471.475 Y27.794
X469.326 Y27.369
X469.304 Y27.365
X467.152 Y26.955
X467.13 Y26.951
X464.974 Y26.558
X464.952 Y26.554
X462.792 Y26.176
X462.77 Y26.172
X460.607 Y25.81
X460.586 Y25.807
X458.42 Y25.46
X458.398 Y25.457
X456.228 Y25.126
X456.208 Y25.123
X454.036 Y24.807
X454.014 Y24.804
X451.839 Y24.503
X451.819 Y24.501
X449.641 Y24.215
X449.62 Y24.213
X447.44 Y23.942
X447.42 Y23.94
X445.237 Y23.684
X445.216 Y23.682
X443.031 Y23.442
X443.011 Y23.439
X440.824 Y23.213
X440.804 Y23.211
X438.615 Y23
X438.595 Y22.998
X436.404 Y22.802
X436.385 Y22.8
X434.193 Y22.617
X434.173 Y22.616
X431.979 Y22.448
X431.96 Y22.446
X429.764 Y22.292
X429.745 Y22.291
X427.549 Y22.151
X427.53 Y22.15
X425.332 Y22.023
X425.313 Y22.022
X423.115 Y21.91
X423.096 Y21.909
X420.896 Y21.81
X420.878
X418.678 Y21.725
X418.66 Y21.724
X416.46 Y21.652
X416.442
X414.241 Y21.593
X414.222
X412.021 Y21.548
X412.003
X409.801 Y21.516
X409.784 Y21.515
X407.583 Y21.496
X407.565
X405.364 Y21.49
X405.347
X403.146 Y21.497
X403.129
X400.929 Y21.516
X400.912
X398.713 Y21.548
X398.696
X396.497 Y21.593
X396.48
X394.282 Y21.65
X394.265
X392.068 Y21.719
X392.052
X389.856 Y21.8
X389.839 Y21.801
X387.645 Y21.893
X387.629 Y21.894
X385.436 Y21.999
X385.42
X383.229 Y22.116
X383.213
X381.023 Y22.244
X381.007 Y22.245
X378.819 Y22.385
X378.804 Y22.386
X376.619 Y22.536
X376.603 Y22.537
X374.419 Y22.699
X374.404 Y22.7
X372.223 Y22.874
X372.208 Y22.875
X370.029 Y23.059
X370.013 Y23.06
X367.837 Y23.255
X367.822 Y23.256
X365.648 Y23.462
X365.633 Y23.463
X363.462 Y23.68
X363.448 Y23.681
X361.281 Y23.908
X361.266 Y23.91
X359.101 Y24.147
X359.087 Y24.149
X356.926 Y24.396
X356.911 Y24.398
X354.752 Y24.656
X354.738 Y24.658
X352.584 Y24.926
X352.57 Y24.927
X350.419 Y25.205
X350.404 Y25.207
X348.257 Y25.495
X348.244 Y25.497
X346.1 Y25.794
X346.086 Y25.796
X343.947 Y26.103
X343.933 Y26.105
X341.798 Y26.422
X341.784 Y26.424
X339.653 Y26.75
X339.64 Y26.752
X337.514 Y27.088
X337.5 Y27.09
X335.378 Y27.434
X335.365 Y27.436
X333.248 Y27.79
X333.235 Y27.792
X331.122 Y28.155
X331.108 Y28.157
X329.001 Y28.528
X328.989 Y28.531
X326.886 Y28.911
X326.872 Y28.913
X324.775 Y29.302
X324.762 Y29.304
X322.67 Y29.701
X322.651 Y29.705
X318.484 Y30.525
X318.459 Y30.53
X314.314 Y31.382
X314.289 Y31.387
X310.168 Y32.271
X310.143 Y32.277
X306.046 Y33.192
X306.021 Y33.197
X301.95 Y34.143
X301.926 Y34.148
X297.882 Y35.123
X297.858 Y35.129
X293.841 Y36.132
X293.817 Y36.138
X289.828 Y37.169
X289.805 Y37.176
X285.845 Y38.234
X285.821 Y38.24
X281.891 Y39.324
X281.873 Y39.329
X279.92 Y39.881
X279.909 Y39.884
X277.964 Y40.442
X277.952 Y40.445
X276.014 Y41.01
X276.002 Y41.013
X274.073 Y41.583
X274.063 Y41.587
X272.141 Y42.163
X272.129 Y42.166
X270.216 Y42.749
X270.204 Y42.752
X268.3 Y43.34
X268.289 Y43.344
X266.392 Y43.937
X266.38 Y43.941
X264.492 Y44.541
X264.481 Y44.544
X262.602 Y45.149
X262.59 Y45.153
X260.72 Y45.764
X260.709 Y45.767
X258.847 Y46.383
X258.835 Y46.387
X256.983 Y47.008
X256.972 Y47.012
X255.128 Y47.638
X255.116 Y47.642
X253.282 Y48.274
X253.271 Y48.278
X251.445 Y48.915
X251.433 Y48.919
X249.617 Y49.561
X249.606 Y49.565
X247.8 Y50.211
X247.789 Y50.215
X245.991 Y50.867
X245.979 Y50.871
X244.192 Y51.528
X244.18 Y51.532
X242.402 Y52.193
X242.391 Y52.197
X240.622 Y52.863
X240.61 Y52.868
X238.852 Y53.538
X238.841 Y53.542
X237.092 Y54.217
X237.08 Y54.222
X235.341 Y54.901
X235.33 Y54.906
X233.601 Y55.59
X233.588 Y55.595
X231.87 Y56.283
X231.859 Y56.287
X230.15 Y56.98
X230.138 Y56.985
X228.44 Y57.681
X228.428 Y57.686
X226.74 Y58.387
X226.728 Y58.392
X225.051 Y59.097
X225.04 Y59.102
X223.372 Y59.811
X223.359 Y59.817
X221.703 Y60.53
X221.692 Y60.535
X220.046 Y61.252
X220.034 Y61.257
X218.399 Y61.978
X218.387 Y61.984
X216.762 Y62.709
X216.749 Y62.714
X215.135 Y63.443
X215.123 Y63.449
X213.52 Y64.181
X213.508 Y64.187
X211.916 Y64.923
X211.903 Y64.929
X210.322 Y65.669
X210.31 Y65.675
X208.74 Y66.419
X208.728 Y66.424
X207.168 Y67.172
X207.154 Y67.178
X205.607 Y67.929
X205.595 Y67.935
X204.058 Y68.69
X204.045 Y68.696
X202.519 Y69.454
X202.506 Y69.461
X200.992 Y70.222
X200.979 Y70.228
X199.476 Y70.993
X199.463 Y71
X197.971 Y71.768
X197.958 Y71.775
X196.478 Y72.547
X196.464 Y72.554
X194.996 Y73.33
X194.984 Y73.336
X193.526 Y74.115
X193.511 Y74.122
X192.066 Y74.904
X192.053 Y74.911
X190.619 Y75.696
X190.606 Y75.704
X189.183 Y76.492
X189.168 Y76.5
X187.758 Y77.292
X187.745 Y77.299
X186.346 Y78.094
X186.332 Y78.102
X184.945 Y78.9
X184.931 Y78.908
X183.555 Y79.709
X183.54 Y79.718
X182.177 Y80.523
X182.164 Y80.531
X180.812 Y81.338
X180.797 Y81.347
X179.457 Y82.158
X179.442 Y82.167
X178.115 Y82.981
X178.101 Y82.989
X176.785 Y83.806
X176.77 Y83.815
X175.466 Y84.635
X175.451 Y84.645
X174.159 Y85.468
X174.144 Y85.477
X172.864 Y86.303
X172.848 Y86.314
X171.581 Y87.143
X171.567 Y87.152
X170.311 Y87.985
X170.295 Y87.995
X169.052 Y88.831
X169.037 Y88.84
X167.805 Y89.679
X167.789 Y89.69
X166.57 Y90.531
X166.553 Y90.543
X165.347 Y91.387
X165.333 Y91.397
X164.138 Y92.245
X164.121 Y92.257
X162.939 Y93.107
X162.923 Y93.119
X161.753 Y93.972
X161.737 Y93.984
X160.579 Y94.84
X160.563 Y94.852
X159.417 Y95.711
X159.4 Y95.724
X158.267 Y96.587
X158.25 Y96.6
X157.13 Y97.466
X157.114 Y97.478
X156.005 Y98.346
X155.989 Y98.359
X154.893 Y99.23
X154.875 Y99.245
X153.791 Y100.12
X153.774 Y100.133
X152.703 Y101.01
X152.685 Y101.025
X151.626 Y101.906
X151.61 Y101.92
X150.564 Y102.803
X150.546 Y102.818
X149.512 Y103.705
X149.496 Y103.719
X148.474 Y104.608
X148.455 Y104.624
X147.446 Y105.517
X147.428 Y105.534
X146.432 Y106.43
X146.416 Y106.444
X145.431 Y107.343
X145.411 Y107.361
X144.44 Y108.263
X144.423 Y108.279
X143.464 Y109.184
X143.447 Y109.201
X142.5 Y110.109
X142.482 Y110.125
X141.547 Y111.036
X141.528 Y111.056
X140.607 Y111.97
X140.589 Y111.987
X139.679 Y112.905
X139.66 Y112.925
X138.764 Y113.846
X138.749 Y113.862
X137.864 Y114.785
X137.844 Y114.805
X136.972 Y115.732
X136.952 Y115.754
X136.093 Y116.685
X136.077 Y116.703
X135.23 Y117.636
X135.21 Y117.657
X134.376 Y118.594
X134.359 Y118.614
X133.537 Y119.554
X133.519 Y119.574
X132.709 Y120.517
X132.69 Y120.54
X131.893 Y121.487
X131.876 Y121.507
X131.091 Y122.456
X131.071 Y122.481
X130.299 Y123.435
X130.281 Y123.457
X129.522 Y124.413
X129.506 Y124.434
X128.758 Y125.394
X128.739 Y125.418
X128.004 Y126.381
X127.985 Y126.406
X127.263 Y127.373
X127.246 Y127.396
X126.536 Y128.366
X126.519 Y128.389
X125.821 Y129.362
X125.802 Y129.39
X125.117 Y130.368
X125.101 Y130.391
X124.428 Y131.371
X124.411 Y131.396
X123.75 Y132.38
X123.731 Y132.408
X123.083 Y133.396
X123.067 Y133.421
X122.431 Y134.412
X122.413 Y134.44
X121.79 Y135.435
X121.776 Y135.459
X121.164 Y136.457
X121.146 Y136.486
X120.547 Y137.488
X120.531 Y137.515
X119.944 Y138.521
X119.927 Y138.55
X119.353 Y139.559
X119.337 Y139.588
X118.775 Y140.602
X118.761 Y140.627
X118.21 Y141.644
X118.194 Y141.673
X117.656 Y142.693
X117.64 Y142.725
X117.115 Y143.75
X117.102 Y143.776
X116.588 Y144.804
X116.573 Y144.834
X116.071 Y145.866
X116.056 Y145.898
X115.567 Y146.935
X115.554 Y146.962
X115.076 Y148.002
X115.062 Y148.034
X114.597 Y149.078
X114.583 Y149.109
X114.13 Y150.157
X114.119 Y150.184
X113.677 Y151.235
X113.663 Y151.269
X113.234 Y152.325
X113.221 Y152.357
X112.804 Y153.418
X112.793 Y153.445
X112.387 Y154.509
X112.375 Y154.543
X111.982 Y155.611
X111.971 Y155.64
X111.589 Y156.712
X111.578 Y156.744
X111.208 Y157.821
X111.197 Y157.853
X110.839 Y158.934
X110.829 Y158.966
X110.483 Y160.051
X110.474 Y160.08
X110.139 Y161.169
X110.129 Y161.202
X109.806 Y162.296
X109.797 Y162.327
X109.486 Y163.425
X109.477 Y163.457
X109.178 Y164.559
X109.17 Y164.59
X108.882 Y165.697
X108.873 Y165.729
X108.597 Y166.84
X108.59 Y166.87
X108.325 Y167.986
X108.318 Y168.018
X108.065 Y169.138
X108.058 Y169.17
X107.817 Y170.294
X107.81 Y170.324
X107.58 Y171.453
X107.574 Y171.483
X107.355 Y172.617
X107.349 Y172.649
X107.142 Y173.787
X107.137 Y173.817
X106.941 Y174.96
X106.936 Y174.992
X106.752 Y176.14
X106.747 Y176.169
X106.574 Y177.321
X106.57 Y177.351
X106.408 Y178.508
X106.404 Y178.537
X106.253 Y179.699
X106.249 Y179.731
X106.11 Y180.897
X106.107 Y180.924
X105.978 Y182.094
X105.975 Y182.126
X105.858 Y183.303
X105.855 Y183.332
X105.749 Y184.512
X105.747 Y184.54
X105.652 Y185.726
X105.649 Y185.755
X105.565 Y186.946
X105.563 Y186.977
X105.491 Y188.173
X105.49 Y188.198
X105.428 Y189.398
X105.427 Y189.424
X105.375 Y190.63
X105.374 Y190.66
X105.334 Y191.87
X105.333 Y191.897
X105.304 Y193.113
X105.303 Y193.138
X105.284 Y194.359
Y194.389
X105.277 Y195.615
Y195.637
X105.279 Y196.867
Y196.896
X105.293 Y198.132
X105.294 Y198.156
X105.318 Y199.398
Y199.424
X105.353 Y200.67
X105.354 Y200.696
X105.4 Y201.948
X105.401 Y201.972
X105.457 Y203.228
X105.458 Y203.251
X105.524 Y204.513
X105.526 Y204.538
X105.603 Y205.806
X105.604 Y205.829
X105.691 Y207.101
X105.693 Y207.125
X105.791 Y208.403
X105.793 Y208.425
X105.901 Y209.709
X105.903 Y209.732
X106.021 Y211.02
X106.023 Y211.044
X106.152 Y212.338
X106.154 Y212.357
X106.292 Y213.657
X106.294 Y213.681
X106.443 Y214.985
X106.446 Y215.005
X106.605 Y216.315
X106.607 Y216.336
X106.776 Y217.652
X106.779 Y217.673
X106.958 Y218.994
X106.961 Y219.014
X107.15 Y220.341
X107.153 Y220.361
X107.352 Y221.693
X107.355 Y221.713
X107.564 Y223.05
X107.567 Y223.07
X107.786 Y224.413
X107.789 Y224.432
X108.018 Y225.781
X108.021 Y225.798
X108.259 Y227.152
X108.263 Y227.171
X108.511 Y228.531
X108.514 Y228.55
X108.772 Y229.915
X108.776 Y229.934
X109.044 Y231.305
X109.047 Y231.321
X109.324 Y232.697
X109.327 Y232.713
X109.613 Y234.095
X109.617 Y234.115
X109.914 Y235.503
X109.917 Y235.517
X110.222 Y236.91
X110.226 Y236.927
X110.541 Y238.326
X110.545 Y238.344
X110.87 Y239.748
X110.874 Y239.762
X111.208 Y241.173
X111.211 Y241.187
X111.554 Y242.603
X111.558 Y242.62
X111.911 Y244.041
X111.915 Y244.054
X112.276 Y245.481
X112.28 Y245.497
X112.651 Y246.93
X112.655 Y246.944
X113.035 Y248.382
X113.038 Y248.396
X113.427 Y249.84
X113.432 Y249.856
X113.831 Y251.306
X113.834 Y251.318
X114.241 Y252.773
X114.245 Y252.787
X114.661 Y254.248
X114.664 Y254.261
X115.089 Y255.728
X115.093 Y255.741
X115.527 Y257.213
X115.531 Y257.226
X115.974 Y258.704
X115.978 Y258.717
X116.43 Y260.201
X116.434 Y260.212
X116.894 Y261.702
X116.898 Y261.714
X117.367 Y263.209
X117.37 Y263.221
X117.848 Y264.722
X117.852 Y264.733
X118.338 Y266.239
X118.342 Y266.251
X118.837 Y267.763
X118.841 Y267.776
X119.345 Y269.293
X119.348 Y269.303
X119.86 Y270.826
X119.864 Y270.836
X120.384 Y272.365
X120.388 Y272.376
X120.917 Y273.911
X120.92 Y273.922
X121.457 Y275.462
X121.461 Y275.474
X122.007 Y277.019
X122.013 Y277.033
X123.129 Y280.141
X123.135 Y280.16
X124.283 Y283.29
X124.291 Y283.31
X125.473 Y286.462
X125.48 Y286.48
X126.693 Y289.655
X126.7 Y289.673
X127.945 Y292.869
X127.951 Y292.886
X129.227 Y296.104
X129.234 Y296.121
X130.542 Y299.36
X130.549 Y299.376
X131.887 Y302.637
X131.893 Y302.652
X133.261 Y305.934
X133.268 Y305.95
X134.667 Y309.253
X134.673 Y309.267
X136.101 Y312.591
X136.107 Y312.606
X137.565 Y315.95
X137.571 Y315.964
X139.058 Y319.329
X139.064 Y319.342
X140.579 Y322.727
X140.585 Y322.74
X142.129 Y326.145
X142.134 Y326.157
X143.706 Y329.582
X143.712 Y329.595
X145.312 Y333.039
X145.318 Y333.051
X146.945 Y336.514
X146.95 Y336.525
X148.604 Y340.007
X148.61 Y340.019
X150.291 Y343.52
X150.296 Y343.53
X152.003 Y347.049
X152.008 Y347.061
X153.742 Y350.598
X153.747 Y350.607
X155.506 Y354.162
X155.511 Y354.172
X157.295 Y357.744
X157.3 Y357.755
X159.11 Y361.344
X159.115 Y361.353
X160.949 Y364.959
X160.954 Y364.969
X162.813 Y368.591
X162.818 Y368.6
X164.701 Y372.237
X164.705 Y372.246
X166.612 Y375.9
X166.617 Y375.909
X168.547 Y379.578
X168.552 Y379.586
X170.505 Y383.269
X170.509 Y383.278
X172.485 Y386.976
X172.49 Y386.984
X174.489 Y390.696
X174.493 Y390.704
X176.513 Y394.43
X176.517 Y394.438
X178.56 Y398.177
X178.565 Y398.185
X180.629 Y401.936
X180.633 Y401.944
X182.718 Y405.708
X182.722 Y405.715
X184.828 Y409.491
X184.832 Y409.499
X186.959 Y413.287
X186.963 Y413.294
X189.11 Y417.092
X189.114 Y417.099
X191.28 Y420.908
X191.285 Y420.916
X193.472 Y424.735
X193.475 Y424.741
X195.68 Y428.57
X195.685 Y428.578
X197.91 Y432.416
X197.913 Y432.422
X200.156 Y436.269
X200.161 Y436.277
X202.423 Y440.131
X202.426 Y440.136
X204.705 Y443.999
X204.71 Y444.007
X207.008 Y447.876
X207.011 Y447.882
X209.325 Y451.758
X209.329 Y451.765
X211.661 Y455.648
X211.665 Y455.655
X214.014 Y459.542
X214.018 Y459.548
X216.383 Y463.441
X216.387 Y463.447
X218.768 Y467.345
X218.772 Y467.352
X221.169 Y471.253
X221.173 Y471.259
X223.586 Y475.164
X223.59 Y475.17
X226.017 Y479.077
X226.021 Y479.084
X228.464 Y482.994
X228.468 Y483
X230.926 Y486.912
X230.93 Y486.918
X233.401 Y490.83
X233.405 Y490.837
X235.891 Y494.75
X235.895 Y494.756
X238.394 Y498.669
X238.398 Y498.675
X240.911 Y502.588
X240.915 Y502.595
X243.441 Y506.506
X243.445 Y506.512
X245.984 Y510.421
X245.988 Y510.428
X248.54 Y514.335
X248.544 Y514.34
X251.107 Y518.244
X251.112 Y518.251
X253.688 Y522.151
X253.692 Y522.158
X256.279 Y526.053
X256.283 Y526.059
X258.882 Y529.95
X258.887 Y529.957
X261.497 Y533.842
X261.501 Y533.848
X264.121 Y537.727
X264.126 Y537.734
X266.757 Y541.606
X266.762 Y541.613
X269.404 Y545.477
X269.408 Y545.484
X272.059 Y549.34
X272.064 Y549.347
X274.725 Y553.194
X274.73 Y553.201
X277.4 Y557.038
X277.404 Y557.044
X280.083 Y560.872
X280.088 Y560.88
X282.776 Y564.696
X282.781 Y564.703
X285.478 Y568.508
X285.484 Y568.515
X288.189 Y572.307
X288.194 Y572.314
X290.907 Y576.094
X290.912 Y576.102
X293.633 Y579.868
X293.639 Y579.875
X296.367 Y583.627
X296.372 Y583.634
X299.107 Y587.371
X299.113 Y587.379
X301.855 Y591.1
X301.861 Y591.108
X304.61 Y594.812
X304.616 Y594.82
X307.371 Y598.507
X307.377 Y598.515
X310.138 Y602.184
X310.144 Y602.192
X312.911 Y605.843
X312.918 Y605.852
X315.691 Y609.483
X315.697 Y609.491
X318.475 Y613.102
X318.482 Y613.111
X321.265 Y616.702
X321.272 Y616.71
X324.059 Y620.279
X324.066 Y620.289
X326.858 Y623.835
X326.865 Y623.844
X329.662 Y627.368
X329.669 Y627.377
X332.469 Y630.877
X332.477 Y630.887
X335.282 Y634.363
X335.29 Y634.372
X338.097 Y637.822
X338.105 Y637.832
X340.916 Y641.257
X340.924 Y641.267
X343.738 Y644.665
X343.747 Y644.676
X346.564 Y648.046
X346.573 Y648.056
X349.392 Y651.399
X349.401 Y651.41
X352.222 Y654.723
X352.231 Y654.734
X355.055 Y658.018
X355.065 Y658.029
X357.89 Y661.282
X357.9 Y661.293
X360.727 Y664.516
X360.737 Y664.528
X363.565 Y667.718
X363.575 Y667.73
X366.404 Y670.888
X366.415 Y670.9
X369.244 Y674.024
X369.256 Y674.037
X372.087 Y677.127
X372.098 Y677.139
X374.928 Y680.194
X374.941 Y680.207
X377.772 Y683.226
X377.784 Y683.239
X380.615 Y686.222
X380.628 Y686.236
X383.458 Y689.181
X383.471 Y689.194
X386.301 Y692.102
X386.315 Y692.117
X389.144 Y694.985
X389.158 Y694.999
X391.986 Y697.828
X391.996 Y697.838
X393.41 Y699.238
X393.418 Y699.246
X394.831 Y700.635
X394.839 Y700.643
X396.252 Y702.022
X396.259 Y702.029
X397.671 Y703.398
X397.679 Y703.406
X399.091 Y704.764
X399.099 Y704.772
X400.511 Y706.12
X400.52 Y706.128
X401.931 Y707.465
X401.939 Y707.472
X403.349 Y708.798
X403.358 Y708.807
X404.768 Y710.122
X404.777 Y710.13
X406.187 Y711.435
X406.195 Y711.442
X407.604 Y712.736
X407.613 Y712.744
X409.021 Y714.026
X409.03 Y714.034
X410.437 Y715.305
X410.448 Y715.315
X411.855 Y716.574
X411.864 Y716.582
X413.271 Y717.83
X413.28 Y717.838
X414.685 Y719.075
X414.695 Y719.084
X416.1 Y720.309
X416.111 Y720.318
X417.515 Y721.531
X417.524 Y721.539
X418.927 Y722.741
X418.939 Y722.752
X420.342 Y723.941
X420.352 Y723.949
X421.753 Y725.126
X421.764 Y725.135
X423.165 Y726.301
X423.177 Y726.311
X424.577 Y727.464
X424.587 Y727.472
X425.985 Y728.613
X425.998 Y728.624
X427.396 Y729.752
X427.408 Y729.761
X428.805 Y730.877
X428.817 Y730.887
X430.213 Y731.99
X430.226 Y732
X431.621 Y733.09
X431.633 Y733.099
X433.027 Y734.177
X433.04 Y734.187
X434.433 Y735.252
X434.446 Y735.262
X435.838 Y736.314
X435.852 Y736.325
X437.242 Y737.363
X437.255 Y737.373
X438.645 Y738.399
X438.66 Y738.409
X440.048 Y739.421
X440.063 Y739.432
X441.451 Y740.431
X441.465 Y740.441
X442.851 Y741.426
X442.865 Y741.436
X444.249 Y742.408
X444.266 Y742.42
X445.65 Y743.378
X445.665 Y743.388
X447.047 Y744.332
X447.062 Y744.343
X448.443 Y745.273
X448.46 Y745.285
X449.839 Y746.201
X449.856 Y746.212
X451.235 Y747.115
X451.252 Y747.126
X452.629 Y748.014
X452.646 Y748.025
X454.021 Y748.899
X454.038 Y748.91
X455.412 Y749.77
X455.432 Y749.782
X456.805 Y750.627
X456.823 Y750.638
X458.194 Y751.468
X458.213 Y751.479
X459.583 Y752.295
X459.602 Y752.307
X460.97 Y753.108
X460.989 Y753.119
X462.356 Y753.906
X462.378 Y753.918
X463.743 Y754.689
X463.761 Y754.7
X465.124 Y755.457
X465.147 Y755.469
X466.509 Y756.21
X466.531 Y756.222
X467.892 Y756.948
X467.913 Y756.959
X469.27 Y757.67
X469.294 Y757.682
X470.651 Y758.377
X470.674 Y758.389
X472.03 Y759.069
X472.052 Y759.079
X473.405 Y759.744
X473.431 Y759.757
X474.783 Y760.405
X474.807 Y760.417
X476.158 Y761.05
X476.182 Y761.061
X477.53 Y761.678
X477.557 Y761.69
X478.904 Y762.291
X478.929 Y762.302
X480.274 Y762.887
X480.301 Y762.898
X481.644 Y763.467
X481.67 Y763.478
X483.011 Y764.031
X483.04 Y764.043
X484.379 Y764.579
X484.407 Y764.59
X485.745 Y765.11
X485.772 Y765.121
X487.107 Y765.625
X487.14 Y765.637
X488.474 Y766.123
X488.501 Y766.132
X489.833 Y766.603
X489.865 Y766.615
X491.194 Y767.068
X491.224 Y767.078
X492.552 Y767.515
X492.586 Y767.526
X493.912 Y767.945
X493.942 Y767.954
X495.265 Y768.357
X495.3 Y768.367
X496.622 Y768.752
X496.655 Y768.762
X497.974 Y769.13
X498.008 Y769.139
X499.326 Y769.49
X499.359 Y769.499
X500.674 Y769.833
X500.711 Y769.842
X502.024 Y770.158
X502.059 Y770.166
X503.37 Y770.465
X503.407 Y770.473
X504.716 Y770.754
X504.754 Y770.762
X506.061 Y771.025
X506.099 Y771.032
X507.403 Y771.277
X507.44 Y771.284
X508.742 Y771.512
X508.781 Y771.519
X510.081 Y771.729
X510.122 Y771.735
X511.42 Y771.926
X511.457 Y771.931
X512.753 Y772.105
Z-9 F333.3
X512.795 Y772.111 F1000
X514.088 Y772.266
X514.128 Y772.27
X515.419 Y772.407
X515.46 Y772.411
X516.748 Y772.53
X516.791 Y772.534
X518.077 Y772.634
X518.121 Y772.637
X519.405 Y772.718
X519.447 Y772.72
X520.728 Y772.783
X520.77 Y772.785
X522.049 Y772.83
X522.095 Y772.831
X523.371 Y772.856
X523.414 Y772.857
X524.687 Y772.864
X524.731
X526.003 Y772.852
X526.048 Y772.851
X527.316 Y772.82
X527.361 Y772.819
X528.627 Y772.769
X528.673 Y772.767
X529.937 Y772.698
X529.982 Y772.695
X531.243 Y772.607
X531.291 Y772.603
X532.549 Y772.495
X532.594 Y772.491
X533.85 Y772.364
X533.895 Y772.359
X535.148 Y772.213
X535.196 Y772.207
X536.446 Y772.041
X536.491 Y772.035
X537.739 Y771.85
X537.786 Y771.842
X539.031 Y771.637
X539.079 Y771.629
X540.321 Y771.404
X540.366 Y771.395
X541.605 Y771.151
X541.651 Y771.142
X542.888 Y770.878
X542.935 Y770.868
X544.169 Y770.584
X544.213 Y770.573
X545.444 Y770.27
X545.492 Y770.258
X546.72 Y769.934
X546.766 Y769.921
X547.991 Y769.577
X548.034 Y769.565
X549.256 Y769.202
X549.303 Y769.188
X550.523 Y768.804
X550.568 Y768.789
X551.784 Y768.385
X551.829 Y768.37
X553.043 Y767.945
X553.085 Y767.929
X554.295 Y767.485
X554.34 Y767.469
X555.548 Y767.004
X555.591 Y766.987
X556.795 Y766.502
X556.838 Y766.484
X558.04 Y765.978
X558.082 Y765.96
X559.28 Y765.434
X559.323 Y765.415
X560.518 Y764.868
X560.558 Y764.849
X561.75 Y764.282
X561.791 Y764.262
X562.98 Y763.674
X563.02 Y763.654
X564.206 Y763.045
X564.245 Y763.024
X565.427 Y762.395
X565.466 Y762.374
X566.645 Y761.724
X566.684 Y761.703
X567.86 Y761.032
X567.896 Y761.011
X569.069 Y760.32
X569.108 Y760.296
X570.277 Y759.583
X570.312 Y759.562
X571.478 Y758.829
X571.515 Y758.805
X572.677 Y758.05
X572.712 Y758.028
X573.871 Y757.253
X573.904 Y757.23
X575.06 Y756.434
X575.096 Y756.409
X576.248 Y755.591
X576.279 Y755.569
X577.428 Y754.731
X577.46 Y754.707
X578.605 Y753.848
X578.637 Y753.823
X579.779 Y752.942
X579.81 Y752.919
X580.948 Y752.017
X580.979 Y751.993
X582.113 Y751.071
X582.144 Y751.045
X583.275 Y750.1
X583.301 Y750.078
X584.429 Y749.113
X584.458 Y749.087
X585.581 Y748.101
X585.608 Y748.078
X586.729 Y747.07
X586.757 Y747.045
X587.873 Y746.016
X587.899 Y745.991
X589.011 Y744.941
X589.035 Y744.918
X590.144 Y743.847
X590.17 Y743.822
X591.275 Y742.729
X591.299 Y742.705
X592.4 Y741.591
X592.423 Y741.567
X593.52 Y740.432
X593.543 Y740.408
X594.637 Y739.251
X594.66 Y739.226
X595.749 Y738.048
X595.77 Y738.025
X596.855 Y736.826
X596.876 Y736.803
X597.958 Y735.582
X597.98 Y735.557
X599.057 Y734.315
X599.076 Y734.292
X600.149 Y733.029
X600.169 Y733.006
X601.238 Y731.722
X601.257 Y731.699
X602.322 Y730.393
X602.34 Y730.37
X603.401 Y729.043
X603.419 Y729.02
X604.476 Y727.671
X604.494 Y727.649
X605.546 Y726.28
X605.563 Y726.257
X606.611 Y724.866
X606.628 Y724.844
X607.672 Y723.431
X607.688 Y723.409
X608.727 Y721.976
X608.743 Y721.954
X609.778 Y720.499
X609.792 Y720.478
X610.823 Y719.002
X610.839 Y718.98
X611.865 Y717.483
X611.879 Y717.462
X612.901 Y715.944
X612.915 Y715.922
X613.932 Y714.382
X613.945 Y714.363
X614.958 Y712.803
X614.972 Y712.781
X615.98 Y711.199
X615.993 Y711.178
X616.996 Y709.575
X617.008 Y709.556
X618.007 Y707.932
X618.019 Y707.912
X619.013 Y706.268
X619.026 Y706.247
X620.015 Y704.581
X620.026 Y704.563
X621.011 Y702.876
X621.022 Y702.856
X622.001 Y701.148
X622.012 Y701.13
X622.987 Y699.401
X622.998 Y699.382
X623.968 Y697.633
X623.978 Y697.614
X624.943 Y695.844
X624.953 Y695.825
X625.913 Y694.034
X625.923 Y694.016
X626.878 Y692.205
X626.887 Y692.187
X627.837 Y690.355
X627.846 Y690.337
X628.792 Y688.484
X628.801 Y688.466
X629.74 Y686.593
X629.748 Y686.577
X630.683 Y684.684
X630.692 Y684.665
X631.621 Y682.751
X631.629 Y682.734
X632.553 Y680.799
X632.561 Y680.783
X633.48 Y678.829
X633.488 Y678.811
X634.401 Y676.836
X634.409 Y676.82
X635.316 Y674.825
X635.324 Y674.808
X636.226 Y672.793
X636.233 Y672.777
X637.13 Y670.742
X637.137 Y670.725
X638.028 Y668.67
X638.035 Y668.655
X638.921 Y666.58
X638.928 Y666.564
X639.808 Y664.47
X639.814 Y664.455
X640.689 Y662.34
X640.695 Y662.324
X641.564 Y660.19
X641.571 Y660.174
X642.433 Y658.021
X642.438 Y658.008
X643.296 Y655.835
X643.303 Y655.819
X644.154 Y653.627
X644.159 Y653.612
X645.004 Y651.4
X645.009 Y651.387
X645.849 Y649.156
X645.855 Y649.141
X646.688 Y646.891
X646.694 Y646.876
X647.521 Y644.607
X647.526 Y644.594
X648.347 Y642.307
X648.352 Y642.292
X649.167 Y639.985
X649.171 Y639.972
X649.98 Y637.647
X649.985 Y637.634
X650.788 Y635.291
X650.793 Y635.276
X651.589 Y632.914
X651.594 Y632.9
X652.383 Y630.519
X652.386 Y630.507
X653.17 Y628.109
X653.175 Y628.095
X653.952 Y625.678
X653.956 Y625.665
X654.726 Y623.231
X654.731 Y623.217
X655.494 Y620.764
X655.497 Y620.752
X656.254 Y618.282
X656.258 Y618.27
X657.009 Y615.782
X657.013 Y615.768
X657.756 Y613.263
X657.76 Y613.251
X658.497 Y610.728
X658.501 Y610.715
X659.23 Y608.175
X659.233 Y608.164
X659.956 Y605.608
X659.959 Y605.595
X660.675 Y603.021
X660.679 Y603.009
X661.388 Y600.418
X661.391 Y600.405
X662.092 Y597.798
X662.095 Y597.787
X662.79 Y595.164
X662.793 Y595.151
X663.48 Y592.512
X663.484 Y592.499
X664.163 Y589.843
X664.165 Y589.833
X664.838 Y587.161
X664.841 Y587.148
X665.506 Y584.46
X665.509 Y584.448
X666.166 Y581.744
X666.169 Y581.734
X666.819 Y579.015
X666.822 Y579.003
X667.464 Y576.269
X667.466 Y576.257
X668.1 Y573.507
X668.103 Y573.497
X668.73 Y570.733
X668.732 Y570.721
X669.351 Y567.942
X669.354 Y567.93
X669.964 Y565.136
X669.966 Y565.126
X670.569 Y562.317
X670.571 Y562.306
X671.166 Y559.484
X671.169 Y559.473
X671.756 Y556.636
X671.758 Y556.624
X672.336 Y553.774
X672.338 Y553.763
X672.908 Y550.898
X672.91 Y550.888
X673.472 Y548.011
X673.475 Y548
X674.028 Y545.109
X674.03 Y545.098
X674.575 Y542.194
X674.577 Y542.183
X675.113 Y539.266
X675.114 Y539.256
X675.642 Y536.327
X675.644 Y536.316
X676.163 Y533.374
X676.165 Y533.363
X676.675 Y530.409
X676.677 Y530.399
X677.178 Y527.433
X677.18 Y527.423
X677.673 Y524.445
X677.675 Y524.434
X678.158 Y521.445
X678.159 Y521.434
X678.633 Y518.433
X678.635 Y518.423
X679.1 Y515.411
X679.101 Y515.401
X679.557 Y512.379
X679.559 Y512.367
X680.005 Y509.334
X680.007 Y509.324
X680.444 Y506.28
X680.445 Y506.27
X680.872 Y503.217
X680.873 Y503.207
X681.291 Y500.143
X681.293 Y500.132
X681.701 Y497.059
X681.702 Y497.048
X682.1 Y493.966
X682.102 Y493.957
X682.491 Y490.866
X682.492 Y490.854
X682.87 Y487.753
X682.871 Y487.744
X683.24 Y484.636
X683.241 Y484.624
X683.599 Y481.506
X683.6 Y481.497
X683.949 Y478.372
X683.951 Y478.36
X684.288 Y475.227
X684.289 Y475.218
X684.617 Y472.078
X684.618 Y472.067
X684.935 Y468.92
X684.936 Y468.91
X685.243 Y465.755
X685.244 Y465.743
X685.539 Y462.582
X685.54 Y462.572
X685.825 Y459.405
X685.826 Y459.395
X686.101 Y456.221
X686.102 Y456.209
X686.365 Y453.03
X686.366 Y453.021
X686.619 Y449.837
Y449.825
X686.86 Y446.635
X686.861 Y446.624
X687.091 Y443.429
X687.092 Y443.419
X687.311 Y440.22
X687.312 Y440.208
X687.519 Y437.005
Y436.995
X687.715 Y433.788
X687.716 Y433.777
X687.9 Y430.566
X687.901 Y430.555
X688.074 Y427.341
Y427.329
X688.234 Y424.112
X688.235 Y424.102
X688.384 Y420.883
Y420.871
X688.521 Y417.649
X688.522 Y417.638
X688.647 Y414.415
Y414.404
X688.76 Y411.178
X688.761 Y411.166
X688.861 Y407.94
Y407.929
X688.949 Y404.702
Y404.691
X689.025 Y401.463
Y401.451
X689.088 Y398.222
X689.089 Y398.209
X689.139 Y394.981
Y394.969
X689.176 Y391.742
Y391.731
X689.201 Y388.504
Y388.492
X689.213 Y385.266
Y385.254
X689.212 Y382.029
Y382.016
X689.197 Y378.794
Y378.782
X689.169 Y375.562
Y375.55
X689.128 Y372.332
Y372.32
X689.074 Y369.104
X689.073 Y369.09
X689.005 Y365.879
Y365.866
X688.923 Y362.657
Y362.645
X688.828 Y359.441
X688.827 Y359.428
X688.718 Y356.227
Y356.214
X688.595 Y353.018
X688.594 Y353.004
X688.457 Y349.813
Y349.8
X688.306 Y346.614
X688.305 Y346.601
X688.14 Y343.421
X688.139 Y343.407
X687.96 Y340.232
X687.959 Y340.218
X687.765 Y337.05
Y337.036
X687.557 Y333.874
X687.556 Y333.86
X687.334 Y330.705
X687.333 Y330.691
X687.096 Y327.543
X687.094 Y327.528
X686.842 Y324.388
X686.841 Y324.374
X686.575 Y321.241
X686.574 Y321.226
X686.293 Y318.102
X686.292 Y318.088
X685.997 Y314.972
X685.995 Y314.956
X685.684 Y311.848
X685.683 Y311.834
X685.358 Y308.736
X685.356 Y308.72
X685.015 Y305.631
X685.013 Y305.616
X684.658 Y302.536
X684.656 Y302.52
X684.285 Y299.45
X684.283 Y299.434
X683.897 Y296.375
X683.895 Y296.36
X683.494 Y293.311
X683.492 Y293.295
X683.076 Y290.256
X683.074 Y290.239
X682.642 Y287.212
X682.64 Y287.196
X682.193 Y284.18
X682.19 Y284.164
X681.728 Y281.159
X681.725 Y281.142
X681.247 Y278.149
X681.245 Y278.133
X680.752 Y275.152
X680.749 Y275.134
X680.24 Y272.166
X680.237 Y272.149
X679.713 Y269.193
X679.71 Y269.176
X679.17 Y266.232
X679.167 Y266.215
X678.612 Y263.285
X678.608 Y263.267
X678.037 Y260.35
X678.034 Y260.332
X677.447 Y257.428
X677.443 Y257.41
X676.841 Y254.52
X676.837 Y254.502
X676.219 Y251.625
X676.215 Y251.606
X675.581 Y248.744
X675.577 Y248.726
X674.928 Y245.878
X674.924 Y245.859
X674.259 Y243.026
X674.254 Y243.009
X673.574 Y240.19
X673.569 Y240.17
X672.872 Y237.365
X672.868 Y237.346
X672.156 Y234.557
X672.151 Y234.538
X671.424 Y231.764
X671.419 Y231.745
X670.676 Y228.987
X670.67 Y228.967
X669.911 Y226.223
X669.906 Y226.203
X669.131 Y223.476
X669.125 Y223.457
X668.335 Y220.745
X668.329 Y220.724
X667.523 Y218.029
X667.517 Y218.009
X666.695 Y215.329
X666.689 Y215.309
X665.852 Y212.646
X665.846 Y212.627
X664.994 Y209.98
X664.987 Y209.959
X664.118 Y207.328
X664.111 Y207.309
X663.228 Y204.696
X663.221 Y204.674
X662.321 Y202.077
X662.314 Y202.057
X661.4 Y199.478
X661.392 Y199.457
X660.462 Y196.894
X660.454 Y196.872
X659.508 Y194.327
X659.5 Y194.306
X658.539 Y191.778
X658.531 Y191.757
X657.555 Y189.247
X657.546 Y189.225
X656.554 Y186.732
X656.546 Y186.711
X655.54 Y184.236
X655.531 Y184.214
X654.509 Y181.757
X654.5 Y181.735
X653.462 Y179.295
X653.452 Y179.273
X652.4 Y176.852
X652.391 Y176.831
X651.324 Y174.428
X651.314 Y174.405
X650.231 Y172.019
X650.221 Y171.997
X649.124 Y169.631
X649.114 Y169.609
X648.002 Y167.26
X647.991 Y167.238
X646.864 Y164.908
X646.853 Y164.885
X645.711 Y162.573
X645.699 Y162.55
X644.542 Y160.258
X644.531 Y160.236
X643.359 Y157.961
X643.347 Y157.939
X642.161 Y155.684
X642.15 Y155.662
X640.95 Y153.425
X640.937 Y153.402
X639.722 Y151.184
X639.709 Y151.16
X638.479 Y148.962
X638.467 Y148.94
X637.223 Y146.76
X637.21 Y146.738
X635.952 Y144.577
X635.938 Y144.553
X634.665 Y142.412
X634.651 Y142.39
X633.364 Y140.267
X633.35 Y140.244
X632.049 Y138.141
X632.035 Y138.118
X630.72 Y136.035
X630.706 Y136.013
X629.378 Y133.948
X629.363 Y133.924
X628.02 Y131.879
X628.004 Y131.856
X626.647 Y129.831
X626.632 Y129.809
X625.262 Y127.803
X625.247 Y127.78
X623.863 Y125.793
X623.846 Y125.77
X622.448 Y123.803
X622.432 Y123.781
X621.021 Y121.834
X621.005 Y121.811
X619.58 Y119.883
X619.563 Y119.86
X618.125 Y117.952
X618.108 Y117.93
X616.657 Y116.042
X616.639 Y116.019
X615.175 Y114.151
X615.157 Y114.129
X613.679 Y112.28
X613.662 Y112.258
X612.172 Y110.429
X612.153 Y110.406
X610.649 Y108.597
X610.631 Y108.576
X609.115 Y106.786
X609.096 Y106.763
X607.567 Y104.994
X607.548 Y104.973
X606.006 Y103.223
X605.987 Y103.201
X604.433 Y101.471
X604.412 Y101.449
X602.845 Y99.74
X602.826 Y99.719
X601.247 Y98.029
X601.227 Y98.008
X599.636 Y96.338
X599.615 Y96.316
X598.011 Y94.665
X597.991 Y94.645
X596.376 Y93.015
X596.355 Y92.993
X594.727 Y91.383
X594.706 Y91.363
X593.067 Y89.772
X593.045 Y89.751
X591.393 Y88.18
X591.372 Y88.16
X589.709 Y86.609
X589.688 Y86.59
X588.013 Y85.059
X587.991 Y85.039
X586.305 Y83.528
X586.283 Y83.507
X584.585 Y82.016
X584.563 Y81.998
X582.855 Y80.526
X582.832 Y80.506
X581.112 Y79.055
X581.089 Y79.036
X579.358 Y77.604
X579.335 Y77.585
X577.593 Y76.173
X577.57 Y76.155
X575.818 Y74.763
X575.794 Y74.744
X574.03 Y73.372
X574.007 Y73.354
X572.233 Y72.001
X572.21 Y71.984
X570.426 Y70.65
X570.401 Y70.632
X568.607 Y69.319
X568.583 Y69.302
X566.778 Y68.008
X566.753 Y67.991
X564.937 Y66.716
X564.914 Y66.7
X563.089 Y65.445
X563.064 Y65.429
X561.229 Y64.194
X561.205 Y64.177
X559.36 Y62.962
X559.335 Y62.945
X557.48 Y61.749
X557.455 Y61.733
X555.59 Y60.556
X555.566 Y60.541
X553.693 Y59.384
X553.667 Y59.368
X551.783 Y58.23
X551.759 Y58.215
X549.867 Y57.096
X549.842 Y57.082
X547.941 Y55.982
X547.916 Y55.967
X546.005 Y54.886
X545.98 Y54.873
X544.061 Y53.811
X544.036 Y53.797
X542.108 Y52.754
X542.083 Y52.741
X540.147 Y51.717
X540.122 Y51.704
X538.177 Y50.699
X538.152 Y50.687
X536.199 Y49.701
X536.173 Y49.688
X534.211 Y48.721
X534.187 Y48.709
X532.218 Y47.76
X532.192 Y47.748
X530.214 Y46.818
X530.19 Y46.806
X528.205 Y45.895
X528.18 Y45.884
X526.187 Y44.991
X526.162 Y44.98
X524.162 Y44.105
X524.137 Y44.094
X522.129 Y43.238
X522.103 Y43.227
X520.087 Y42.39
X520.063 Y42.38
X518.041 Y41.56
X518.016 Y41.55
X515.987 Y40.749
X515.963 Y40.739
X513.927 Y39.955
X513.902 Y39.946
X511.859 Y39.18
X511.834 Y39.171
X509.784 Y38.423
X509.76 Y38.415
X507.704 Y37.685
X507.679 Y37.676
X505.617 Y36.964
X505.593 Y36.956
X503.524 Y36.261
X503.5 Y36.253
X501.426 Y35.576
X501.402 Y35.568
X499.321 Y34.908
X499.297 Y34.901
X497.211 Y34.259
X497.187 Y34.251
X495.095 Y33.626
X495.071 Y33.619
X492.973 Y33.011
X492.95 Y33.005
X490.848 Y32.414
X490.824 Y32.407
X488.716 Y31.834
X488.692 Y31.827
X486.578 Y31.27
X486.555 Y31.264
X484.437 Y30.724
X484.415 Y30.719
X482.293 Y30.195
X482.269 Y30.189
X480.141 Y29.682
X480.118 Y29.677
X477.986 Y29.187
X477.964 Y29.182
X475.828 Y28.708
X475.805 Y28.703
X473.664 Y28.245
X473.642 Y28.24
X471.497 Y27.799
X471.475 Y27.794
X469.326 Y27.369
X469.304 Y27.365
X467.152 Y26.955
X467.13 Y26.951
X464.974 Y26.558
X464.952 Y26.554
X462.792 Y26.176
X462.77 Y26.172
X460.607 Y25.81
X460.586 Y25.807
X458.42 Y25.46
X458.398 Y25.457
X456.228 Y25.126
X456.208 Y25.123
X454.036 Y24.807
X454.014 Y24.804
X451.839 Y24.503
X451.819 Y24.501
X449.641 Y24.215
X449.62 Y24.213
X447.44 Y23.942
X447.42 Y23.94
X445.237 Y23.684
X445.216 Y23.682
X443.031 Y23.442
X443.011 Y23.439
X440.824 Y23.213
X440.804 Y23.211
X438.615 Y23
X438.595 Y22.998
X436.404 Y22.802
X436.385 Y22.8
X434.193 Y22.617
X434.173 Y22.616
X431.979 Y22.448
X431.96 Y22.446
X429.764 Y22.292
X429.745 Y22.291
X427.549 Y22.151
X427.53 Y22.15
X425.332 Y22.023
X425.313 Y22.022
X423.115 Y21.91
X423.096 Y21.909
X420.896 Y21.81
X420.878
X418.678 Y21.725
X418.66 Y21.724
X416.46 Y21.652
X416.442
X414.241 Y21.593
X414.222
X412.021 Y21.548
X412.003
X409.801 Y21.516
X409.784 Y21.515
X407.583 Y21.496
X407.565
X405.364 Y21.49
X405.347
X403.146 Y21.497
X403.129
X400.929 Y21.516
X400.912
X398.713 Y21.548
X398.696
X396.497 Y21.593
X396.48
X394.282 Y21.65
X394.265
X392.068 Y21.719
X392.052
X389.856 Y21.8
X389.839 Y21.801
X387.645 Y21.893
X387.629 Y21.894
X385.436 Y21.999
X385.42
X383.229 Y22.116
X383.213
X381.023 Y22.244
X381.007 Y22.245
X378.819 Y22.385
X378.804 Y22.386
X376.619 Y22.536
X376.603 Y22.537
X374.419 Y22.699
X374.404 Y22.7
X372.223 Y22.874
X372.208 Y22.875
X370.029 Y23.059
X370.013 Y23.06
X367.837 Y23.255
X367.822 Y23.256
X365.648 Y23.462
X365.633 Y23.463
X363.462 Y23.68
X363.448 Y23.681
X361.281 Y23.908
X361.266 Y23.91
X359.101 Y24.147
X359.087 Y24.149
X356.926 Y24.396
X356.911 Y24.398
X354.752 Y24.656
X354.738 Y24.658
X352.584 Y24.926
X352.57 Y24.927
X350.419 Y25.205
X350.404 Y25.207
X348.257 Y25.495
X348.244 Y25.497
X346.1 Y25.794
X346.086 Y25.796
X343.947 Y26.103
X343.933 Y26.105
X341.798 Y26.422
X341.784 Y26.424
X339.653 Y26.75
X339.64 Y26.752
X337.514 Y27.088
X337.5 Y27.09
X335.378 Y27.434
X335.365 Y27.436
X333.248 Y27.79
X333.235 Y27.792
X331.122 Y28.155
X331.108 Y28.157
X329.001 Y28.528
X328.989 Y28.531
X326.886 Y28.911
X326.872 Y28.913
X324.775 Y29.302
X324.762 Y29.304
X322.67 Y29.701
X322.651 Y29.705
X318.484 Y30.525
X318.459 Y30.53
X314.314 Y31.382
X314.289 Y31.387
X310.168 Y32.271
X310.143 Y32.277
X306.046 Y33.192
X306.021 Y33.197
X301.95 Y34.143
X301.926 Y34.148
X297.882 Y35.123
X297.858 Y35.129
X293.841 Y36.132
X293.817 Y36.138
X289.828 Y37.169
X289.805 Y37.176
X285.845 Y38.234
X285.821 Y38.24
X281.891 Y39.324
X281.873 Y39.329
X279.92 Y39.881
X279.909 Y39.884
X277.964 Y40.442
X277.952 Y40.445
X276.014 Y41.01
X276.002 Y41.013
X274.073 Y41.583
X274.063 Y41.587
X272.141 Y42.163
X272.129 Y42.166
X270.216 Y42.749
X270.204 Y42.752
X268.3 Y43.34
X268.289 Y43.344
X266.392 Y43.937
X266.38 Y43.941
X264.492 Y44.541
X264.481 Y44.544
X262.602 Y45.149
X262.59 Y45.153
X260.72 Y45.764
X260.709 Y45.767
X258.847 Y46.383
X258.835 Y46.387
X256.983 Y47.008
X256.972 Y47.012
X255.128 Y47.638
X255.116 Y47.642
X253.282 Y48.274
X253.271 Y48.278
X251.445 Y48.915
X251.433 Y48.919
X249.617 Y49.561
X249.606 Y49.565
X247.8 Y50.211
X247.789 Y50.215
X245.991 Y50.867
X245.979 Y50.871
X244.192 Y51.528
X244.18 Y51.532
X242.402 Y52.193
X242.391 Y52.197
X240.622 Y52.863
X240.61 Y52.868
X238.852 Y53.538
X238.841 Y53.542
X237.092 Y54.217
X237.08 Y54.222
X235.341 Y54.901
X235.33 Y54.906
X233.601 Y55.59
X233.588 Y55.595
X231.87 Y56.283
X231.859 Y56.287
X230.15 Y56.98
X230.138 Y56.985
X228.44 Y57.681
X228.428 Y57.686
X226.74 Y58.387
X226.728 Y58.392
X225.051 Y59.097
X225.04 Y59.102
X223.372 Y59.811
X223.359 Y59.817
X221.703 Y60.53
X221.692 Y60.535
X220.046 Y61.252
X220.034 Y61.257
X218.399 Y61.978
X218.387 Y61.984
X216.762 Y62.709
X216.749 Y62.714
X215.135 Y63.443
X215.123 Y63.449
X213.52 Y64.181
X213.508 Y64.187
X211.916 Y64.923
X211.903 Y64.929
X210.322 Y65.669
X210.31 Y65.675
X208.74 Y66.419
X208.728 Y66.424
X207.168 Y67.172
X207.154 Y67.178
X205.607 Y67.929
X205.595 Y67.935
X204.058 Y68.69
X204.045 Y68.696
X202.519 Y69.454
X202.506 Y69.461
X200.992 Y70.222
X200.979 Y70.228
X199.476 Y70.993
X199.463 Y71
X197.971 Y71.768
X197.958 Y71.775
X196.478 Y72.547
X196.464 Y72.554
X194.996 Y73.33
X194.984 Y73.336
X193.526 Y74.115
X193.511 Y74.122
X192.066 Y74.904
X192.053 Y74.911
X190.619 Y75.696
X190.606 Y75.704
X189.183 Y76.492
X189.168 Y76.5
X187.758 Y77.292
X187.745 Y77.299
X186.346 Y78.094
X186.332 Y78.102
X184.945 Y78.9
X184.931 Y78.908
X183.555 Y79.709
X183.54 Y79.718
X182.177 Y80.523
X182.164 Y80.531
X180.812 Y81.338
X180.797 Y81.347
X179.457 Y82.158
X179.442 Y82.167
X178.115 Y82.981
X178.101 Y82.989
X176.785 Y83.806
X176.77 Y83.815
X175.466 Y84.635
X175.451 Y84.645
X174.159 Y85.468
X174.144 Y85.477
X172.864 Y86.303
X172.848 Y86.314
X171.581 Y87.143
X171.567 Y87.152
X170.311 Y87.985
X170.295 Y87.995
X169.052 Y88.831
X169.037 Y88.84
X167.805 Y89.679
X167.789 Y89.69
X166.57 Y90.531
X166.553 Y90.543
X165.347 Y91.387
X165.333 Y91.397
X164.138 Y92.245
X164.121 Y92.257
X162.939 Y93.107
X162.923 Y93.119
X161.753 Y93.972
X161.737 Y93.984
X160.579 Y94.84
X160.563 Y94.852
X159.417 Y95.711
X159.4 Y95.724
X158.267 Y96.587
X158.25 Y96.6
X157.13 Y97.466
X157.114 Y97.478
X156.005 Y98.346
X155.989 Y98.359
X154.893 Y99.23
X154.875 Y99.245
X153.791 Y100.12
X153.774 Y100.133
X152.703 Y101.01
X152.685 Y101.025
X151.626 Y101.906
X151.61 Y101.92
X150.564 Y102.803
X150.546 Y102.818
X149.512 Y103.705
X149.496 Y103.719
X148.474 Y104.608
X148.455 Y104.624
X147.446 Y105.517
X147.428 Y105.534
X146.432 Y106.43
X146.416 Y106.444
X145.431 Y107.343
X145.411 Y107.361
X144.44 Y108.263
X144.423 Y108.279
X143.464 Y109.184
X143.447 Y109.201
X142.5 Y110.109
X142.482 Y110.125
X141.547 Y111.036
X141.528 Y111.056
X140.607 Y111.97
X140.589 Y111.987
X139.679 Y112.905
X139.66 Y112.925
X138.764 Y113.846
X138.749 Y113.862
X137.864 Y114.785
X137.844 Y114.805
X136.972 Y115.732
X136.952 Y115.754
X136.093 Y116.685
X136.077 Y116.703
X135.23 Y117.636
X135.21 Y117.657
X134.376 Y118.594
X134.359 Y118.614
X133.537 Y119.554
X133.519 Y119.574
X132.709 Y120.517
X132.69 Y120.54
X131.893 Y121.487
X131.876 Y121.507
X131.091 Y122.456
X131.071 Y122.481
X130.299 Y123.435
X130.281 Y123.457
X129.522 Y124.413
X129.506 Y124.434
X128.758 Y125.394
X128.739 Y125.418
X128.004 Y126.381
X127.985 Y126.406
X127.263 Y127.373
X127.246 Y127.396
X126.536 Y128.366
X126.519 Y128.389
X125.821 Y129.362
X125.802 Y129.39
X125.117 Y130.368
X125.101 Y130.391
X124.428 Y131.371
X124.411 Y131.396
X123.75 Y132.38
X123.731 Y132.408
X123.083 Y133.396
X123.067 Y133.421
X122.431 Y134.412
X122.413 Y134.44
X121.79 Y135.435
X121.776 Y135.459
X121.164 Y136.457
X121.146 Y136.486
X120.547 Y137.488
X120.531 Y137.515
X119.944 Y138.521
X119.927 Y138.55
X119.353 Y139.559
X119.337 Y139.588
X118.775 Y140.602
X118.761 Y140.627
X118.21 Y141.644
X118.194 Y141.673
X117.656 Y142.693
X117.64 Y142.725
X117.115 Y143.75
X117.102 Y143.776
X116.588 Y144.804
X116.573 Y144.834
X116.071 Y145.866
X116.056 Y145.898
X115.567 Y146.935
X115.554 Y146.962
X115.076 Y148.002
X115.062 Y148.034
X114.597 Y149.078
X114.583 Y149.109
X114.13 Y150.157
X114.119 Y150.184
X113.677 Y151.235
X113.663 Y151.269
X113.234 Y152.325
X113.221 Y152.357
X112.804 Y153.418
X112.793 Y153.445
X112.387 Y154.509
X112.375 Y154.543
X111.982 Y155.611
X111.971 Y155.64
X111.589 Y156.712
X111.578 Y156.744
X111.208 Y157.821
X111.197 Y157.853
X110.839 Y158.934
X110.829 Y158.966
X110.483 Y160.051
X110.474 Y160.08
X110.139 Y161.169
X110.129 Y161.202
X109.806 Y162.296
X109.797 Y162.327
X109.486 Y163.425
X109.477 Y163.457
X109.178 Y164.559
X109.17 Y164.59
X108.882 Y165.697
X108.873 Y165.729
X108.597 Y166.84
X108.59 Y166.87
X108.325 Y167.986
X108.318 Y168.018
X108.065 Y169.138
X108.058 Y169.17
X107.817 Y170.294
X107.81 Y170.324
X107.58 Y171.453
X107.574 Y171.483
X107.355 Y172.617
X107.349 Y172.649
X107.142 Y173.787
X107.137 Y173.817
X106.941 Y174.96
X106.936 Y174.992
X106.752 Y176.14
X106.747 Y176.169
X106.574 Y177.321
X106.57 Y177.351
X106.408 Y178.508
X106.404 Y178.537
X106.253 Y179.699
X106.249 Y179.731
X106.11 Y180.897
X106.107 Y180.924
X105.978 Y182.094
X105.975 Y182.126
X105.858 Y183.303
X105.855 Y183.332
X105.749 Y184.512
X105.747 Y184.54
X105.652 Y185.726
X105.649 Y185.755
X105.565 Y186.946
X105.563 Y186.977
X105.491 Y188.173
X105.49 Y188.198
X105.428 Y189.398
X105.427 Y189.424
X105.375 Y190.63
X105.374 Y190.66
X105.334 Y191.87
X105.333 Y191.897
X105.304 Y193.113
X105.303 Y193.138
X105.284 Y194.359
Y194.389
X105.277 Y195.615
Y195.637
X105.279 Y196.867
Y196.896
X105.293 Y198.132
X105.294 Y198.156
X105.318 Y199.398
Y199.424
X105.353 Y200.67
X105.354 Y200.696
X105.4 Y201.948
X105.401 Y201.972
X105.457 Y203.228
X105.458 Y203.251
X105.524 Y204.513
X105.526 Y204.538
X105.603 Y205.806
X105.604 Y205.829
X105.691 Y207.101
X105.693 Y207.125
X105.791 Y208.403
X105.793 Y208.425
X105.901 Y209.709
X105.903 Y209.732
X106.021 Y211.02
X106.023 Y211.044
X106.152 Y212.338
X106.154 Y212.357
X106.292 Y213.657
X106.294 Y213.681
X106.443 Y214.985
X106.446 Y215.005
X106.605 Y216.315
X106.607 Y216.336
X106.776 Y217.652
X106.779 Y217.673
X106.958 Y218.994
X106.961 Y219.014
X107.15 Y220.341
X107.153 Y220.361
X107.352 Y221.693
X107.355 Y221.713
X107.564 Y223.05
X107.567 Y223.07
X107.786 Y224.413
X107.789 Y224.432
X108.018 Y225.781
X108.021 Y225.798
X108.259 Y227.152
X108.263 Y227.171
X108.511 Y228.531
X108.514 Y228.55
X108.772 Y229.915
X108.776 Y229.934
X109.044 Y231.305
X109.047 Y231.321
X109.324 Y232.697
X109.327 Y232.713
X109.613 Y234.095
X109.617 Y234.115
X109.914 Y235.503
X109.917 Y235.517
X110.222 Y236.91
X110.226 Y236.927
X110.541 Y238.326
X110.545 Y238.344
X110.87 Y239.748
X110.874 Y239.762
X111.208 Y241.173
X111.211 Y241.187
X111.554 Y242.603
X111.558 Y242.62
X111.911 Y244.041
X111.915 Y244.054
X112.276 Y245.481
X112.28 Y245.497
X112.651 Y246.93
X112.655 Y246.944
X113.035 Y248.382
X113.038 Y248.396
X113.427 Y249.84
X113.432 Y249.856
X113.831 Y251.306
X113.834 Y251.318
X114.241 Y252.773
X114.245 Y252.787
X114.661 Y254.248
X114.664 Y254.261
X115.089 Y255.728
X115.093 Y255.741
X115.527 Y257.213
X115.531 Y257.226
X115.974 Y258.704
X115.978 Y258.717
X116.43 Y260.201
X116.434 Y260.212
X116.894 Y261.702
X116.898 Y261.714
X117.367 Y263.209
X117.37 Y263.221
X117.848 Y264.722
X117.852 Y264.733
X118.338 Y266.239
X118.342 Y266.251
X118.837 Y267.763
X118.841 Y267.776
X119.345 Y269.293
X119.348 Y269.303
X119.86 Y270.826
X119.864 Y270.836
X120.384 Y272.365
X120.388 Y272.376
X120.917 Y273.911
X120.92 Y273.922
X121.457 Y275.462
X121.461 Y275.474
X122.007 Y277.019
X122.013 Y277.033
X123.129 Y280.141
X123.135 Y280.16
X124.283 Y283.29
X124.291 Y283.31
X125.473 Y286.462
X125.48 Y286.48
X126.693 Y289.655
X126.7 Y289.673
X127.945 Y292.869
X127.951 Y292.886
X129.227 Y296.104
X129.234 Y296.121
X130.542 Y299.36
X130.549 Y299.376
X131.887 Y302.637
X131.893 Y302.652
X133.261 Y305.934
X133.268 Y305.95
X134.667 Y309.253
X134.673 Y309.267
X136.101 Y312.591
X136.107 Y312.606
X137.565 Y315.95
X137.571 Y315.964
X139.058 Y319.329
X139.064 Y319.342
X140.579 Y322.727
X140.585 Y322.74
X142.129 Y326.145
X142.134 Y326.157
X143.706 Y329.582
X143.712 Y329.595
X145.312 Y333.039
X145.318 Y333.051
X146.945 Y336.514
X146.95 Y336.525
X148.604 Y340.007
X148.61 Y340.019
X150.291 Y343.52
X150.296 Y343.53
X152.003 Y347.049
X152.008 Y347.061
X153.742 Y350.598
X153.747 Y350.607
X155.506 Y354.162
X155.511 Y354.172
X157.295 Y357.744
X157.3 Y357.755
X159.11 Y361.344
X159.115 Y361.353
X160.949 Y364.959
X160.954 Y364.969
X162.813 Y368.591
X162.818 Y368.6
X164.701 Y372.237
X164.705 Y372.246
X166.612 Y375.9
X166.617 Y375.909
X168.547 Y379.578
X168.552 Y379.586
X170.505 Y383.269
X170.509 Y383.278
X172.485 Y386.976
X172.49 Y386.984
X174.489 Y390.696
X174.493 Y390.704
X176.513 Y394.43
X176.517 Y394.438
X178.56 Y398.177
X178.565 Y398.185
X180.629 Y401.936
X180.633 Y401.944
X182.718 Y405.708
X182.722 Y405.715
X184.828 Y409.491
X184.832 Y409.499
X186.959 Y413.287
X186.963 Y413.294
X189.11 Y417.092
X189.114 Y417.099
X191.28 Y420.908
X191.285 Y420.916
X193.472 Y424.735
X193.475 Y424.741
X195.68 Y428.57
X195.685 Y428.578
X197.91 Y432.416
X197.913 Y432.422
X200.156 Y436.269
X200.161 Y436.277
X202.423 Y440.131
X202.426 Y440.136
X204.705 Y443.999
X204.71 Y444.007
X207.008 Y447.876
X207.011 Y447.882
X209.325 Y451.758
X209.329 Y451.765
X211.661 Y455.648
X211.665 Y455.655
X214.014 Y459.542
X214.018 Y459.548
X216.383 Y463.441
X216.387 Y463.447
X218.768 Y467.345
X218.772 Y467.352
X221.169 Y471.253
X221.173 Y471.259
X223.586 Y475.164
X223.59 Y475.17
X226.017 Y479.077
X226.021 Y479.084
X228.464 Y482.994
X228.468 Y483
X230.926 Y486.912
X230.93 Y486.918
X233.401 Y490.83
X233.405 Y490.837
X235.891 Y494.75
X235.895 Y494.756
X238.394 Y498.669
X238.398 Y498.675
X240.911 Y502.588
X240.915 Y502.595
X243.441 Y506.506
X243.445 Y506.512
X245.984 Y510.421
X245.988 Y510.428
X248.54 Y514.335
X248.544 Y514.34
X251.107 Y518.244
X251.112 Y518.251
X253.688 Y522.151
X253.692 Y522.158
X256.279 Y526.053
X256.283 Y526.059
X258.882 Y529.95
X258.887 Y529.957
X261.497 Y533.842
X261.501 Y533.848
X264.121 Y537.727
X264.126 Y537.734
X266.757 Y541.606
X266.762 Y541.613
X269.404 Y545.477
X269.408 Y545.484
X272.059 Y549.34
X272.064 Y549.347
X274.725 Y553.194
X274.73 Y553.201
X277.4 Y557.038
X277.404 Y557.044
X280.083 Y560.872
X280.088 Y560.88
X282.776 Y564.696
X282.781 Y564.703
X285.478 Y568.508
X285.484 Y568.515
X288.189 Y572.307
X288.194 Y572.314
X290.907 Y576.094
X290.912 Y576.102
X293.633 Y579.868
X293.639 Y579.875
X296.367 Y583.627
X296.372 Y583.634
X299.107 Y587.371
X299.113 Y587.379
X301.855 Y591.1
X301.861 Y591.108
X304.61 Y594.812
X304.616 Y594.82
X307.371 Y598.507
X307.377 Y598.515
X310.138 Y602.184
X310.144 Y602.192
X312.911 Y605.843
X312.918 Y605.852
X315.691 Y609.483
X315.697 Y609.491
X318.475 Y613.102
X318.482 Y613.111
X321.265 Y616.702
X321.272 Y616.71
X324.059 Y620.279
X324.066 Y620.289
X326.858 Y623.835
X326.865 Y623.844
X329.662 Y627.368
X329.669 Y627.377
X332.469 Y630.877
X332.477 Y630.887
X335.282 Y634.363
X335.29 Y634.372
X338.097 Y637.822
X338.105 Y637.832
X340.916 Y641.257
X340.924 Y641.267
X343.738 Y644.665
X343.747 Y644.676
X346.564 Y648.046
X346.573 Y648.056
X349.392 Y651.399
X349.401 Y651.41
X352.222 Y654.723
X352.231 Y654.734
X355.055 Y658.018
X355.065 Y658.029
X357.89 Y661.282
X357.9 Y661.293
X360.727 Y664.516
X360.737 Y664.528
X363.565 Y667.718
X363.575 Y667.73
X366.404 Y670.888
X366.415 Y670.9
X369.244 Y674.024
X369.256 Y674.037
X372.087 Y677.127
X372.098 Y677.139
X374.928 Y680.194
X374.941 Y680.207
X377.772 Y683.226
X377.784 Y683.239
X380.615 Y686.222
X380.628 Y686.236
X383.458 Y689.181
X383.471 Y689.194
X386.301 Y692.102
X386.315 Y692.117
X389.144 Y694.985
X389.158 Y694.999
X391.986 Y697.828
X391.996 Y697.838
X393.41 Y699.238
X393.418 Y699.246
X394.831 Y700.635
X394.839 Y700.643
X396.252 Y702.022
X396.259 Y702.029
X397.671 Y703.398
X397.679 Y703.406
X399.091 Y704.764
X399.099 Y704.772
X400.511 Y706.12
X400.52 Y706.128
X401.931 Y707.465
X401.939 Y707.472
X403.349 Y708.798
X403.358 Y708.807
X404.768 Y710.122
X404.777 Y710.13
X406.187 Y711.435
X406.195 Y711.442
X407.604 Y712.736
X407.613 Y712.744
X409.021 Y714.026
X409.03 Y714.034
X410.437 Y715.305
X410.448 Y715.315
X411.855 Y716.574
X411.864 Y716.582
X413.271 Y717.83
X413.28 Y717.838
X414.685 Y719.075
X414.695 Y719.084
X416.1 Y720.309
X416.111 Y720.318
X417.515 Y721.531
X417.524 Y721.539
X418.927 Y722.741
X418.939 Y722.752
X420.342 Y723.941
X420.352 Y723.949
X421.753 Y725.126
X421.764 Y725.135
X423.165 Y726.301
X423.177 Y726.311
X424.577 Y727.464
X424.587 Y727.472
X425.985 Y728.613
X425.998 Y728.624
X427.396 Y729.752
X427.408 Y729.761
X428.805 Y730.877
X428.817 Y730.887
X430.213 Y731.99
X430.226 Y732
X431.621 Y733.09
X431.633 Y733.099
X433.027 Y734.177
X433.04 Y734.187
X434.433 Y735.252
X434.446 Y735.262
X435.838 Y736.314
X435.852 Y736.325
X437.242 Y737.363
X437.255 Y737.373
X438.645 Y738.399
X438.66 Y738.409
X440.048 Y739.421
X440.063 Y739.432
X441.451 Y740.431
X441.465 Y740.441
X442.851 Y741.426
X442.865 Y741.436
X444.249 Y742.408
X444.266 Y742.42
X445.65 Y743.378
X445.665 Y743.388
X447.047 Y744.332
X447.062 Y744.343
X448.443 Y745.273
X448.46 Y745.285
X449.839 Y746.201
X449.856 Y746.212
X451.235 Y747.115
X451.252 Y747.126
X452.629 Y748.014
X452.646 Y748.025
X454.021 Y748.899
X454.038 Y748.91
X455.412 Y749.77
X455.432 Y749.782
X456.805 Y750.627
X456.823 Y750.638
X458.194 Y751.468
X458.213 Y751.479
X459.583 Y752.295
X459.602 Y752.307
X460.97 Y753.108
X460.989 Y753.119
X462.356 Y753.906
X462.378 Y753.918
X463.743 Y754.689
X463.761 Y754.7
X465.124 Y755.457
X465.147 Y755.469
X466.509 Y756.21
X466.531 Y756.222
X467.892 Y756.948
X467.913 Y756.959
X469.27 Y757.67
X469.294 Y757.682
X470.651 Y758.377
X470.674 Y758.389
X472.03 Y759.069
X472.052 Y759.079
X473.405 Y759.744
X473.431 Y759.757
X474.783 Y760.405
X474.807 Y760.417
X476.158 Y761.05
X476.182 Y761.061
X477.53 Y761.678
X477.557 Y761.69
X478.904 Y762.291
X478.929 Y762.302
X480.274 Y762.887
X480.301 Y762.898
X481.644 Y763.467
X481.67 Y763.478
X483.011 Y764.031
X483.04 Y764.043
X484.379 Y764.579
X484.407 Y764.59
X485.745 Y765.11
X485.772 Y765.121
X487.107 Y765.625
X487.14 Y765.637
X488.474 Y766.123
X488.501 Y766.132
X489.833 Y766.603
X489.865 Y766.615
X491.194 Y767.068
X491.224 Y767.078
X492.552 Y767.515
X492.586 Y767.526
X493.912 Y767.945
X493.942 Y767.954
X495.265 Y768.357
X495.3 Y768.367
X496.622 Y768.752
X496.655 Y768.762
X497.974 Y769.13
X498.008 Y769.139
X499.326 Y769.49
X499.359 Y769.499
X500.674 Y769.833
X500.711 Y769.842
X502.024 Y770.158
X502.059 Y770.166
X503.37 Y770.465
X503.407 Y770.473
X504.716 Y770.754
X504.754 Y770.762
X506.061 Y771.025
X506.099 Y771.032
X507.403 Y771.277
X507.44 Y771.284
X508.742 Y771.512
X508.781 Y771.519
X510.081 Y771.729
X510.122 Y771.735
X511.42 Y771.926
X511.457 Y771.931
X512.753 Y772.105
Z-12 F333.3
X512.795 Y772.111 F1000
X514.088 Y772.266
X514.128 Y772.27
X515.419 Y772.407
X515.46 Y772.411
X516.748 Y772.53
X516.791 Y772.534
X518.077 Y772.634
X518.121 Y772.637
X519.405 Y772.718
X519.447 Y772.72
X520.728 Y772.783
X520.77 Y772.785
X522.049 Y772.83
X522.095 Y772.831
X523.371 Y772.856
X523.414 Y772.857
X524.687 Y772.864
X524.731
X526.003 Y772.852
X526.048 Y772.851
X527.316 Y772.82
X527.361 Y772.819
X528.627 Y772.769
X528.673 Y772.767
X529.937 Y772.698
X529.982 Y772.695
X531.243 Y772.607
X531.291 Y772.603
X532.549 Y772.495
X532.594 Y772.491
X533.85 Y772.364
X533.895 Y772.359
X535.148 Y772.213
X535.196 Y772.207
X536.446 Y772.041
X536.491 Y772.035
X537.739 Y771.85
X537.786 Y771.842
X539.031 Y771.637
X539.079 Y771.629
X540.321 Y771.404
X540.366 Y771.395
X541.605 Y771.151
X541.651 Y771.142
X542.888 Y770.878
X542.935 Y770.868
X544.169 Y770.584
X544.213 Y770.573
X545.444 Y770.27
X545.492 Y770.258
X546.72 Y769.934
X546.766 Y769.921
X547.991 Y769.577
X548.034 Y769.565
X549.256 Y769.202
X549.303 Y769.188
X550.523 Y768.804
X550.568 Y768.789
X551.784 Y768.385
X551.829 Y768.37
X553.043 Y767.945
X553.085 Y767.929
X554.295 Y767.485
