(Nierentisch)
(T1 D=6 CR=0 - ZMIN=-35 - Schaftfrser)
G90 G94
G17
G21
G28 G91 Z0
G90

(2D-Kontur1)
T1
S5000 M3
G17 G90 G94
G54
M8
G0 X45.21 Y243.916
Z15
G0 Z5
G1 Z1 F333.3
Z-3
X45.474 Y245.297 F1000
X45.479 Y245.325
X45.758 Y246.714
X45.763 Y246.742
X46.057 Y248.139
X46.063 Y248.166
X46.372 Y249.571
X46.378 Y249.597
X46.703 Y251.011
X46.709 Y251.036
X47.048 Y252.459
X47.055 Y252.486
X47.41 Y253.916
X47.416 Y253.94
X47.786 Y255.379
X47.792 Y255.404
X48.177 Y256.851
X48.184 Y256.875
X48.584 Y258.33
X48.591 Y258.354
X49.007 Y259.817
X49.013 Y259.839
X49.444 Y261.311
X49.451 Y261.334
X49.896 Y262.814
X49.903 Y262.837
X50.364 Y264.324
X50.371 Y264.345
X50.847 Y265.841
X50.854 Y265.863
X51.345 Y267.367
X51.352 Y267.388
X51.858 Y268.901
X51.865 Y268.922
X52.386 Y270.442
X52.393 Y270.462
X52.929 Y271.99
X52.936 Y272.01
X53.488 Y273.546
X53.495 Y273.566
X54.061 Y275.11
X54.068 Y275.128
X54.649 Y276.681
X54.656 Y276.701
X55.252 Y278.261
X55.259 Y278.279
X55.87 Y279.847
X55.877 Y279.866
X56.503 Y281.441
X56.51 Y281.458
X57.15 Y283.042
X57.158 Y283.06
X57.813 Y284.651
X57.82 Y284.667
X58.49 Y286.267
X58.498 Y286.284
X59.183 Y287.891
X59.19 Y287.908
X59.89 Y289.522
X59.896 Y289.538
X60.611 Y291.161
X60.618 Y291.177
X61.347 Y292.807
X61.354 Y292.823
X62.098 Y294.46
X62.105 Y294.474
X62.863 Y296.12
X62.871 Y296.137
X63.644 Y297.789
X63.65 Y297.802
X64.438 Y299.463
X64.445 Y299.478
X65.247 Y301.146
X65.254 Y301.161
X66.071 Y302.836
X66.078 Y302.85
X66.909 Y304.532
X66.916 Y304.545
X67.761 Y306.235
X67.768 Y306.249
X68.628 Y307.947
X68.635 Y307.961
X69.509 Y309.665
X69.516 Y309.677
X70.404 Y311.389
X70.411 Y311.402
X71.314 Y313.121
X71.32 Y313.133
X72.238 Y314.86
X72.245 Y314.873
X73.176 Y316.606
X73.182 Y316.618
X74.128 Y318.359
X74.135 Y318.371
X75.095 Y320.118
X75.101 Y320.13
X76.074 Y321.885
X76.081 Y321.897
X77.069 Y323.658
X77.075 Y323.668
X78.077 Y325.437
X78.084 Y325.449
X79.1 Y327.224
X79.106 Y327.235
X80.136 Y329.017
X80.142 Y329.028
X81.186 Y330.817
X81.192 Y330.827
X82.249 Y332.623
X82.256 Y332.634
X83.327 Y334.436
X83.333 Y334.446
X84.418 Y336.255
X84.424 Y336.266
X85.523 Y338.081
X85.529 Y338.09
X86.642 Y339.912
X86.647 Y339.922
X87.773 Y341.751
X87.78 Y341.761
X88.919 Y343.596
X88.925 Y343.605
X90.078 Y345.446
X90.084 Y345.455
X91.251 Y347.303
X91.257 Y347.313
X92.437 Y349.167
X92.442 Y349.176
X93.636 Y351.036
X93.642 Y351.045
X94.848 Y352.911
X94.854 Y352.919
X96.074 Y354.792
X96.08 Y354.802
X97.313 Y356.68
X97.318 Y356.688
X98.565 Y358.573
X98.57 Y358.581
X99.829 Y360.471
X99.835 Y360.48
X101.108 Y362.376
X101.113 Y362.383
X102.398 Y364.285
X102.404 Y364.294
X103.703 Y366.202
X103.708 Y366.209
X105.019 Y368.123
X105.025 Y368.132
X106.349 Y370.051
X106.354 Y370.058
X107.691 Y371.983
X107.697 Y371.992
X109.047 Y373.922
X109.051 Y373.928
X110.413 Y375.864
X110.419 Y375.872
X111.794 Y377.813
X111.799 Y377.82
X113.186 Y379.767
X113.192 Y379.775
X114.592 Y381.726
X114.597 Y381.733
X116.01 Y383.69
X116.014 Y383.696
X117.438 Y385.658
X117.444 Y385.666
X118.881 Y387.633
X118.885 Y387.639
X120.334 Y389.611
X120.34 Y389.619
X121.802 Y391.596
X121.806 Y391.602
X123.279 Y393.583
X123.285 Y393.591
X124.771 Y395.578
X124.775 Y395.584
X126.272 Y397.575
X126.278 Y397.582
X127.787 Y399.578
X127.792 Y399.584
X129.313 Y401.584
X129.318 Y401.59
X130.851 Y403.595
X130.855 Y403.601
X132.4 Y405.611
X132.405 Y405.617
X133.961 Y407.631
X133.966 Y407.638
X135.534 Y409.656
X135.539 Y409.661
X137.118 Y411.683
X137.123 Y411.69
X138.714 Y413.716
X138.718 Y413.721
X140.32 Y415.751
X140.325 Y415.757
X141.939 Y417.792
X141.943 Y417.798
X143.568 Y419.836
X143.572 Y419.841
X145.207 Y421.883
X145.213 Y421.89
X146.86 Y423.935
X146.863 Y423.94
X148.521 Y425.99
X148.527 Y425.996
X150.196 Y428.048
X150.199 Y428.053
X151.879 Y430.11
X151.885 Y430.116
X153.576 Y432.175
X153.579 Y432.18
X155.28 Y434.242
X155.285 Y434.248
X156.997 Y436.315
X157.001 Y436.32
X158.723 Y438.389
X158.728 Y438.395
X160.461 Y440.467
X160.464 Y440.471
X162.207 Y442.547
X162.212 Y442.553
X163.967 Y444.631
X163.971 Y444.636
X165.735 Y446.717
X165.739 Y446.722
X167.513 Y448.805
X167.517 Y448.809
X169.301 Y450.896
X169.306 Y450.902
X171.1 Y452.99
X171.104 Y452.995
X172.908 Y455.086
X172.911 Y455.09
X174.726 Y457.184
X174.73 Y457.189
X176.554 Y459.285
X176.56 Y459.293
X180.236 Y463.49
X180.244 Y463.499
X183.958 Y467.705
X183.967 Y467.714
X187.719 Y471.926
X187.727 Y471.935
X191.515 Y476.154
X191.523 Y476.163
X195.348 Y480.387
X195.356 Y480.395
X199.215 Y484.624
X199.223 Y484.633
X203.117 Y488.865
X203.126 Y488.874
X207.055 Y493.109
X207.062 Y493.117
X211.023 Y497.355
X211.032 Y497.365
X215.026 Y501.603
X215.033 Y501.611
X219.058 Y505.85
X219.067 Y505.858
X223.123 Y510.096
X223.131 Y510.105
X227.218 Y514.342
X227.226 Y514.35
X231.342 Y518.584
X231.35 Y518.592
X235.495 Y522.823
X235.503 Y522.831
X239.675 Y527.058
X239.683 Y527.067
X243.883 Y531.289
X243.891 Y531.297
X248.116 Y535.512
X248.125 Y535.52
X252.377 Y539.728
X252.385 Y539.736
X256.661 Y543.936
X256.669 Y543.944
X260.968 Y548.135
X260.976 Y548.143
X265.299 Y552.324
X265.308 Y552.332
X269.653 Y556.502
X269.661 Y556.511
X274.027 Y560.668
X274.036 Y560.676
X278.423 Y564.82
X278.432 Y564.828
X282.839 Y568.957
X282.847 Y568.965
X287.272 Y573.079
X287.281 Y573.087
X291.724 Y577.185
X291.733 Y577.194
X296.193 Y581.273
X296.202 Y581.281
X300.678 Y585.342
X300.688 Y585.35
X305.179 Y589.39
X305.188 Y589.398
X309.693 Y593.418
X309.702 Y593.427
X314.221 Y597.424
X314.231 Y597.433
X318.763 Y601.406
X318.773 Y601.414
X323.316 Y605.363
X323.326 Y605.372
X327.879 Y609.294
X327.889 Y609.302
X332.452 Y613.198
X332.463 Y613.208
X337.035 Y617.074
X337.045 Y617.083
X341.625 Y620.92
X341.636 Y620.929
X346.222 Y624.735
X346.233 Y624.744
X350.825 Y628.517
X350.837 Y628.526
X355.434 Y632.266
X355.445 Y632.276
X360.046 Y635.981
X360.058 Y635.99
X364.661 Y639.658
X364.674 Y639.668
X369.28 Y643.298
X369.292 Y643.308
X373.898 Y646.9
X373.908 Y646.908
X376.211 Y648.688
X376.217 Y648.692
X378.52 Y650.463
X378.528 Y650.469
X380.831 Y652.228
X380.836 Y652.232
X383.138 Y653.982
X383.146 Y653.988
X385.448 Y655.726
X385.455 Y655.731
X387.756 Y657.458
X387.762 Y657.463
X390.062 Y659.18
X390.07 Y659.186
X392.369 Y660.891
X392.377 Y660.896
X394.675 Y662.589
X394.682 Y662.594
X396.979 Y664.276
X396.987 Y664.283
X399.283 Y665.952
X399.29 Y665.956
X401.584 Y667.614
X401.592 Y667.62
X403.885 Y669.266
X403.893 Y669.272
X406.184 Y670.905
X406.192 Y670.911
X408.481 Y672.531
X408.488 Y672.536
X410.776 Y674.144
X410.784 Y674.15
X413.069 Y675.745
X413.078 Y675.751
X415.361 Y677.332
X415.369 Y677.338
X417.649 Y678.906
X417.658 Y678.912
X419.936 Y680.467
X419.945 Y680.473
X422.221 Y682.014
X422.23 Y682.02
X424.502 Y683.547
X424.511 Y683.553
X426.781 Y685.066
X426.79 Y685.072
X429.057 Y686.571
X429.067 Y686.578
X431.33 Y688.062
X431.339 Y688.068
X433.599 Y689.538
X433.61 Y689.545
X435.867 Y690.999
X435.876 Y691.005
X438.129 Y692.445
X438.14 Y692.451
X440.39 Y693.876
X440.4 Y693.883
X442.645 Y695.292
X442.657 Y695.299
X444.899 Y696.692
X444.909 Y696.699
X447.147 Y698.077
X447.158 Y698.083
X449.391 Y699.445
X449.402 Y699.452
X451.631 Y700.798
X451.643 Y700.805
X453.867 Y702.134
X453.879 Y702.141
X456.099 Y703.454
X456.111 Y703.461
X458.326 Y704.757
X458.338 Y704.765
X460.548 Y706.044
X460.561 Y706.051
X462.767 Y707.313
X462.78 Y707.32
X464.98 Y708.564
X464.993 Y708.571
X467.187 Y709.798
X467.2 Y709.806
X469.389 Y711.016
X469.404 Y711.024
X471.588 Y712.215
X471.601 Y712.222
X473.779 Y713.396
X473.793 Y713.404
X475.965 Y714.559
X475.98 Y714.566
X478.146 Y715.703
X478.161 Y715.711
X480.321 Y716.829
X480.336 Y716.837
X482.49 Y717.937
X482.506 Y717.945
X484.653 Y719.025
X484.669 Y719.033
X486.81 Y720.094
X486.826 Y720.102
X488.961 Y721.144
X488.977 Y721.152
X491.104 Y722.175
X491.123 Y722.184
X493.244 Y723.186
X493.26 Y723.193
X495.374 Y724.176
X495.391 Y724.184
X497.497 Y725.147
X497.517 Y725.156
X499.616 Y726.098
X499.634 Y726.106
X501.726 Y727.028
X501.744 Y727.036
X503.828 Y727.938
X503.849 Y727.947
X505.926 Y728.828
X505.947 Y728.837
X508.016 Y729.696
X508.035 Y729.704
X510.096 Y730.543
X510.118 Y730.551
X512.171 Y731.368
X512.192 Y731.377
X514.237 Y732.173
X514.259 Y732.181
X516.295 Y732.955
X516.317 Y732.963
X518.345 Y733.716
X518.369 Y733.725
X520.389 Y734.455
X520.411 Y734.463
X522.422 Y735.172
X522.448 Y735.181
X524.45 Y735.867
X524.475 Y735.876
X526.468 Y736.539
X526.491 Y736.546
X528.475 Y737.188
X528.503 Y737.197
X530.478 Y737.815
X530.504 Y737.823
X532.47 Y738.419
X532.498 Y738.428
X534.455 Y739
X534.483 Y739.007
X536.43 Y739.556
X536.458 Y739.564
X538.395 Y740.09
X538.424 Y740.098
X540.352 Y740.601
X540.382 Y740.609
X542.3 Y741.088
X542.331 Y741.095
X544.239 Y741.55
X544.271 Y741.557
X546.169 Y741.989
X546.201 Y741.996
X548.089 Y742.403
X548.121 Y742.409
X549.998 Y742.792
X550.031 Y742.799
X551.898 Y743.158
X551.934 Y743.165
X553.791 Y743.499
X553.825 Y743.505
X555.671 Y743.815
X555.708 Y743.82
X557.544 Y744.105
X557.579 Y744.111
X559.403 Y744.372
X559.443 Y744.377
X561.257 Y744.612
X561.295 Y744.617
X563.098 Y744.827
X563.135 Y744.831
X564.927 Y745.017
X564.968 Y745.021
X566.748 Y745.181
X566.789 Y745.184
X568.558 Y745.319
X568.6 Y745.322
X570.358 Y745.431
X570.402 Y745.434
X572.148 Y745.517
X572.19 Y745.518
X573.925 Y745.576
X573.968 Y745.577
X575.691 Y745.61
X575.737 Y745.611
X577.448 Y745.617
X577.494
X579.194 Y745.597
X579.241 Y745.596
X580.928 Y745.55
X580.973 Y745.548
X582.648 Y745.477
X582.699 Y745.475
X584.363 Y745.376
X584.41 Y745.373
X586.061 Y745.249
X586.111 Y745.244
X587.749 Y745.093
X587.8 Y745.088
X589.426 Y744.91
X589.476 Y744.904
X591.09 Y744.7
X591.141 Y744.694
X592.742 Y744.464
X592.796 Y744.455
X594.385 Y744.197
X594.436 Y744.188
X596.012 Y743.904
X596.066 Y743.894
X597.628 Y743.583
X597.681 Y743.572
X599.231 Y743.234
X599.285 Y743.222
X600.822 Y742.857
X600.878 Y742.843
X602.402 Y742.45
X602.455 Y742.436
X603.966 Y742.017
X604.022 Y742.001
X605.52 Y741.554
X605.575 Y741.537
X607.059 Y741.063
X607.113 Y741.045
X608.584 Y740.544
X608.639 Y740.525
X610.096 Y739.997
X610.152 Y739.976
X611.596 Y739.42
X611.652 Y739.397
X613.082 Y738.813
X613.136 Y738.791
X614.553 Y738.18
X614.608 Y738.155
X616.011 Y737.516
X616.065 Y737.491
X617.454 Y736.825
X617.509 Y736.798
X618.884 Y736.104
X618.936 Y736.077
X620.297 Y735.356
X620.352 Y735.326
X621.699 Y734.576
X621.751 Y734.547
X623.084 Y733.77
X623.134 Y733.74
X624.453 Y732.936
X624.506 Y732.903
X625.811 Y732.07
X625.86 Y732.038
X627.151 Y731.178
X627.203 Y731.143
X628.479 Y730.253
X628.526 Y730.22
X629.788 Y729.304
X629.837 Y729.268
X631.084 Y728.324
X631.13 Y728.288
X632.363 Y727.316
X632.41 Y727.279
X633.628 Y726.279
X633.672 Y726.242
X634.876 Y725.214
X634.919 Y725.176
X636.108 Y724.121
X636.152 Y724.081
X637.326 Y722.997
X637.366 Y722.96
X638.526 Y721.849
X638.568 Y721.808
X639.713 Y720.668
X639.751 Y720.629
X640.881 Y719.462
X640.919 Y719.422
X642.034 Y718.227
X642.072 Y718.186
X643.172 Y716.963
X643.207 Y716.923
X644.292 Y715.672
X644.327 Y715.631
X645.397 Y714.352
X645.429 Y714.313
X646.485 Y713.007
X646.518 Y712.966
X647.558 Y711.632
X647.589 Y711.591
X648.614 Y710.229
X648.645 Y710.187
X649.654 Y708.797
X649.681 Y708.759
X650.676 Y707.342
X650.703 Y707.303
X651.683 Y705.859
X651.711 Y705.818
X652.675 Y704.346
X652.7 Y704.307
X653.649 Y702.808
X653.673 Y702.768
X654.607 Y701.241
X654.631 Y701.202
X655.549 Y699.648
X655.57 Y699.611
X656.474 Y698.03
X656.496 Y697.991
X657.384 Y696.383
X657.405 Y696.345
X658.277 Y694.71
X658.296 Y694.674
X659.154 Y693.012
X659.173 Y692.974
X660.015 Y691.285
X660.033 Y691.249
X660.859 Y689.534
X660.875 Y689.499
X661.687 Y687.757
X661.704 Y687.722
X662.5 Y685.954
X662.515 Y685.919
X663.296 Y684.124
X663.311 Y684.089
X664.076 Y682.268
X664.089 Y682.235
X664.839 Y680.389
X664.853 Y680.356
X665.588 Y678.483
X665.6 Y678.451
X666.32 Y676.553
X666.332 Y676.521
X667.037 Y674.597
X667.048 Y674.565
X667.737 Y672.616
X667.748 Y672.585
X668.422 Y670.611
X668.432 Y670.581
X669.091 Y668.582
X669.101 Y668.553
X669.745 Y666.529
X669.754 Y666.499
X670.383 Y664.45
X670.391 Y664.422
X671.005 Y662.349
X671.014 Y662.321
X671.613 Y660.224
X671.62 Y660.196
X672.204 Y658.075
X672.212 Y658.048
X672.781 Y655.903
X672.788 Y655.877
X673.342 Y653.709
X673.348 Y653.683
X673.887 Y651.492
X673.893 Y651.467
X674.418 Y649.253
X674.424 Y649.228
X674.934 Y646.99
X674.939 Y646.966
X675.435 Y644.707
X675.44 Y644.683
X675.922 Y642.401
X675.926 Y642.377
X676.392 Y640.074
X676.397 Y640.053
X676.85 Y637.728
X676.854 Y637.703
X677.291 Y635.357
X677.295 Y635.337
X677.719 Y632.969
X677.723 Y632.948
X678.133 Y630.56
X678.136 Y630.538
X678.531 Y628.13
X678.535 Y628.11
X678.917 Y625.682
X678.92 Y625.662
X679.288 Y623.214
X679.291 Y623.194
X679.645 Y620.726
X679.647 Y620.707
X679.987 Y618.221
X679.99 Y618.202
X680.317 Y615.697
X680.319 Y615.678
X680.632 Y613.155
X680.634 Y613.138
X680.934 Y610.596
X680.936 Y610.578
X681.223 Y608.019
X681.225 Y608.002
X681.499 Y605.426
X681.501 Y605.408
X681.761 Y602.814
X681.763 Y602.799
X682.011 Y600.19
X682.012 Y600.173
X682.247 Y597.547
X682.248 Y597.531
X682.47 Y594.889
X682.472 Y594.874
X682.682 Y592.217
X682.683 Y592.202
X682.88 Y589.53
X682.881 Y589.515
X683.066 Y586.828
X683.067 Y586.813
X683.239 Y584.112
X683.24 Y584.099
X683.401 Y581.384
X683.402 Y581.368
X683.55 Y578.639
Y578.627
X683.687 Y575.885
X683.688 Y575.871
X683.813 Y573.117
Y573.103
X683.927 Y570.337
Y570.325
X684.029 Y567.546
Y567.533
X684.119 Y564.743
X684.12 Y564.731
X684.199 Y561.93
Y561.918
X684.267 Y559.107
Y559.095
X684.324 Y556.273
X684.325 Y556.261
X684.371 Y553.429
Y553.418
X684.407 Y550.577
Y550.565
X684.432 Y547.714
Y547.703
X684.446 Y544.844
Y544.833
X684.45 Y541.966
Y541.956
X684.444 Y539.081
Y539.07
X684.428 Y536.188
Y536.178
X684.402 Y533.288
Y533.278
X684.366 Y530.382
Y530.371
X684.32 Y527.469
X684.319 Y527.46
X684.264 Y524.552
Y524.543
X684.2 Y521.629
Y521.619
X684.126 Y518.701
Y518.687
X683.95 Y512.836
X683.949 Y512.818
X683.738 Y506.953
X683.737 Y506.936
X683.492 Y501.058
Y501.041
X683.213 Y495.155
X683.212 Y495.138
X682.899 Y489.245
X682.898 Y489.23
X682.555 Y483.335
X682.554 Y483.319
X682.179 Y477.424
X682.178 Y477.41
X681.774 Y471.518
X681.773 Y471.502
X681.339 Y465.617
X681.338 Y465.603
X680.877 Y459.726
X680.876 Y459.712
X680.387 Y453.848
X680.385 Y453.834
X679.87 Y447.984
X679.869 Y447.97
X679.329 Y442.137
X679.328 Y442.124
X678.763 Y436.312
X678.762 Y436.298
X678.173 Y430.508
X678.171 Y430.495
X677.559 Y424.73
X677.558 Y424.717
X676.923 Y418.98
X676.921 Y418.967
X676.265 Y413.26
X676.264 Y413.248
X675.588 Y407.573
X675.587 Y407.563
X675.241 Y404.739
X675.24 Y404.732
X674.888 Y401.916
X674.887 Y401.911
X674.532 Y399.105
X674.531 Y399.098
X674.17 Y396.301
X674.169 Y396.294
X673.803 Y393.507
Y393.502
X673.433 Y390.725
X673.432 Y390.718
X673.057 Y387.951
X673.056 Y387.945
X672.677 Y385.189
X672.676 Y385.183
X672.292 Y382.437
X672.291 Y382.431
X671.903 Y379.696
X671.902 Y379.688
X671.509 Y376.965
X671.508 Y376.959
X671.111 Y374.247
X671.11 Y374.241
X670.709 Y371.54
Y371.534
X670.304 Y368.845
X670.302 Y368.838
X669.892 Y366.162
Y366.157
X669.479 Y363.492
X669.477 Y363.484
X669.059 Y360.832
Y360.826
X668.638 Y358.187
X668.636 Y358.18
X668.21 Y355.553
X668.209 Y355.547
X667.78 Y352.934
X667.779 Y352.927
X667.346 Y350.326
X667.345 Y350.319
X666.908 Y347.732
X666.907 Y347.725
X666.466 Y345.151
X666.465 Y345.145
X666.021 Y342.585
X666.019 Y342.577
X665.57 Y340.031
X665.569 Y340.025
X665.117 Y337.493
X665.116 Y337.487
X664.661 Y334.968
X664.66 Y334.96
X664.201 Y332.456
X664.199 Y332.449
X663.736 Y329.959
X663.735 Y329.951
X663.268 Y327.476
X663.267 Y327.47
X662.798 Y325.01
X662.796 Y325.001
X662.322 Y322.555
X662.321 Y322.549
X661.844 Y320.117
X661.842 Y320.109
X661.362 Y317.693
X661.361 Y317.685
X660.877 Y315.284
X660.875 Y315.276
X660.387 Y312.89
X660.386 Y312.883
X659.895 Y310.512
X659.893 Y310.504
X659.399 Y308.149
X659.397 Y308.141
X658.899 Y305.801
X658.898 Y305.793
X658.397 Y303.468
X658.395 Y303.46
X657.891 Y301.151
X657.889 Y301.142
X657.381 Y298.849
X657.379 Y298.84
X656.867 Y296.563
X656.865 Y296.555
X656.35 Y294.293
X656.348 Y294.285
X655.83 Y292.039
X655.828 Y292.03
X655.307 Y289.801
X655.305 Y289.792
X654.78 Y287.578
X654.778 Y287.568
X654.249 Y285.37
X654.247 Y285.361
X653.715 Y283.179
X653.712 Y283.17
X653.177 Y281.005
X653.175 Y280.996
X652.637 Y278.847
X652.635 Y278.837
X652.093 Y276.704
X652.09 Y276.694
X651.544 Y274.577
X651.541 Y274.567
X650.992 Y272.467
X650.99 Y272.458
X650.438 Y270.374
X650.435 Y270.363
X649.879 Y268.296
X649.876 Y268.286
X649.317 Y266.235
X649.314 Y266.224
X648.751 Y264.189
X648.749 Y264.179
X648.183 Y262.161
X648.18 Y262.15
X647.611 Y260.149
X647.607 Y260.137
X647.033 Y258.152
X647.03 Y258.142
X646.454 Y256.174
X646.45 Y256.161
X645.869 Y254.209
X645.866 Y254.2
X645.283 Y252.265
X645.279 Y252.251
X644.691 Y250.332
X644.688 Y250.321
X644.097 Y248.419
X644.093 Y248.407
X643.499 Y246.522
X643.495 Y246.509
X642.897 Y244.641
X642.893 Y244.629
X642.291 Y242.777
X642.287 Y242.765
X641.682 Y240.929
X641.678 Y240.915
X641.069 Y239.097
X641.064 Y239.084
X640.451 Y237.282
X640.447 Y237.269
X639.831 Y235.484
X639.826 Y235.469
X639.205 Y233.7
X639.201 Y233.689
X638.578 Y231.937
X638.572 Y231.921
X637.944 Y230.186
X637.939 Y230.172
X637.307 Y228.453
X637.302 Y228.439
X636.667 Y226.737
X636.661 Y226.723
X636.022 Y225.037
X636.016 Y225.021
X635.373 Y223.352
X635.367 Y223.337
X634.72 Y221.685
X634.715 Y221.671
X634.065 Y220.035
X634.058 Y220.018
X633.403 Y218.399
X633.397 Y218.383
X632.738 Y216.78
X632.732 Y216.766
X632.07 Y215.179
X632.062 Y215.161
X631.395 Y213.591
X631.388 Y213.574
X630.717 Y212.021
X630.71 Y212.006
X630.036 Y210.469
X630.028 Y210.451
X629.349 Y208.93
X629.342 Y208.913
X628.659 Y207.408
X628.651 Y207.39
X627.964 Y205.902
X627.956 Y205.885
X627.265 Y204.413
X627.256 Y204.394
X626.56 Y202.938
X626.552 Y202.922
X625.853 Y201.482
X625.843 Y201.462
X625.139 Y200.039
X625.129 Y200.02
X624.42 Y198.612
X624.412 Y198.595
X623.7 Y197.203
X623.689 Y197.182
X622.972 Y195.807
X622.963 Y195.789
X622.242 Y194.429
X622.231 Y194.408
X621.505 Y193.064
X621.494 Y193.045
X620.764 Y191.717
X620.753 Y191.697
X620.018 Y190.384
X620.007 Y190.364
X619.268 Y189.067
X619.255 Y189.045
X618.511 Y187.764
X618.5 Y187.745
X617.752 Y186.479
X617.739 Y186.457
X616.986 Y185.207
X616.974 Y185.187
X616.217 Y183.952
X616.203 Y183.93
X615.441 Y182.711
X615.427 Y182.689
X614.66 Y181.485
X614.646 Y181.463
X613.874 Y180.274
X613.86 Y180.252
X613.083 Y179.078
X613.069 Y179.058
X612.288 Y177.899
X612.273 Y177.876
X611.487 Y176.732
X611.471 Y176.71
X610.68 Y175.581
X610.664 Y175.558
X609.868 Y174.444
X609.851 Y174.421
X609.05 Y173.322
X609.034 Y173.3
X608.228 Y172.215
X608.211 Y172.192
X607.4 Y171.122
X607.383 Y171.1
X606.567 Y170.044
X606.548 Y170.02
X605.726 Y168.978
X605.709 Y168.956
X604.883 Y167.929
X604.863 Y167.905
X604.031 Y166.892
X604.012 Y166.868
X603.175 Y165.87
X603.156 Y165.849
X602.314 Y164.864
X602.295 Y164.841
X601.448 Y163.87
X601.427 Y163.846
X600.573 Y162.889
X600.552 Y162.865
X599.693 Y161.922
X599.674 Y161.901
X598.811 Y160.971
X598.788 Y160.947
X597.919 Y160.031
X597.896 Y160.007
X597.021 Y159.105
X597.001 Y159.085
X596.121 Y158.195
X596.097 Y158.171
X595.211 Y157.295
X595.188 Y157.272
X594.296 Y156.409
X594.273 Y156.387
X593.377 Y155.537
X593.352 Y155.515
X592.449 Y154.678
X592.426 Y154.656
X591.518 Y153.832
X591.493 Y153.81
X590.578 Y152.998
X590.554 Y152.977
X589.634 Y152.178
X589.608 Y152.156
X588.682 Y151.37
X588.658 Y151.349
X587.726 Y150.575
X587.701 Y150.555
X586.763 Y149.793
X586.737 Y149.772
X585.793 Y149.022
X585.767 Y149.002
X584.817 Y148.264
X584.791 Y148.244
X583.835 Y147.518
X583.809 Y147.498
X582.847 Y146.784
X582.82 Y146.764
X581.852 Y146.062
X581.826 Y146.043
X580.851 Y145.352
X580.823 Y145.333
X579.842 Y144.654
X579.816 Y144.637
X578.829 Y143.969
X578.803 Y143.951
X577.81 Y143.294
X577.782 Y143.276
X576.783 Y142.631
X576.757 Y142.614
X575.751 Y141.979
X575.723 Y141.962
X574.71 Y141.338
X574.685 Y141.322
X573.667 Y140.709
X573.638 Y140.692
X572.613 Y140.09
X572.587 Y140.075
X571.555 Y139.483
X571.529 Y139.468
X570.491 Y138.886
X570.463 Y138.87
X569.417 Y138.299
X569.391 Y138.285
X568.339 Y137.724
X568.313 Y137.71
X567.255 Y137.159
X567.229 Y137.146
X566.165 Y136.605
X566.137 Y136.591
X565.065 Y136.06
X565.04 Y136.048
X563.962 Y135.526
X563.935 Y135.513
X562.85 Y135.001
X562.823 Y134.988
X561.731 Y134.486
X561.709 Y134.476
X560.611 Y133.982
X560.584 Y133.97
X559.479 Y133.486
X559.453 Y133.475
X558.34 Y133
X558.315 Y132.99
X557.196 Y132.524
X557.171 Y132.513
X556.045 Y132.056
X556.02 Y132.046
X554.887 Y131.598
X554.864 Y131.589
X553.724 Y131.149
X553.699 Y131.14
X552.552 Y130.709
X552.529 Y130.7
X551.375 Y130.277
X551.353 Y130.269
X550.192 Y129.854
X550.167 Y129.845
X548.999 Y129.439
X548.978 Y129.432
X547.802 Y129.033
X547.778 Y129.025
X546.596 Y128.635
X546.575 Y128.628
X545.385 Y128.245
X545.363 Y128.238
X544.166 Y127.863
X544.146 Y127.857
X542.942 Y127.489
X542.92 Y127.482
X541.709 Y127.122
X541.687 Y127.116
X540.469 Y126.764
X540.451 Y126.759
X539.225 Y126.413
X539.203 Y126.407
X537.97 Y126.069
X537.951 Y126.063
X536.711 Y125.732
X536.683 Y125.725
X534.181 Y125.083
X534.144 Y125.074
X531.613 Y124.458
X531.576 Y124.449
X529.015 Y123.86
X528.981 Y123.853
X526.391 Y123.289
X526.36 Y123.282
X523.74 Y122.741
X523.708 Y122.735
X521.059 Y122.218
X521.028 Y122.212
X518.349 Y121.718
X518.321 Y121.713
X515.613 Y121.24
X515.585 Y121.235
X512.847 Y120.784
X512.822 Y120.78
X510.054 Y120.348
X510.028 Y120.344
X507.231 Y119.932
X507.207 Y119.929
X504.381 Y119.536
X504.36 Y119.533
X501.504 Y119.157
X501.481 Y119.154
X498.596 Y118.796
X498.577 Y118.793
X495.662 Y118.451
X495.641 Y118.449
X492.697 Y118.124
X492.679 Y118.122
X489.707 Y117.812
X489.69 Y117.81
X486.689 Y117.514
X486.672 Y117.513
X483.642 Y117.232
X483.627 Y117.23
X480.568 Y116.962
X480.553 Y116.961
X477.467 Y116.706
X477.452 Y116.705
X474.337 Y116.463
X474.325 Y116.462
X471.183 Y116.231
X471.17 Y116.23
X468 Y116.011
X467.987 Y116.01
X464.791 Y115.803
X464.781
X461.557 Y115.605
X461.545 Y115.604
X458.295 Y115.417
X458.285 Y115.416
X455.009 Y115.239
X454.999
X451.697 Y115.071
X451.688 Y115.07
X448.361 Y114.911
X448.352
X444.999 Y114.761
X444.991
X441.614 Y114.619
X441.606 Y114.618
X438.205 Y114.484
X438.198
X434.773 Y114.357
X434.765
X431.317 Y114.238
X431.31
X427.838 Y114.127
X427.832 Y114.126
X424.339 Y114.021
X424.333
X420.818 Y113.923
X420.812
X417.275 Y113.831
X417.269
X413.711 Y113.746
X413.705
X410.127 Y113.667
X410.122
X406.525 Y113.594
X406.52
X402.903 Y113.527
X402.898 Y113.526
X399.262 Y113.464
X399.257
X395.604 Y113.408
X395.599
X391.928 Y113.358
X391.924
X388.236 Y113.313
X388.231
X384.527 Y113.273
X384.522
X380.802 Y113.239
X380.798
X377.064 Y113.21
X377.059
X373.31 Y113.187
X373.307
X369.545 Y113.168
X369.54
X365.764 Y113.155
X365.76
X361.973 Y113.148
X361.969
X358.17 Y113.145
X358.166
X354.356 Y113.148
X354.351
X350.53 Y113.157
X350.526
X346.697 Y113.171
X346.693
X342.854 Y113.19
X342.847
X335.147 Y113.247
X335.138
X327.413 Y113.327
X327.403
X319.657 Y113.432
X319.647
X311.888 Y113.564
X311.878 Y113.565
X304.111 Y113.723
X304.099
X296.331 Y113.911
X296.319
X288.557 Y114.13
X288.545 Y114.131
X280.794 Y114.383
X280.783
X276.915 Y114.522
X276.909
X273.045 Y114.669
X273.037
X269.181 Y114.826
X269.174 Y114.827
X265.324 Y114.993
X265.316
X261.474 Y115.169
X261.466 Y115.17
X257.633 Y115.356
X257.624
X253.801 Y115.552
X253.792
X249.979 Y115.759
X249.97 Y115.76
X246.168 Y115.978
X246.159
X242.37 Y116.207
X242.36 Y116.208
X238.583 Y116.449
X238.573 Y116.45
X234.811 Y116.703
X234.801
X231.053 Y116.967
X231.041 Y116.968
X227.309 Y117.246
X227.299 Y117.247
X223.583 Y117.537
X223.571 Y117.538
X219.872 Y117.841
X219.86 Y117.842
X216.18 Y118.159
X216.167 Y118.16
X212.505 Y118.491
X212.492 Y118.492
X208.851 Y118.837
X208.837 Y118.839
X205.216 Y119.199
X205.202 Y119.2
X201.602 Y119.575
X201.588 Y119.577
X198.011 Y119.967
X197.996 Y119.968
X194.441 Y120.374
X194.425 Y120.376
X190.895 Y120.798
X190.879 Y120.8
X187.374 Y121.238
X187.357 Y121.24
X183.877 Y121.695
X183.859 Y121.698
X180.406 Y122.171
X180.388 Y122.173
X176.962 Y122.663
X176.943 Y122.666
X173.545 Y123.174
X173.526 Y123.177
X170.157 Y123.703
X170.137 Y123.706
X166.798 Y124.251
X166.777 Y124.255
X163.468 Y124.819
X163.447 Y124.822
X160.17 Y125.405
X160.147 Y125.409
X156.902 Y126.012
X156.878 Y126.017
X153.665 Y126.641
X153.641 Y126.646
X150.463 Y127.29
X150.445 Y127.294
X148.868 Y127.624
X148.855 Y127.626
X147.287 Y127.961
X147.274 Y127.964
X145.716 Y128.304
X145.702 Y128.307
X144.152 Y128.653
X144.14 Y128.656
X142.599 Y129.007
X142.584 Y129.01
X141.052 Y129.367
X141.037 Y129.371
X139.514 Y129.734
X139.503 Y129.736
X137.989 Y130.103
X137.972 Y130.108
X136.468 Y130.482
X136.454 Y130.485
X134.96 Y130.864
X134.945 Y130.868
X133.46 Y131.253
X133.447 Y131.257
X131.971 Y131.647
X131.952 Y131.651
X130.487 Y132.048
X130.474 Y132.052
X129.018 Y132.454
X129.001 Y132.459
X127.555 Y132.867
X127.539 Y132.871
X126.103 Y133.285
X126.086 Y133.29
X124.66 Y133.71
X124.643 Y133.715
X123.228 Y134.141
X123.209 Y134.147
X121.804 Y134.58
X121.789 Y134.585
X120.394 Y135.023
X120.377 Y135.028
X118.992 Y135.472
X118.972 Y135.479
X117.598 Y135.93
X117.58 Y135.936
X116.217 Y136.393
X116.2 Y136.399
X114.847 Y136.862
X114.828 Y136.868
X113.487 Y137.337
X113.467 Y137.344
X112.136 Y137.82
X112.115 Y137.828
X110.795 Y138.311
X110.778 Y138.317
X109.469 Y138.805
X109.446 Y138.814
X108.148 Y139.31
X108.13 Y139.317
X106.844 Y139.818
X106.821 Y139.827
X105.545 Y140.336
X105.524 Y140.344
X104.261 Y140.859
X104.242 Y140.867
X102.989 Y141.388
X102.965 Y141.398
X101.724 Y141.927
X101.703 Y141.936
X100.474 Y142.471
X100.451 Y142.481
X99.233 Y143.023
X99.21 Y143.034
X98.004 Y143.583
X97.983 Y143.593
X96.789 Y144.148
X96.764 Y144.16
X95.582 Y144.723
X95.56 Y144.733
X94.389 Y145.302
X94.363 Y145.315
X93.205 Y145.892
X93.181 Y145.904
X92.035 Y146.488
X92.013 Y146.5
X90.879 Y147.09
X90.852 Y147.104
X89.731 Y147.702
X89.706 Y147.715
X88.597 Y148.32
X88.571 Y148.334
X87.475 Y148.946
X87.449 Y148.961
X86.365 Y149.58
X86.339 Y149.595
X85.268 Y150.221
X85.24 Y150.237
X84.181 Y150.871
X84.155 Y150.887
X83.109 Y151.528
X83.08 Y151.545
X82.047 Y152.194
X82.021 Y152.211
X81 Y152.867
X80.973 Y152.885
X79.965 Y153.548
X79.937 Y153.567
X78.942 Y154.238
X78.915 Y154.256
X77.933 Y154.934
X77.904 Y154.955
X76.935 Y155.641
X76.908 Y155.66
X75.952 Y156.353
X75.923 Y156.375
X74.98 Y157.076
X74.953 Y157.097
X74.023 Y157.805
X73.994 Y157.828
X73.078 Y158.544
X73.049 Y158.567
X72.146 Y159.291
X72.117 Y159.315
X71.228 Y160.047
X71.2 Y160.071
X70.324 Y160.81
X70.295 Y160.835
X69.433 Y161.582
X69.403 Y161.608
X68.554 Y162.363
X68.525 Y162.39
X67.69 Y163.153
X67.662 Y163.179
X66.841 Y163.949
X66.812 Y163.977
X66.004 Y164.755
X65.974 Y164.785
X65.18 Y165.572
X65.152 Y165.6
X64.373 Y166.394
X64.343 Y166.424
X63.578 Y167.227
X63.549 Y167.257
X62.797 Y168.067
X62.768 Y168.099
X62.031 Y168.917
X62.001 Y168.951
X61.277 Y169.778
X61.25 Y169.809
X60.54 Y170.643
X60.512 Y170.677
X59.817 Y171.519
X59.788 Y171.554
X59.107 Y172.405
X59.08 Y172.439
X58.413 Y173.297
X58.385 Y173.334
X57.733 Y174.201
X57.707 Y174.236
X57.068 Y175.11
X57.041 Y175.148
X56.417 Y176.031
X56.39 Y176.069
X55.781 Y176.961
X55.756 Y176.998
X55.161 Y177.897
X55.135 Y177.936
X54.554 Y178.844
X54.53 Y178.882
X53.964 Y179.797
X53.939 Y179.839
X53.387 Y180.764
X53.364 Y180.803
X52.827 Y181.735
X52.804 Y181.777
X52.281 Y182.718
X52.259 Y182.758
X51.751 Y183.707
X51.729 Y183.749
X51.236 Y184.706
X51.215 Y184.748
X50.736 Y185.714
X50.716 Y185.756
X50.252 Y186.73
X50.232 Y186.773
X49.783 Y187.755
X49.764 Y187.798
X49.33 Y188.789
X49.311 Y188.832
X48.892 Y189.831
X48.874 Y189.875
X48.469 Y190.883
X48.452 Y190.926
X48.063 Y191.942
X48.047 Y191.985
X47.672 Y193.009
X47.656 Y193.053
X47.296 Y194.086
X47.281 Y194.129
X46.937 Y195.17
X46.922 Y195.215
X46.592 Y196.265
X46.579 Y196.308
X46.264 Y197.366
X46.251 Y197.41
X45.951 Y198.477
X45.94 Y198.52
X45.655 Y199.595
X45.643 Y199.639
X45.374 Y200.723
X45.363 Y200.766
X45.108 Y201.858
X45.099 Y201.902
X44.859 Y203.003
X44.85 Y203.046
X44.625 Y204.155
X44.617 Y204.197
X44.408 Y205.315
X44.4 Y205.358
X44.206 Y206.484
X44.199 Y206.526
X44.019 Y207.661
X44.013 Y207.703
X43.849 Y208.846
X43.844 Y208.888
X43.695 Y210.04
X43.69 Y210.081
X43.556 Y211.241
X43.552 Y211.282
X43.433 Y212.451
X43.429 Y212.491
X43.326 Y213.668
X43.323 Y213.708
X43.235 Y214.894
X43.232 Y214.934
X43.16 Y216.128
X43.158 Y216.167
X43.1 Y217.37
X43.099 Y217.409
X43.056 Y218.621
X43.055 Y218.659
X43.028 Y219.879
Y219.916
X43.016 Y221.144
Y221.182
X43.02 Y222.419
Y222.456
X43.039 Y223.701
X43.04 Y223.737
X43.074 Y224.991
X43.075 Y225.026
X43.125 Y226.289
X43.126 Y226.325
X43.191 Y227.596
X43.193 Y227.63
X43.273 Y228.909
X43.275 Y228.944
X43.371 Y230.232
X43.373 Y230.265
X43.484 Y231.562
X43.487 Y231.595
X43.613 Y232.9
X43.616 Y232.933
X43.757 Y234.246
X43.761 Y234.278
X43.918 Y235.6
X43.922 Y235.631
X44.093 Y236.961
X44.098 Y236.992
X44.285 Y238.33
X44.289 Y238.36
X44.491 Y239.708
X44.496 Y239.739
X44.714 Y241.094
X44.719 Y241.123
X44.951 Y242.487
X44.957 Y242.516
X45.205 Y243.888
X45.21 Y243.916
Z-6 F333.3
X45.474 Y245.297 F1000
X45.479 Y245.325
X45.758 Y246.714
X45.763 Y246.742
X46.057 Y248.139
X46.063 Y248.166
X46.372 Y249.571
X46.378 Y249.597
X46.703 Y251.011
X46.709 Y251.036
X47.048 Y252.459
X47.055 Y252.486
X47.41 Y253.916
X47.416 Y253.94
X47.786 Y255.379
X47.792 Y255.404
X48.177 Y256.851
X48.184 Y256.875
X48.584 Y258.33
X48.591 Y258.354
X49.007 Y259.817
X49.013 Y259.839
X49.444 Y261.311
X49.451 Y261.334
X49.896 Y262.814
X49.903 Y262.837
X50.364 Y264.324
X50.371 Y264.345
X50.847 Y265.841
X50.854 Y265.863
X51.345 Y267.367
X51.352 Y267.388
X51.858 Y268.901
X51.865 Y268.922
X52.386 Y270.442
X52.393 Y270.462
X52.929 Y271.99
X52.936 Y272.01
X53.488 Y273.546
X53.495 Y273.566
X54.061 Y275.11
X54.068 Y275.128
X54.649 Y276.681
X54.656 Y276.701
X55.252 Y278.261
X55.259 Y278.279
X55.87 Y279.847
X55.877 Y279.866
X56.503 Y281.441
X56.51 Y281.458
X57.15 Y283.042
X57.158 Y283.06
X57.813 Y284.651
X57.82 Y284.667
X58.49 Y286.267
X58.498 Y286.284
X59.183 Y287.891
X59.19 Y287.908
X59.89 Y289.522
X59.896 Y289.538
X60.611 Y291.161
X60.618 Y291.177
X61.347 Y292.807
X61.354 Y292.823
X62.098 Y294.46
X62.105 Y294.474
X62.863 Y296.12
X62.871 Y296.137
X63.644 Y297.789
X63.65 Y297.802
X64.438 Y299.463
X64.445 Y299.478
X65.247 Y301.146
X65.254 Y301.161
X66.071 Y302.836
X66.078 Y302.85
X66.909 Y304.532
X66.916 Y304.545
X67.761 Y306.235
X67.768 Y306.249
X68.628 Y307.947
X68.635 Y307.961
X69.509 Y309.665
X69.516 Y309.677
X70.404 Y311.389
X70.411 Y311.402
X71.314 Y313.121
X71.32 Y313.133
X72.238 Y314.86
X72.245 Y314.873
X73.176 Y316.606
X73.182 Y316.618
X74.128 Y318.359
X74.135 Y318.371
X75.095 Y320.118
X75.101 Y320.13
X76.074 Y321.885
X76.081 Y321.897
X77.069 Y323.658
X77.075 Y323.668
X78.077 Y325.437
X78.084 Y325.449
X79.1 Y327.224
X79.106 Y327.235
X80.136 Y329.017
X80.142 Y329.028
X81.186 Y330.817
X81.192 Y330.827
X82.249 Y332.623
X82.256 Y332.634
X83.327 Y334.436
X83.333 Y334.446
X84.418 Y336.255
X84.424 Y336.266
X85.523 Y338.081
X85.529 Y338.09
X86.642 Y339.912
X86.647 Y339.922
X87.773 Y341.751
X87.78 Y341.761
X88.919 Y343.596
X88.925 Y343.605
X90.078 Y345.446
X90.084 Y345.455
X91.251 Y347.303
X91.257 Y347.313
X92.437 Y349.167
X92.442 Y349.176
X93.636 Y351.036
X93.642 Y351.045
X94.848 Y352.911
X94.854 Y352.919
X96.074 Y354.792
X96.08 Y354.802
X97.313 Y356.68
X97.318 Y356.688
X98.565 Y358.573
X98.57 Y358.581
X99.829 Y360.471
X99.835 Y360.48
X101.108 Y362.376
X101.113 Y362.383
X102.398 Y364.285
X102.404 Y364.294
X103.703 Y366.202
X103.708 Y366.209
X105.019 Y368.123
X105.025 Y368.132
X106.349 Y370.051
X106.354 Y370.058
X107.691 Y371.983
X107.697 Y371.992
X109.047 Y373.922
X109.051 Y373.928
X110.413 Y375.864
X110.419 Y375.872
X111.794 Y377.813
X111.799 Y377.82
X113.186 Y379.767
X113.192 Y379.775
X114.592 Y381.726
X114.597 Y381.733
X116.01 Y383.69
X116.014 Y383.696
X117.438 Y385.658
X117.444 Y385.666
X118.881 Y387.633
X118.885 Y387.639
X120.334 Y389.611
X120.34 Y389.619
X121.802 Y391.596
X121.806 Y391.602
X123.279 Y393.583
X123.285 Y393.591
X124.771 Y395.578
X124.775 Y395.584
X126.272 Y397.575
X126.278 Y397.582
X127.787 Y399.578
X127.792 Y399.584
X129.313 Y401.584
X129.318 Y401.59
X130.851 Y403.595
X130.855 Y403.601
X132.4 Y405.611
X132.405 Y405.617
X133.961 Y407.631
X133.966 Y407.638
X135.534 Y409.656
X135.539 Y409.661
X137.118 Y411.683
X137.123 Y411.69
X138.714 Y413.716
X138.718 Y413.721
X140.32 Y415.751
X140.325 Y415.757
X141.939 Y417.792
X141.943 Y417.798
X143.568 Y419.836
X143.572 Y419.841
X145.207 Y421.883
X145.213 Y421.89
X146.86 Y423.935
X146.863 Y423.94
X148.521 Y425.99
X148.527 Y425.996
X150.196 Y428.048
X150.199 Y428.053
X151.879 Y430.11
X151.885 Y430.116
X153.576 Y432.175
X153.579 Y432.18
X155.28 Y434.242
X155.285 Y434.248
X156.997 Y436.315
X157.001 Y436.32
X158.723 Y438.389
X158.728 Y438.395
X160.461 Y440.467
X160.464 Y440.471
X162.207 Y442.547
X162.212 Y442.553
X163.967 Y444.631
X163.971 Y444.636
X165.735 Y446.717
X165.739 Y446.722
X167.513 Y448.805
X167.517 Y448.809
X169.301 Y450.896
X169.306 Y450.902
X171.1 Y452.99
X171.104 Y452.995
X172.908 Y455.086
X172.911 Y455.09
X174.726 Y457.184
X174.73 Y457.189
X176.554 Y459.285
X176.56 Y459.293
X180.236 Y463.49
X180.244 Y463.499
X183.958 Y467.705
X183.967 Y467.714
X187.719 Y471.926
X187.727 Y471.935
X191.515 Y476.154
X191.523 Y476.163
X195.348 Y480.387
X195.356 Y480.395
X199.215 Y484.624
X199.223 Y484.633
X203.117 Y488.865
X203.126 Y488.874
X207.055 Y493.109
X207.062 Y493.117
X211.023 Y497.355
X211.032 Y497.365
X215.026 Y501.603
X215.033 Y501.611
X219.058 Y505.85
X219.067 Y505.858
X223.123 Y510.096
X223.131 Y510.105
X227.218 Y514.342
X227.226 Y514.35
X231.342 Y518.584
X231.35 Y518.592
X235.495 Y522.823
X235.503 Y522.831
X239.675 Y527.058
X239.683 Y527.067
X243.883 Y531.289
X243.891 Y531.297
X248.116 Y535.512
X248.125 Y535.52
X252.377 Y539.728
X252.385 Y539.736
X256.661 Y543.936
X256.669 Y543.944
X260.968 Y548.135
X260.976 Y548.143
X265.299 Y552.324
X265.308 Y552.332
X269.653 Y556.502
X269.661 Y556.511
X274.027 Y560.668
X274.036 Y560.676
X278.423 Y564.82
X278.432 Y564.828
X282.839 Y568.957
X282.847 Y568.965
X287.272 Y573.079
X287.281 Y573.087
X291.724 Y577.185
X291.733 Y577.194
X296.193 Y581.273
X296.202 Y581.281
X300.678 Y585.342
X300.688 Y585.35
X305.179 Y589.39
X305.188 Y589.398
X309.693 Y593.418
X309.702 Y593.427
X314.221 Y597.424
X314.231 Y597.433
X318.763 Y601.406
X318.773 Y601.414
X323.316 Y605.363
X323.326 Y605.372
X327.879 Y609.294
X327.889 Y609.302
X332.452 Y613.198
X332.463 Y613.208
X337.035 Y617.074
X337.045 Y617.083
X341.625 Y620.92
X341.636 Y620.929
X346.222 Y624.735
X346.233 Y624.744
X350.825 Y628.517
X350.837 Y628.526
X355.434 Y632.266
X355.445 Y632.276
X360.046 Y635.981
X360.058 Y635.99
X364.661 Y639.658
X364.674 Y639.668
X369.28 Y643.298
X369.292 Y643.308
X373.898 Y646.9
X373.908 Y646.908
X376.211 Y648.688
X376.217 Y648.692
X378.52 Y650.463
X378.528 Y650.469
X380.831 Y652.228
X380.836 Y652.232
X383.138 Y653.982
X383.146 Y653.988
X385.448 Y655.726
X385.455 Y655.731
X387.756 Y657.458
X387.762 Y657.463
X390.062 Y659.18
X390.07 Y659.186
X392.369 Y660.891
X392.377 Y660.896
X394.675 Y662.589
X394.682 Y662.594
X396.979 Y664.276
X396.987 Y664.283
X399.283 Y665.952
X399.29 Y665.956
X401.584 Y667.614
X401.592 Y667.62
X403.885 Y669.266
X403.893 Y669.272
X406.184 Y670.905
X406.192 Y670.911
X408.481 Y672.531
X408.488 Y672.536
X410.776 Y674.144
X410.784 Y674.15
X413.069 Y675.745
X413.078 Y675.751
X415.361 Y677.332
X415.369 Y677.338
X417.649 Y678.906
X417.658 Y678.912
X419.936 Y680.467
X419.945 Y680.473
X422.221 Y682.014
X422.23 Y682.02
X424.502 Y683.547
X424.511 Y683.553
X426.781 Y685.066
X426.79 Y685.072
X429.057 Y686.571
X429.067 Y686.578
X431.33 Y688.062
X431.339 Y688.068
X433.599 Y689.538
X433.61 Y689.545
X435.867 Y690.999
X435.876 Y691.005
X438.129 Y692.445
X438.14 Y692.451
X440.39 Y693.876
X440.4 Y693.883
X442.645 Y695.292
X442.657 Y695.299
X444.899 Y696.692
X444.909 Y696.699
X447.147 Y698.077
X447.158 Y698.083
X449.391 Y699.445
X449.402 Y699.452
X451.631 Y700.798
X451.643 Y700.805
X453.867 Y702.134
X453.879 Y702.141
X456.099 Y703.454
X456.111 Y703.461
X458.326 Y704.757
X458.338 Y704.765
X460.548 Y706.044
X460.561 Y706.051
X462.767 Y707.313
X462.78 Y707.32
X464.98 Y708.564
X464.993 Y708.571
X467.187 Y709.798
X467.2 Y709.806
X469.389 Y711.016
X469.404 Y711.024
X471.588 Y712.215
X471.601 Y712.222
X473.779 Y713.396
X473.793 Y713.404
X475.965 Y714.559
X475.98 Y714.566
X478.146 Y715.703
X478.161 Y715.711
X480.321 Y716.829
X480.336 Y716.837
X482.49 Y717.937
X482.506 Y717.945
X484.653 Y719.025
X484.669 Y719.033
X486.81 Y720.094
X486.826 Y720.102
X488.961 Y721.144
X488.977 Y721.152
X491.104 Y722.175
X491.123 Y722.184
X493.244 Y723.186
X493.26 Y723.193
X495.374 Y724.176
X495.391 Y724.184
X497.497 Y725.147
X497.517 Y725.156
X499.616 Y726.098
X499.634 Y726.106
X501.726 Y727.028
X501.744 Y727.036
X503.828 Y727.938
X503.849 Y727.947
X505.926 Y728.828
X505.947 Y728.837
X508.016 Y729.696
X508.035 Y729.704
X510.096 Y730.543
X510.118 Y730.551
X512.171 Y731.368
X512.192 Y731.377
X514.237 Y732.173
X514.259 Y732.181
X516.295 Y732.955
X516.317 Y732.963
X518.345 Y733.716
X518.369 Y733.725
X520.389 Y734.455
X520.411 Y734.463
X522.422 Y735.172
X522.448 Y735.181
X524.45 Y735.867
X524.475 Y735.876
X526.468 Y736.539
X526.491 Y736.546
X528.475 Y737.188
X528.503 Y737.197
X530.478 Y737.815
X530.504 Y737.823
X532.47 Y738.419
X532.498 Y738.428
X534.455 Y739
X534.483 Y739.007
X536.43 Y739.556
X536.458 Y739.564
X538.395 Y740.09
X538.424 Y740.098
X540.352 Y740.601
X540.382 Y740.609
X542.3 Y741.088
X542.331 Y741.095
X544.239 Y741.55
X544.271 Y741.557
X546.169 Y741.989
X546.201 Y741.996
X548.089 Y742.403
X548.121 Y742.409
X549.998 Y742.792
X550.031 Y742.799
X551.898 Y743.158
X551.934 Y743.165
X553.791 Y743.499
X553.825 Y743.505
X555.671 Y743.815
X555.708 Y743.82
X557.544 Y744.105
X557.579 Y744.111
X559.403 Y744.372
X559.443 Y744.377
X561.257 Y744.612
X561.295 Y744.617
X563.098 Y744.827
X563.135 Y744.831
X564.927 Y745.017
X564.968 Y745.021
X566.748 Y745.181
X566.789 Y745.184
X568.558 Y745.319
X568.6 Y745.322
X570.358 Y745.431
X570.402 Y745.434
X572.148 Y745.517
X572.19 Y745.518
X573.925 Y745.576
X573.968 Y745.577
X575.691 Y745.61
X575.737 Y745.611
X577.448 Y745.617
X577.494
X579.194 Y745.597
X579.241 Y745.596
X580.928 Y745.55
X580.973 Y745.548
X582.648 Y745.477
X582.699 Y745.475
X584.363 Y745.376
X584.41 Y745.373
X586.061 Y745.249
X586.111 Y745.244
X587.749 Y745.093
X587.8 Y745.088
X589.426 Y744.91
X589.476 Y744.904
X591.09 Y744.7
X591.141 Y744.694
X592.742 Y744.464
X592.796 Y744.455
X594.385 Y744.197
X594.436 Y744.188
X596.012 Y743.904
X596.066 Y743.894
X597.628 Y743.583
X597.681 Y743.572
X599.231 Y743.234
X599.285 Y743.222
X600.822 Y742.857
X600.878 Y742.843
X602.402 Y742.45
X602.455 Y742.436
X603.966 Y742.017
X604.022 Y742.001
X605.52 Y741.554
X605.575 Y741.537
X607.059 Y741.063
X607.113 Y741.045
X608.584 Y740.544
X608.639 Y740.525
X610.096 Y739.997
X610.152 Y739.976
X611.596 Y739.42
X611.652 Y739.397
X613.082 Y738.813
X613.136 Y738.791
X614.553 Y738.18
X614.608 Y738.155
X616.011 Y737.516
X616.065 Y737.491
X617.454 Y736.825
X617.509 Y736.798
X618.884 Y736.104
X618.936 Y736.077
X620.297 Y735.356
X620.352 Y735.326
X621.699 Y734.576
X621.751 Y734.547
X623.084 Y733.77
X623.134 Y733.74
X624.453 Y732.936
X624.506 Y732.903
X625.811 Y732.07
X625.86 Y732.038
X627.151 Y731.178
X627.203 Y731.143
X628.479 Y730.253
X628.526 Y730.22
X629.788 Y729.304
X629.837 Y729.268
X631.084 Y728.324
X631.13 Y728.288
X632.363 Y727.316
X632.41 Y727.279
X633.628 Y726.279
X633.672 Y726.242
X634.876 Y725.214
X634.919 Y725.176
X636.108 Y724.121
X636.152 Y724.081
X637.326 Y722.997
X637.366 Y722.96
X638.526 Y721.849
X638.568 Y721.808
X639.713 Y720.668
X639.751 Y720.629
X640.881 Y719.462
X640.919 Y719.422
X642.034 Y718.227
X642.072 Y718.186
X643.172 Y716.963
X643.207 Y716.923
X644.292 Y715.672
X644.327 Y715.631
X645.397 Y714.352
X645.429 Y714.313
X646.485 Y713.007
X646.518 Y712.966
X647.558 Y711.632
X647.589 Y711.591
X648.614 Y710.229
X648.645 Y710.187
X649.654 Y708.797
X649.681 Y708.759
X650.676 Y707.342
X650.703 Y707.303
X651.683 Y705.859
X651.711 Y705.818
X652.675 Y704.346
X652.7 Y704.307
X653.649 Y702.808
X653.673 Y702.768
X654.607 Y701.241
X654.631 Y701.202
X655.549 Y699.648
X655.57 Y699.611
X656.474 Y698.03
X656.496 Y697.991
X657.384 Y696.383
X657.405 Y696.345
X658.277 Y694.71
X658.296 Y694.674
X659.154 Y693.012
X659.173 Y692.974
X660.015 Y691.285
X660.033 Y691.249
X660.859 Y689.534
X660.875 Y689.499
X661.687 Y687.757
X661.704 Y687.722
X662.5 Y685.954
X662.515 Y685.919
X663.296 Y684.124
X663.311 Y684.089
X664.076 Y682.268
X664.089 Y682.235
X664.839 Y680.389
X664.853 Y680.356
X665.588 Y678.483
X665.6 Y678.451
X666.32 Y676.553
X666.332 Y676.521
X667.037 Y674.597
X667.048 Y674.565
X667.737 Y672.616
X667.748 Y672.585
X668.422 Y670.611
X668.432 Y670.581
X669.091 Y668.582
X669.101 Y668.553
X669.745 Y666.529
X669.754 Y666.499
X670.383 Y664.45
X670.391 Y664.422
X671.005 Y662.349
X671.014 Y662.321
X671.613 Y660.224
X671.62 Y660.196
X672.204 Y658.075
X672.212 Y658.048
X672.781 Y655.903
X672.788 Y655.877
X673.342 Y653.709
X673.348 Y653.683
X673.887 Y651.492
X673.893 Y651.467
X674.418 Y649.253
X674.424 Y649.228
X674.934 Y646.99
X674.939 Y646.966
X675.435 Y644.707
X675.44 Y644.683
X675.922 Y642.401
X675.926 Y642.377
X676.392 Y640.074
X676.397 Y640.053
X676.85 Y637.728
X676.854 Y637.703
X677.291 Y635.357
X677.295 Y635.337
X677.719 Y632.969
X677.723 Y632.948
X678.133 Y630.56
X678.136 Y630.538
X678.531 Y628.13
X678.535 Y628.11
X678.917 Y625.682
X678.92 Y625.662
X679.288 Y623.214
X679.291 Y623.194
X679.645 Y620.726
X679.647 Y620.707
X679.987 Y618.221
X679.99 Y618.202
X680.317 Y615.697
X680.319 Y615.678
X680.632 Y613.155
X680.634 Y613.138
X680.934 Y610.596
X680.936 Y610.578
X681.223 Y608.019
X681.225 Y608.002
X681.499 Y605.426
X681.501 Y605.408
X681.761 Y602.814
X681.763 Y602.799
X682.011 Y600.19
X682.012 Y600.173
X682.247 Y597.547
X682.248 Y597.531
X682.47 Y594.889
X682.472 Y594.874
X682.682 Y592.217
X682.683 Y592.202
X682.88 Y589.53
X682.881 Y589.515
X683.066 Y586.828
X683.067 Y586.813
X683.239 Y584.112
X683.24 Y584.099
X683.401 Y581.384
X683.402 Y581.368
X683.55 Y578.639
Y578.627
X683.687 Y575.885
X683.688 Y575.871
X683.813 Y573.117
Y573.103
X683.927 Y570.337
Y570.325
X684.029 Y567.546
Y567.533
X684.119 Y564.743
X684.12 Y564.731
X684.199 Y561.93
Y561.918
X684.267 Y559.107
Y559.095
X684.324 Y556.273
X684.325 Y556.261
X684.371 Y553.429
Y553.418
X684.407 Y550.577
Y550.565
X684.432 Y547.714
Y547.703
X684.446 Y544.844
Y544.833
X684.45 Y541.966
Y541.956
X684.444 Y539.081
Y539.07
X684.428 Y536.188
Y536.178
X684.402 Y533.288
Y533.278
X684.366 Y530.382
Y530.371
X684.32 Y527.469
X684.319 Y527.46
X684.264 Y524.552
Y524.543
X684.2 Y521.629
Y521.619
X684.126 Y518.701
Y518.687
X683.95 Y512.836
X683.949 Y512.818
X683.738 Y506.953
X683.737 Y506.936
X683.492 Y501.058
Y501.041
X683.213 Y495.155
X683.212 Y495.138
X682.899 Y489.245
X682.898 Y489.23
X682.555 Y483.335
X682.554 Y483.319
X682.179 Y477.424
X682.178 Y477.41
X681.774 Y471.518
X681.773 Y471.502
X681.339 Y465.617
X681.338 Y465.603
X680.877 Y459.726
X680.876 Y459.712
X680.387 Y453.848
X680.385 Y453.834
X679.87 Y447.984
X679.869 Y447.97
X679.329 Y442.137
X679.328 Y442.124
X678.763 Y436.312
X678.762 Y436.298
X678.173 Y430.508
X678.171 Y430.495
X677.559 Y424.73
X677.558 Y424.717
X676.923 Y418.98
X676.921 Y418.967
X676.265 Y413.26
X676.264 Y413.248
X675.588 Y407.573
X675.587 Y407.563
X675.241 Y404.739
X675.24 Y404.732
X674.888 Y401.916
X674.887 Y401.911
X674.532 Y399.105
X674.531 Y399.098
X674.17 Y396.301
X674.169 Y396.294
X673.803 Y393.507
Y393.502
X673.433 Y390.725
X673.432 Y390.718
X673.057 Y387.951
X673.056 Y387.945
X672.677 Y385.189
X672.676 Y385.183
X672.292 Y382.437
X672.291 Y382.431
X671.903 Y379.696
X671.902 Y379.688
X671.509 Y376.965
X671.508 Y376.959
X671.111 Y374.247
X671.11 Y374.241
X670.709 Y371.54
Y371.534
X670.304 Y368.845
X670.302 Y368.838
X669.892 Y366.162
Y366.157
X669.479 Y363.492
X669.477 Y363.484
X669.059 Y360.832
Y360.826
X668.638 Y358.187
X668.636 Y358.18
X668.21 Y355.553
X668.209 Y355.547
X667.78 Y352.934
X667.779 Y352.927
X667.346 Y350.326
X667.345 Y350.319
X666.908 Y347.732
X666.907 Y347.725
X666.466 Y345.151
X666.465 Y345.145
X666.021 Y342.585
X666.019 Y342.577
X665.57 Y340.031
X665.569 Y340.025
X665.117 Y337.493
X665.116 Y337.487
X664.661 Y334.968
X664.66 Y334.96
X664.201 Y332.456
X664.199 Y332.449
X663.736 Y329.959
X663.735 Y329.951
X663.268 Y327.476
X663.267 Y327.47
X662.798 Y325.01
X662.796 Y325.001
X662.322 Y322.555
X662.321 Y322.549
X661.844 Y320.117
X661.842 Y320.109
X661.362 Y317.693
X661.361 Y317.685
X660.877 Y315.284
X660.875 Y315.276
X660.387 Y312.89
X660.386 Y312.883
X659.895 Y310.512
X659.893 Y310.504
X659.399 Y308.149
X659.397 Y308.141
X658.899 Y305.801
X658.898 Y305.793
X658.397 Y303.468
X658.395 Y303.46
X657.891 Y301.151
X657.889 Y301.142
X657.381 Y298.849
X657.379 Y298.84
X656.867 Y296.563
X656.865 Y296.555
X656.35 Y294.293
X656.348 Y294.285
X655.83 Y292.039
X655.828 Y292.03
X655.307 Y289.801
X655.305 Y289.792
X654.78 Y287.578
X654.778 Y287.568
X654.249 Y285.37
X654.247 Y285.361
X653.715 Y283.179
X653.712 Y283.17
X653.177 Y281.005
X653.175 Y280.996
X652.637 Y278.847
X652.635 Y278.837
X652.093 Y276.704
X652.09 Y276.694
X651.544 Y274.577
X651.541 Y274.567
X650.992 Y272.467
X650.99 Y272.458
X650.438 Y270.374
X650.435 Y270.363
X649.879 Y268.296
X649.876 Y268.286
X649.317 Y266.235
X649.314 Y266.224
X648.751 Y264.189
X648.749 Y264.179
X648.183 Y262.161
X648.18 Y262.15
X647.611 Y260.149
X647.607 Y260.137
X647.033 Y258.152
X647.03 Y258.142
X646.454 Y256.174
X646.45 Y256.161
X645.869 Y254.209
X645.866 Y254.2
X645.283 Y252.265
X645.279 Y252.251
X644.691 Y250.332
X644.688 Y250.321
X644.097 Y248.419
X644.093 Y248.407
X643.499 Y246.522
X643.495 Y246.509
X642.897 Y244.641
X642.893 Y244.629
X642.291 Y242.777
X642.287 Y242.765
X641.682 Y240.929
X641.678 Y240.915
X641.069 Y239.097
X641.064 Y239.084
X640.451 Y237.282
X640.447 Y237.269
X639.831 Y235.484
X639.826 Y235.469
X639.205 Y233.7
X639.201 Y233.689
X638.578 Y231.937
X638.572 Y231.921
X637.944 Y230.186
X637.939 Y230.172
X637.307 Y228.453
X637.302 Y228.439
X636.667 Y226.737
X636.661 Y226.723
X636.022 Y225.037
X636.016 Y225.021
X635.373 Y223.352
X635.367 Y223.337
X634.72 Y221.685
X634.715 Y221.671
X634.065 Y220.035
X634.058 Y220.018
X633.403 Y218.399
X633.397 Y218.383
X632.738 Y216.78
X632.732 Y216.766
X632.07 Y215.179
X632.062 Y215.161
X631.395 Y213.591
X631.388 Y213.574
X630.717 Y212.021
X630.71 Y212.006
X630.036 Y210.469
X630.028 Y210.451
X629.349 Y208.93
X629.342 Y208.913
X628.659 Y207.408
X628.651 Y207.39
X627.964 Y205.902
X627.956 Y205.885
X627.265 Y204.413
X627.256 Y204.394
X626.56 Y202.938
X626.552 Y202.922
X625.853 Y201.482
X625.843 Y201.462
X625.139 Y200.039
X625.129 Y200.02
X624.42 Y198.612
X624.412 Y198.595
X623.7 Y197.203
X623.689 Y197.182
X622.972 Y195.807
X622.963 Y195.789
X622.242 Y194.429
X622.231 Y194.408
X621.505 Y193.064
X621.494 Y193.045
X620.764 Y191.717
X620.753 Y191.697
X620.018 Y190.384
X620.007 Y190.364
X619.268 Y189.067
X619.255 Y189.045
X618.511 Y187.764
X618.5 Y187.745
X617.752 Y186.479
X617.739 Y186.457
X616.986 Y185.207
X616.974 Y185.187
X616.217 Y183.952
X616.203 Y183.93
X615.441 Y182.711
X615.427 Y182.689
X614.66 Y181.485
X614.646 Y181.463
X613.874 Y180.274
X613.86 Y180.252
X613.083 Y179.078
X613.069 Y179.058
X612.288 Y177.899
X612.273 Y177.876
X611.487 Y176.732
X611.471 Y176.71
X610.68 Y175.581
X610.664 Y175.558
X609.868 Y174.444
X609.851 Y174.421
X609.05 Y173.322
X609.034 Y173.3
X608.228 Y172.215
X608.211 Y172.192
X607.4 Y171.122
X607.383 Y171.1
X606.567 Y170.044
X606.548 Y170.02
X605.726 Y168.978
X605.709 Y168.956
X604.883 Y167.929
X604.863 Y167.905
X604.031 Y166.892
X604.012 Y166.868
X603.175 Y165.87
X603.156 Y165.849
X602.314 Y164.864
X602.295 Y164.841
X601.448 Y163.87
X601.427 Y163.846
X600.573 Y162.889
X600.552 Y162.865
X599.693 Y161.922
X599.674 Y161.901
X598.811 Y160.971
X598.788 Y160.947
X597.919 Y160.031
X597.896 Y160.007
X597.021 Y159.105
X597.001 Y159.085
X596.121 Y158.195
X596.097 Y158.171
X595.211 Y157.295
X595.188 Y157.272
X594.296 Y156.409
X594.273 Y156.387
X593.377 Y155.537
X593.352 Y155.515
X592.449 Y154.678
X592.426 Y154.656
X591.518 Y153.832
X591.493 Y153.81
X590.578 Y152.998
X590.554 Y152.977
X589.634 Y152.178
X589.608 Y152.156
X588.682 Y151.37
X588.658 Y151.349
X587.726 Y150.575
X587.701 Y150.555
X586.763 Y149.793
X586.737 Y149.772
X585.793 Y149.022
X585.767 Y149.002
X584.817 Y148.264
X584.791 Y148.244
X583.835 Y147.518
X583.809 Y147.498
X582.847 Y146.784
X582.82 Y146.764
X581.852 Y146.062
X581.826 Y146.043
X580.851 Y145.352
X580.823 Y145.333
X579.842 Y144.654
X579.816 Y144.637
X578.829 Y143.969
X578.803 Y143.951
X577.81 Y143.294
X577.782 Y143.276
X576.783 Y142.631
X576.757 Y142.614
X575.751 Y141.979
X575.723 Y141.962
X574.71 Y141.338
X574.685 Y141.322
X573.667 Y140.709
X573.638 Y140.692
X572.613 Y140.09
X572.587 Y140.075
X571.555 Y139.483
X571.529 Y139.468
X570.491 Y138.886
X570.463 Y138.87
X569.417 Y138.299
X569.391 Y138.285
X568.339 Y137.724
X568.313 Y137.71
X567.255 Y137.159
X567.229 Y137.146
X566.165 Y136.605
X566.137 Y136.591
X565.065 Y136.06
X565.04 Y136.048
X563.962 Y135.526
X563.935 Y135.513
X562.85 Y135.001
X562.823 Y134.988
X561.731 Y134.486
X561.709 Y134.476
X560.611 Y133.982
X560.584 Y133.97
X559.479 Y133.486
X559.453 Y133.475
X558.34 Y133
X558.315 Y132.99
X557.196 Y132.524
X557.171 Y132.513
X556.045 Y132.056
X556.02 Y132.046
X554.887 Y131.598
X554.864 Y131.589
X553.724 Y131.149
X553.699 Y131.14
X552.552 Y130.709
X552.529 Y130.7
X551.375 Y130.277
X551.353 Y130.269
X550.192 Y129.854
X550.167 Y129.845
X548.999 Y129.439
X548.978 Y129.432
X547.802 Y129.033
X547.778 Y129.025
X546.596 Y128.635
X546.575 Y128.628
X545.385 Y128.245
X545.363 Y128.238
X544.166 Y127.863
X544.146 Y127.857
X542.942 Y127.489
X542.92 Y127.482
X541.709 Y127.122
X541.687 Y127.116
X540.469 Y126.764
X540.451 Y126.759
X539.225 Y126.413
X539.203 Y126.407
X537.97 Y126.069
X537.951 Y126.063
X536.711 Y125.732
X536.683 Y125.725
X534.181 Y125.083
X534.144 Y125.074
X531.613 Y124.458
X531.576 Y124.449
X529.015 Y123.86
X528.981 Y123.853
X526.391 Y123.289
X526.36 Y123.282
X523.74 Y122.741
X523.708 Y122.735
X521.059 Y122.218
X521.028 Y122.212
X518.349 Y121.718
X518.321 Y121.713
X515.613 Y121.24
X515.585 Y121.235
X512.847 Y120.784
X512.822 Y120.78
X510.054 Y120.348
X510.028 Y120.344
X507.231 Y119.932
X507.207 Y119.929
X504.381 Y119.536
X504.36 Y119.533
X501.504 Y119.157
X501.481 Y119.154
X498.596 Y118.796
X498.577 Y118.793
X495.662 Y118.451
X495.641 Y118.449
X492.697 Y118.124
X492.679 Y118.122
X489.707 Y117.812
X489.69 Y117.81
X486.689 Y117.514
X486.672 Y117.513
X483.642 Y117.232
X483.627 Y117.23
X480.568 Y116.962
X480.553 Y116.961
X477.467 Y116.706
X477.452 Y116.705
X474.337 Y116.463
X474.325 Y116.462
X471.183 Y116.231
X471.17 Y116.23
X468 Y116.011
X467.987 Y116.01
X464.791 Y115.803
X464.781
X461.557 Y115.605
X461.545 Y115.604
X458.295 Y115.417
X458.285 Y115.416
X455.009 Y115.239
X454.999
X451.697 Y115.071
X451.688 Y115.07
X448.361 Y114.911
X448.352
X444.999 Y114.761
X444.991
X441.614 Y114.619
X441.606 Y114.618
X438.205 Y114.484
X438.198
X434.773 Y114.357
X434.765
X431.317 Y114.238
X431.31
X427.838 Y114.127
X427.832 Y114.126
X424.339 Y114.021
X424.333
X420.818 Y113.923
X420.812
X417.275 Y113.831
X417.269
X413.711 Y113.746
X413.705
X410.127 Y113.667
X410.122
X406.525 Y113.594
X406.52
X402.903 Y113.527
X402.898 Y113.526
X399.262 Y113.464
X399.257
X395.604 Y113.408
X395.599
X391.928 Y113.358
X391.924
X388.236 Y113.313
X388.231
X384.527 Y113.273
X384.522
X380.802 Y113.239
X380.798
X377.064 Y113.21
X377.059
X373.31 Y113.187
X373.307
X369.545 Y113.168
X369.54
X365.764 Y113.155
X365.76
X361.973 Y113.148
X361.969
X358.17 Y113.145
X358.166
X354.356 Y113.148
X354.351
X350.53 Y113.157
X350.526
X346.697 Y113.171
X346.693
X342.854 Y113.19
X342.847
X335.147 Y113.247
X335.138
X327.413 Y113.327
X327.403
X319.657 Y113.432
X319.647
X311.888 Y113.564
X311.878 Y113.565
X304.111 Y113.723
X304.099
X296.331 Y113.911
X296.319
X288.557 Y114.13
X288.545 Y114.131
X280.794 Y114.383
X280.783
X276.915 Y114.522
X276.909
X273.045 Y114.669
X273.037
X269.181 Y114.826
X269.174 Y114.827
X265.324 Y114.993
X265.316
X261.474 Y115.169
X261.466 Y115.17
X257.633 Y115.356
X257.624
X253.801 Y115.552
X253.792
X249.979 Y115.759
X249.97 Y115.76
X246.168 Y115.978
X246.159
X242.37 Y116.207
X242.36 Y116.208
X238.583 Y116.449
X238.573 Y116.45
X234.811 Y116.703
X234.801
X231.053 Y116.967
X231.041 Y116.968
X227.309 Y117.246
X227.299 Y117.247
X223.583 Y117.537
X223.571 Y117.538
X219.872 Y117.841
X219.86 Y117.842
X216.18 Y118.159
X216.167 Y118.16
X212.505 Y118.491
X212.492 Y118.492
X208.851 Y118.837
X208.837 Y118.839
X205.216 Y119.199
X205.202 Y119.2
X201.602 Y119.575
X201.588 Y119.577
X198.011 Y119.967
X197.996 Y119.968
X194.441 Y120.374
X194.425 Y120.376
X190.895 Y120.798
X190.879 Y120.8
X187.374 Y121.238
X187.357 Y121.24
X183.877 Y121.695
X183.859 Y121.698
X180.406 Y122.171
X180.388 Y122.173
X176.962 Y122.663
X176.943 Y122.666
X173.545 Y123.174
X173.526 Y123.177
X170.157 Y123.703
X170.137 Y123.706
X166.798 Y124.251
X166.777 Y124.255
X163.468 Y124.819
X163.447 Y124.822
X160.17 Y125.405
X160.147 Y125.409
X156.902 Y126.012
X156.878 Y126.017
X153.665 Y126.641
X153.641 Y126.646
X150.463 Y127.29
X150.445 Y127.294
X148.868 Y127.624
X148.855 Y127.626
X147.287 Y127.961
X147.274 Y127.964
X145.716 Y128.304
X145.702 Y128.307
X144.152 Y128.653
X144.14 Y128.656
X142.599 Y129.007
X142.584 Y129.01
X141.052 Y129.367
X141.037 Y129.371
X139.514 Y129.734
X139.503 Y129.736
X137.989 Y130.103
X137.972 Y130.108
X136.468 Y130.482
X136.454 Y130.485
X134.96 Y130.864
X134.945 Y130.868
X133.46 Y131.253
X133.447 Y131.257
X131.971 Y131.647
X131.952 Y131.651
X130.487 Y132.048
X130.474 Y132.052
X129.018 Y132.454
X129.001 Y132.459
X127.555 Y132.867
X127.539 Y132.871
X126.103 Y133.285
X126.086 Y133.29
X124.66 Y133.71
X124.643 Y133.715
X123.228 Y134.141
X123.209 Y134.147
X121.804 Y134.58
X121.789 Y134.585
X120.394 Y135.023
X120.377 Y135.028
X118.992 Y135.472
X118.972 Y135.479
X117.598 Y135.93
X117.58 Y135.936
X116.217 Y136.393
X116.2 Y136.399
X114.847 Y136.862
X114.828 Y136.868
X113.487 Y137.337
X113.467 Y137.344
X112.136 Y137.82
X112.115 Y137.828
X110.795 Y138.311
X110.778 Y138.317
X109.469 Y138.805
X109.446 Y138.814
X108.148 Y139.31
X108.13 Y139.317
X106.844 Y139.818
X106.821 Y139.827
X105.545 Y140.336
X105.524 Y140.344
X104.261 Y140.859
X104.242 Y140.867
X102.989 Y141.388
X102.965 Y141.398
X101.724 Y141.927
X101.703 Y141.936
X100.474 Y142.471
X100.451 Y142.481
X99.233 Y143.023
X99.21 Y143.034
X98.004 Y143.583
X97.983 Y143.593
X96.789 Y144.148
X96.764 Y144.16
X95.582 Y144.723
X95.56 Y144.733
X94.389 Y145.302
X94.363 Y145.315
X93.205 Y145.892
X93.181 Y145.904
X92.035 Y146.488
X92.013 Y146.5
X90.879 Y147.09
X90.852 Y147.104
X89.731 Y147.702
X89.706 Y147.715
X88.597 Y148.32
X88.571 Y148.334
X87.475 Y148.946
X87.449 Y148.961
X86.365 Y149.58
X86.339 Y149.595
X85.268 Y150.221
X85.24 Y150.237
X84.181 Y150.871
X84.155 Y150.887
X83.109 Y151.528
X83.08 Y151.545
X82.047 Y152.194
X82.021 Y152.211
X81 Y152.867
X80.973 Y152.885
X79.965 Y153.548
X79.937 Y153.567
X78.942 Y154.238
X78.915 Y154.256
X77.933 Y154.934
X77.904 Y154.955
X76.935 Y155.641
X76.908 Y155.66
X75.952 Y156.353
X75.923 Y156.375
X74.98 Y157.076
X74.953 Y157.097
X74.023 Y157.805
X73.994 Y157.828
X73.078 Y158.544
X73.049 Y158.567
X72.146 Y159.291
X72.117 Y159.315
X71.228 Y160.047
X71.2 Y160.071
X70.324 Y160.81
X70.295 Y160.835
X69.433 Y161.582
X69.403 Y161.608
X68.554 Y162.363
X68.525 Y162.39
X67.69 Y163.153
X67.662 Y163.179
X66.841 Y163.949
X66.812 Y163.977
X66.004 Y164.755
X65.974 Y164.785
X65.18 Y165.572
X65.152 Y165.6
X64.373 Y166.394
X64.343 Y166.424
X63.578 Y167.227
X63.549 Y167.257
X62.797 Y168.067
X62.768 Y168.099
X62.031 Y168.917
X62.001 Y168.951
X61.277 Y169.778
X61.25 Y169.809
X60.54 Y170.643
X60.512 Y170.677
X59.817 Y171.519
X59.788 Y171.554
X59.107 Y172.405
X59.08 Y172.439
X58.413 Y173.297
X58.385 Y173.334
X57.733 Y174.201
X57.707 Y174.236
X57.068 Y175.11
X57.041 Y175.148
X56.417 Y176.031
X56.39 Y176.069
X55.781 Y176.961
X55.756 Y176.998
X55.161 Y177.897
X55.135 Y177.936
X54.554 Y178.844
X54.53 Y178.882
X53.964 Y179.797
X53.939 Y179.839
X53.387 Y180.764
X53.364 Y180.803
X52.827 Y181.735
X52.804 Y181.777
X52.281 Y182.718
X52.259 Y182.758
X51.751 Y183.707
X51.729 Y183.749
X51.236 Y184.706
X51.215 Y184.748
X50.736 Y185.714
X50.716 Y185.756
X50.252 Y186.73
X50.232 Y186.773
X49.783 Y187.755
X49.764 Y187.798
X49.33 Y188.789
X49.311 Y188.832
X48.892 Y189.831
X48.874 Y189.875
X48.469 Y190.883
X48.452 Y190.926
X48.063 Y191.942
X48.047 Y191.985
X47.672 Y193.009
X47.656 Y193.053
X47.296 Y194.086
X47.281 Y194.129
X46.937 Y195.17
X46.922 Y195.215
X46.592 Y196.265
X46.579 Y196.308
X46.264 Y197.366
X46.251 Y197.41
X45.951 Y198.477
X45.94 Y198.52
X45.655 Y199.595
X45.643 Y199.639
X45.374 Y200.723
X45.363 Y200.766
X45.108 Y201.858
X45.099 Y201.902
X44.859 Y203.003
X44.85 Y203.046
X44.625 Y204.155
X44.617 Y204.197
X44.408 Y205.315
X44.4 Y205.358
X44.206 Y206.484
X44.199 Y206.526
X44.019 Y207.661
X44.013 Y207.703
X43.849 Y208.846
X43.844 Y208.888
X43.695 Y210.04
X43.69 Y210.081
X43.556 Y211.241
X43.552 Y211.282
X43.433 Y212.451
X43.429 Y212.491
X43.326 Y213.668
X43.323 Y213.708
X43.235 Y214.894
X43.232 Y214.934
X43.16 Y216.128
X43.158 Y216.167
X43.1 Y217.37
X43.099 Y217.409
X43.056 Y218.621
X43.055 Y218.659
X43.028 Y219.879
Y219.916
X43.016 Y221.144
Y221.182
X43.02 Y222.419
Y222.456
X43.039 Y223.701
X43.04 Y223.737
X43.074 Y224.991
X43.075 Y225.026
X43.125 Y226.289
X43.126 Y226.325
X43.191 Y227.596
X43.193 Y227.63
X43.273 Y228.909
X43.275 Y228.944
X43.371 Y230.232
X43.373 Y230.265
X43.484 Y231.562
X43.487 Y231.595
X43.613 Y232.9
X43.616 Y232.933
X43.757 Y234.246
X43.761 Y234.278
X43.918 Y235.6
X43.922 Y235.631
X44.093 Y236.961
X44.098 Y236.992
X44.285 Y238.33
X44.289 Y238.36
X44.491 Y239.708
X44.496 Y239.739
X44.714 Y241.094
X44.719 Y241.123
X44.951 Y242.487
X44.957 Y242.516
X45.205 Y243.888
X45.21 Y243.916
Z-9 F333.3
X45.474 Y245.297 F1000
X45.479 Y245.325
X45.758 Y246.714
X45.763 Y246.742
X46.057 Y248.139
X46.063 Y248.166
X46.372 Y249.571
X46.378 Y249.597
X46.703 Y251.011
X46.709 Y251.036
X47.048 Y252.459
X47.055 Y252.486
X47.41 Y253.916
X47.416 Y253.94
X47.786 Y255.379
X47.792 Y255.404
X48.177 Y256.851
X48.184 Y256.875
X48.584 Y258.33
X48.591 Y258.354
X49.007 Y259.817
X49.013 Y259.839
X49.444 Y261.311
X49.451 Y261.334
X49.896 Y262.814
X49.903 Y262.837
X50.364 Y264.324
X50.371 Y264.345
X50.847 Y265.841
X50.854 Y265.863
X51.345 Y267.367
X51.352 Y267.388
X51.858 Y268.901
X51.865 Y268.922
X52.386 Y270.442
X52.393 Y270.462
X52.929 Y271.99
X52.936 Y272.01
X53.488 Y273.546
X53.495 Y273.566
X54.061 Y275.11
X54.068 Y275.128
X54.649 Y276.681
X54.656 Y276.701
X55.252 Y278.261
X55.259 Y278.279
X55.87 Y279.847
X55.877 Y279.866
X56.503 Y281.441
X56.51 Y281.458
X57.15 Y283.042
X57.158 Y283.06
X57.813 Y284.651
X57.82 Y284.667
X58.49 Y286.267
X58.498 Y286.284
X59.183 Y287.891
X59.19 Y287.908
X59.89 Y289.522
X59.896 Y289.538
X60.611 Y291.161
X60.618 Y291.177
X61.347 Y292.807
X61.354 Y292.823
X62.098 Y294.46
X62.105 Y294.474
X62.863 Y296.12
X62.871 Y296.137
X63.644 Y297.789
X63.65 Y297.802
X64.438 Y299.463
X64.445 Y299.478
X65.247 Y301.146
X65.254 Y301.161
X66.071 Y302.836
X66.078 Y302.85
X66.909 Y304.532
X66.916 Y304.545
X67.761 Y306.235
X67.768 Y306.249
X68.628 Y307.947
X68.635 Y307.961
X69.509 Y309.665
X69.516 Y309.677
X70.404 Y311.389
X70.411 Y311.402
X71.314 Y313.121
X71.32 Y313.133
X72.238 Y314.86
X72.245 Y314.873
X73.176 Y316.606
X73.182 Y316.618
X74.128 Y318.359
X74.135 Y318.371
X75.095 Y320.118
X75.101 Y320.13
X76.074 Y321.885
X76.081 Y321.897
X77.069 Y323.658
X77.075 Y323.668
X78.077 Y325.437
X78.084 Y325.449
X79.1 Y327.224
X79.106 Y327.235
X80.136 Y329.017
X80.142 Y329.028
X81.186 Y330.817
X81.192 Y330.827
X82.249 Y332.623
X82.256 Y332.634
X83.327 Y334.436
X83.333 Y334.446
X84.418 Y336.255
X84.424 Y336.266
X85.523 Y338.081
X85.529 Y338.09
X86.642 Y339.912
X86.647 Y339.922
X87.773 Y341.751
X87.78 Y341.761
X88.919 Y343.596
X88.925 Y343.605
X90.078 Y345.446
X90.084 Y345.455
X91.251 Y347.303
X91.257 Y347.313
X92.437 Y349.167
X92.442 Y349.176
X93.636 Y351.036
X93.642 Y351.045
X94.848 Y352.911
X94.854 Y352.919
X96.074 Y354.792
X96.08 Y354.802
X97.313 Y356.68
X97.318 Y356.688
X98.565 Y358.573
X98.57 Y358.581
X99.829 Y360.471
X99.835 Y360.48
X101.108 Y362.376
X101.113 Y362.383
X102.398 Y364.285
X102.404 Y364.294
X103.703 Y366.202
X103.708 Y366.209
X105.019 Y368.123
X105.025 Y368.132
X106.349 Y370.051
X106.354 Y370.058
X107.691 Y371.983
X107.697 Y371.992
X109.047 Y373.922
X109.051 Y373.928
X110.413 Y375.864
X110.419 Y375.872
X111.794 Y377.813
X111.799 Y377.82
X113.186 Y379.767
X113.192 Y379.775
X114.592 Y381.726
X114.597 Y381.733
X116.01 Y383.69
X116.014 Y383.696
X117.438 Y385.658
X117.444 Y385.666
X118.881 Y387.633
X118.885 Y387.639
X120.334 Y389.611
X120.34 Y389.619
X121.802 Y391.596
X121.806 Y391.602
X123.279 Y393.583
X123.285 Y393.591
X124.771 Y395.578
X124.775 Y395.584
X126.272 Y397.575
X126.278 Y397.582
X127.787 Y399.578
X127.792 Y399.584
X129.313 Y401.584
X129.318 Y401.59
X130.851 Y403.595
X130.855 Y403.601
X132.4 Y405.611
X132.405 Y405.617
X133.961 Y407.631
X133.966 Y407.638
X135.534 Y409.656
X135.539 Y409.661
X137.118 Y411.683
X137.123 Y411.69
X138.714 Y413.716
X138.718 Y413.721
X140.32 Y415.751
X140.325 Y415.757
X141.939 Y417.792
X141.943 Y417.798
X143.568 Y419.836
X143.572 Y419.841
X145.207 Y421.883
X145.213 Y421.89
X146.86 Y423.935
X146.863 Y423.94
X148.521 Y425.99
X148.527 Y425.996
X150.196 Y428.048
X150.199 Y428.053
X151.879 Y430.11
X151.885 Y430.116
X153.576 Y432.175
X153.579 Y432.18
X155.28 Y434.242
X155.285 Y434.248
X156.997 Y436.315
X157.001 Y436.32
X158.723 Y438.389
X158.728 Y438.395
X160.461 Y440.467
X160.464 Y440.471
X162.207 Y442.547
X162.212 Y442.553
X163.967 Y444.631
X163.971 Y444.636
X165.735 Y446.717
X165.739 Y446.722
X167.513 Y448.805
X167.517 Y448.809
X169.301 Y450.896
X169.306 Y450.902
X171.1 Y452.99
X171.104 Y452.995
X172.908 Y455.086
X172.911 Y455.09
X174.726 Y457.184
X174.73 Y457.189
X176.554 Y459.285
X176.56 Y459.293
X180.236 Y463.49
X180.244 Y463.499
X183.958 Y467.705
X183.967 Y467.714
X187.719 Y471.926
X187.727 Y471.935
X191.515 Y476.154
X191.523 Y476.163
X195.348 Y480.387
X195.356 Y480.395
X199.215 Y484.624
X199.223 Y484.633
X203.117 Y488.865
X203.126 Y488.874
X207.055 Y493.109
X207.062 Y493.117
X211.023 Y497.355
X211.032 Y497.365
X215.026 Y501.603
X215.033 Y501.611
X219.058 Y505.85
X219.067 Y505.858
X223.123 Y510.096
X223.131 Y510.105
X227.218 Y514.342
X227.226 Y514.35
X231.342 Y518.584
X231.35 Y518.592
X235.495 Y522.823
X235.503 Y522.831
X239.675 Y527.058
X239.683 Y527.067
X243.883 Y531.289
X243.891 Y531.297
X248.116 Y535.512
X248.125 Y535.52
X252.377 Y539.728
X252.385 Y539.736
X256.661 Y543.936
X256.669 Y543.944
X260.968 Y548.135
X260.976 Y548.143
X265.299 Y552.324
X265.308 Y552.332
X269.653 Y556.502
X269.661 Y556.511
X274.027 Y560.668
X274.036 Y560.676
X278.423 Y564.82
X278.432 Y564.828
X282.839 Y568.957
X282.847 Y568.965
X287.272 Y573.079
X287.281 Y573.087
X291.724 Y577.185
X291.733 Y577.194
X296.193 Y581.273
X296.202 Y581.281
X300.678 Y585.342
X300.688 Y585.35
X305.179 Y589.39
X305.188 Y589.398
X309.693 Y593.418
X309.702 Y593.427
X314.221 Y597.424
X314.231 Y597.433
X318.763 Y601.406
X318.773 Y601.414
X323.316 Y605.363
X323.326 Y605.372
X327.879 Y609.294
X327.889 Y609.302
X332.452 Y613.198
X332.463 Y613.208
X337.035 Y617.074
X337.045 Y617.083
X341.625 Y620.92
X341.636 Y620.929
X346.222 Y624.735
X346.233 Y624.744
X350.825 Y628.517
X350.837 Y628.526
X355.434 Y632.266
X355.445 Y632.276
X360.046 Y635.981
X360.058 Y635.99
X364.661 Y639.658
X364.674 Y639.668
X369.28 Y643.298
X369.292 Y643.308
X373.898 Y646.9
X373.908 Y646.908
X376.211 Y648.688
X376.217 Y648.692
X378.52 Y650.463
X378.528 Y650.469
X380.831 Y652.228
X380.836 Y652.232
X383.138 Y653.982
X383.146 Y653.988
X385.448 Y655.726
X385.455 Y655.731
X387.756 Y657.458
X387.762 Y657.463
X390.062 Y659.18
X390.07 Y659.186
X392.369 Y660.891
X392.377 Y660.896
X394.675 Y662.589
X394.682 Y662.594
X396.979 Y664.276
X396.987 Y664.283
X399.283 Y665.952
X399.29 Y665.956
X401.584 Y667.614
X401.592 Y667.62
X403.885 Y669.266
X403.893 Y669.272
X406.184 Y670.905
X406.192 Y670.911
X408.481 Y672.531
X408.488 Y672.536
X410.776 Y674.144
X410.784 Y674.15
X413.069 Y675.745
X413.078 Y675.751
X415.361 Y677.332
X415.369 Y677.338
X417.649 Y678.906
X417.658 Y678.912
X419.936 Y680.467
X419.945 Y680.473
X422.221 Y682.014
X422.23 Y682.02
X424.502 Y683.547
X424.511 Y683.553
X426.781 Y685.066
X426.79 Y685.072
X429.057 Y686.571
X429.067 Y686.578
X431.33 Y688.062
X431.339 Y688.068
X433.599 Y689.538
X433.61 Y689.545
X435.867 Y690.999
X435.876 Y691.005
X438.129 Y692.445
X438.14 Y692.451
X440.39 Y693.876
X440.4 Y693.883
X442.645 Y695.292
X442.657 Y695.299
X444.899 Y696.692
X444.909 Y696.699
X447.147 Y698.077
X447.158 Y698.083
X449.391 Y699.445
X449.402 Y699.452
X451.631 Y700.798
X451.643 Y700.805
X453.867 Y702.134
X453.879 Y702.141
X456.099 Y703.454
X456.111 Y703.461
X458.326 Y704.757
X458.338 Y704.765
X460.548 Y706.044
X460.561 Y706.051
X462.767 Y707.313
X462.78 Y707.32
X464.98 Y708.564
X464.993 Y708.571
X467.187 Y709.798
X467.2 Y709.806
X469.389 Y711.016
X469.404 Y711.024
X471.588 Y712.215
X471.601 Y712.222
X473.779 Y713.396
X473.793 Y713.404
X475.965 Y714.559
X475.98 Y714.566
X478.146 Y715.703
X478.161 Y715.711
X480.321 Y716.829
X480.336 Y716.837
X482.49 Y717.937
X482.506 Y717.945
X484.653 Y719.025
X484.669 Y719.033
X486.81 Y720.094
X486.826 Y720.102
X488.961 Y721.144
X488.977 Y721.152
X491.104 Y722.175
X491.123 Y722.184
X493.244 Y723.186
X493.26 Y723.193
X495.374 Y724.176
X495.391 Y724.184
X497.497 Y725.147
X497.517 Y725.156
X499.616 Y726.098
X499.634 Y726.106
X501.726 Y727.028
X501.744 Y727.036
X503.828 Y727.938
X503.849 Y727.947
X505.926 Y728.828
X505.947 Y728.837
X508.016 Y729.696
X508.035 Y729.704
X510.096 Y730.543
X510.118 Y730.551
X512.171 Y731.368
X512.192 Y731.377
X514.237 Y732.173
X514.259 Y732.181
X516.295 Y732.955
X516.317 Y732.963
X518.345 Y733.716
X518.369 Y733.725
X520.389 Y734.455
X520.411 Y734.463
X522.422 Y735.172
X522.448 Y735.181
X524.45 Y735.867
X524.475 Y735.876
X526.468 Y736.539
X526.491 Y736.546
X528.475 Y737.188
X528.503 Y737.197
X530.478 Y737.815
X530.504 Y737.823
X532.47 Y738.419
X532.498 Y738.428
X534.455 Y739
X534.483 Y739.007
X536.43 Y739.556
X536.458 Y739.564
X538.395 Y740.09
X538.424 Y740.098
X540.352 Y740.601
X540.382 Y740.609
X542.3 Y741.088
X542.331 Y741.095
X544.239 Y741.55
X544.271 Y741.557
X546.169 Y741.989
X546.201 Y741.996
X548.089 Y742.403
X548.121 Y742.409
X549.998 Y742.792
X550.031 Y742.799
X551.898 Y743.158
X551.934 Y743.165
X553.791 Y743.499
X553.825 Y743.505
X555.671 Y743.815
X555.708 Y743.82
X557.544 Y744.105
X557.579 Y744.111
X559.403 Y744.372
X559.443 Y744.377
X561.257 Y744.612
X561.295 Y744.617
X563.098 Y744.827
X563.135 Y744.831
X564.927 Y745.017
X564.968 Y745.021
X566.748 Y745.181
X566.789 Y745.184
X568.558 Y745.319
X568.6 Y745.322
X570.358 Y745.431
X570.402 Y745.434
X572.148 Y745.517
X572.19 Y745.518
X573.925 Y745.576
X573.968 Y745.577
X575.691 Y745.61
X575.737 Y745.611
X577.448 Y745.617
X577.494
X579.194 Y745.597
X579.241 Y745.596
X580.928 Y745.55
X580.973 Y745.548
X582.648 Y745.477
X582.699 Y745.475
X584.363 Y745.376
X584.41 Y745.373
X586.061 Y745.249
X586.111 Y745.244
X587.749 Y745.093
X587.8 Y745.088
X589.426 Y744.91
X589.476 Y744.904
X591.09 Y744.7
X591.141 Y744.694
X592.742 Y744.464
X592.796 Y744.455
X594.385 Y744.197
X594.436 Y744.188
X596.012 Y743.904
X596.066 Y743.894
X597.628 Y743.583
X597.681 Y743.572
X599.231 Y743.234
X599.285 Y743.222
X600.822 Y742.857
X600.878 Y742.843
X602.402 Y742.45
X602.455 Y742.436
X603.966 Y742.017
X604.022 Y742.001
X605.52 Y741.554
X605.575 Y741.537
X607.059 Y741.063
X607.113 Y741.045
X608.584 Y740.544
X608.639 Y740.525
X610.096 Y739.997
X610.152 Y739.976
X611.596 Y739.42
X611.652 Y739.397
X613.082 Y738.813
X613.136 Y738.791
X614.553 Y738.18
X614.608 Y738.155
X616.011 Y737.516
X616.065 Y737.491
X617.454 Y736.825
X617.509 Y736.798
X618.884 Y736.104
X618.936 Y736.077
X620.297 Y735.356
X620.352 Y735.326
X621.699 Y734.576
X621.751 Y734.547
X623.084 Y733.77
X623.134 Y733.74
X624.453 Y732.936
X624.506 Y732.903
X625.811 Y732.07
X625.86 Y732.038
X627.151 Y731.178
X627.203 Y731.143
X628.479 Y730.253
X628.526 Y730.22
X629.788 Y729.304
X629.837 Y729.268
X631.084 Y728.324
X631.13 Y728.288
X632.363 Y727.316
X632.41 Y727.279
X633.628 Y726.279
X633.672 Y726.242
X634.876 Y725.214
X634.919 Y725.176
X636.108 Y724.121
X636.152 Y724.081
X637.326 Y722.997
X637.366 Y722.96
X638.526 Y721.849
X638.568 Y721.808
X639.713 Y720.668
X639.751 Y720.629
X640.881 Y719.462
X640.919 Y719.422
X642.034 Y718.227
X642.072 Y718.186
X643.172 Y716.963
X643.207 Y716.923
X644.292 Y715.672
X644.327 Y715.631
X645.397 Y714.352
X645.429 Y714.313
X646.485 Y713.007
X646.518 Y712.966
X647.558 Y711.632
X647.589 Y711.591
X648.614 Y710.229
X648.645 Y710.187
X649.654 Y708.797
X649.681 Y708.759
X650.676 Y707.342
X650.703 Y707.303
X651.683 Y705.859
X651.711 Y705.818
X652.675 Y704.346
X652.7 Y704.307
X653.649 Y702.808
X653.673 Y702.768
X654.607 Y701.241
X654.631 Y701.202
X655.549 Y699.648
X655.57 Y699.611
X656.474 Y698.03
X656.496 Y697.991
X657.384 Y696.383
X657.405 Y696.345
X658.277 Y694.71
X658.296 Y694.674
X659.154 Y693.012
X659.173 Y692.974
X660.015 Y691.285
X660.033 Y691.249
X660.859 Y689.534
X660.875 Y689.499
X661.687 Y687.757
X661.704 Y687.722
X662.5 Y685.954
X662.515 Y685.919
X663.296 Y684.124
X663.311 Y684.089
X664.076 Y682.268
X664.089 Y682.235
X664.839 Y680.389
X664.853 Y680.356
X665.588 Y678.483
X665.6 Y678.451
X666.32 Y676.553
X666.332 Y676.521
X667.037 Y674.597
X667.048 Y674.565
X667.737 Y672.616
X667.748 Y672.585
X668.422 Y670.611
X668.432 Y670.581
X669.091 Y668.582
X669.101 Y668.553
X669.745 Y666.529
X669.754 Y666.499
X670.383 Y664.45
X670.391 Y664.422
X671.005 Y662.349
X671.014 Y662.321
X671.613 Y660.224
X671.62 Y660.196
X672.204 Y658.075
X672.212 Y658.048
X672.781 Y655.903
X672.788 Y655.877
X673.342 Y653.709
X673.348 Y653.683
X673.887 Y651.492
X673.893 Y651.467
X674.418 Y649.253
X674.424 Y649.228
X674.934 Y646.99
X674.939 Y646.966
X675.435 Y644.707
X675.44 Y644.683
X675.922 Y642.401
X675.926 Y642.377
X676.392 Y640.074
X676.397 Y640.053
X676.85 Y637.728
X676.854 Y637.703
X677.291 Y635.357
X677.295 Y635.337
X677.719 Y632.969
X677.723 Y632.948
X678.133 Y630.56
X678.136 Y630.538
X678.531 Y628.13
X678.535 Y628.11
X678.917 Y625.682
X678.92 Y625.662
X679.288 Y623.214
X679.291 Y623.194
X679.645 Y620.726
X679.647 Y620.707
X679.987 Y618.221
X679.99 Y618.202
X680.317 Y615.697
X680.319 Y615.678
X680.632 Y613.155
X680.634 Y613.138
X680.934 Y610.596
X680.936 Y610.578
X681.223 Y608.019
X681.225 Y608.002
X681.499 Y605.426
X681.501 Y605.408
X681.761 Y602.814
X681.763 Y602.799
X682.011 Y600.19
X682.012 Y600.173
X682.247 Y597.547
X682.248 Y597.531
X682.47 Y594.889
X682.472 Y594.874
X682.682 Y592.217
X682.683 Y592.202
X682.88 Y589.53
X682.881 Y589.515
X683.066 Y586.828
X683.067 Y586.813
X683.239 Y584.112
X683.24 Y584.099
X683.401 Y581.384
X683.402 Y581.368
X683.55 Y578.639
Y578.627
X683.687 Y575.885
X683.688 Y575.871
X683.813 Y573.117
Y573.103
X683.927 Y570.337
Y570.325
X684.029 Y567.546
Y567.533
X684.119 Y564.743
X684.12 Y564.731
X684.199 Y561.93
Y561.918
X684.267 Y559.107
Y559.095
X684.324 Y556.273
X684.325 Y556.261
X684.371 Y553.429
Y553.418
X684.407 Y550.577
Y550.565
X684.432 Y547.714
Y547.703
X684.446 Y544.844
Y544.833
X684.45 Y541.966
Y541.956
X684.444 Y539.081
Y539.07
X684.428 Y536.188
Y536.178
X684.402 Y533.288
Y533.278
X684.366 Y530.382
Y530.371
X684.32 Y527.469
X684.319 Y527.46
X684.264 Y524.552
Y524.543
X684.2 Y521.629
Y521.619
X684.126 Y518.701
Y518.687
X683.95 Y512.836
X683.949 Y512.818
X683.738 Y506.953
X683.737 Y506.936
X683.492 Y501.058
Y501.041
X683.213 Y495.155
X683.212 Y495.138
X682.899 Y489.245
X682.898 Y489.23
X682.555 Y483.335
X682.554 Y483.319
X682.179 Y477.424
X682.178 Y477.41
X681.774 Y471.518
X681.773 Y471.502
X681.339 Y465.617
X681.338 Y465.603
X680.877 Y459.726
X680.876 Y459.712
X680.387 Y453.848
X680.385 Y453.834
X679.87 Y447.984
X679.869 Y447.97
X679.329 Y442.137
X679.328 Y442.124
X678.763 Y436.312
X678.762 Y436.298
X678.173 Y430.508
X678.171 Y430.495
X677.559 Y424.73
X677.558 Y424.717
X676.923 Y418.98
X676.921 Y418.967
X676.265 Y413.26
X676.264 Y413.248
X675.588 Y407.573
X675.587 Y407.563
X675.241 Y404.739
X675.24 Y404.732
X674.888 Y401.916
X674.887 Y401.911
X674.532 Y399.105
X674.531 Y399.098
X674.17 Y396.301
X674.169 Y396.294
X673.803 Y393.507
Y393.502
X673.433 Y390.725
X673.432 Y390.718
X673.057 Y387.951
X673.056 Y387.945
X672.677 Y385.189
X672.676 Y385.183
X672.292 Y382.437
X672.291 Y382.431
X671.903 Y379.696
X671.902 Y379.688
X671.509 Y376.965
X671.508 Y376.959
X671.111 Y374.247
X671.11 Y374.241
X670.709 Y371.54
Y371.534
X670.304 Y368.845
X670.302 Y368.838
X669.892 Y366.162
Y366.157
X669.479 Y363.492
X669.477 Y363.484
X669.059 Y360.832
Y360.826
X668.638 Y358.187
X668.636 Y358.18
X668.21 Y355.553
X668.209 Y355.547
X667.78 Y352.934
X667.779 Y352.927
X667.346 Y350.326
X667.345 Y350.319
X666.908 Y347.732
X666.907 Y347.725
X666.466 Y345.151
X666.465 Y345.145
X666.021 Y342.585
X666.019 Y342.577
X665.57 Y340.031
X665.569 Y340.025
X665.117 Y337.493
X665.116 Y337.487
X664.661 Y334.968
X664.66 Y334.96
X664.201 Y332.456
X664.199 Y332.449
X663.736 Y329.959
X663.735 Y329.951
X663.268 Y327.476
X663.267 Y327.47
X662.798 Y325.01
X662.796 Y325.001
X662.322 Y322.555
X662.321 Y322.549
X661.844 Y320.117
X661.842 Y320.109
X661.362 Y317.693
X661.361 Y317.685
X660.877 Y315.284
X660.875 Y315.276
X660.387 Y312.89
X660.386 Y312.883
X659.895 Y310.512
X659.893 Y310.504
X659.399 Y308.149
X659.397 Y308.141
X658.899 Y305.801
X658.898 Y305.793
X658.397 Y303.468
X658.395 Y303.46
X657.891 Y301.151
X657.889 Y301.142
X657.381 Y298.849
X657.379 Y298.84
X656.867 Y296.563
X656.865 Y296.555
X656.35 Y294.293
X656.348 Y294.285
X655.83 Y292.039
X655.828 Y292.03
X655.307 Y289.801
X655.305 Y289.792
X654.78 Y287.578
X654.778 Y287.568
X654.249 Y285.37
X654.247 Y285.361
X653.715 Y283.179
X653.712 Y283.17
X653.177 Y281.005
X653.175 Y280.996
X652.637 Y278.847
X652.635 Y278.837
X652.093 Y276.704
X652.09 Y276.694
X651.544 Y274.577
X651.541 Y274.567
X650.992 Y272.467
X650.99 Y272.458
X650.438 Y270.374
X650.435 Y270.363
X649.879 Y268.296
X649.876 Y268.286
X649.317 Y266.235
X649.314 Y266.224
X648.751 Y264.189
X648.749 Y264.179
X648.183 Y262.161
X648.18 Y262.15
X647.611 Y260.149
X647.607 Y260.137
X647.033 Y258.152
X647.03 Y258.142
X646.454 Y256.174
X646.45 Y256.161
X645.869 Y254.209
X645.866 Y254.2
X645.283 Y252.265
X645.279 Y252.251
X644.691 Y250.332
X644.688 Y250.321
X644.097 Y248.419
X644.093 Y248.407
X643.499 Y246.522
X643.495 Y246.509
X642.897 Y244.641
X642.893 Y244.629
X642.291 Y242.777
X642.287 Y242.765
X641.682 Y240.929
X641.678 Y240.915
X641.069 Y239.097
X641.064 Y239.084
X640.451 Y237.282
X640.447 Y237.269
X639.831 Y235.484
X639.826 Y235.469
X639.205 Y233.7
X639.201 Y233.689
X638.578 Y231.937
X638.572 Y231.921
X637.944 Y230.186
X637.939 Y230.172
X637.307 Y228.453
X637.302 Y228.439
X636.667 Y226.737
X636.661 Y226.723
X636.022 Y225.037
X636.016 Y225.021
X635.373 Y223.352
X635.367 Y223.337
X634.72 Y221.685
X634.715 Y221.671
X634.065 Y220.035
X634.058 Y220.018
X633.403 Y218.399
X633.397 Y218.383
X632.738 Y216.78
X632.732 Y216.766
X632.07 Y215.179
X632.062 Y215.161
X631.395 Y213.591
X631.388 Y213.574
X630.717 Y212.021
X630.71 Y212.006
X630.036 Y210.469
X630.028 Y210.451
X629.349 Y208.93
X629.342 Y208.913
X628.659 Y207.408
X628.651 Y207.39
X627.964 Y205.902
X627.956 Y205.885
X627.265 Y204.413
X627.256 Y204.394
X626.56 Y202.938
X626.552 Y202.922
X625.853 Y201.482
X625.843 Y201.462
X625.139 Y200.039
X625.129 Y200.02
X624.42 Y198.612
X624.412 Y198.595
X623.7 Y197.203
X623.689 Y197.182
X622.972 Y195.807
X622.963 Y195.789
X622.242 Y194.429
X622.231 Y194.408
X621.505 Y193.064
X621.494 Y193.045
X620.764 Y191.717
X620.753 Y191.697
X620.018 Y190.384
X620.007 Y190.364
X619.268 Y189.067
X619.255 Y189.045
X618.511 Y187.764
X618.5 Y187.745
X617.752 Y186.479
X617.739 Y186.457
X616.986 Y185.207
X616.974 Y185.187
X616.217 Y183.952
X616.203 Y183.93
X615.441 Y182.711
X615.427 Y182.689
X614.66 Y181.485
X614.646 Y181.463
X613.874 Y180.274
X613.86 Y180.252
X613.083 Y179.078
X613.069 Y179.058
X612.288 Y177.899
X612.273 Y177.876
X611.487 Y176.732
X611.471 Y176.71
X610.68 Y175.581
X610.664 Y175.558
X609.868 Y174.444
X609.851 Y174.421
X609.05 Y173.322
X609.034 Y173.3
X608.228 Y172.215
X608.211 Y172.192
X607.4 Y171.122
X607.383 Y171.1
X606.567 Y170.044
X606.548 Y170.02
X605.726 Y168.978
X605.709 Y168.956
X604.883 Y167.929
X604.863 Y167.905
X604.031 Y166.892
X604.012 Y166.868
X603.175 Y165.87
X603.156 Y165.849
X602.314 Y164.864
X602.295 Y164.841
X601.448 Y163.87
X601.427 Y163.846
X600.573 Y162.889
X600.552 Y162.865
X599.693 Y161.922
X599.674 Y161.901
X598.811 Y160.971
X598.788 Y160.947
X597.919 Y160.031
X597.896 Y160.007
X597.021 Y159.105
X597.001 Y159.085
X596.121 Y158.195
X596.097 Y158.171
X595.211 Y157.295
X595.188 Y157.272
X594.296 Y156.409
X594.273 Y156.387
X593.377 Y155.537
X593.352 Y155.515
X592.449 Y154.678
X592.426 Y154.656
X591.518 Y153.832
X591.493 Y153.81
X590.578 Y152.998
X590.554 Y152.977
X589.634 Y152.178
X589.608 Y152.156
X588.682 Y151.37
X588.658 Y151.349
X587.726 Y150.575
X587.701 Y150.555
X586.763 Y149.793
X586.737 Y149.772
X585.793 Y149.022
X585.767 Y149.002
X584.817 Y148.264
X584.791 Y148.244
X583.835 Y147.518
X583.809 Y147.498
X582.847 Y146.784
X582.82 Y146.764
X581.852 Y146.062
X581.826 Y146.043
X580.851 Y145.352
X580.823 Y145.333
X579.842 Y144.654
X579.816 Y144.637
X578.829 Y143.969
X578.803 Y143.951
X577.81 Y143.294
X577.782 Y143.276
X576.783 Y142.631
X576.757 Y142.614
X575.751 Y141.979
X575.723 Y141.962
X574.71 Y141.338
X574.685 Y141.322
X573.667 Y140.709
X573.638 Y140.692
X572.613 Y140.09
X572.587 Y140.075
X571.555 Y139.483
X571.529 Y139.468
X570.491 Y138.886
X570.463 Y138.87
X569.417 Y138.299
X569.391 Y138.285
X568.339 Y137.724
X568.313 Y137.71
X567.255 Y137.159
X567.229 Y137.146
X566.165 Y136.605
X566.137 Y136.591
X565.065 Y136.06
X565.04 Y136.048
X563.962 Y135.526
X563.935 Y135.513
X562.85 Y135.001
X562.823 Y134.988
X561.731 Y134.486
X561.709 Y134.476
X560.611 Y133.982
X560.584 Y133.97
X559.479 Y133.486
X559.453 Y133.475
X558.34 Y133
X558.315 Y132.99
X557.196 Y132.524
X557.171 Y132.513
X556.045 Y132.056
X556.02 Y132.046
X554.887 Y131.598
X554.864 Y131.589
X553.724 Y131.149
X553.699 Y131.14
X552.552 Y130.709
X552.529 Y130.7
X551.375 Y130.277
X551.353 Y130.269
X550.192 Y129.854
X550.167 Y129.845
X548.999 Y129.439
X548.978 Y129.432
X547.802 Y129.033
X547.778 Y129.025
X546.596 Y128.635
X546.575 Y128.628
X545.385 Y128.245
X545.363 Y128.238
X544.166 Y127.863
X544.146 Y127.857
X542.942 Y127.489
X542.92 Y127.482
X541.709 Y127.122
X541.687 Y127.116
X540.469 Y126.764
X540.451 Y126.759
X539.225 Y126.413
X539.203 Y126.407
X537.97 Y126.069
X537.951 Y126.063
X536.711 Y125.732
X536.683 Y125.725
X534.181 Y125.083
X534.144 Y125.074
X531.613 Y124.458
X531.576 Y124.449
X529.015 Y123.86
X528.981 Y123.853
X526.391 Y123.289
X526.36 Y123.282
X523.74 Y122.741
X523.708 Y122.735
X521.059 Y122.218
X521.028 Y122.212
X518.349 Y121.718
X518.321 Y121.713
X515.613 Y121.24
X515.585 Y121.235
X512.847 Y120.784
X512.822 Y120.78
X510.054 Y120.348
X510.028 Y120.344
X507.231 Y119.932
X507.207 Y119.929
X504.381 Y119.536
X504.36 Y119.533
X501.504 Y119.157
X501.481 Y119.154
X498.596 Y118.796
X498.577 Y118.793
X495.662 Y118.451
X495.641 Y118.449
X492.697 Y118.124
X492.679 Y118.122
X489.707 Y117.812
X489.69 Y117.81
X486.689 Y117.514
X486.672 Y117.513
X483.642 Y117.232
X483.627 Y117.23
X480.568 Y116.962
X480.553 Y116.961
X477.467 Y116.706
X477.452 Y116.705
X474.337 Y116.463
X474.325 Y116.462
X471.183 Y116.231
X471.17 Y116.23
X468 Y116.011
X467.987 Y116.01
X464.791 Y115.803
X464.781
X461.557 Y115.605
X461.545 Y115.604
X458.295 Y115.417
X458.285 Y115.416
X455.009 Y115.239
X454.999
X451.697 Y115.071
X451.688 Y115.07
X448.361 Y114.911
X448.352
X444.999 Y114.761
X444.991
X441.614 Y114.619
X441.606 Y114.618
X438.205 Y114.484
X438.198
X434.773 Y114.357
X434.765
X431.317 Y114.238
X431.31
X427.838 Y114.127
X427.832 Y114.126
X424.339 Y114.021
X424.333
X420.818 Y113.923
X420.812
X417.275 Y113.831
X417.269
X413.711 Y113.746
X413.705
X410.127 Y113.667
X410.122
X406.525 Y113.594
X406.52
X402.903 Y113.527
X402.898 Y113.526
X399.262 Y113.464
X399.257
X395.604 Y113.408
X395.599
X391.928 Y113.358
X391.924
X388.236 Y113.313
X388.231
X384.527 Y113.273
X384.522
X380.802 Y113.239
X380.798
X377.064 Y113.21
X377.059
X373.31 Y113.187
X373.307
X369.545 Y113.168
X369.54
X365.764 Y113.155
X365.76
X361.973 Y113.148
X361.969
X358.17 Y113.145
X358.166
X354.356 Y113.148
X354.351
X350.53 Y113.157
X350.526
X346.697 Y113.171
X346.693
X342.854 Y113.19
X342.847
X335.147 Y113.247
X335.138
X327.413 Y113.327
X327.403
X319.657 Y113.432
X319.647
X311.888 Y113.564
X311.878 Y113.565
X304.111 Y113.723
X304.099
X296.331 Y113.911
X296.319
X288.557 Y114.13
X288.545 Y114.131
X280.794 Y114.383
X280.783
X276.915 Y114.522
X276.909
X273.045 Y114.669
X273.037
X269.181 Y114.826
X269.174 Y114.827
X265.324 Y114.993
X265.316
X261.474 Y115.169
X261.466 Y115.17
X257.633 Y115.356
X257.624
X253.801 Y115.552
X253.792
X249.979 Y115.759
X249.97 Y115.76
X246.168 Y115.978
X246.159
X242.37 Y116.207
X242.36 Y116.208
X238.583 Y116.449
X238.573 Y116.45
X234.811 Y116.703
X234.801
X231.053 Y116.967
X231.041 Y116.968
X227.309 Y117.246
X227.299 Y117.247
X223.583 Y117.537
X223.571 Y117.538
X219.872 Y117.841
X219.86 Y117.842
X216.18 Y118.159
X216.167 Y118.16
X212.505 Y118.491
X212.492 Y118.492
X208.851 Y118.837
X208.837 Y118.839
X205.216 Y119.199
X205.202 Y119.2
X201.602 Y119.575
X201.588 Y119.577
X198.011 Y119.967
X197.996 Y119.968
X194.441 Y120.374
X194.425 Y120.376
X190.895 Y120.798
X190.879 Y120.8
X187.374 Y121.238
X187.357 Y121.24
X183.877 Y121.695
X183.859 Y121.698
X180.406 Y122.171
X180.388 Y122.173
X176.962 Y122.663
X176.943 Y122.666
X173.545 Y123.174
X173.526 Y123.177
X170.157 Y123.703
X170.137 Y123.706
X166.798 Y124.251
X166.777 Y124.255
X163.468 Y124.819
X163.447 Y124.822
X160.17 Y125.405
X160.147 Y125.409
X156.902 Y126.012
X156.878 Y126.017
X153.665 Y126.641
X153.641 Y126.646
X150.463 Y127.29
X150.445 Y127.294
X148.868 Y127.624
X148.855 Y127.626
X147.287 Y127.961
X147.274 Y127.964
X145.716 Y128.304
X145.702 Y128.307
X144.152 Y128.653
X144.14 Y128.656
X142.599 Y129.007
X142.584 Y129.01
X141.052 Y129.367
X141.037 Y129.371
X139.514 Y129.734
X139.503 Y129.736
X137.989 Y130.103
X137.972 Y130.108
X136.468 Y130.482
X136.454 Y130.485
X134.96 Y130.864
X134.945 Y130.868
X133.46 Y131.253
X133.447 Y131.257
X131.971 Y131.647
X131.952 Y131.651
X130.487 Y132.048
X130.474 Y132.052
X129.018 Y132.454
X129.001 Y132.459
X127.555 Y132.867
X127.539 Y132.871
X126.103 Y133.285
X126.086 Y133.29
X124.66 Y133.71
X124.643 Y133.715
X123.228 Y134.141
X123.209 Y134.147
X121.804 Y134.58
X121.789 Y134.585
X120.394 Y135.023
X120.377 Y135.028
X118.992 Y135.472
X118.972 Y135.479
X117.598 Y135.93
X117.58 Y135.936
X116.217 Y136.393
X116.2 Y136.399
X114.847 Y136.862
X114.828 Y136.868
X113.487 Y137.337
X113.467 Y137.344
X112.136 Y137.82
X112.115 Y137.828
X110.795 Y138.311
X110.778 Y138.317
X109.469 Y138.805
X109.446 Y138.814
X108.148 Y139.31
X108.13 Y139.317
X106.844 Y139.818
X106.821 Y139.827
X105.545 Y140.336
X105.524 Y140.344
X104.261 Y140.859
X104.242 Y140.867
X102.989 Y141.388
X102.965 Y141.398
X101.724 Y141.927
X101.703 Y141.936
X100.474 Y142.471
X100.451 Y142.481
X99.233 Y143.023
X99.21 Y143.034
X98.004 Y143.583
X97.983 Y143.593
X96.789 Y144.148
X96.764 Y144.16
X95.582 Y144.723
X95.56 Y144.733
X94.389 Y145.302
X94.363 Y145.315
X93.205 Y145.892
X93.181 Y145.904
X92.035 Y146.488
X92.013 Y146.5
X90.879 Y147.09
X90.852 Y147.104
X89.731 Y147.702
X89.706 Y147.715
X88.597 Y148.32
X88.571 Y148.334
X87.475 Y148.946
X87.449 Y148.961
X86.365 Y149.58
X86.339 Y149.595
X85.268 Y150.221
X85.24 Y150.237
X84.181 Y150.871
X84.155 Y150.887
X83.109 Y151.528
X83.08 Y151.545
X82.047 Y152.194
X82.021 Y152.211
X81 Y152.867
X80.973 Y152.885
X79.965 Y153.548
X79.937 Y153.567
X78.942 Y154.238
X78.915 Y154.256
X77.933 Y154.934
X77.904 Y154.955
X76.935 Y155.641
X76.908 Y155.66
X75.952 Y156.353
X75.923 Y156.375
X74.98 Y157.076
X74.953 Y157.097
X74.023 Y157.805
X73.994 Y157.828
X73.078 Y158.544
X73.049 Y158.567
X72.146 Y159.291
X72.117 Y159.315
X71.228 Y160.047
X71.2 Y160.071
X70.324 Y160.81
X70.295 Y160.835
X69.433 Y161.582
X69.403 Y161.608
X68.554 Y162.363
X68.525 Y162.39
X67.69 Y163.153
X67.662 Y163.179
X66.841 Y163.949
X66.812 Y163.977
X66.004 Y164.755
X65.974 Y164.785
X65.18 Y165.572
X65.152 Y165.6
X64.373 Y166.394
X64.343 Y166.424
X63.578 Y167.227
X63.549 Y167.257
X62.797 Y168.067
X62.768 Y168.099
X62.031 Y168.917
X62.001 Y168.951
X61.277 Y169.778
X61.25 Y169.809
X60.54 Y170.643
X60.512 Y170.677
X59.817 Y171.519
X59.788 Y171.554
X59.107 Y172.405
X59.08 Y172.439
X58.413 Y173.297
X58.385 Y173.334
X57.733 Y174.201
X57.707 Y174.236
X57.068 Y175.11
X57.041 Y175.148
X56.417 Y176.031
X56.39 Y176.069
X55.781 Y176.961
X55.756 Y176.998
X55.161 Y177.897
X55.135 Y177.936
X54.554 Y178.844
X54.53 Y178.882
X53.964 Y179.797
X53.939 Y179.839
X53.387 Y180.764
X53.364 Y180.803
X52.827 Y181.735
X52.804 Y181.777
X52.281 Y182.718
X52.259 Y182.758
X51.751 Y183.707
X51.729 Y183.749
X51.236 Y184.706
X51.215 Y184.748
X50.736 Y185.714
X50.716 Y185.756
X50.252 Y186.73
X50.232 Y186.773
X49.783 Y187.755
X49.764 Y187.798
X49.33 Y188.789
X49.311 Y188.832
X48.892 Y189.831
X48.874 Y189.875
X48.469 Y190.883
X48.452 Y190.926
X48.063 Y191.942
X48.047 Y191.985
X47.672 Y193.009
X47.656 Y193.053
X47.296 Y194.086
X47.281 Y194.129
X46.937 Y195.17
X46.922 Y195.215
X46.592 Y196.265
X46.579 Y196.308
X46.264 Y197.366
X46.251 Y197.41
X45.951 Y198.477
X45.94 Y198.52
X45.655 Y199.595
X45.643 Y199.639
X45.374 Y200.723
X45.363 Y200.766
X45.108 Y201.858
X45.099 Y201.902
X44.859 Y203.003
X44.85 Y203.046
X44.625 Y204.155
X44.617 Y204.197
X44.408 Y205.315
X44.4 Y205.358
X44.206 Y206.484
X44.199 Y206.526
X44.019 Y207.661
X44.013 Y207.703
X43.849 Y208.846
X43.844 Y208.888
X43.695 Y210.04
X43.69 Y210.081
X43.556 Y211.241
X43.552 Y211.282
X43.433 Y212.451
X43.429 Y212.491
X43.326 Y213.668
X43.323 Y213.708
X43.235 Y214.894
X43.232 Y214.934
X43.16 Y216.128
X43.158 Y216.167
X43.1 Y217.37
X43.099 Y217.409
X43.056 Y218.621
X43.055 Y218.659
X43.028 Y219.879
Y219.916
X43.016 Y221.144
Y221.182
X43.02 Y222.419
Y222.456
X43.039 Y223.701
X43.04 Y223.737
X43.074 Y224.991
X43.075 Y225.026
X43.125 Y226.289
X43.126 Y226.325
X43.191 Y227.596
X43.193 Y227.63
X43.273 Y228.909
X43.275 Y228.944
X43.371 Y230.232
X43.373 Y230.265
X43.484 Y231.562
X43.487 Y231.595
X43.613 Y232.9
X43.616 Y232.933
X43.757 Y234.246
X43.761 Y234.278
X43.918 Y235.6
X43.922 Y235.631
X44.093 Y236.961
X44.098 Y236.992
X44.285 Y238.33
X44.289 Y238.36
X44.491 Y239.708
X44.496 Y239.739
X44.714 Y241.094
X44.719 Y241.123
X44.951 Y242.487
X44.957 Y242.516
X45.205 Y243.888
X45.21 Y243.916
Z-12 F333.3
X45.474 Y245.297 F1000
X45.479 Y245.325
X45.758 Y246.714
X45.763 Y246.742
X46.057 Y248.139
X46.063 Y248.166
X46.372 Y249.571
X46.378 Y249.597
X46.703 Y251.011
X46.709 Y251.036
X47.048 Y252.459
X47.055 Y252.486
X47.41 Y253.916
X47.416 Y253.94
X47.786 Y255.379
X47.792 Y255.404
X48.177 Y256.851
X48.184 Y256.875
X48.584 Y258.33
X48.591 Y258.354
X49.007 Y259.817
X49.013 Y259.839
X49.444 Y261.311
X49.451 Y261.334
X49.896 Y262.814
X49.903 Y262.837
X50.364 Y264.324
X50.371 Y264.345
X50.847 Y265.841
X50.854 Y265.863
X51.345 Y267.367
X51.352 Y267.388
X51.858 Y268.901
X51.865 Y268.922
X52.386 Y270.442
X52.393 Y270.462
X52.929 Y271.99
X52.936 Y272.01
X53.488 Y273.546
X53.495 Y273.566
X54.061 Y275.11
X54.068 Y275.128
X54.649 Y276.681
X54.656 Y276.701
X55.252 Y278.261
X55.259 Y278.279
X55.87 Y279.847
X55.877 Y279.866
X56.503 Y281.441
X56.51 Y281.458
X57.15 Y283.042
X57.158 Y283.06
X57.813 Y284.651
X57.82 Y284.667
X58.49 Y286.267
X58.498 Y286.284
X59.183 Y287.891
X59.19 Y287.908
X59.89 Y289.522
X59.896 Y289.538
X60.611 Y291.161
X60.618 Y291.177
X61.347 Y292.807
X61.354 Y292.823
X62.098 Y294.46
X62.105 Y294.474
X62.863 Y296.12
X62.871 Y296.137
X63.644 Y297.789
X63.65 Y297.802
X64.438 Y299.463
X64.445 Y299.478
X65.247 Y301.146
X65.254 Y301.161
X66.071 Y302.836
X66.078 Y302.85
X66.909 Y304.532
X66.916 Y304.545
X67.761 Y306.235
X67.768 Y306.249
X68.628 Y307.947
X68.635 Y307.961
X69.509 Y309.665
X69.516 Y309.677
X70.404 Y311.389
X70.411 Y311.402
X71.314 Y313.121
X71.32 Y313.133
X72.238 Y314.86
X72.245 Y314.873
X73.176 Y316.606
X73.182 Y316.618
X74.128 Y318.359
X74.135 Y318.371
X75.095 Y320.118
X75.101 Y320.13
X76.074 Y321.885
X76.081 Y321.897
X77.069 Y323.658
X77.075 Y323.668
X78.077 Y325.437
X78.084 Y325.449
X79.1 Y327.224
X79.106 Y327.235
X80.136 Y329.017
X80.142 Y329.028
X81.186 Y330.817
X81.192 Y330.827
X82.249 Y332.623
X82.256 Y332.634
X83.327 Y334.436
X83.333 Y334.446
X84.418 Y336.255
X84.424 Y336.266
X85.523 Y338.081
X85.529 Y338.09
X86.642 Y339.912
X86.647 Y339.922
X87.773 Y341.751
X87.78 Y341.761
X88.919 Y343.596
X88.925 Y343.605
X90.078 Y345.446
X90.084 Y345.455
X91.251 Y347.303
X91.257 Y347.313
X92.437 Y349.167
X92.442 Y349.176
X93.636 Y351.036
X93.642 Y351.045
X94.848 Y352.911
X94.854 Y352.919
X96.074 Y354.792
X96.08 Y354.802
X97.313 Y356.68
X97.318 Y356.688
X98.565 Y358.573
X98.57 Y358.581
X99.829 Y360.471
X99.835 Y360.48
X101.108 Y362.376
X101.113 Y362.383
X102.398 Y364.285
X102.404 Y364.294
X103.703 Y366.202
X103.708 Y366.209
X105.019 Y368.123
X105.025 Y368.132
X106.349 Y370.051
X106.354 Y370.058
X107.691 Y371.983
X107.697 Y371.992
X109.047 Y373.922
X109.051 Y373.928
X110.413 Y375.864
X110.419 Y375.872
X111.794 Y377.813
X111.799 Y377.82
X113.186 Y379.767
X113.192 Y379.775
X114.592 Y381.726
X114.597 Y381.733
X116.01 Y383.69
X116.014 Y383.696
X117.438 Y385.658
X117.444 Y385.666
X118.881 Y387.633
X118.885 Y387.639
X120.334 Y389.611
X120.34 Y389.619
X121.802 Y391.596
X121.806 Y391.602
X123.279 Y393.583
X123.285 Y393.591
X124.771 Y395.578
X124.775 Y395.584
X126.272 Y397.575
X126.278 Y397.582
X127.787 Y399.578
X127.792 Y399.584
X129.313 Y401.584
X129.318 Y401.59
X130.851 Y403.595
X130.855 Y403.601
X132.4 Y405.611
X132.405 Y405.617
X133.961 Y407.631
X133.966 Y407.638
X135.534 Y409.656
X135.539 Y409.661
X137.118 Y411.683
X137.123 Y411.69
X138.714 Y413.716
X138.718 Y413.721
X140.32 Y415.751
X140.325 Y415.757
X141.939 Y417.792
X141.943 Y417.798
X143.568 Y419.836
X143.572 Y419.841
X145.207 Y421.883
X145.213 Y421.89
X146.86 Y423.935
X146.863 Y423.94
X148.521 Y425.99
X148.527 Y425.996
X150.196 Y428.048
X150.199 Y428.053
X151.879 Y430.11
X151.885 Y430.116
X153.576 Y432.175
X153.579 Y432.18
X155.28 Y434.242
X155.285 Y434.248
X156.997 Y436.315
X157.001 Y436.32
X158.723 Y438.389
X158.728 Y438.395
X160.461 Y440.467
X160.464 Y440.471
X162.207 Y442.547
X162.212 Y442.553
X163.967 Y444.631
X163.971 Y444.636
X165.735 Y446.717
X165.739 Y446.722
X167.513 Y448.805
X167.517 Y448.809
X169.301 Y450.896
X169.306 Y450.902
X171.1 Y452.99
X171.104 Y452.995
X172.908 Y455.086
X172.911 Y455.09
X174.726 Y457.184
X174.73 Y457.189
X176.554 Y459.285
X176.56 Y459.293
X180.236 Y463.49
X180.244 Y463.499
X183.958 Y467.705
X183.967 Y467.714
X187.719 Y471.926
X187.727 Y471.935
X191.515 Y476.154
X191.523 Y476.163
X195.348 Y480.387
X195.356 Y480.395
X199.215 Y484.624
X199.223 Y484.633
X203.117 Y488.865
X203.126 Y488.874
X207.055 Y493.109
X207.062 Y493.117
X211.023 Y497.355
X211.032 Y497.365
X215.026 Y501.603
X215.033 Y501.611
X219.058 Y505.85
X219.067 Y505.858
X223.123 Y510.096
X223.131 Y510.105
X227.218 Y514.342
X227.226 Y514.35
X231.342 Y518.584
X231.35 Y518.592
X235.495 Y522.823
X235.503 Y522.831
X239.675 Y527.058
X239.683 Y527.067
X243.883 Y531.289
X243.891 Y531.297
X248.116 Y535.512
X248.125 Y535.52
X252.377 Y539.728
X252.385 Y539.736
X256.661 Y543.936
X256.669 Y543.944
X260.968 Y548.135
X260.976 Y548.143
X265.299 Y552.324
X265.308 Y552.332
X269.653 Y556.502
X269.661 Y556.511
X274.027 Y560.668
X274.036 Y560.676
X278.423 Y564.82
X278.432 Y564.828
X282.839 Y568.957
X282.847 Y568.965
X287.272 Y573.079
X287.281 Y573.087
X291.724 Y577.185
X291.733 Y577.194
X296.193 Y581.273
X296.202 Y581.281
X300.678 Y585.342
X300.688 Y585.35
X305.179 Y589.39
X305.188 Y589.398
X309.693 Y593.418
X309.702 Y593.427
X314.221 Y597.424
X314.231 Y597.433
X318.763 Y601.406
X318.773 Y601.414
X323.316 Y605.363
X323.326 Y605.372
X327.879 Y609.294
X327.889 Y609.302
X332.452 Y613.198
X332.463 Y613.208
X337.035 Y617.074
X337.045 Y617.083
X341.625 Y620.92
X341.636 Y620.929
X346.222 Y624.735
X346.233 Y624.744
X350.825 Y628.517
X350.837 Y628.526
X355.434 Y632.266
X355.445 Y632.276
X360.046 Y635.981
X360.058 Y635.99
X364.661 Y639.658
X364.674 Y639.668
X369.28 Y643.298
X369.292 Y643.308
X373.898 Y646.9
X373.908 Y646.908
X376.211 Y648.688
X376.217 Y648.692
X378.52 Y650.463
X378.528 Y650.469
X380.831 Y652.228
X380.836 Y652.232
X383.138 Y653.982
X383.146 Y653.988
X385.448 Y655.726
X385.455 Y655.731
X387.756 Y657.458
X387.762 Y657.463
X390.062 Y659.18
X390.07 Y659.186
X392.369 Y660.891
X392.377 Y660.896
X394.675 Y662.589
X394.682 Y662.594
X396.979 Y664.276
X396.987 Y664.283
X399.283 Y665.952
X399.29 Y665.956
X401.584 Y667.614
X401.592 Y667.62
X403.885 Y669.266
X403.893 Y669.272
X406.184 Y670.905
X406.192 Y670.911
X408.481 Y672.531
X408.488 Y672.536
X410.776 Y674.144
X410.784 Y674.15
X413.069 Y675.745
X413.078 Y675.751
X415.361 Y677.332
X415.369 Y677.338
X417.649 Y678.906
X417.658 Y678.912
X419.936 Y680.467
X419.945 Y680.473
X422.221 Y682.014
X422.23 Y682.02
X424.502 Y683.547
X424.511 Y683.553
X426.781 Y685.066
X426.79 Y685.072
X429.057 Y686.571
X429.067 Y686.578
X431.33 Y688.062
X431.339 Y688.068
X433.599 Y689.538
X433.61 Y689.545
X435.867 Y690.999
X435.876 Y691.005
X438.129 Y692.445
X438.14 Y692.451
X440.39 Y693.876
X440.4 Y693.883
X442.645 Y695.292
X442.657 Y695.299
X444.899 Y696.692
X444.909 Y696.699
X447.147 Y698.077
X447.158 Y698.083
X449.391 Y699.445
X449.402 Y699.452
X451.631 Y700.798
X451.643 Y700.805
X453.867 Y702.134
X453.879 Y702.141
X456.099 Y703.454
X456.111 Y703.461
X458.326 Y704.757
X458.338 Y704.765
X460.548 Y706.044
X460.561 Y706.051
X462.767 Y707.313
X462.78 Y707.32
X464.98 Y708.564
X464.993 Y708.571
X467.187 Y709.798
X467.2 Y709.806
X469.389 Y711.016
X469.404 Y711.024
X471.588 Y712.215
X471.601 Y712.222
X473.779 Y713.396
X473.793 Y713.404
X475.965 Y714.559
X475.98 Y714.566
X478.146 Y715.703
X478.161 Y715.711
X480.321 Y716.829
X480.336 Y716.837
X482.49 Y717.937
X482.506 Y717.945
X484.653 Y719.025
X484.669 Y719.033
X486.81 Y720.094
X486.826 Y720.102
X488.961 Y721.144
