(PferdeckeLufter_03)
(T4 D=5 CR=0 - ZMIN=-28 - flat end mill)
G90 G94
G17
G21
(-Attention- Property Safe Retracts is set to Clearance Height.)
(Ensure the clearance height will clear the part and or fixtures.)
(Raise the Z-axis to a safe height before starting the program.)

(2D Contour1 3)
T4
S5000 M3
G17 G90 G94
G54
M8
G0 X224.379 Y97.005
Z15
G0 Z5
G1 Z3 F333.3
Z-4
G2 X222.049 Y99.499 I0.17 J2.494 F1000
G1 Y539.68
X222.036 Y540.244
X221.998 Y540.999
X221.937 Y541.744
X221.851 Y542.48
X221.741 Y543.213
X221.607 Y543.938
X221.449 Y544.658
X221.27 Y545.368
X221.066 Y546.074
X220.841 Y546.772
X220.593 Y547.46
X220.324 Y548.137
X220.034 Y548.805
X219.72 Y549.464
X219.387 Y550.115
X219.034 Y550.75
X218.66 Y551.374
X218.263 Y551.989
X217.85 Y552.589
X217.417 Y553.173
X216.965 Y553.745
X216.492 Y554.304
X216.002 Y554.848
X215.495 Y555.374
X214.966 Y555.887
X214.42 Y556.385
X213.86 Y556.862
X213.282 Y557.323
X212.685 Y557.767
X212.072 Y558.192
X211.438 Y558.602
X210.955 Y558.895
X210.798 Y558.985
X210.795 Y558.988
X210.642 Y559.076
X210.147 Y559.346
X209.473 Y559.693
X208.802 Y560.009
X208.119 Y560.303
X207.426 Y560.576
X206.733 Y560.823
X206.034 Y561.045
X205.326 Y561.245
X204.612 Y561.422
X203.898 Y561.576
X203.179 Y561.704
X202.455 Y561.811
X201.732 Y561.893
X201.005 Y561.952
X200.275 Y561.988
X199.549 Y562
X198.821 Y561.988
X198.093 Y561.952
X197.366 Y561.893
X196.642 Y561.811
X195.917 Y561.704
X195.2 Y561.576
X194.485 Y561.422
X193.772 Y561.245
X193.063 Y561.045
X192.363 Y560.823
X191.67 Y560.576
X190.979 Y560.303
X190.295 Y560.009
X189.624 Y559.693
X188.95 Y559.346
X188.458 Y559.077
X188.309 Y558.991
X188.295 Y558.982
X188.139 Y558.893
X187.659 Y558.602
X187.025 Y558.192
X186.412 Y557.767
X185.815 Y557.323
X185.236 Y556.862
X184.676 Y556.385
X184.132 Y555.887
X183.603 Y555.375
X183.096 Y554.848
X182.604 Y554.303
X182.132 Y553.745
X181.68 Y553.173
X181.245 Y552.587
X180.832 Y551.989
X180.438 Y551.375
X180.062 Y550.749
X179.71 Y550.116
X179.378 Y549.467
X179.064 Y548.805
X178.772 Y548.136
X178.504 Y547.46
X178.256 Y546.77
X178.03 Y546.074
X177.828 Y545.37
X177.648 Y544.658
X177.49 Y543.938
X177.356 Y543.213
X177.246 Y542.48
X177.16 Y541.744
X177.099 Y541.001
X177.062 Y540.245
X177.049 Y539.68
Y99.499
G2 X174.549 Y96.999 I-2.5 J0
G1 X149.549
G2 X147.049 Y99.499 I0 J2.5
G1 Y589.918
X147.05 Y589.972
X147.077 Y591.225
X147.079 Y591.297
X147.163 Y592.958
X147.169 Y593.039
X147.306 Y594.69
X147.314 Y594.771
X147.504 Y596.411
X147.515 Y596.497
X147.761 Y598.124
X147.774 Y598.201
X148.07 Y599.815
X148.087 Y599.899
X148.437 Y601.497
X148.455 Y601.574
X148.855 Y603.158
X148.877 Y603.239
X149.329 Y604.805
X149.352 Y604.88
X149.852 Y606.428
X149.879 Y606.507
X150.429 Y608.034
X150.457 Y608.108
X151.055 Y609.617
X151.087 Y609.694
X151.734 Y611.18
X151.766 Y611.252
X152.459 Y612.716
X152.497 Y612.792
X153.239 Y614.231
X153.276 Y614.299
X154.062 Y615.714
X154.102 Y615.785
X154.934 Y617.174
X154.978 Y617.243
X155.855 Y618.604
X155.899 Y618.671
X156.819 Y620.003
X156.866 Y620.068
X157.83 Y621.372
X157.879 Y621.437
X158.885 Y622.709
X158.937 Y622.772
X159.985 Y624.012
X160.039 Y624.074
X161.13 Y625.281
X161.184 Y625.339
X162.314 Y626.513
X162.372 Y626.571
X163.543 Y627.71
X163.604 Y627.768
X164.815 Y628.869
X164.876 Y628.922
X166.125 Y629.986
X166.188 Y630.038
X167.474 Y631.063
X167.54 Y631.114
X168.865 Y632.1
X168.931 Y632.148
X170.292 Y633.093
X170.361 Y633.139
X171.758 Y634.042
X171.816 Y634.078
X172.887 Y634.729
X172.943 Y634.762
X173.301 Y634.967
X173.657 Y635.174
X173.708 Y635.202
X174.806 Y635.804
X174.868 Y635.837
X176.349 Y636.596
X176.422 Y636.632
X177.92 Y637.339
X177.997 Y637.374
X179.514 Y638.028
X179.591 Y638.059
X181.123 Y638.66
X181.198 Y638.688
X182.744 Y639.238
X182.822 Y639.265
X184.38 Y639.762
X184.459 Y639.785
X186.031 Y640.23
X186.109 Y640.251
X187.69 Y640.644
X187.771 Y640.663
X189.363 Y641.003
X189.442 Y641.018
X191.04 Y641.306
X191.119 Y641.319
X192.723 Y641.555
X192.807 Y641.566
X194.419 Y641.748
X194.495 Y641.756
X196.109 Y641.888
X196.193 Y641.893
X197.811 Y641.971
X197.891 Y641.974
X199.509 Y642
X199.589
X201.207 Y641.974
X201.288 Y641.971
X202.904 Y641.893
X202.987 Y641.888
X204.603 Y641.756
X204.68 Y641.748
X206.289 Y641.566
X206.371 Y641.555
X207.977 Y641.319
X208.057 Y641.306
X209.655 Y641.018
X209.734 Y641.003
X211.325 Y640.663
X211.406 Y640.644
X212.988 Y640.251
X213.066 Y640.23
X214.637 Y639.785
X214.715 Y639.762
X216.274 Y639.265
X216.353 Y639.238
X217.899 Y638.688
X217.974 Y638.66
X219.506 Y638.059
X219.584 Y638.027
X221.099 Y637.373
X221.174 Y637.339
X222.673 Y636.632
X222.748 Y636.596
X224.228 Y635.837
X224.288 Y635.805
X225.387 Y635.203
X225.433 Y635.177
X225.796 Y634.968
X226.158 Y634.759
X226.208 Y634.73
X227.28 Y634.079
X227.339 Y634.042
X228.736 Y633.139
X228.805 Y633.093
X230.166 Y632.148
X230.233 Y632.099
X231.557 Y631.113
X231.621 Y631.064
X232.908 Y630.039
X232.972 Y629.986
X234.221 Y628.922
X234.283 Y628.868
X235.493 Y627.767
X235.553 Y627.71
X236.724 Y626.571
X236.781 Y626.513
X237.912 Y625.339
X237.968 Y625.28
X239.057 Y624.073
X239.11 Y624.013
X240.159 Y622.773
X240.21 Y622.71
X241.217 Y621.438
X241.267 Y621.372
X242.231 Y620.068
X242.277 Y620.004
X243.198 Y618.672
X243.244 Y618.603
X244.12 Y617.242
X244.163 Y617.174
X244.995 Y615.785
X245.035 Y615.714
X245.821 Y614.299
X245.859 Y614.228
X246.599 Y612.789
X246.634 Y612.718
X247.329 Y611.254
X247.364 Y611.179
X248.01 Y609.693
X248.04 Y609.62
X248.64 Y608.111
X248.669 Y608.034
X249.219 Y606.507
X249.246 Y606.428
X249.746 Y604.88
X249.769 Y604.804
X250.22 Y603.238
X250.242 Y603.158
X250.642 Y601.574
X250.66 Y601.495
X251.009 Y599.897
X251.026 Y599.816
X251.323 Y598.202
X251.336 Y598.121
X251.58 Y596.494
X251.591 Y596.414
X251.783 Y594.774
X251.791 Y594.691
X251.929 Y593.04
X251.935 Y592.957
X252.018 Y591.296
X252.02 Y591.227
X252.048 Y589.974
X252.049 Y589.918
Y99.499
G2 X249.549 Y96.999 I-2.5 J0
G1 X224.549
X224.379 Y97.005
Z-8 F333.3
G2 X222.049 Y99.499 I0.17 J2.494 F1000
G1 Y539.68
X222.036 Y540.244
X221.998 Y540.999
X221.937 Y541.744
X221.851 Y542.48
X221.741 Y543.213
X221.607 Y543.938
X221.449 Y544.658
X221.27 Y545.368
X221.066 Y546.074
X220.841 Y546.772
X220.593 Y547.46
X220.324 Y548.137
X220.034 Y548.805
X219.72 Y549.464
X219.387 Y550.115
X219.034 Y550.75
X218.66 Y551.374
X218.263 Y551.989
X217.85 Y552.589
X217.417 Y553.173
X216.965 Y553.745
X216.492 Y554.304
X216.002 Y554.848
X215.495 Y555.374
X214.966 Y555.887
X214.42 Y556.385
X213.86 Y556.862
X213.282 Y557.323
X212.685 Y557.767
X212.072 Y558.192
X211.438 Y558.602
X210.955 Y558.895
X210.798 Y558.985
X210.795 Y558.988
X210.642 Y559.076
X210.147 Y559.346
X209.473 Y559.693
X208.802 Y560.009
X208.119 Y560.303
X207.426 Y560.576
X206.733 Y560.823
X206.034 Y561.045
X205.326 Y561.245
X204.612 Y561.422
X203.898 Y561.576
X203.179 Y561.704
X202.455 Y561.811
X201.732 Y561.893
X201.005 Y561.952
X200.275 Y561.988
X199.549 Y562
X198.821 Y561.988
X198.093 Y561.952
X197.366 Y561.893
X196.642 Y561.811
X195.917 Y561.704
X195.2 Y561.576
X194.485 Y561.422
X193.772 Y561.245
X193.063 Y561.045
X192.363 Y560.823
X191.67 Y560.576
X190.979 Y560.303
X190.295 Y560.009
X189.624 Y559.693
X188.95 Y559.346
X188.458 Y559.077
X188.309 Y558.991
X188.295 Y558.982
X188.139 Y558.893
X187.659 Y558.602
X187.025 Y558.192
X186.412 Y557.767
X185.815 Y557.323
X185.236 Y556.862
X184.676 Y556.385
X184.132 Y555.887
X183.603 Y555.375
X183.096 Y554.848
X182.604 Y554.303
X182.132 Y553.745
X181.68 Y553.173
X181.245 Y552.587
X180.832 Y551.989
X180.438 Y551.375
X180.062 Y550.749
X179.71 Y550.116
X179.378 Y549.467
X179.064 Y548.805
X178.772 Y548.136
X178.504 Y547.46
X178.256 Y546.77
X178.03 Y546.074
X177.828 Y545.37
X177.648 Y544.658
X177.49 Y543.938
X177.356 Y543.213
X177.246 Y542.48
X177.16 Y541.744
X177.099 Y541.001
X177.062 Y540.245
X177.049 Y539.68
Y99.499
G2 X174.549 Y96.999 I-2.5 J0
G1 X149.549
G2 X147.049 Y99.499 I0 J2.5
G1 Y589.918
X147.05 Y589.972
X147.077 Y591.225
X147.079 Y591.297
X147.163 Y592.958
X147.169 Y593.039
X147.306 Y594.69
X147.314 Y594.771
X147.504 Y596.411
X147.515 Y596.497
X147.761 Y598.124
X147.774 Y598.201
X148.07 Y599.815
X148.087 Y599.899
X148.437 Y601.497
X148.455 Y601.574
X148.855 Y603.158
X148.877 Y603.239
X149.329 Y604.805
X149.352 Y604.88
X149.852 Y606.428
X149.879 Y606.507
X150.429 Y608.034
X150.457 Y608.108
X151.055 Y609.617
X151.087 Y609.694
X151.734 Y611.18
X151.766 Y611.252
X152.459 Y612.716
X152.497 Y612.792
X153.239 Y614.231
X153.276 Y614.299
X154.062 Y615.714
X154.102 Y615.785
X154.934 Y617.174
X154.978 Y617.243
X155.855 Y618.604
X155.899 Y618.671
X156.819 Y620.003
X156.866 Y620.068
X157.83 Y621.372
X157.879 Y621.437
X158.885 Y622.709
X158.937 Y622.772
X159.985 Y624.012
X160.039 Y624.074
X161.13 Y625.281
X161.184 Y625.339
X162.314 Y626.513
X162.372 Y626.571
X163.543 Y627.71
X163.604 Y627.768
X164.815 Y628.869
X164.876 Y628.922
X166.125 Y629.986
X166.188 Y630.038
X167.474 Y631.063
X167.54 Y631.114
X168.865 Y632.1
X168.931 Y632.148
X170.292 Y633.093
X170.361 Y633.139
X171.758 Y634.042
X171.816 Y634.078
X172.887 Y634.729
X172.943 Y634.762
X173.301 Y634.967
X173.657 Y635.174
X173.708 Y635.202
X174.806 Y635.804
X174.868 Y635.837
X176.349 Y636.596
X176.422 Y636.632
X177.92 Y637.339
X177.997 Y637.374
X179.514 Y638.028
X179.591 Y638.059
X181.123 Y638.66
X181.198 Y638.688
X182.744 Y639.238
X182.822 Y639.265
X184.38 Y639.762
X184.459 Y639.785
X186.031 Y640.23
X186.109 Y640.251
X187.69 Y640.644
X187.771 Y640.663
X189.363 Y641.003
X189.442 Y641.018
X191.04 Y641.306
X191.119 Y641.319
X192.723 Y641.555
X192.807 Y641.566
X194.419 Y641.748
X194.495 Y641.756
X196.109 Y641.888
X196.193 Y641.893
X197.811 Y641.971
X197.891 Y641.974
X199.509 Y642
X199.589
X201.207 Y641.974
X201.288 Y641.971
X202.904 Y641.893
X202.987 Y641.888
X204.603 Y641.756
X204.68 Y641.748
X206.289 Y641.566
X206.371 Y641.555
X207.977 Y641.319
X208.057 Y641.306
X209.655 Y641.018
X209.734 Y641.003
X211.325 Y640.663
X211.406 Y640.644
X212.988 Y640.251
X213.066 Y640.23
X214.637 Y639.785
X214.715 Y639.762
X216.274 Y639.265
X216.353 Y639.238
X217.899 Y638.688
X217.974 Y638.66
X219.506 Y638.059
X219.584 Y638.027
X221.099 Y637.373
X221.174 Y637.339
X222.673 Y636.632
X222.748 Y636.596
X224.228 Y635.837
X224.288 Y635.805
X225.387 Y635.203
X225.433 Y635.177
X225.796 Y634.968
X226.158 Y634.759
X226.208 Y634.73
X227.28 Y634.079
X227.339 Y634.042
X228.736 Y633.139
X228.805 Y633.093
X230.166 Y632.148
X230.233 Y632.099
X231.557 Y631.113
X231.621 Y631.064
X232.908 Y630.039
X232.972 Y629.986
X234.221 Y628.922
X234.283 Y628.868
X235.493 Y627.767
X235.553 Y627.71
X236.724 Y626.571
X236.781 Y626.513
X237.912 Y625.339
X237.968 Y625.28
X239.057 Y624.073
X239.11 Y624.013
X240.159 Y622.773
X240.21 Y622.71
X241.217 Y621.438
X241.267 Y621.372
X242.231 Y620.068
X242.277 Y620.004
X243.198 Y618.672
X243.244 Y618.603
X244.12 Y617.242
X244.163 Y617.174
X244.995 Y615.785
X245.035 Y615.714
X245.821 Y614.299
X245.859 Y614.228
X246.599 Y612.789
X246.634 Y612.718
X247.329 Y611.254
X247.364 Y611.179
X248.01 Y609.693
X248.04 Y609.62
X248.64 Y608.111
X248.669 Y608.034
X249.219 Y606.507
X249.246 Y606.428
X249.746 Y604.88
X249.769 Y604.804
X250.22 Y603.238
X250.242 Y603.158
X250.642 Y601.574
X250.66 Y601.495
X251.009 Y599.897
X251.026 Y599.816
X251.323 Y598.202
X251.336 Y598.121
X251.58 Y596.494
X251.591 Y596.414
X251.783 Y594.774
X251.791 Y594.691
X251.929 Y593.04
X251.935 Y592.957
X252.018 Y591.296
X252.02 Y591.227
X252.048 Y589.974
X252.049 Y589.918
Y99.499
G2 X249.549 Y96.999 I-2.5 J0
G1 X224.549
X224.379 Y97.005
Z-12 F333.3
G2 X222.049 Y99.499 I0.17 J2.494 F1000
G1 Y539.68
X222.036 Y540.244
X221.998 Y540.999
X221.937 Y541.744
X221.851 Y542.48
X221.741 Y543.213
X221.607 Y543.938
X221.449 Y544.658
X221.27 Y545.368
X221.066 Y546.074
X220.841 Y546.772
X220.593 Y547.46
X220.324 Y548.137
X220.034 Y548.805
X219.72 Y549.464
X219.387 Y550.115
X219.034 Y550.75
X218.66 Y551.374
X218.263 Y551.989
X217.85 Y552.589
X217.417 Y553.173
X216.965 Y553.745
X216.492 Y554.304
X216.002 Y554.848
X215.495 Y555.374
X214.966 Y555.887
X214.42 Y556.385
X213.86 Y556.862
X213.282 Y557.323
X212.685 Y557.767
X212.072 Y558.192
X211.438 Y558.602
X210.955 Y558.895
X210.798 Y558.985
X210.795 Y558.988
X210.642 Y559.076
X210.147 Y559.346
X209.473 Y559.693
X208.802 Y560.009
X208.119 Y560.303
X207.426 Y560.576
X206.733 Y560.823
X206.034 Y561.045
X205.326 Y561.245
X204.612 Y561.422
X203.898 Y561.576
X203.179 Y561.704
X202.455 Y561.811
X201.732 Y561.893
X201.005 Y561.952
X200.275 Y561.988
X199.549 Y562
X198.821 Y561.988
X198.093 Y561.952
X197.366 Y561.893
X196.642 Y561.811
X195.917 Y561.704
X195.2 Y561.576
X194.485 Y561.422
X193.772 Y561.245
X193.063 Y561.045
X192.363 Y560.823
X191.67 Y560.576
X190.979 Y560.303
X190.295 Y560.009
X189.624 Y559.693
X188.95 Y559.346
X188.458 Y559.077
X188.309 Y558.991
X188.295 Y558.982
X188.139 Y558.893
X187.659 Y558.602
X187.025 Y558.192
X186.412 Y557.767
X185.815 Y557.323
X185.236 Y556.862
X184.676 Y556.385
X184.132 Y555.887
X183.603 Y555.375
X183.096 Y554.848
X182.604 Y554.303
X182.132 Y553.745
X181.68 Y553.173
X181.245 Y552.587
X180.832 Y551.989
X180.438 Y551.375
X180.062 Y550.749
X179.71 Y550.116
X179.378 Y549.467
X179.064 Y548.805
X178.772 Y548.136
X178.504 Y547.46
X178.256 Y546.77
X178.03 Y546.074
X177.828 Y545.37
X177.648 Y544.658
X177.49 Y543.938
X177.356 Y543.213
X177.246 Y542.48
X177.16 Y541.744
X177.099 Y541.001
X177.062 Y540.245
X177.049 Y539.68
Y99.499
G2 X174.549 Y96.999 I-2.5 J0
G1 X149.549
G2 X147.049 Y99.499 I0 J2.5
G1 Y589.918
X147.05 Y589.972
X147.077 Y591.225
X147.079 Y591.297
X147.163 Y592.958
X147.169 Y593.039
X147.306 Y594.69
X147.314 Y594.771
X147.504 Y596.411
X147.515 Y596.497
X147.761 Y598.124
X147.774 Y598.201
X148.07 Y599.815
X148.087 Y599.899
X148.437 Y601.497
X148.455 Y601.574
X148.855 Y603.158
X148.877 Y603.239
X149.329 Y604.805
X149.352 Y604.88
X149.852 Y606.428
X149.879 Y606.507
X150.429 Y608.034
X150.457 Y608.108
X151.055 Y609.617
X151.087 Y609.694
X151.734 Y611.18
X151.766 Y611.252
X152.459 Y612.716
X152.497 Y612.792
X153.239 Y614.231
X153.276 Y614.299
X154.062 Y615.714
X154.102 Y615.785
X154.934 Y617.174
X154.978 Y617.243
X155.855 Y618.604
X155.899 Y618.671
X156.819 Y620.003
X156.866 Y620.068
X157.83 Y621.372
X157.879 Y621.437
X158.885 Y622.709
X158.937 Y622.772
X159.985 Y624.012
X160.039 Y624.074
X161.13 Y625.281
X161.184 Y625.339
X162.314 Y626.513
X162.372 Y626.571
X163.543 Y627.71
X163.604 Y627.768
X164.815 Y628.869
X164.876 Y628.922
X166.125 Y629.986
X166.188 Y630.038
X167.474 Y631.063
X167.54 Y631.114
X168.865 Y632.1
X168.931 Y632.148
X170.292 Y633.093
X170.361 Y633.139
X171.758 Y634.042
X171.816 Y634.078
X172.887 Y634.729
X172.943 Y634.762
X173.301 Y634.967
X173.657 Y635.174
X173.708 Y635.202
X174.806 Y635.804
X174.868 Y635.837
X176.349 Y636.596
X176.422 Y636.632
X177.92 Y637.339
X177.997 Y637.374
X179.514 Y638.028
X179.591 Y638.059
X181.123 Y638.66
X181.198 Y638.688
X182.744 Y639.238
X182.822 Y639.265
X184.38 Y639.762
X184.459 Y639.785
X186.031 Y640.23
X186.109 Y640.251
X187.69 Y640.644
X187.771 Y640.663
X189.363 Y641.003
X189.442 Y641.018
X191.04 Y641.306
X191.119 Y641.319
X192.723 Y641.555
X192.807 Y641.566
X194.419 Y641.748
X194.495 Y641.756
X196.109 Y641.888
X196.193 Y641.893
X197.811 Y641.971
X197.891 Y641.974
X199.509 Y642
X199.589
X201.207 Y641.974
X201.288 Y641.971
X202.904 Y641.893
X202.987 Y641.888
X204.603 Y641.756
X204.68 Y641.748
X206.289 Y641.566
X206.371 Y641.555
X207.977 Y641.319
X208.057 Y641.306
X209.655 Y641.018
X209.734 Y641.003
X211.325 Y640.663
X211.406 Y640.644
X212.988 Y640.251
X213.066 Y640.23
X214.637 Y639.785
X214.715 Y639.762
X216.274 Y639.265
X216.353 Y639.238
X217.899 Y638.688
X217.974 Y638.66
X219.506 Y638.059
X219.584 Y638.027
X221.099 Y637.373
X221.174 Y637.339
X222.673 Y636.632
X222.748 Y636.596
X224.228 Y635.837
X224.288 Y635.805
X225.387 Y635.203
X225.433 Y635.177
X225.796 Y634.968
X226.158 Y634.759
X226.208 Y634.73
X227.28 Y634.079
X227.339 Y634.042
X228.736 Y633.139
X228.805 Y633.093
X230.166 Y632.148
X230.233 Y632.099
X231.557 Y631.113
X231.621 Y631.064
X232.908 Y630.039
X232.972 Y629.986
X234.221 Y628.922
X234.283 Y628.868
X235.493 Y627.767
X235.553 Y627.71
X236.724 Y626.571
X236.781 Y626.513
X237.912 Y625.339
X237.968 Y625.28
X239.057 Y624.073
X239.11 Y624.013
X240.159 Y622.773
X240.21 Y622.71
X241.217 Y621.438
X241.267 Y621.372
X242.231 Y620.068
X242.277 Y620.004
X243.198 Y618.672
X243.244 Y618.603
X244.12 Y617.242
X244.163 Y617.174
X244.995 Y615.785
X245.035 Y615.714
X245.821 Y614.299
X245.859 Y614.228
X246.599 Y612.789
X246.634 Y612.718
X247.329 Y611.254
X247.364 Y611.179
X248.01 Y609.693
X248.04 Y609.62
X248.64 Y608.111
X248.669 Y608.034
X249.219 Y606.507
X249.246 Y606.428
X249.746 Y604.88
X249.769 Y604.804
X250.22 Y603.238
X250.242 Y603.158
X250.642 Y601.574
X250.66 Y601.495
X251.009 Y599.897
X251.026 Y599.816
X251.323 Y598.202
X251.336 Y598.121
X251.58 Y596.494
X251.591 Y596.414
X251.783 Y594.774
X251.791 Y594.691
X251.929 Y593.04
X251.935 Y592.957
X252.018 Y591.296
X252.02 Y591.227
X252.048 Y589.974
X252.049 Y589.918
Y99.499
G2 X249.549 Y96.999 I-2.5 J0
G1 X224.549
X224.379 Y97.005
Z-16 F333.3
G2 X222.049 Y99.499 I0.17 J2.494 F1000
G1 Y539.68
X222.036 Y540.244
X221.998 Y540.999
X221.937 Y541.744
X221.851 Y542.48
X221.741 Y543.213
X221.607 Y543.938
X221.449 Y544.658
X221.27 Y545.368
X221.066 Y546.074
X220.841 Y546.772
X220.593 Y547.46
X220.324 Y548.137
X220.034 Y548.805
X219.72 Y549.464
X219.387 Y550.115
X219.034 Y550.75
X218.66 Y551.374
X218.263 Y551.989
X217.85 Y552.589
X217.417 Y553.173
X216.965 Y553.745
X216.492 Y554.304
X216.002 Y554.848
X215.495 Y555.374
X214.966 Y555.887
X214.42 Y556.385
X213.86 Y556.862
X213.282 Y557.323
X212.685 Y557.767
X212.072 Y558.192
X211.438 Y558.602
X210.955 Y558.895
X210.798 Y558.985
X210.795 Y558.988
X210.642 Y559.076
X210.147 Y559.346
X209.473 Y559.693
X208.802 Y560.009
X208.119 Y560.303
X207.426 Y560.576
X206.733 Y560.823
X206.034 Y561.045
X205.326 Y561.245
X204.612 Y561.422
X203.898 Y561.576
X203.179 Y561.704
X202.455 Y561.811
X201.732 Y561.893
X201.005 Y561.952
X200.275 Y561.988
X199.549 Y562
X198.821 Y561.988
X198.093 Y561.952
X197.366 Y561.893
X196.642 Y561.811
X195.917 Y561.704
X195.2 Y561.576
X194.485 Y561.422
X193.772 Y561.245
X193.063 Y561.045
X192.363 Y560.823
X191.67 Y560.576
X190.979 Y560.303
X190.295 Y560.009
X189.624 Y559.693
X188.95 Y559.346
X188.458 Y559.077
X188.309 Y558.991
X188.295 Y558.982
X188.139 Y558.893
X187.659 Y558.602
X187.025 Y558.192
X186.412 Y557.767
X185.815 Y557.323
X185.236 Y556.862
X184.676 Y556.385
X184.132 Y555.887
X183.603 Y555.375
X183.096 Y554.848
X182.604 Y554.303
X182.132 Y553.745
X181.68 Y553.173
X181.245 Y552.587
X180.832 Y551.989
X180.438 Y551.375
X180.062 Y550.749
X179.71 Y550.116
X179.378 Y549.467
X179.064 Y548.805
X178.772 Y548.136
X178.504 Y547.46
X178.256 Y546.77
X178.03 Y546.074
X177.828 Y545.37
X177.648 Y544.658
X177.49 Y543.938
X177.356 Y543.213
X177.246 Y542.48
X177.16 Y541.744
X177.099 Y541.001
X177.062 Y540.245
X177.049 Y539.68
Y99.499
G2 X174.549 Y96.999 I-2.5 J0
G1 X149.549
G2 X147.049 Y99.499 I0 J2.5
G1 Y589.918
X147.05 Y589.972
X147.077 Y591.225
X147.079 Y591.297
X147.163 Y592.958
X147.169 Y593.039
X147.306 Y594.69
X147.314 Y594.771
X147.504 Y596.411
X147.515 Y596.497
X147.761 Y598.124
X147.774 Y598.201
X148.07 Y599.815
X148.087 Y599.899
X148.437 Y601.497
X148.455 Y601.574
X148.855 Y603.158
X148.877 Y603.239
X149.329 Y604.805
X149.352 Y604.88
X149.852 Y606.428
X149.879 Y606.507
X150.429 Y608.034
X150.457 Y608.108
X151.055 Y609.617
X151.087 Y609.694
X151.734 Y611.18
X151.766 Y611.252
X152.459 Y612.716
X152.497 Y612.792
X153.239 Y614.231
X153.276 Y614.299
X154.062 Y615.714
X154.102 Y615.785
X154.934 Y617.174
X154.978 Y617.243
X155.855 Y618.604
X155.899 Y618.671
X156.819 Y620.003
X156.866 Y620.068
X157.83 Y621.372
X157.879 Y621.437
X158.885 Y622.709
X158.937 Y622.772
X159.985 Y624.012
X160.039 Y624.074
X161.13 Y625.281
X161.184 Y625.339
X162.314 Y626.513
X162.372 Y626.571
X163.543 Y627.71
X163.604 Y627.768
X164.815 Y628.869
X164.876 Y628.922
X166.125 Y629.986
X166.188 Y630.038
X167.474 Y631.063
X167.54 Y631.114
X168.865 Y632.1
X168.931 Y632.148
X170.292 Y633.093
X170.361 Y633.139
X171.758 Y634.042
X171.816 Y634.078
X172.887 Y634.729
X172.943 Y634.762
X173.301 Y634.967
X173.657 Y635.174
X173.708 Y635.202
X174.806 Y635.804
X174.868 Y635.837
X176.349 Y636.596
X176.422 Y636.632
X177.92 Y637.339
X177.997 Y637.374
X179.514 Y638.028
X179.591 Y638.059
X181.123 Y638.66
X181.198 Y638.688
X182.744 Y639.238
X182.822 Y639.265
X184.38 Y639.762
X184.459 Y639.785
X186.031 Y640.23
X186.109 Y640.251
X187.69 Y640.644
X187.771 Y640.663
X189.363 Y641.003
X189.442 Y641.018
X191.04 Y641.306
X191.119 Y641.319
X192.723 Y641.555
X192.807 Y641.566
X194.419 Y641.748
X194.495 Y641.756
X196.109 Y641.888
X196.193 Y641.893
X197.811 Y641.971
X197.891 Y641.974
X199.509 Y642
X199.589
X201.207 Y641.974
X201.288 Y641.971
X202.904 Y641.893
X202.987 Y641.888
X204.603 Y641.756
X204.68 Y641.748
X206.289 Y641.566
X206.371 Y641.555
X207.977 Y641.319
X208.057 Y641.306
X209.655 Y641.018
X209.734 Y641.003
X211.325 Y640.663
X211.406 Y640.644
X212.988 Y640.251
X213.066 Y640.23
X214.637 Y639.785
X214.715 Y639.762
X216.274 Y639.265
X216.353 Y639.238
X217.899 Y638.688
X217.974 Y638.66
X219.506 Y638.059
X219.584 Y638.027
X221.099 Y637.373
X221.174 Y637.339
X222.673 Y636.632
X222.748 Y636.596
X224.228 Y635.837
X224.288 Y635.805
X225.387 Y635.203
X225.433 Y635.177
X225.796 Y634.968
X226.158 Y634.759
X226.208 Y634.73
X227.28 Y634.079
X227.339 Y634.042
X228.736 Y633.139
X228.805 Y633.093
X230.166 Y632.148
X230.233 Y632.099
X231.557 Y631.113
X231.621 Y631.064
X232.908 Y630.039
X232.972 Y629.986
X234.221 Y628.922
X234.283 Y628.868
X235.493 Y627.767
X235.553 Y627.71
X236.724 Y626.571
X236.781 Y626.513
X237.912 Y625.339
X237.968 Y625.28
X239.057 Y624.073
X239.11 Y624.013
X240.159 Y622.773
X240.21 Y622.71
X241.217 Y621.438
X241.267 Y621.372
X242.231 Y620.068
X242.277 Y620.004
X243.198 Y618.672
X243.244 Y618.603
X244.12 Y617.242
X244.163 Y617.174
X244.995 Y615.785
X245.035 Y615.714
X245.821 Y614.299
X245.859 Y614.228
X246.599 Y612.789
X246.634 Y612.718
X247.329 Y611.254
X247.364 Y611.179
X248.01 Y609.693
X248.04 Y609.62
X248.64 Y608.111
X248.669 Y608.034
X249.219 Y606.507
X249.246 Y606.428
X249.746 Y604.88
X249.769 Y604.804
X250.22 Y603.238
X250.242 Y603.158
X250.642 Y601.574
X250.66 Y601.495
X251.009 Y599.897
X251.026 Y599.816
X251.323 Y598.202
X251.336 Y598.121
X251.58 Y596.494
X251.591 Y596.414
X251.783 Y594.774
X251.791 Y594.691
X251.929 Y593.04
X251.935 Y592.957
X252.018 Y591.296
X252.02 Y591.227
X252.048 Y589.974
X252.049 Y589.918
Y99.499
G2 X249.549 Y96.999 I-2.5 J0
G1 X224.549
X224.379 Y97.005
Z-20 F333.3
G2 X222.049 Y99.499 I0.17 J2.494 F1000
G1 Y539.68
X222.036 Y540.244
X221.998 Y540.999
X221.937 Y541.744
X221.851 Y542.48
X221.741 Y543.213
X221.607 Y543.938
X221.449 Y544.658
X221.27 Y545.368
X221.066 Y546.074
X220.841 Y546.772
X220.593 Y547.46
X220.324 Y548.137
X220.034 Y548.805
X219.72 Y549.464
X219.387 Y550.115
X219.034 Y550.75
X218.66 Y551.374
X218.263 Y551.989
X217.85 Y552.589
X217.417 Y553.173
X216.965 Y553.745
X216.492 Y554.304
X216.002 Y554.848
X215.495 Y555.374
X214.966 Y555.887
X214.42 Y556.385
X213.86 Y556.862
X213.282 Y557.323
X212.685 Y557.767
X212.072 Y558.192
X211.438 Y558.602
X210.955 Y558.895
X210.798 Y558.985
X210.795 Y558.988
X210.642 Y559.076
X210.147 Y559.346
X209.473 Y559.693
X208.802 Y560.009
X208.119 Y560.303
X207.426 Y560.576
X206.733 Y560.823
X206.034 Y561.045
X205.326 Y561.245
X204.612 Y561.422
X203.898 Y561.576
X203.179 Y561.704
X202.455 Y561.811
X201.732 Y561.893
X201.005 Y561.952
X200.275 Y561.988
X199.549 Y562
X198.821 Y561.988
X198.093 Y561.952
X197.366 Y561.893
X196.642 Y561.811
X195.917 Y561.704
X195.2 Y561.576
X194.485 Y561.422
X193.772 Y561.245
X193.063 Y561.045
X192.363 Y560.823
X191.67 Y560.576
X190.979 Y560.303
X190.295 Y560.009
X189.624 Y559.693
X188.95 Y559.346
X188.458 Y559.077
X188.309 Y558.991
X188.295 Y558.982
X188.139 Y558.893
X187.659 Y558.602
X187.025 Y558.192
X186.412 Y557.767
X185.815 Y557.323
X185.236 Y556.862
X184.676 Y556.385
X184.132 Y555.887
X183.603 Y555.375
X183.096 Y554.848
X182.604 Y554.303
X182.132 Y553.745
X181.68 Y553.173
X181.245 Y552.587
X180.832 Y551.989
X180.438 Y551.375
X180.062 Y550.749
X179.71 Y550.116
X179.378 Y549.467
X179.064 Y548.805
X178.772 Y548.136
X178.504 Y547.46
X178.256 Y546.77
X178.03 Y546.074
X177.828 Y545.37
X177.648 Y544.658
X177.49 Y543.938
X177.356 Y543.213
X177.246 Y542.48
X177.16 Y541.744
X177.099 Y541.001
X177.062 Y540.245
X177.049 Y539.68
Y99.499
G2 X174.549 Y96.999 I-2.5 J0
G1 X149.549
G2 X147.049 Y99.499 I0 J2.5
G1 Y589.918
X147.05 Y589.972
X147.077 Y591.225
X147.079 Y591.297
X147.163 Y592.958
X147.169 Y593.039
X147.306 Y594.69
X147.314 Y594.771
X147.504 Y596.411
X147.515 Y596.497
X147.761 Y598.124
X147.774 Y598.201
X148.07 Y599.815
X148.087 Y599.899
X148.437 Y601.497
X148.455 Y601.574
X148.855 Y603.158
X148.877 Y603.239
X149.329 Y604.805
X149.352 Y604.88
X149.852 Y606.428
X149.879 Y606.507
X150.429 Y608.034
X150.457 Y608.108
X151.055 Y609.617
X151.087 Y609.694
X151.734 Y611.18
X151.766 Y611.252
X152.459 Y612.716
X152.497 Y612.792
X153.239 Y614.231
X153.276 Y614.299
X154.062 Y615.714
X154.102 Y615.785
X154.934 Y617.174
X154.978 Y617.243
X155.855 Y618.604
X155.899 Y618.671
X156.819 Y620.003
X156.866 Y620.068
X157.83 Y621.372
X157.879 Y621.437
X158.885 Y622.709
X158.937 Y622.772
X159.985 Y624.012
X160.039 Y624.074
X161.13 Y625.281
X161.184 Y625.339
X162.314 Y626.513
X162.372 Y626.571
X163.543 Y627.71
X163.604 Y627.768
X164.815 Y628.869
X164.876 Y628.922
X166.125 Y629.986
X166.188 Y630.038
X167.474 Y631.063
X167.54 Y631.114
X168.865 Y632.1
X168.931 Y632.148
X170.292 Y633.093
X170.361 Y633.139
X171.758 Y634.042
X171.816 Y634.078
X172.887 Y634.729
X172.943 Y634.762
X173.301 Y634.967
X173.657 Y635.174
X173.708 Y635.202
X174.806 Y635.804
X174.868 Y635.837
X176.349 Y636.596
X176.422 Y636.632
X177.92 Y637.339
X177.997 Y637.374
X179.514 Y638.028
X179.591 Y638.059
X181.123 Y638.66
X181.198 Y638.688
X182.744 Y639.238
X182.822 Y639.265
X184.38 Y639.762
X184.459 Y639.785
X186.031 Y640.23
X186.109 Y640.251
X187.69 Y640.644
X187.771 Y640.663
X189.363 Y641.003
X189.442 Y641.018
X191.04 Y641.306
X191.119 Y641.319
X192.723 Y641.555
X192.807 Y641.566
X194.419 Y641.748
X194.495 Y641.756
X196.109 Y641.888
X196.193 Y641.893
X197.811 Y641.971
X197.891 Y641.974
X199.509 Y642
X199.589
X201.207 Y641.974
X201.288 Y641.971
X202.904 Y641.893
X202.987 Y641.888
X204.603 Y641.756
X204.68 Y641.748
X206.289 Y641.566
X206.371 Y641.555
X207.977 Y641.319
X208.057 Y641.306
X209.655 Y641.018
X209.734 Y641.003
X211.325 Y640.663
X211.406 Y640.644
X212.988 Y640.251
X213.066 Y640.23
X214.637 Y639.785
X214.715 Y639.762
X216.274 Y639.265
X216.353 Y639.238
X217.899 Y638.688
X217.974 Y638.66
X219.506 Y638.059
X219.584 Y638.027
X221.099 Y637.373
X221.174 Y637.339
X222.673 Y636.632
X222.748 Y636.596
X224.228 Y635.837
X224.288 Y635.805
X225.387 Y635.203
X225.433 Y635.177
X225.796 Y634.968
X226.158 Y634.759
X226.208 Y634.73
X227.28 Y634.079
X227.339 Y634.042
X228.736 Y633.139
X228.805 Y633.093
X230.166 Y632.148
X230.233 Y632.099
X231.557 Y631.113
X231.621 Y631.064
X232.908 Y630.039
X232.972 Y629.986
X234.221 Y628.922
X234.283 Y628.868
X235.493 Y627.767
X235.553 Y627.71
X236.724 Y626.571
X236.781 Y626.513
X237.912 Y625.339
X237.968 Y625.28
X239.057 Y624.073
X239.11 Y624.013
X240.159 Y622.773
X240.21 Y622.71
X241.217 Y621.438
X241.267 Y621.372
X242.231 Y620.068
X242.277 Y620.004
X243.198 Y618.672
X243.244 Y618.603
X244.12 Y617.242
X244.163 Y617.174
X244.995 Y615.785
X245.035 Y615.714
X245.821 Y614.299
X245.859 Y614.228
X246.599 Y612.789
X246.634 Y612.718
X247.329 Y611.254
X247.364 Y611.179
X248.01 Y609.693
X248.04 Y609.62
X248.64 Y608.111
X248.669 Y608.034
X249.219 Y606.507
X249.246 Y606.428
X249.746 Y604.88
X249.769 Y604.804
X250.22 Y603.238
X250.242 Y603.158
X250.642 Y601.574
X250.66 Y601.495
X251.009 Y599.897
X251.026 Y599.816
X251.323 Y598.202
X251.336 Y598.121
X251.58 Y596.494
X251.591 Y596.414
X251.783 Y594.774
X251.791 Y594.691
X251.929 Y593.04
X251.935 Y592.957
X252.018 Y591.296
X252.02 Y591.227
X252.048 Y589.974
X252.049 Y589.918
Y99.499
G2 X249.549 Y96.999 I-2.5 J0
G1 X224.549
X224.379 Y97.005
Z-24 F333.3
G2 X222.049 Y99.499 I0.17 J2.494 F1000
G1 Y539.68
X222.036 Y540.244
X221.998 Y540.999
X221.937 Y541.744
X221.851 Y542.48
X221.741 Y543.213
X221.607 Y543.938
X221.449 Y544.658
X221.27 Y545.368
X221.066 Y546.074
X220.841 Y546.772
X220.593 Y547.46
X220.324 Y548.137
X220.034 Y548.805
X219.72 Y549.464
X219.387 Y550.115
X219.034 Y550.75
X218.66 Y551.374
X218.263 Y551.989
X217.85 Y552.589
X217.417 Y553.173
X216.965 Y553.745
X216.492 Y554.304
X216.002 Y554.848
X215.495 Y555.374
X214.966 Y555.887
X214.42 Y556.385
X213.86 Y556.862
X213.282 Y557.323
X212.685 Y557.767
X212.072 Y558.192
X211.438 Y558.602
X210.955 Y558.895
X210.798 Y558.985
X210.795 Y558.988
X210.642 Y559.076
X210.147 Y559.346
X209.473 Y559.693
X208.802 Y560.009
X208.119 Y560.303
X207.426 Y560.576
X206.733 Y560.823
X206.034 Y561.045
X205.326 Y561.245
X204.612 Y561.422
X203.898 Y561.576
X203.179 Y561.704
X202.455 Y561.811
X201.732 Y561.893
X201.005 Y561.952
X200.275 Y561.988
X199.549 Y562
X198.821 Y561.988
X198.093 Y561.952
X197.366 Y561.893
X196.642 Y561.811
X195.917 Y561.704
X195.2 Y561.576
X194.485 Y561.422
X193.772 Y561.245
X193.063 Y561.045
X192.363 Y560.823
X191.67 Y560.576
X190.979 Y560.303
X190.295 Y560.009
X189.624 Y559.693
X188.95 Y559.346
X188.458 Y559.077
X188.309 Y558.991
X188.295 Y558.982
X188.139 Y558.893
X187.659 Y558.602
X187.025 Y558.192
X186.412 Y557.767
X185.815 Y557.323
X185.236 Y556.862
X184.676 Y556.385
X184.132 Y555.887
X183.603 Y555.375
X183.096 Y554.848
X182.604 Y554.303
X182.132 Y553.745
X181.68 Y553.173
X181.245 Y552.587
X180.832 Y551.989
X180.438 Y551.375
X180.062 Y550.749
X179.71 Y550.116
X179.378 Y549.467
X179.064 Y548.805
X178.772 Y548.136
X178.504 Y547.46
X178.256 Y546.77
X178.03 Y546.074
X177.828 Y545.37
X177.648 Y544.658
X177.49 Y543.938
X177.356 Y543.213
X177.246 Y542.48
X177.16 Y541.744
X177.099 Y541.001
X177.062 Y540.245
X177.049 Y539.68
Y99.499
G2 X174.549 Y96.999 I-2.5 J0
G1 X149.549
G2 X147.049 Y99.499 I0 J2.5
G1 Y589.918
X147.05 Y589.972
X147.077 Y591.225
X147.079 Y591.297
X147.163 Y592.958
X147.169 Y593.039
X147.306 Y594.69
X147.314 Y594.771
X147.504 Y596.411
X147.515 Y596.497
X147.761 Y598.124
X147.774 Y598.201
X148.07 Y599.815
X148.087 Y599.899
X148.437 Y601.497
X148.455 Y601.574
X148.855 Y603.158
X148.877 Y603.239
X149.329 Y604.805
X149.352 Y604.88
X149.852 Y606.428
X149.879 Y606.507
X150.429 Y608.034
X150.457 Y608.108
X151.055 Y609.617
X151.087 Y609.694
X151.734 Y611.18
X151.766 Y611.252
X152.459 Y612.716
X152.497 Y612.792
X153.239 Y614.231
X153.276 Y614.299
X154.062 Y615.714
X154.102 Y615.785
X154.934 Y617.174
X154.978 Y617.243
X155.855 Y618.604
X155.899 Y618.671
X156.819 Y620.003
X156.866 Y620.068
X157.83 Y621.372
X157.879 Y621.437
X158.885 Y622.709
X158.937 Y622.772
X159.985 Y624.012
X160.039 Y624.074
X161.13 Y625.281
X161.184 Y625.339
X162.314 Y626.513
X162.372 Y626.571
X163.543 Y627.71
X163.604 Y627.768
X164.815 Y628.869
X164.876 Y628.922
X166.125 Y629.986
X166.188 Y630.038
X167.474 Y631.063
X167.54 Y631.114
X168.865 Y632.1
X168.931 Y632.148
X170.292 Y633.093
X170.361 Y633.139
X171.758 Y634.042
X171.816 Y634.078
X172.887 Y634.729
X172.943 Y634.762
X173.301 Y634.967
X173.657 Y635.174
X173.708 Y635.202
X174.806 Y635.804
X174.868 Y635.837
X176.349 Y636.596
X176.422 Y636.632
X177.92 Y637.339
X177.997 Y637.374
X179.514 Y638.028
X179.591 Y638.059
X181.123 Y638.66
X181.198 Y638.688
X182.744 Y639.238
X182.822 Y639.265
X184.38 Y639.762
X184.459 Y639.785
X186.031 Y640.23
X186.109 Y640.251
X187.69 Y640.644
X187.771 Y640.663
X189.363 Y641.003
X189.442 Y641.018
X191.04 Y641.306
X191.119 Y641.319
X192.723 Y641.555
X192.807 Y641.566
X194.419 Y641.748
X194.495 Y641.756
X196.109 Y641.888
X196.193 Y641.893
X197.811 Y641.971
X197.891 Y641.974
X199.509 Y642
X199.589
X201.207 Y641.974
X201.288 Y641.971
X202.904 Y641.893
X202.987 Y641.888
X204.603 Y641.756
X204.68 Y641.748
X206.289 Y641.566
X206.371 Y641.555
X207.977 Y641.319
X208.057 Y641.306
X209.655 Y641.018
X209.734 Y641.003
X211.325 Y640.663
X211.406 Y640.644
X212.988 Y640.251
X213.066 Y640.23
X214.637 Y639.785
X214.715 Y639.762
X216.274 Y639.265
X216.353 Y639.238
X217.899 Y638.688
X217.974 Y638.66
X219.506 Y638.059
X219.584 Y638.027
X221.099 Y637.373
X221.174 Y637.339
X222.673 Y636.632
X222.748 Y636.596
X224.228 Y635.837
X224.288 Y635.805
X225.387 Y635.203
X225.433 Y635.177
X225.796 Y634.968
X226.158 Y634.759
X226.208 Y634.73
X227.28 Y634.079
X227.339 Y634.042
X228.736 Y633.139
X228.805 Y633.093
X230.166 Y632.148
X230.233 Y632.099
X231.557 Y631.113
X231.621 Y631.064
X232.908 Y630.039
X232.972 Y629.986
X234.221 Y628.922
X234.283 Y628.868
X235.493 Y627.767
X235.553 Y627.71
X236.724 Y626.571
X236.781 Y626.513
X237.912 Y625.339
X237.968 Y625.28
X239.057 Y624.073
X239.11 Y624.013
X240.159 Y622.773
X240.21 Y622.71
X241.217 Y621.438
X241.267 Y621.372
X242.231 Y620.068
X242.277 Y620.004
X243.198 Y618.672
X243.244 Y618.603
X244.12 Y617.242
X244.163 Y617.174
X244.995 Y615.785
X245.035 Y615.714
X245.821 Y614.299
X245.859 Y614.228
X246.599 Y612.789
X246.634 Y612.718
X247.329 Y611.254
X247.364 Y611.179
X248.01 Y609.693
X248.04 Y609.62
X248.64 Y608.111
X248.669 Y608.034
X249.219 Y606.507
X249.246 Y606.428
X249.746 Y604.88
X249.769 Y604.804
X250.22 Y603.238
X250.242 Y603.158
X250.642 Y601.574
X250.66 Y601.495
X251.009 Y599.897
X251.026 Y599.816
X251.323 Y598.202
X251.336 Y598.121
X251.58 Y596.494
X251.591 Y596.414
X251.783 Y594.774
X251.791 Y594.691
X251.929 Y593.04
X251.935 Y592.957
X252.018 Y591.296
X252.02 Y591.227
X252.048 Y589.974
X252.049 Y589.918
Y99.499
G2 X249.549 Y96.999 I-2.5 J0
G1 X224.549
X224.379 Y97.005
Z-28 F333.3
G2 X222.049 Y99.499 I0.17 J2.494 F1000
G1 Y539.68
X222.036 Y540.244
X221.998 Y540.999
X221.937 Y541.744
X221.851 Y542.48
X221.741 Y543.213
X221.607 Y543.938
X221.449 Y544.658
X221.27 Y545.368
X221.066 Y546.074
X220.841 Y546.772
X220.593 Y547.46
X220.324 Y548.137
X220.034 Y548.805
X219.72 Y549.464
X219.387 Y550.115
X219.034 Y550.75
X218.66 Y551.374
X218.263 Y551.989
X217.85 Y552.589
X217.417 Y553.173
X216.965 Y553.745
X216.492 Y554.304
X216.002 Y554.848
X215.495 Y555.374
X214.966 Y555.887
X214.42 Y556.385
X213.86 Y556.862
X213.282 Y557.323
X212.685 Y557.767
X212.072 Y558.192
X211.438 Y558.602
X210.955 Y558.895
X210.798 Y558.985
X210.795 Y558.988
X210.642 Y559.076
X210.147 Y559.346
X209.473 Y559.693
X208.802 Y560.009
X208.119 Y560.303
X207.426 Y560.576
X206.733 Y560.823
X206.034 Y561.045
X205.326 Y561.245
X204.612 Y561.422
X203.898 Y561.576
X203.179 Y561.704
X202.455 Y561.811
X201.732 Y561.893
X201.005 Y561.952
X200.275 Y561.988
X199.549 Y562
X198.821 Y561.988
X198.093 Y561.952
X197.366 Y561.893
X196.642 Y561.811
X195.917 Y561.704
X195.2 Y561.576
X194.485 Y561.422
X193.772 Y561.245
X193.063 Y561.045
X192.363 Y560.823
X191.67 Y560.576
X190.979 Y560.303
X190.295 Y560.009
X189.624 Y559.693
X188.95 Y559.346
X188.458 Y559.077
X188.309 Y558.991
X188.295 Y558.982
X188.139 Y558.893
X187.659 Y558.602
X187.025 Y558.192
X186.412 Y557.767
X185.815 Y557.323
X185.236 Y556.862
X184.676 Y556.385
X184.132 Y555.887
X183.603 Y555.375
X183.096 Y554.848
X182.604 Y554.303
X182.132 Y553.745
X181.68 Y553.173
X181.245 Y552.587
X180.832 Y551.989
X180.438 Y551.375
X180.062 Y550.749
X179.71 Y550.116
X179.378 Y549.467
X179.064 Y548.805
X178.772 Y548.136
X178.504 Y547.46
X178.256 Y546.77
X178.03 Y546.074
X177.828 Y545.37
X177.648 Y544.658
X177.49 Y543.938
X177.356 Y543.213
X177.246 Y542.48
X177.16 Y541.744
X177.099 Y541.001
X177.062 Y540.245
X177.049 Y539.68
Y99.499
G2 X174.549 Y96.999 I-2.5 J0
G1 X149.549
G2 X147.049 Y99.499 I0 J2.5
G1 Y589.918
X147.05 Y589.972
X147.077 Y591.225
X147.079 Y591.297
X147.163 Y592.958
X147.169 Y593.039
X147.306 Y594.69
X147.314 Y594.771
X147.504 Y596.411
X147.515 Y596.497
X147.761 Y598.124
X147.774 Y598.201
X148.07 Y599.815
X148.087 Y599.899
X148.437 Y601.497
X148.455 Y601.574
X148.855 Y603.158
X148.877 Y603.239
X149.329 Y604.805
X149.352 Y604.88
X149.852 Y606.428
X149.879 Y606.507
X150.429 Y608.034
X150.457 Y608.108
X151.055 Y609.617
X151.087 Y609.694
X151.734 Y611.18
X151.766 Y611.252
X152.459 Y612.716
X152.497 Y612.792
X153.239 Y614.231
X153.276 Y614.299
X154.062 Y615.714
X154.102 Y615.785
X154.934 Y617.174
X154.978 Y617.243
X155.855 Y618.604
X155.899 Y618.671
X156.819 Y620.003
X156.866 Y620.068
X157.83 Y621.372
X157.879 Y621.437
X158.885 Y622.709
X158.937 Y622.772
X159.985 Y624.012
X160.039 Y624.074
X161.13 Y625.281
X161.184 Y625.339
X162.314 Y626.513
X162.372 Y626.571
X163.543 Y627.71
X163.604 Y627.768
X164.815 Y628.869
X164.876 Y628.922
X166.125 Y629.986
X166.188 Y630.038
X167.474 Y631.063
X167.54 Y631.114
X168.865 Y632.1
X168.931 Y632.148
X170.292 Y633.093
X170.361 Y633.139
X171.758 Y634.042
X171.816 Y634.078
X172.887 Y634.729
X172.943 Y634.762
X173.301 Y634.967
X173.657 Y635.174
X173.708 Y635.202
X174.806 Y635.804
X174.868 Y635.837
X176.349 Y636.596
X176.422 Y636.632
X177.92 Y637.339
X177.997 Y637.374
X179.514 Y638.028
X179.591 Y638.059
X181.123 Y638.66
X181.198 Y638.688
X182.744 Y639.238
X182.822 Y639.265
X184.38 Y639.762
X184.459 Y639.785
X186.031 Y640.23
X186.109 Y640.251
X187.69 Y640.644
X187.771 Y640.663
X189.363 Y641.003
X189.442 Y641.018
X191.04 Y641.306
X191.119 Y641.319
X192.723 Y641.555
X192.807 Y641.566
X194.419 Y641.748
X194.495 Y641.756
X196.109 Y641.888
X196.193 Y641.893
X197.811 Y641.971
X197.891 Y641.974
X199.509 Y642
X199.589
X201.207 Y641.974
X201.288 Y641.971
X202.904 Y641.893
X202.987 Y641.888
X204.603 Y641.756
X204.68 Y641.748
X206.289 Y641.566
X206.371 Y641.555
X207.977 Y641.319
X208.057 Y641.306
X209.655 Y641.018
X209.734 Y641.003
X211.325 Y640.663
X211.406 Y640.644
X212.988 Y640.251
X213.066 Y640.23
X214.637 Y639.785
X214.715 Y639.762
X216.274 Y639.265
X216.353 Y639.238
X217.899 Y638.688
X217.974 Y638.66
X219.506 Y638.059
X219.584 Y638.027
X221.099 Y637.373
X221.174 Y637.339
X222.673 Y636.632
X222.748 Y636.596
X224.228 Y635.837
X224.288 Y635.805
X225.387 Y635.203
X225.433 Y635.177
X225.796 Y634.968
X226.158 Y634.759
X226.208 Y634.73
X227.28 Y634.079
X227.339 Y634.042
X228.736 Y633.139
X228.805 Y633.093
X230.166 Y632.148
X230.233 Y632.099
X231.557 Y631.113
X231.621 Y631.064
X232.908 Y630.039
X232.972 Y629.986
X234.221 Y628.922
X234.283 Y628.868
X235.493 Y627.767
X235.553 Y627.71
X236.724 Y626.571
X236.781 Y626.513
X237.912 Y625.339
X237.968 Y625.28
X239.057 Y624.073
X239.11 Y624.013
X240.159 Y622.773
X240.21 Y622.71
X241.217 Y621.438
X241.267 Y621.372
X242.231 Y620.068
X242.277 Y620.004
X243.198 Y618.672
X243.244 Y618.603
X244.12 Y617.242
X244.163 Y617.174
X244.995 Y615.785
X245.035 Y615.714
X245.821 Y614.299
X245.859 Y614.228
X246.599 Y612.789
X246.634 Y612.718
X247.329 Y611.254
X247.364 Y611.179
X248.01 Y609.693
X248.04 Y609.62
X248.64 Y608.111
X248.669 Y608.034
X249.219 Y606.507
X249.246 Y606.428
X249.746 Y604.88
X249.769 Y604.804
X250.22 Y603.238
X250.242 Y603.158
X250.642 Y601.574
X250.66 Y601.495
X251.009 Y599.897
X251.026 Y599.816
X251.323 Y598.202
X251.336 Y598.121
X251.58 Y596.494
X251.591 Y596.414
X251.783 Y594.774
X251.791 Y594.691
X251.929 Y593.04
X251.935 Y592.957
X252.018 Y591.296
X252.02 Y591.227
X252.048 Y589.974
X252.049 Y589.918
Y99.499
G2 X249.549 Y96.999 I-2.5 J0
G1 X224.549
X224.379 Y97.005
Z5
G0 Z15

M9
M5
M30
