(PferdeckeLufter_all)
(T4 D=5 CR=0 - ZMIN=-28 - flat end mill)
G90 G94
G17
G21
(-Attention- Property Safe Retracts is set to Clearance Height.)
(Ensure the clearance height will clear the part and or fixtures.)
(Raise the Z-axis to a safe height before starting the program.)

(2D Contour1)
T4
S5000 M3
G17 G90 G94
G54
M8
G0 X75.83 Y97.005
Z15
G0 Z5
G1 Z3 F333.3
Z-4
G2 X73.5 Y99.499 I0.17 J2.494 F1000
G1 Y539.68
X73.487 Y540.245
X73.45 Y540.999
X73.388 Y541.743
X73.302 Y542.48
X73.192 Y543.213
X73.058 Y543.939
X72.901 Y544.659
X72.721 Y545.369
X72.518 Y546.074
X72.293 Y546.771
X72.045 Y547.459
X71.776 Y548.136
X71.485 Y548.805
X71.172 Y549.465
X70.839 Y550.114
X70.486 Y550.75
X70.111 Y551.375
X69.716 Y551.988
X69.302 Y552.588
X68.869 Y553.173
X68.416 Y553.746
X67.944 Y554.304
X67.453 Y554.848
X66.945 Y555.375
X66.418 Y555.887
X65.872 Y556.385
X65.312 Y556.862
X64.733 Y557.323
X64.136 Y557.767
X63.523 Y558.192
X62.889 Y558.602
X62.409 Y558.893
X62.254 Y558.983
X62.245 Y558.988
X62.093 Y559.076
X61.598 Y559.346
X60.924 Y559.693
X60.253 Y560.009
X59.57 Y560.303
X58.879 Y560.576
X58.185 Y560.822
X57.485 Y561.045
X56.777 Y561.245
X56.064 Y561.422
X55.349 Y561.576
X54.631 Y561.704
X53.907 Y561.811
X53.183 Y561.893
X52.456 Y561.952
X51.727 Y561.988
X51 Y562
X50.273 Y561.988
X49.545 Y561.952
X48.817 Y561.893
X48.094 Y561.811
X47.369 Y561.704
X46.651 Y561.576
X45.936 Y561.422
X45.223 Y561.245
X44.515 Y561.045
X43.815 Y560.822
X43.121 Y560.576
X42.431 Y560.303
X41.747 Y560.009
X41.076 Y559.693
X40.402 Y559.346
X39.908 Y559.076
X39.756 Y558.988
X39.747 Y558.983
X39.591 Y558.894
X39.111 Y558.602
X38.477 Y558.192
X37.863 Y557.767
X37.267 Y557.323
X36.688 Y556.862
X36.128 Y556.384
X35.582 Y555.887
X35.055 Y555.375
X34.547 Y554.848
X34.056 Y554.304
X33.584 Y553.746
X33.131 Y553.173
X32.698 Y552.588
X32.284 Y551.988
X31.889 Y551.375
X31.515 Y550.749
X31.161 Y550.114
X30.828 Y549.465
X30.515 Y548.806
X30.224 Y548.136
X29.955 Y547.459
X29.707 Y546.771
X29.482 Y546.074
X29.279 Y545.369
X29.099 Y544.659
X28.942 Y543.939
X28.808 Y543.213
X28.698 Y542.48
X28.612 Y541.743
X28.55 Y540.999
X28.513 Y540.245
X28.5 Y539.68
Y99.499
G2 X26 Y96.999 I-2.5 J0
G1 X1
G2 X-1.5 Y99.499 I0 J2.5
G1 Y589.918
X-1.499 Y589.973
X-1.472 Y591.226
X-1.469 Y591.296
X-1.386 Y592.957
X-1.381 Y593.04
X-1.243 Y594.691
X-1.235 Y594.773
X-1.043 Y596.413
X-1.033 Y596.495
X-0.788 Y598.122
X-0.774 Y598.203
X-0.477 Y599.817
X-0.461 Y599.897
X-0.112 Y601.495
X-0.093 Y601.575
X0.307 Y603.159
X0.328 Y603.238
X0.779 Y604.804
X0.803 Y604.882
X1.304 Y606.43
X1.33 Y606.507
X1.88 Y608.034
X1.909 Y608.109
X2.507 Y609.618
X2.539 Y609.693
X3.185 Y611.18
X3.219 Y611.253
X3.913 Y612.717
X3.949 Y612.79
X4.689 Y614.229
X4.727 Y614.3
X5.514 Y615.715
X5.554 Y615.784
X6.386 Y617.173
X6.429 Y617.243
X7.305 Y618.604
X7.35 Y618.671
X8.271 Y620.003
X8.317 Y620.068
X9.281 Y621.372
X9.331 Y621.437
X10.338 Y622.709
X10.389 Y622.772
X11.438 Y624.012
X11.491 Y624.074
X12.581 Y625.281
X12.636 Y625.339
X13.767 Y626.513
X13.824 Y626.571
X14.995 Y627.71
X15.056 Y627.767
X16.266 Y628.868
X16.327 Y628.922
X17.576 Y629.986
X17.64 Y630.039
X18.927 Y631.064
X18.991 Y631.113
X20.316 Y632.099
X20.383 Y632.148
X21.744 Y633.093
X21.813 Y633.139
X23.21 Y634.042
X23.269 Y634.078
X24.34 Y634.729
X24.392 Y634.76
X24.751 Y634.967
X25.111 Y635.175
X25.161 Y635.203
X26.26 Y635.805
X26.32 Y635.837
X27.8 Y636.596
X27.874 Y636.632
X29.373 Y637.339
X29.449 Y637.373
X30.965 Y638.027
X31.042 Y638.059
X32.574 Y638.66
X32.649 Y638.688
X34.195 Y639.238
X34.274 Y639.265
X35.833 Y639.762
X35.911 Y639.785
X37.482 Y640.23
X37.561 Y640.251
X39.142 Y640.644
X39.222 Y640.663
X40.813 Y641.003
X40.893 Y641.018
X42.491 Y641.306
X42.571 Y641.319
X44.176 Y641.555
X44.259 Y641.566
X45.869 Y641.748
X45.946 Y641.756
X47.561 Y641.888
X47.644 Y641.893
X49.261 Y641.971
X49.342 Y641.974
X50.96 Y642
X51.04
X52.659 Y641.974
X52.739 Y641.971
X54.356 Y641.893
X54.439 Y641.888
X56.054 Y641.756
X56.131 Y641.748
X57.741 Y641.566
X57.824 Y641.555
X59.429 Y641.319
X59.509 Y641.306
X61.108 Y641.018
X61.187 Y641.003
X62.778 Y640.663
X62.858 Y640.644
X64.44 Y640.251
X64.518 Y640.23
X66.089 Y639.785
X66.167 Y639.762
X67.726 Y639.265
X67.805 Y639.238
X69.351 Y638.688
X69.426 Y638.66
X70.958 Y638.059
X71.035 Y638.027
X72.551 Y637.373
X72.627 Y637.339
X74.126 Y636.632
X74.2 Y636.596
X75.68 Y635.837
X75.741 Y635.805
X76.839 Y635.203
X76.889 Y635.175
X77.248 Y634.967
X77.608 Y634.76
X77.66 Y634.729
X78.731 Y634.078
X78.79 Y634.042
X80.187 Y633.139
X80.256 Y633.093
X81.617 Y632.148
X81.684 Y632.099
X83.009 Y631.113
X83.073 Y631.064
X84.36 Y630.039
X84.424 Y629.986
X85.673 Y628.922
X85.734 Y628.868
X86.944 Y627.767
X87.005 Y627.71
X88.176 Y626.571
X88.233 Y626.513
X89.364 Y625.339
X89.419 Y625.281
X90.509 Y624.074
X90.562 Y624.012
X91.611 Y622.772
X91.663 Y622.709
X92.669 Y621.437
X92.719 Y621.372
X93.683 Y620.068
X93.729 Y620.003
X94.65 Y618.671
X94.695 Y618.604
X95.571 Y617.243
X95.614 Y617.173
X96.446 Y615.784
X96.487 Y615.715
X97.273 Y614.3
X97.311 Y614.229
X98.051 Y612.79
X98.088 Y612.717
X98.781 Y611.253
X98.815 Y611.18
X99.461 Y609.693
X99.493 Y609.618
X100.091 Y608.109
X100.12 Y608.034
X100.67 Y606.507
X100.696 Y606.429
X101.197 Y604.881
X101.221 Y604.804
X101.672 Y603.238
X101.693 Y603.159
X102.093 Y601.575
X102.112 Y601.496
X102.461 Y599.898
X102.478 Y599.816
X102.775 Y598.202
X102.788 Y598.121
X103.032 Y596.494
X103.043 Y596.414
X103.235 Y594.774
X103.243 Y594.69
X103.38 Y593.039
X103.386 Y592.957
X103.469 Y591.296
X103.471 Y591.227
X103.499 Y589.974
X103.5 Y589.918
Y99.499
G2 X101 Y96.999 I-2.5 J0
G1 X76
X75.83 Y97.005
Z-8 F333.3
G2 X73.5 Y99.499 I0.17 J2.494 F1000
G1 Y539.68
X73.487 Y540.245
X73.45 Y540.999
X73.388 Y541.743
X73.302 Y542.48
X73.192 Y543.213
X73.058 Y543.939
X72.901 Y544.659
X72.721 Y545.369
X72.518 Y546.074
X72.293 Y546.771
X72.045 Y547.459
X71.776 Y548.136
X71.485 Y548.805
X71.172 Y549.465
X70.839 Y550.114
X70.486 Y550.75
X70.111 Y551.375
X69.716 Y551.988
X69.302 Y552.588
X68.869 Y553.173
X68.416 Y553.746
X67.944 Y554.304
X67.453 Y554.848
X66.945 Y555.375
X66.418 Y555.887
X65.872 Y556.385
X65.312 Y556.862
X64.733 Y557.323
X64.136 Y557.767
X63.523 Y558.192
X62.889 Y558.602
X62.409 Y558.893
X62.254 Y558.983
X62.245 Y558.988
X62.093 Y559.076
X61.598 Y559.346
X60.924 Y559.693
X60.253 Y560.009
X59.57 Y560.303
X58.879 Y560.576
X58.185 Y560.822
X57.485 Y561.045
X56.777 Y561.245
X56.064 Y561.422
X55.349 Y561.576
X54.631 Y561.704
X53.907 Y561.811
X53.183 Y561.893
X52.456 Y561.952
X51.727 Y561.988
X51 Y562
X50.273 Y561.988
X49.545 Y561.952
X48.817 Y561.893
X48.094 Y561.811
X47.369 Y561.704
X46.651 Y561.576
X45.936 Y561.422
X45.223 Y561.245
X44.515 Y561.045
X43.815 Y560.822
X43.121 Y560.576
X42.431 Y560.303
X41.747 Y560.009
X41.076 Y559.693
X40.402 Y559.346
X39.908 Y559.076
X39.756 Y558.988
X39.747 Y558.983
X39.591 Y558.894
X39.111 Y558.602
X38.477 Y558.192
X37.863 Y557.767
X37.267 Y557.323
X36.688 Y556.862
X36.128 Y556.384
X35.582 Y555.887
X35.055 Y555.375
X34.547 Y554.848
X34.056 Y554.304
X33.584 Y553.746
X33.131 Y553.173
X32.698 Y552.588
X32.284 Y551.988
X31.889 Y551.375
X31.515 Y550.749
X31.161 Y550.114
X30.828 Y549.465
X30.515 Y548.806
X30.224 Y548.136
X29.955 Y547.459
X29.707 Y546.771
X29.482 Y546.074
X29.279 Y545.369
X29.099 Y544.659
X28.942 Y543.939
X28.808 Y543.213
X28.698 Y542.48
X28.612 Y541.743
X28.55 Y540.999
X28.513 Y540.245
X28.5 Y539.68
Y99.499
G2 X26 Y96.999 I-2.5 J0
G1 X1
G2 X-1.5 Y99.499 I0 J2.5
G1 Y589.918
X-1.499 Y589.973
X-1.472 Y591.226
X-1.469 Y591.296
X-1.386 Y592.957
X-1.381 Y593.04
X-1.243 Y594.691
X-1.235 Y594.773
X-1.043 Y596.413
X-1.033 Y596.495
X-0.788 Y598.122
X-0.774 Y598.203
X-0.477 Y599.817
X-0.461 Y599.897
X-0.112 Y601.495
X-0.093 Y601.575
X0.307 Y603.159
X0.328 Y603.238
X0.779 Y604.804
X0.803 Y604.882
X1.304 Y606.43
X1.33 Y606.507
X1.88 Y608.034
X1.909 Y608.109
X2.507 Y609.618
X2.539 Y609.693
X3.185 Y611.18
X3.219 Y611.253
X3.913 Y612.717
X3.949 Y612.79
X4.689 Y614.229
X4.727 Y614.3
X5.514 Y615.715
X5.554 Y615.784
X6.386 Y617.173
X6.429 Y617.243
X7.305 Y618.604
X7.35 Y618.671
X8.271 Y620.003
X8.317 Y620.068
X9.281 Y621.372
X9.331 Y621.437
X10.338 Y622.709
X10.389 Y622.772
X11.438 Y624.012
X11.491 Y624.074
X12.581 Y625.281
X12.636 Y625.339
X13.767 Y626.513
X13.824 Y626.571
X14.995 Y627.71
X15.056 Y627.767
X16.266 Y628.868
X16.327 Y628.922
X17.576 Y629.986
X17.64 Y630.039
X18.927 Y631.064
X18.991 Y631.113
X20.316 Y632.099
X20.383 Y632.148
X21.744 Y633.093
X21.813 Y633.139
X23.21 Y634.042
X23.269 Y634.078
X24.34 Y634.729
X24.392 Y634.76
X24.751 Y634.967
X25.111 Y635.175
X25.161 Y635.203
X26.26 Y635.805
X26.32 Y635.837
X27.8 Y636.596
X27.874 Y636.632
X29.373 Y637.339
X29.449 Y637.373
X30.965 Y638.027
X31.042 Y638.059
X32.574 Y638.66
X32.649 Y638.688
X34.195 Y639.238
X34.274 Y639.265
X35.833 Y639.762
X35.911 Y639.785
X37.482 Y640.23
X37.561 Y640.251
X39.142 Y640.644
X39.222 Y640.663
X40.813 Y641.003
X40.893 Y641.018
X42.491 Y641.306
X42.571 Y641.319
X44.176 Y641.555
X44.259 Y641.566
X45.869 Y641.748
X45.946 Y641.756
X47.561 Y641.888
X47.644 Y641.893
X49.261 Y641.971
X49.342 Y641.974
X50.96 Y642
X51.04
X52.659 Y641.974
X52.739 Y641.971
X54.356 Y641.893
X54.439 Y641.888
X56.054 Y641.756
X56.131 Y641.748
X57.741 Y641.566
X57.824 Y641.555
X59.429 Y641.319
X59.509 Y641.306
X61.108 Y641.018
X61.187 Y641.003
X62.778 Y640.663
X62.858 Y640.644
X64.44 Y640.251
X64.518 Y640.23
X66.089 Y639.785
X66.167 Y639.762
X67.726 Y639.265
X67.805 Y639.238
X69.351 Y638.688
X69.426 Y638.66
X70.958 Y638.059
X71.035 Y638.027
X72.551 Y637.373
X72.627 Y637.339
X74.126 Y636.632
X74.2 Y636.596
X75.68 Y635.837
X75.741 Y635.805
X76.839 Y635.203
X76.889 Y635.175
X77.248 Y634.967
X77.608 Y634.76
X77.66 Y634.729
X78.731 Y634.078
X78.79 Y634.042
X80.187 Y633.139
X80.256 Y633.093
X81.617 Y632.148
X81.684 Y632.099
X83.009 Y631.113
X83.073 Y631.064
X84.36 Y630.039
X84.424 Y629.986
X85.673 Y628.922
X85.734 Y628.868
X86.944 Y627.767
X87.005 Y627.71
X88.176 Y626.571
X88.233 Y626.513
X89.364 Y625.339
X89.419 Y625.281
X90.509 Y624.074
X90.562 Y624.012
X91.611 Y622.772
X91.663 Y622.709
X92.669 Y621.437
X92.719 Y621.372
X93.683 Y620.068
X93.729 Y620.003
X94.65 Y618.671
X94.695 Y618.604
X95.571 Y617.243
X95.614 Y617.173
X96.446 Y615.784
X96.487 Y615.715
X97.273 Y614.3
X97.311 Y614.229
X98.051 Y612.79
X98.088 Y612.717
X98.781 Y611.253
X98.815 Y611.18
X99.461 Y609.693
X99.493 Y609.618
X100.091 Y608.109
X100.12 Y608.034
X100.67 Y606.507
X100.696 Y606.429
X101.197 Y604.881
X101.221 Y604.804
X101.672 Y603.238
X101.693 Y603.159
X102.093 Y601.575
X102.112 Y601.496
X102.461 Y599.898
X102.478 Y599.816
X102.775 Y598.202
X102.788 Y598.121
X103.032 Y596.494
X103.043 Y596.414
X103.235 Y594.774
X103.243 Y594.69
X103.38 Y593.039
X103.386 Y592.957
X103.469 Y591.296
X103.471 Y591.227
X103.499 Y589.974
X103.5 Y589.918
Y99.499
G2 X101 Y96.999 I-2.5 J0
G1 X76
X75.83 Y97.005
Z-12 F333.3
G2 X73.5 Y99.499 I0.17 J2.494 F1000
G1 Y539.68
X73.487 Y540.245
X73.45 Y540.999
X73.388 Y541.743
X73.302 Y542.48
X73.192 Y543.213
X73.058 Y543.939
X72.901 Y544.659
X72.721 Y545.369
X72.518 Y546.074
X72.293 Y546.771
X72.045 Y547.459
X71.776 Y548.136
X71.485 Y548.805
X71.172 Y549.465
X70.839 Y550.114
X70.486 Y550.75
X70.111 Y551.375
X69.716 Y551.988
X69.302 Y552.588
X68.869 Y553.173
X68.416 Y553.746
X67.944 Y554.304
X67.453 Y554.848
X66.945 Y555.375
X66.418 Y555.887
X65.872 Y556.385
X65.312 Y556.862
X64.733 Y557.323
X64.136 Y557.767
X63.523 Y558.192
X62.889 Y558.602
X62.409 Y558.893
X62.254 Y558.983
X62.245 Y558.988
X62.093 Y559.076
X61.598 Y559.346
X60.924 Y559.693
X60.253 Y560.009
X59.57 Y560.303
X58.879 Y560.576
X58.185 Y560.822
X57.485 Y561.045
X56.777 Y561.245
X56.064 Y561.422
X55.349 Y561.576
X54.631 Y561.704
X53.907 Y561.811
X53.183 Y561.893
X52.456 Y561.952
X51.727 Y561.988
X51 Y562
X50.273 Y561.988
X49.545 Y561.952
X48.817 Y561.893
X48.094 Y561.811
X47.369 Y561.704
X46.651 Y561.576
X45.936 Y561.422
X45.223 Y561.245
X44.515 Y561.045
X43.815 Y560.822
X43.121 Y560.576
X42.431 Y560.303
X41.747 Y560.009
X41.076 Y559.693
X40.402 Y559.346
X39.908 Y559.076
X39.756 Y558.988
X39.747 Y558.983
X39.591 Y558.894
X39.111 Y558.602
X38.477 Y558.192
X37.863 Y557.767
X37.267 Y557.323
X36.688 Y556.862
X36.128 Y556.384
X35.582 Y555.887
X35.055 Y555.375
X34.547 Y554.848
X34.056 Y554.304
X33.584 Y553.746
X33.131 Y553.173
X32.698 Y552.588
X32.284 Y551.988
X31.889 Y551.375
X31.515 Y550.749
X31.161 Y550.114
X30.828 Y549.465
X30.515 Y548.806
X30.224 Y548.136
X29.955 Y547.459
X29.707 Y546.771
X29.482 Y546.074
X29.279 Y545.369
X29.099 Y544.659
X28.942 Y543.939
X28.808 Y543.213
X28.698 Y542.48
X28.612 Y541.743
X28.55 Y540.999
X28.513 Y540.245
X28.5 Y539.68
Y99.499
G2 X26 Y96.999 I-2.5 J0
G1 X1
G2 X-1.5 Y99.499 I0 J2.5
G1 Y589.918
X-1.499 Y589.973
X-1.472 Y591.226
X-1.469 Y591.296
X-1.386 Y592.957
X-1.381 Y593.04
X-1.243 Y594.691
X-1.235 Y594.773
X-1.043 Y596.413
X-1.033 Y596.495
X-0.788 Y598.122
X-0.774 Y598.203
X-0.477 Y599.817
X-0.461 Y599.897
X-0.112 Y601.495
X-0.093 Y601.575
X0.307 Y603.159
X0.328 Y603.238
X0.779 Y604.804
X0.803 Y604.882
X1.304 Y606.43
X1.33 Y606.507
X1.88 Y608.034
X1.909 Y608.109
X2.507 Y609.618
X2.539 Y609.693
X3.185 Y611.18
X3.219 Y611.253
X3.913 Y612.717
X3.949 Y612.79
X4.689 Y614.229
X4.727 Y614.3
X5.514 Y615.715
X5.554 Y615.784
X6.386 Y617.173
X6.429 Y617.243
X7.305 Y618.604
X7.35 Y618.671
X8.271 Y620.003
X8.317 Y620.068
X9.281 Y621.372
X9.331 Y621.437
X10.338 Y622.709
X10.389 Y622.772
X11.438 Y624.012
X11.491 Y624.074
X12.581 Y625.281
X12.636 Y625.339
X13.767 Y626.513
X13.824 Y626.571
X14.995 Y627.71
X15.056 Y627.767
X16.266 Y628.868
X16.327 Y628.922
X17.576 Y629.986
X17.64 Y630.039
X18.927 Y631.064
X18.991 Y631.113
X20.316 Y632.099
X20.383 Y632.148
X21.744 Y633.093
X21.813 Y633.139
X23.21 Y634.042
X23.269 Y634.078
X24.34 Y634.729
X24.392 Y634.76
X24.751 Y634.967
X25.111 Y635.175
X25.161 Y635.203
X26.26 Y635.805
X26.32 Y635.837
X27.8 Y636.596
X27.874 Y636.632
X29.373 Y637.339
X29.449 Y637.373
X30.965 Y638.027
X31.042 Y638.059
X32.574 Y638.66
X32.649 Y638.688
X34.195 Y639.238
X34.274 Y639.265
X35.833 Y639.762
X35.911 Y639.785
X37.482 Y640.23
X37.561 Y640.251
X39.142 Y640.644
X39.222 Y640.663
X40.813 Y641.003
X40.893 Y641.018
X42.491 Y641.306
X42.571 Y641.319
X44.176 Y641.555
X44.259 Y641.566
X45.869 Y641.748
X45.946 Y641.756
X47.561 Y641.888
X47.644 Y641.893
X49.261 Y641.971
X49.342 Y641.974
X50.96 Y642
X51.04
X52.659 Y641.974
X52.739 Y641.971
X54.356 Y641.893
X54.439 Y641.888
X56.054 Y641.756
X56.131 Y641.748
X57.741 Y641.566
X57.824 Y641.555
X59.429 Y641.319
X59.509 Y641.306
X61.108 Y641.018
X61.187 Y641.003
X62.778 Y640.663
X62.858 Y640.644
X64.44 Y640.251
X64.518 Y640.23
X66.089 Y639.785
X66.167 Y639.762
X67.726 Y639.265
X67.805 Y639.238
X69.351 Y638.688
X69.426 Y638.66
X70.958 Y638.059
X71.035 Y638.027
X72.551 Y637.373
X72.627 Y637.339
X74.126 Y636.632
X74.2 Y636.596
X75.68 Y635.837
X75.741 Y635.805
X76.839 Y635.203
X76.889 Y635.175
X77.248 Y634.967
X77.608 Y634.76
X77.66 Y634.729
X78.731 Y634.078
X78.79 Y634.042
X80.187 Y633.139
X80.256 Y633.093
X81.617 Y632.148
X81.684 Y632.099
X83.009 Y631.113
X83.073 Y631.064
X84.36 Y630.039
X84.424 Y629.986
X85.673 Y628.922
X85.734 Y628.868
X86.944 Y627.767
X87.005 Y627.71
X88.176 Y626.571
X88.233 Y626.513
X89.364 Y625.339
X89.419 Y625.281
X90.509 Y624.074
X90.562 Y624.012
X91.611 Y622.772
X91.663 Y622.709
X92.669 Y621.437
X92.719 Y621.372
X93.683 Y620.068
X93.729 Y620.003
X94.65 Y618.671
X94.695 Y618.604
X95.571 Y617.243
X95.614 Y617.173
X96.446 Y615.784
X96.487 Y615.715
X97.273 Y614.3
X97.311 Y614.229
X98.051 Y612.79
X98.088 Y612.717
X98.781 Y611.253
X98.815 Y611.18
X99.461 Y609.693
X99.493 Y609.618
X100.091 Y608.109
X100.12 Y608.034
X100.67 Y606.507
X100.696 Y606.429
X101.197 Y604.881
X101.221 Y604.804
X101.672 Y603.238
X101.693 Y603.159
X102.093 Y601.575
X102.112 Y601.496
X102.461 Y599.898
X102.478 Y599.816
X102.775 Y598.202
X102.788 Y598.121
X103.032 Y596.494
X103.043 Y596.414
X103.235 Y594.774
X103.243 Y594.69
X103.38 Y593.039
X103.386 Y592.957
X103.469 Y591.296
X103.471 Y591.227
X103.499 Y589.974
X103.5 Y589.918
Y99.499
G2 X101 Y96.999 I-2.5 J0
G1 X76
X75.83 Y97.005
Z-16 F333.3
G2 X73.5 Y99.499 I0.17 J2.494 F1000
G1 Y539.68
X73.487 Y540.245
X73.45 Y540.999
X73.388 Y541.743
X73.302 Y542.48
X73.192 Y543.213
X73.058 Y543.939
X72.901 Y544.659
X72.721 Y545.369
X72.518 Y546.074
X72.293 Y546.771
X72.045 Y547.459
X71.776 Y548.136
X71.485 Y548.805
X71.172 Y549.465
X70.839 Y550.114
X70.486 Y550.75
X70.111 Y551.375
X69.716 Y551.988
X69.302 Y552.588
X68.869 Y553.173
X68.416 Y553.746
X67.944 Y554.304
X67.453 Y554.848
X66.945 Y555.375
X66.418 Y555.887
X65.872 Y556.385
X65.312 Y556.862
X64.733 Y557.323
X64.136 Y557.767
X63.523 Y558.192
X62.889 Y558.602
X62.409 Y558.893
X62.254 Y558.983
X62.245 Y558.988
X62.093 Y559.076
X61.598 Y559.346
X60.924 Y559.693
X60.253 Y560.009
X59.57 Y560.303
X58.879 Y560.576
X58.185 Y560.822
X57.485 Y561.045
X56.777 Y561.245
X56.064 Y561.422
X55.349 Y561.576
X54.631 Y561.704
X53.907 Y561.811
X53.183 Y561.893
X52.456 Y561.952
X51.727 Y561.988
X51 Y562
X50.273 Y561.988
X49.545 Y561.952
X48.817 Y561.893
X48.094 Y561.811
X47.369 Y561.704
X46.651 Y561.576
X45.936 Y561.422
X45.223 Y561.245
X44.515 Y561.045
X43.815 Y560.822
X43.121 Y560.576
X42.431 Y560.303
X41.747 Y560.009
X41.076 Y559.693
X40.402 Y559.346
X39.908 Y559.076
X39.756 Y558.988
X39.747 Y558.983
X39.591 Y558.894
X39.111 Y558.602
X38.477 Y558.192
X37.863 Y557.767
X37.267 Y557.323
X36.688 Y556.862
X36.128 Y556.384
X35.582 Y555.887
X35.055 Y555.375
X34.547 Y554.848
X34.056 Y554.304
X33.584 Y553.746
X33.131 Y553.173
X32.698 Y552.588
X32.284 Y551.988
X31.889 Y551.375
X31.515 Y550.749
X31.161 Y550.114
X30.828 Y549.465
X30.515 Y548.806
X30.224 Y548.136
X29.955 Y547.459
X29.707 Y546.771
X29.482 Y546.074
X29.279 Y545.369
X29.099 Y544.659
X28.942 Y543.939
X28.808 Y543.213
X28.698 Y542.48
X28.612 Y541.743
X28.55 Y540.999
X28.513 Y540.245
X28.5 Y539.68
Y99.499
G2 X26 Y96.999 I-2.5 J0
G1 X1
G2 X-1.5 Y99.499 I0 J2.5
G1 Y589.918
X-1.499 Y589.973
X-1.472 Y591.226
X-1.469 Y591.296
X-1.386 Y592.957
X-1.381 Y593.04
X-1.243 Y594.691
X-1.235 Y594.773
X-1.043 Y596.413
X-1.033 Y596.495
X-0.788 Y598.122
X-0.774 Y598.203
X-0.477 Y599.817
X-0.461 Y599.897
X-0.112 Y601.495
X-0.093 Y601.575
X0.307 Y603.159
X0.328 Y603.238
X0.779 Y604.804
X0.803 Y604.882
X1.304 Y606.43
X1.33 Y606.507
X1.88 Y608.034
X1.909 Y608.109
X2.507 Y609.618
X2.539 Y609.693
X3.185 Y611.18
X3.219 Y611.253
X3.913 Y612.717
X3.949 Y612.79
X4.689 Y614.229
X4.727 Y614.3
X5.514 Y615.715
X5.554 Y615.784
X6.386 Y617.173
X6.429 Y617.243
X7.305 Y618.604
X7.35 Y618.671
X8.271 Y620.003
X8.317 Y620.068
X9.281 Y621.372
X9.331 Y621.437
X10.338 Y622.709
X10.389 Y622.772
X11.438 Y624.012
X11.491 Y624.074
X12.581 Y625.281
X12.636 Y625.339
X13.767 Y626.513
X13.824 Y626.571
X14.995 Y627.71
X15.056 Y627.767
X16.266 Y628.868
X16.327 Y628.922
X17.576 Y629.986
X17.64 Y630.039
X18.927 Y631.064
X18.991 Y631.113
X20.316 Y632.099
X20.383 Y632.148
X21.744 Y633.093
X21.813 Y633.139
X23.21 Y634.042
X23.269 Y634.078
X24.34 Y634.729
X24.392 Y634.76
X24.751 Y634.967
X25.111 Y635.175
X25.161 Y635.203
X26.26 Y635.805
X26.32 Y635.837
X27.8 Y636.596
X27.874 Y636.632
X29.373 Y637.339
X29.449 Y637.373
X30.965 Y638.027
X31.042 Y638.059
X32.574 Y638.66
X32.649 Y638.688
X34.195 Y639.238
X34.274 Y639.265
X35.833 Y639.762
X35.911 Y639.785
X37.482 Y640.23
X37.561 Y640.251
X39.142 Y640.644
X39.222 Y640.663
X40.813 Y641.003
X40.893 Y641.018
X42.491 Y641.306
X42.571 Y641.319
X44.176 Y641.555
X44.259 Y641.566
X45.869 Y641.748
X45.946 Y641.756
X47.561 Y641.888
X47.644 Y641.893
X49.261 Y641.971
X49.342 Y641.974
X50.96 Y642
X51.04
X52.659 Y641.974
X52.739 Y641.971
X54.356 Y641.893
X54.439 Y641.888
X56.054 Y641.756
X56.131 Y641.748
X57.741 Y641.566
X57.824 Y641.555
X59.429 Y641.319
X59.509 Y641.306
X61.108 Y641.018
X61.187 Y641.003
X62.778 Y640.663
X62.858 Y640.644
X64.44 Y640.251
X64.518 Y640.23
X66.089 Y639.785
X66.167 Y639.762
X67.726 Y639.265
X67.805 Y639.238
X69.351 Y638.688
X69.426 Y638.66
X70.958 Y638.059
X71.035 Y638.027
X72.551 Y637.373
X72.627 Y637.339
X74.126 Y636.632
X74.2 Y636.596
X75.68 Y635.837
X75.741 Y635.805
X76.839 Y635.203
X76.889 Y635.175
X77.248 Y634.967
X77.608 Y634.76
X77.66 Y634.729
X78.731 Y634.078
X78.79 Y634.042
X80.187 Y633.139
X80.256 Y633.093
X81.617 Y632.148
X81.684 Y632.099
X83.009 Y631.113
X83.073 Y631.064
X84.36 Y630.039
X84.424 Y629.986
X85.673 Y628.922
X85.734 Y628.868
X86.944 Y627.767
X87.005 Y627.71
X88.176 Y626.571
X88.233 Y626.513
X89.364 Y625.339
X89.419 Y625.281
X90.509 Y624.074
X90.562 Y624.012
X91.611 Y622.772
X91.663 Y622.709
X92.669 Y621.437
X92.719 Y621.372
X93.683 Y620.068
X93.729 Y620.003
X94.65 Y618.671
X94.695 Y618.604
X95.571 Y617.243
X95.614 Y617.173
X96.446 Y615.784
X96.487 Y615.715
X97.273 Y614.3
X97.311 Y614.229
X98.051 Y612.79
X98.088 Y612.717
X98.781 Y611.253
X98.815 Y611.18
X99.461 Y609.693
X99.493 Y609.618
X100.091 Y608.109
X100.12 Y608.034
X100.67 Y606.507
X100.696 Y606.429
X101.197 Y604.881
X101.221 Y604.804
X101.672 Y603.238
X101.693 Y603.159
X102.093 Y601.575
X102.112 Y601.496
X102.461 Y599.898
X102.478 Y599.816
X102.775 Y598.202
X102.788 Y598.121
X103.032 Y596.494
X103.043 Y596.414
X103.235 Y594.774
X103.243 Y594.69
X103.38 Y593.039
X103.386 Y592.957
X103.469 Y591.296
X103.471 Y591.227
X103.499 Y589.974
X103.5 Y589.918
Y99.499
G2 X101 Y96.999 I-2.5 J0
G1 X76
X75.83 Y97.005
Z-20 F333.3
G2 X73.5 Y99.499 I0.17 J2.494 F1000
G1 Y539.68
X73.487 Y540.245
X73.45 Y540.999
X73.388 Y541.743
X73.302 Y542.48
X73.192 Y543.213
X73.058 Y543.939
X72.901 Y544.659
X72.721 Y545.369
X72.518 Y546.074
X72.293 Y546.771
X72.045 Y547.459
X71.776 Y548.136
X71.485 Y548.805
X71.172 Y549.465
X70.839 Y550.114
X70.486 Y550.75
X70.111 Y551.375
X69.716 Y551.988
X69.302 Y552.588
X68.869 Y553.173
X68.416 Y553.746
X67.944 Y554.304
X67.453 Y554.848
X66.945 Y555.375
X66.418 Y555.887
X65.872 Y556.385
X65.312 Y556.862
X64.733 Y557.323
X64.136 Y557.767
X63.523 Y558.192
X62.889 Y558.602
X62.409 Y558.893
X62.254 Y558.983
X62.245 Y558.988
X62.093 Y559.076
X61.598 Y559.346
X60.924 Y559.693
X60.253 Y560.009
X59.57 Y560.303
X58.879 Y560.576
X58.185 Y560.822
X57.485 Y561.045
X56.777 Y561.245
X56.064 Y561.422
X55.349 Y561.576
X54.631 Y561.704
X53.907 Y561.811
X53.183 Y561.893
X52.456 Y561.952
X51.727 Y561.988
X51 Y562
X50.273 Y561.988
X49.545 Y561.952
X48.817 Y561.893
X48.094 Y561.811
X47.369 Y561.704
X46.651 Y561.576
X45.936 Y561.422
X45.223 Y561.245
X44.515 Y561.045
X43.815 Y560.822
X43.121 Y560.576
X42.431 Y560.303
X41.747 Y560.009
X41.076 Y559.693
X40.402 Y559.346
X39.908 Y559.076
X39.756 Y558.988
X39.747 Y558.983
X39.591 Y558.894
X39.111 Y558.602
X38.477 Y558.192
X37.863 Y557.767
X37.267 Y557.323
X36.688 Y556.862
X36.128 Y556.384
X35.582 Y555.887
X35.055 Y555.375
X34.547 Y554.848
X34.056 Y554.304
X33.584 Y553.746
X33.131 Y553.173
X32.698 Y552.588
X32.284 Y551.988
X31.889 Y551.375
X31.515 Y550.749
X31.161 Y550.114
X30.828 Y549.465
X30.515 Y548.806
X30.224 Y548.136
X29.955 Y547.459
X29.707 Y546.771
X29.482 Y546.074
X29.279 Y545.369
X29.099 Y544.659
X28.942 Y543.939
X28.808 Y543.213
X28.698 Y542.48
X28.612 Y541.743
X28.55 Y540.999
X28.513 Y540.245
X28.5 Y539.68
Y99.499
G2 X26 Y96.999 I-2.5 J0
G1 X1
G2 X-1.5 Y99.499 I0 J2.5
G1 Y589.918
X-1.499 Y589.973
X-1.472 Y591.226
X-1.469 Y591.296
X-1.386 Y592.957
X-1.381 Y593.04
X-1.243 Y594.691
X-1.235 Y594.773
X-1.043 Y596.413
X-1.033 Y596.495
X-0.788 Y598.122
X-0.774 Y598.203
X-0.477 Y599.817
X-0.461 Y599.897
X-0.112 Y601.495
X-0.093 Y601.575
X0.307 Y603.159
X0.328 Y603.238
X0.779 Y604.804
X0.803 Y604.882
X1.304 Y606.43
X1.33 Y606.507
X1.88 Y608.034
X1.909 Y608.109
X2.507 Y609.618
X2.539 Y609.693
X3.185 Y611.18
X3.219 Y611.253
X3.913 Y612.717
X3.949 Y612.79
X4.689 Y614.229
X4.727 Y614.3
X5.514 Y615.715
X5.554 Y615.784
X6.386 Y617.173
X6.429 Y617.243
X7.305 Y618.604
X7.35 Y618.671
X8.271 Y620.003
X8.317 Y620.068
X9.281 Y621.372
X9.331 Y621.437
X10.338 Y622.709
X10.389 Y622.772
X11.438 Y624.012
X11.491 Y624.074
X12.581 Y625.281
X12.636 Y625.339
X13.767 Y626.513
X13.824 Y626.571
X14.995 Y627.71
X15.056 Y627.767
X16.266 Y628.868
X16.327 Y628.922
X17.576 Y629.986
X17.64 Y630.039
X18.927 Y631.064
X18.991 Y631.113
X20.316 Y632.099
X20.383 Y632.148
X21.744 Y633.093
X21.813 Y633.139
X23.21 Y634.042
X23.269 Y634.078
X24.34 Y634.729
X24.392 Y634.76
X24.751 Y634.967
X25.111 Y635.175
X25.161 Y635.203
X26.26 Y635.805
X26.32 Y635.837
X27.8 Y636.596
X27.874 Y636.632
X29.373 Y637.339
X29.449 Y637.373
X30.965 Y638.027
X31.042 Y638.059
X32.574 Y638.66
X32.649 Y638.688
X34.195 Y639.238
X34.274 Y639.265
X35.833 Y639.762
X35.911 Y639.785
X37.482 Y640.23
X37.561 Y640.251
X39.142 Y640.644
X39.222 Y640.663
X40.813 Y641.003
X40.893 Y641.018
X42.491 Y641.306
X42.571 Y641.319
X44.176 Y641.555
X44.259 Y641.566
X45.869 Y641.748
X45.946 Y641.756
X47.561 Y641.888
X47.644 Y641.893
X49.261 Y641.971
X49.342 Y641.974
X50.96 Y642
X51.04
X52.659 Y641.974
X52.739 Y641.971
X54.356 Y641.893
X54.439 Y641.888
X56.054 Y641.756
X56.131 Y641.748
X57.741 Y641.566
X57.824 Y641.555
X59.429 Y641.319
X59.509 Y641.306
X61.108 Y641.018
X61.187 Y641.003
X62.778 Y640.663
X62.858 Y640.644
X64.44 Y640.251
X64.518 Y640.23
X66.089 Y639.785
X66.167 Y639.762
X67.726 Y639.265
X67.805 Y639.238
X69.351 Y638.688
X69.426 Y638.66
X70.958 Y638.059
X71.035 Y638.027
X72.551 Y637.373
X72.627 Y637.339
X74.126 Y636.632
X74.2 Y636.596
X75.68 Y635.837
X75.741 Y635.805
X76.839 Y635.203
X76.889 Y635.175
X77.248 Y634.967
X77.608 Y634.76
X77.66 Y634.729
X78.731 Y634.078
X78.79 Y634.042
X80.187 Y633.139
X80.256 Y633.093
X81.617 Y632.148
X81.684 Y632.099
X83.009 Y631.113
X83.073 Y631.064
X84.36 Y630.039
X84.424 Y629.986
X85.673 Y628.922
X85.734 Y628.868
X86.944 Y627.767
X87.005 Y627.71
X88.176 Y626.571
X88.233 Y626.513
X89.364 Y625.339
X89.419 Y625.281
X90.509 Y624.074
X90.562 Y624.012
X91.611 Y622.772
X91.663 Y622.709
X92.669 Y621.437
X92.719 Y621.372
X93.683 Y620.068
X93.729 Y620.003
X94.65 Y618.671
X94.695 Y618.604
X95.571 Y617.243
X95.614 Y617.173
X96.446 Y615.784
X96.487 Y615.715
X97.273 Y614.3
X97.311 Y614.229
X98.051 Y612.79
X98.088 Y612.717
X98.781 Y611.253
X98.815 Y611.18
X99.461 Y609.693
X99.493 Y609.618
X100.091 Y608.109
X100.12 Y608.034
X100.67 Y606.507
X100.696 Y606.429
X101.197 Y604.881
X101.221 Y604.804
X101.672 Y603.238
X101.693 Y603.159
X102.093 Y601.575
X102.112 Y601.496
X102.461 Y599.898
X102.478 Y599.816
X102.775 Y598.202
X102.788 Y598.121
X103.032 Y596.494
X103.043 Y596.414
X103.235 Y594.774
X103.243 Y594.69
X103.38 Y593.039
X103.386 Y592.957
X103.469 Y591.296
X103.471 Y591.227
X103.499 Y589.974
X103.5 Y589.918
Y99.499
G2 X101 Y96.999 I-2.5 J0
G1 X76
X75.83 Y97.005
Z-24 F333.3
G2 X73.5 Y99.499 I0.17 J2.494 F1000
G1 Y539.68
X73.487 Y540.245
X73.45 Y540.999
X73.388 Y541.743
X73.302 Y542.48
X73.192 Y543.213
X73.058 Y543.939
X72.901 Y544.659
X72.721 Y545.369
X72.518 Y546.074
X72.293 Y546.771
X72.045 Y547.459
X71.776 Y548.136
X71.485 Y548.805
X71.172 Y549.465
X70.839 Y550.114
X70.486 Y550.75
X70.111 Y551.375
X69.716 Y551.988
X69.302 Y552.588
X68.869 Y553.173
X68.416 Y553.746
X67.944 Y554.304
X67.453 Y554.848
X66.945 Y555.375
X66.418 Y555.887
X65.872 Y556.385
X65.312 Y556.862
X64.733 Y557.323
X64.136 Y557.767
X63.523 Y558.192
X62.889 Y558.602
X62.409 Y558.893
X62.254 Y558.983
X62.245 Y558.988
X62.093 Y559.076
X61.598 Y559.346
X60.924 Y559.693
X60.253 Y560.009
X59.57 Y560.303
X58.879 Y560.576
X58.185 Y560.822
X57.485 Y561.045
X56.777 Y561.245
X56.064 Y561.422
X55.349 Y561.576
X54.631 Y561.704
X53.907 Y561.811
X53.183 Y561.893
X52.456 Y561.952
X51.727 Y561.988
X51 Y562
X50.273 Y561.988
X49.545 Y561.952
X48.817 Y561.893
X48.094 Y561.811
X47.369 Y561.704
X46.651 Y561.576
X45.936 Y561.422
X45.223 Y561.245
X44.515 Y561.045
X43.815 Y560.822
X43.121 Y560.576
X42.431 Y560.303
X41.747 Y560.009
X41.076 Y559.693
X40.402 Y559.346
X39.908 Y559.076
X39.756 Y558.988
X39.747 Y558.983
X39.591 Y558.894
X39.111 Y558.602
X38.477 Y558.192
X37.863 Y557.767
X37.267 Y557.323
X36.688 Y556.862
X36.128 Y556.384
X35.582 Y555.887
X35.055 Y555.375
X34.547 Y554.848
X34.056 Y554.304
X33.584 Y553.746
X33.131 Y553.173
X32.698 Y552.588
X32.284 Y551.988
X31.889 Y551.375
X31.515 Y550.749
X31.161 Y550.114
X30.828 Y549.465
X30.515 Y548.806
X30.224 Y548.136
X29.955 Y547.459
X29.707 Y546.771
X29.482 Y546.074
X29.279 Y545.369
X29.099 Y544.659
X28.942 Y543.939
X28.808 Y543.213
X28.698 Y542.48
X28.612 Y541.743
X28.55 Y540.999
X28.513 Y540.245
X28.5 Y539.68
Y99.499
G2 X26 Y96.999 I-2.5 J0
G1 X1
G2 X-1.5 Y99.499 I0 J2.5
G1 Y589.918
X-1.499 Y589.973
X-1.472 Y591.226
X-1.469 Y591.296
X-1.386 Y592.957
X-1.381 Y593.04
X-1.243 Y594.691
X-1.235 Y594.773
X-1.043 Y596.413
X-1.033 Y596.495
X-0.788 Y598.122
X-0.774 Y598.203
X-0.477 Y599.817
X-0.461 Y599.897
X-0.112 Y601.495
X-0.093 Y601.575
X0.307 Y603.159
X0.328 Y603.238
X0.779 Y604.804
X0.803 Y604.882
X1.304 Y606.43
X1.33 Y606.507
X1.88 Y608.034
X1.909 Y608.109
X2.507 Y609.618
X2.539 Y609.693
X3.185 Y611.18
X3.219 Y611.253
X3.913 Y612.717
X3.949 Y612.79
X4.689 Y614.229
X4.727 Y614.3
X5.514 Y615.715
X5.554 Y615.784
X6.386 Y617.173
X6.429 Y617.243
X7.305 Y618.604
X7.35 Y618.671
X8.271 Y620.003
X8.317 Y620.068
X9.281 Y621.372
X9.331 Y621.437
X10.338 Y622.709
X10.389 Y622.772
X11.438 Y624.012
X11.491 Y624.074
X12.581 Y625.281
X12.636 Y625.339
X13.767 Y626.513
X13.824 Y626.571
X14.995 Y627.71
X15.056 Y627.767
X16.266 Y628.868
X16.327 Y628.922
X17.576 Y629.986
X17.64 Y630.039
X18.927 Y631.064
X18.991 Y631.113
X20.316 Y632.099
X20.383 Y632.148
X21.744 Y633.093
X21.813 Y633.139
X23.21 Y634.042
X23.269 Y634.078
X24.34 Y634.729
X24.392 Y634.76
X24.751 Y634.967
X25.111 Y635.175
X25.161 Y635.203
X26.26 Y635.805
X26.32 Y635.837
X27.8 Y636.596
X27.874 Y636.632
X29.373 Y637.339
X29.449 Y637.373
X30.965 Y638.027
X31.042 Y638.059
X32.574 Y638.66
X32.649 Y638.688
X34.195 Y639.238
X34.274 Y639.265
X35.833 Y639.762
X35.911 Y639.785
X37.482 Y640.23
X37.561 Y640.251
X39.142 Y640.644
X39.222 Y640.663
X40.813 Y641.003
X40.893 Y641.018
X42.491 Y641.306
X42.571 Y641.319
X44.176 Y641.555
X44.259 Y641.566
X45.869 Y641.748
X45.946 Y641.756
X47.561 Y641.888
X47.644 Y641.893
X49.261 Y641.971
X49.342 Y641.974
X50.96 Y642
X51.04
X52.659 Y641.974
X52.739 Y641.971
X54.356 Y641.893
X54.439 Y641.888
X56.054 Y641.756
X56.131 Y641.748
X57.741 Y641.566
X57.824 Y641.555
X59.429 Y641.319
X59.509 Y641.306
X61.108 Y641.018
X61.187 Y641.003
X62.778 Y640.663
X62.858 Y640.644
X64.44 Y640.251
X64.518 Y640.23
X66.089 Y639.785
X66.167 Y639.762
X67.726 Y639.265
X67.805 Y639.238
X69.351 Y638.688
X69.426 Y638.66
X70.958 Y638.059
X71.035 Y638.027
X72.551 Y637.373
X72.627 Y637.339
X74.126 Y636.632
X74.2 Y636.596
X75.68 Y635.837
X75.741 Y635.805
X76.839 Y635.203
X76.889 Y635.175
X77.248 Y634.967
X77.608 Y634.76
X77.66 Y634.729
X78.731 Y634.078
X78.79 Y634.042
X80.187 Y633.139
X80.256 Y633.093
X81.617 Y632.148
X81.684 Y632.099
X83.009 Y631.113
X83.073 Y631.064
X84.36 Y630.039
X84.424 Y629.986
X85.673 Y628.922
X85.734 Y628.868
X86.944 Y627.767
X87.005 Y627.71
X88.176 Y626.571
X88.233 Y626.513
X89.364 Y625.339
X89.419 Y625.281
X90.509 Y624.074
X90.562 Y624.012
X91.611 Y622.772
X91.663 Y622.709
X92.669 Y621.437
X92.719 Y621.372
X93.683 Y620.068
X93.729 Y620.003
X94.65 Y618.671
X94.695 Y618.604
X95.571 Y617.243
X95.614 Y617.173
X96.446 Y615.784
X96.487 Y615.715
X97.273 Y614.3
X97.311 Y614.229
X98.051 Y612.79
X98.088 Y612.717
X98.781 Y611.253
X98.815 Y611.18
X99.461 Y609.693
X99.493 Y609.618
X100.091 Y608.109
X100.12 Y608.034
X100.67 Y606.507
X100.696 Y606.429
X101.197 Y604.881
X101.221 Y604.804
X101.672 Y603.238
X101.693 Y603.159
X102.093 Y601.575
X102.112 Y601.496
X102.461 Y599.898
X102.478 Y599.816
X102.775 Y598.202
X102.788 Y598.121
X103.032 Y596.494
X103.043 Y596.414
X103.235 Y594.774
X103.243 Y594.69
X103.38 Y593.039
X103.386 Y592.957
X103.469 Y591.296
X103.471 Y591.227
X103.499 Y589.974
X103.5 Y589.918
Y99.499
G2 X101 Y96.999 I-2.5 J0
G1 X76
X75.83 Y97.005
Z-28 F333.3
G2 X73.5 Y99.499 I0.17 J2.494 F1000
G1 Y539.68
X73.487 Y540.245
X73.45 Y540.999
X73.388 Y541.743
X73.302 Y542.48
X73.192 Y543.213
X73.058 Y543.939
X72.901 Y544.659
X72.721 Y545.369
X72.518 Y546.074
X72.293 Y546.771
X72.045 Y547.459
X71.776 Y548.136
X71.485 Y548.805
X71.172 Y549.465
X70.839 Y550.114
X70.486 Y550.75
X70.111 Y551.375
X69.716 Y551.988
X69.302 Y552.588
X68.869 Y553.173
X68.416 Y553.746
X67.944 Y554.304
X67.453 Y554.848
X66.945 Y555.375
X66.418 Y555.887
X65.872 Y556.385
X65.312 Y556.862
X64.733 Y557.323
X64.136 Y557.767
X63.523 Y558.192
X62.889 Y558.602
X62.409 Y558.893
X62.254 Y558.983
X62.245 Y558.988
X62.093 Y559.076
X61.598 Y559.346
X60.924 Y559.693
X60.253 Y560.009
X59.57 Y560.303
X58.879 Y560.576
X58.185 Y560.822
X57.485 Y561.045
X56.777 Y561.245
X56.064 Y561.422
X55.349 Y561.576
X54.631 Y561.704
X53.907 Y561.811
X53.183 Y561.893
X52.456 Y561.952
X51.727 Y561.988
X51 Y562
X50.273 Y561.988
X49.545 Y561.952
X48.817 Y561.893
X48.094 Y561.811
X47.369 Y561.704
X46.651 Y561.576
X45.936 Y561.422
X45.223 Y561.245
X44.515 Y561.045
X43.815 Y560.822
X43.121 Y560.576
X42.431 Y560.303
X41.747 Y560.009
X41.076 Y559.693
X40.402 Y559.346
X39.908 Y559.076
X39.756 Y558.988
X39.747 Y558.983
X39.591 Y558.894
X39.111 Y558.602
X38.477 Y558.192
X37.863 Y557.767
X37.267 Y557.323
X36.688 Y556.862
X36.128 Y556.384
X35.582 Y555.887
X35.055 Y555.375
X34.547 Y554.848
X34.056 Y554.304
X33.584 Y553.746
X33.131 Y553.173
X32.698 Y552.588
X32.284 Y551.988
X31.889 Y551.375
X31.515 Y550.749
X31.161 Y550.114
X30.828 Y549.465
X30.515 Y548.806
X30.224 Y548.136
X29.955 Y547.459
X29.707 Y546.771
X29.482 Y546.074
X29.279 Y545.369
X29.099 Y544.659
X28.942 Y543.939
X28.808 Y543.213
X28.698 Y542.48
X28.612 Y541.743
X28.55 Y540.999
X28.513 Y540.245
X28.5 Y539.68
Y99.499
G2 X26 Y96.999 I-2.5 J0
G1 X1
G2 X-1.5 Y99.499 I0 J2.5
G1 Y589.918
X-1.499 Y589.973
X-1.472 Y591.226
X-1.469 Y591.296
X-1.386 Y592.957
X-1.381 Y593.04
X-1.243 Y594.691
X-1.235 Y594.773
X-1.043 Y596.413
X-1.033 Y596.495
X-0.788 Y598.122
X-0.774 Y598.203
X-0.477 Y599.817
X-0.461 Y599.897
X-0.112 Y601.495
X-0.093 Y601.575
X0.307 Y603.159
X0.328 Y603.238
X0.779 Y604.804
X0.803 Y604.882
X1.304 Y606.43
X1.33 Y606.507
X1.88 Y608.034
X1.909 Y608.109
X2.507 Y609.618
X2.539 Y609.693
X3.185 Y611.18
X3.219 Y611.253
X3.913 Y612.717
X3.949 Y612.79
X4.689 Y614.229
X4.727 Y614.3
X5.514 Y615.715
X5.554 Y615.784
X6.386 Y617.173
X6.429 Y617.243
X7.305 Y618.604
X7.35 Y618.671
X8.271 Y620.003
X8.317 Y620.068
X9.281 Y621.372
X9.331 Y621.437
X10.338 Y622.709
X10.389 Y622.772
X11.438 Y624.012
X11.491 Y624.074
X12.581 Y625.281
X12.636 Y625.339
X13.767 Y626.513
X13.824 Y626.571
X14.995 Y627.71
X15.056 Y627.767
X16.266 Y628.868
X16.327 Y628.922
X17.576 Y629.986
X17.64 Y630.039
X18.927 Y631.064
X18.991 Y631.113
X20.316 Y632.099
X20.383 Y632.148
X21.744 Y633.093
X21.813 Y633.139
X23.21 Y634.042
X23.269 Y634.078
X24.34 Y634.729
X24.392 Y634.76
X24.751 Y634.967
X25.111 Y635.175
X25.161 Y635.203
X26.26 Y635.805
X26.32 Y635.837
X27.8 Y636.596
X27.874 Y636.632
X29.373 Y637.339
X29.449 Y637.373
X30.965 Y638.027
X31.042 Y638.059
X32.574 Y638.66
X32.649 Y638.688
X34.195 Y639.238
X34.274 Y639.265
X35.833 Y639.762
X35.911 Y639.785
X37.482 Y640.23
X37.561 Y640.251
X39.142 Y640.644
X39.222 Y640.663
X40.813 Y641.003
X40.893 Y641.018
X42.491 Y641.306
X42.571 Y641.319
X44.176 Y641.555
X44.259 Y641.566
X45.869 Y641.748
X45.946 Y641.756
X47.561 Y641.888
X47.644 Y641.893
X49.261 Y641.971
X49.342 Y641.974
X50.96 Y642
X51.04
X52.659 Y641.974
X52.739 Y641.971
X54.356 Y641.893
X54.439 Y641.888
X56.054 Y641.756
X56.131 Y641.748
X57.741 Y641.566
X57.824 Y641.555
X59.429 Y641.319
X59.509 Y641.306
X61.108 Y641.018
X61.187 Y641.003
X62.778 Y640.663
X62.858 Y640.644
X64.44 Y640.251
X64.518 Y640.23
X66.089 Y639.785
X66.167 Y639.762
X67.726 Y639.265
X67.805 Y639.238
X69.351 Y638.688
X69.426 Y638.66
X70.958 Y638.059
X71.035 Y638.027
X72.551 Y637.373
X72.627 Y637.339
X74.126 Y636.632
X74.2 Y636.596
X75.68 Y635.837
X75.741 Y635.805
X76.839 Y635.203
X76.889 Y635.175
X77.248 Y634.967
X77.608 Y634.76
X77.66 Y634.729
X78.731 Y634.078
X78.79 Y634.042
X80.187 Y633.139
X80.256 Y633.093
X81.617 Y632.148
X81.684 Y632.099
X83.009 Y631.113
X83.073 Y631.064
X84.36 Y630.039
X84.424 Y629.986
X85.673 Y628.922
X85.734 Y628.868
X86.944 Y627.767
X87.005 Y627.71
X88.176 Y626.571
X88.233 Y626.513
X89.364 Y625.339
X89.419 Y625.281
X90.509 Y624.074
X90.562 Y624.012
X91.611 Y622.772
X91.663 Y622.709
X92.669 Y621.437
X92.719 Y621.372
X93.683 Y620.068
X93.729 Y620.003
X94.65 Y618.671
X94.695 Y618.604
X95.571 Y617.243
X95.614 Y617.173
X96.446 Y615.784
X96.487 Y615.715
X97.273 Y614.3
X97.311 Y614.229
X98.051 Y612.79
X98.088 Y612.717
X98.781 Y611.253
X98.815 Y611.18
X99.461 Y609.693
X99.493 Y609.618
X100.091 Y608.109
X100.12 Y608.034
X100.67 Y606.507
X100.696 Y606.429
X101.197 Y604.881
X101.221 Y604.804
X101.672 Y603.238
X101.693 Y603.159
X102.093 Y601.575
X102.112 Y601.496
X102.461 Y599.898
X102.478 Y599.816
X102.775 Y598.202
X102.788 Y598.121
X103.032 Y596.494
X103.043 Y596.414
X103.235 Y594.774
X103.243 Y594.69
X103.38 Y593.039
X103.386 Y592.957
X103.469 Y591.296
X103.471 Y591.227
X103.499 Y589.974
X103.5 Y589.918
Y99.499
G2 X101 Y96.999 I-2.5 J0
G1 X76
X75.83 Y97.005
Z5
G0 Z15

(2D Contour1 2)
G0 X113.33 Y543.495
Z15
Z5
G1 Z3 F333.3
Z-4
X113.5 Y543.501 F1000
X138.5
G2 X141 Y541.001 I0 J-2.5
G1 Y50.582
X140.999 Y50.527
X140.971 Y49.274
X140.969 Y49.205
X140.886 Y47.543
X140.88 Y47.461
X140.743 Y45.81
X140.735 Y45.726
X140.543 Y44.086
X140.532 Y44.007
X140.288 Y42.379
X140.274 Y42.296
X139.976 Y40.682
X139.96 Y40.603
X139.611 Y39.004
X139.593 Y38.925
X139.193 Y37.342
X139.171 Y37.262
X138.72 Y35.696
X138.697 Y35.62
X138.197 Y34.072
X138.17 Y33.993
X137.619 Y32.464
X137.591 Y32.391
X136.993 Y30.883
X136.961 Y30.806
X136.314 Y29.32
X136.281 Y29.247
X135.587 Y27.783
X135.551 Y27.711
X134.811 Y26.272
X134.773 Y26.199
X133.986 Y24.785
X133.945 Y24.715
X133.113 Y23.327
X133.071 Y23.259
X132.195 Y21.898
X132.15 Y21.829
X131.229 Y20.496
X131.182 Y20.431
X130.218 Y19.128
X130.169 Y19.064
X129.163 Y17.792
X129.111 Y17.728
X128.062 Y16.487
X128.009 Y16.426
X126.919 Y15.219
X126.863 Y15.159
X125.732 Y13.986
X125.675 Y13.929
X124.505 Y12.79
X124.445 Y12.734
X123.235 Y11.632
X123.173 Y11.578
X121.924 Y10.514
X121.861 Y10.461
X120.574 Y9.436
X120.508 Y9.385
X119.183 Y8.4
X119.117 Y8.352
X117.756 Y7.407
X117.687 Y7.361
X116.29 Y6.458
X116.231 Y6.421
X115.16 Y5.771
X115.111 Y5.742
X114.749 Y5.533
X114.387 Y5.324
X114.34 Y5.298
X113.241 Y4.695
X113.18 Y4.663
X111.7 Y3.904
X111.625 Y3.867
X110.126 Y3.161
X110.051 Y3.127
X108.535 Y2.473
X108.459 Y2.441
X106.928 Y1.84
X106.85 Y1.811
X105.304 Y1.261
X105.226 Y1.235
X103.666 Y0.738
X103.588 Y0.714
X102.017 Y0.269
X101.938 Y0.248
X100.357 Y-0.144
X100.278 Y-0.163
X98.687 Y-0.503
X98.607 Y-0.518
X97.008 Y-0.806
X96.928 Y-0.819
X95.323 Y-1.055
X95.243 Y-1.065
X93.632 Y-1.248
X93.552 Y-1.256
X91.937 Y-1.387
X91.857 Y-1.392
X90.239 Y-1.471
X90.159 Y-1.473
X88.54 Y-1.5
X88.459
X86.841 Y-1.473
X86.76 Y-1.471
X85.143 Y-1.392
X85.063 Y-1.387
X83.448 Y-1.256
X83.368 Y-1.248
X81.757 Y-1.065
X81.676 Y-1.055
X80.071 Y-0.819
X79.991 Y-0.806
X78.393 Y-0.518
X78.313 Y-0.503
X76.722 Y-0.162
X76.643 Y-0.144
X75.061 Y0.248
X74.982 Y0.269
X73.411 Y0.714
X73.333 Y0.738
X71.774 Y1.235
X71.696 Y1.261
X70.15 Y1.811
X70.073 Y1.839
X68.541 Y2.441
X68.465 Y2.473
X66.949 Y3.127
X66.873 Y3.161
X65.375 Y3.867
X65.3 Y3.904
X63.82 Y4.663
X63.759 Y4.695
X62.66 Y5.298
X62.612 Y5.325
X62.25 Y5.534
X61.888 Y5.743
X61.84 Y5.771
X60.769 Y6.421
X60.71 Y6.458
X59.313 Y7.361
X59.244 Y7.407
X57.883 Y8.352
X57.816 Y8.4
X56.491 Y9.386
X56.426 Y9.436
X55.139 Y10.461
X55.075 Y10.514
X53.827 Y11.578
X53.765 Y11.632
X52.555 Y12.734
X52.495 Y12.79
X51.325 Y13.928
X51.267 Y13.986
X50.136 Y15.159
X50.081 Y15.219
X48.991 Y16.426
X48.937 Y16.488
X47.888 Y17.728
X47.837 Y17.791
X46.83 Y19.064
X46.781 Y19.128
X45.817 Y20.431
X45.77 Y20.497
X44.85 Y21.83
X44.805 Y21.897
X43.928 Y23.258
X43.886 Y23.327
X43.054 Y24.715
X43.014 Y24.785
X42.227 Y26.2
X42.189 Y26.271
X41.448 Y27.711
X41.412 Y27.783
X40.719 Y29.247
X40.685 Y29.321
X40.038 Y30.807
X40.007 Y30.882
X39.409 Y32.39
X39.38 Y32.466
X38.83 Y33.994
X38.803 Y34.071
X38.303 Y35.619
X38.279 Y35.696
X37.828 Y37.262
X37.807 Y37.341
X37.406 Y38.924
X37.388 Y39.004
X37.039 Y40.603
X37.022 Y40.683
X36.725 Y42.297
X36.712 Y42.378
X36.467 Y44.006
X36.456 Y44.087
X36.265 Y45.727
X36.257 Y45.809
X36.119 Y47.461
X36.114 Y47.543
X36.031 Y49.205
X36.028 Y49.274
X36 Y50.527
Y50.582
Y541.001
G2 X38.5 Y543.501 I2.5 J0
G1 X63.5
G2 X66 Y541.001 I0 J-2.5
G1 Y100.819
X66.012 Y100.255
X66.05 Y99.501
X66.112 Y98.757
X66.198 Y98.02
X66.308 Y97.288
X66.442 Y96.561
X66.599 Y95.842
X66.779 Y95.13
X66.982 Y94.425
X67.207 Y93.729
X67.455 Y93.041
X67.724 Y92.362
X68.015 Y91.694
X68.327 Y91.035
X68.66 Y90.387
X69.015 Y89.75
X69.389 Y89.125
X69.783 Y88.513
X70.198 Y87.913
X70.632 Y87.327
X71.084 Y86.754
X71.556 Y86.196
X72.046 Y85.653
X72.555 Y85.125
X73.082 Y84.612
X73.627 Y84.117
X74.188 Y83.638
X74.767 Y83.177
X75.364 Y82.733
X75.976 Y82.308
X76.611 Y81.898
X77.093 Y81.605
X77.25 Y81.515
X77.407 Y81.424
X77.901 Y81.153
X78.574 Y80.808
X79.248 Y80.49
X79.93 Y80.196
X80.619 Y79.925
X81.315 Y79.678
X82.017 Y79.454
X82.723 Y79.254
X83.435 Y79.077
X84.151 Y78.924
X84.87 Y78.795
X85.592 Y78.689
X86.317 Y78.606
X87.044 Y78.548
X87.772 Y78.512
X88.5 Y78.5
X89.228 Y78.512
X89.956 Y78.548
X90.682 Y78.606
X91.407 Y78.689
X92.129 Y78.795
X92.849 Y78.924
X93.565 Y79.077
X94.276 Y79.254
X94.983 Y79.454
X95.685 Y79.678
X96.38 Y79.925
X97.069 Y80.196
X97.752 Y80.49
X98.425 Y80.808
X99.098 Y81.153
X99.594 Y81.425
X99.75 Y81.515
X99.906 Y81.605
X100.388 Y81.898
X101.024 Y82.308
X101.637 Y82.733
X102.232 Y83.176
X102.811 Y83.638
X103.374 Y84.117
X103.917 Y84.612
X104.444 Y85.125
X104.954 Y85.653
X105.444 Y86.196
X105.915 Y86.754
X106.368 Y87.326
X106.802 Y87.913
X107.216 Y88.513
X107.612 Y89.126
X107.986 Y89.75
X108.339 Y90.386
X108.672 Y91.035
X108.985 Y91.693
X109.276 Y92.363
X109.546 Y93.042
X109.793 Y93.728
X110.018 Y94.424
X110.22 Y95.13
X110.401 Y95.842
X110.558 Y96.561
X110.692 Y97.288
X110.802 Y98.02
X110.888 Y98.757
X110.949 Y99.5
X110.987 Y100.256
X111 Y100.819
Y541.001
G2 X113.33 Y543.495 I2.5 J0
G1 Z-8 F333.3
X113.5 Y543.501 F1000
X138.5
G2 X141 Y541.001 I0 J-2.5
G1 Y50.582
X140.999 Y50.527
X140.971 Y49.274
X140.969 Y49.205
X140.886 Y47.543
X140.88 Y47.461
X140.743 Y45.81
X140.735 Y45.726
X140.543 Y44.086
X140.532 Y44.007
X140.288 Y42.379
X140.274 Y42.296
X139.976 Y40.682
X139.96 Y40.603
X139.611 Y39.004
X139.593 Y38.925
X139.193 Y37.342
X139.171 Y37.262
X138.72 Y35.696
X138.697 Y35.62
X138.197 Y34.072
X138.17 Y33.993
X137.619 Y32.464
X137.591 Y32.391
X136.993 Y30.883
X136.961 Y30.806
X136.314 Y29.32
X136.281 Y29.247
X135.587 Y27.783
X135.551 Y27.711
X134.811 Y26.272
X134.773 Y26.199
X133.986 Y24.785
X133.945 Y24.715
X133.113 Y23.327
X133.071 Y23.259
X132.195 Y21.898
X132.15 Y21.829
X131.229 Y20.496
X131.182 Y20.431
X130.218 Y19.128
X130.169 Y19.064
X129.163 Y17.792
X129.111 Y17.728
X128.062 Y16.487
X128.009 Y16.426
X126.919 Y15.219
X126.863 Y15.159
X125.732 Y13.986
X125.675 Y13.929
X124.505 Y12.79
X124.445 Y12.734
X123.235 Y11.632
X123.173 Y11.578
X121.924 Y10.514
X121.861 Y10.461
X120.574 Y9.436
X120.508 Y9.385
X119.183 Y8.4
X119.117 Y8.352
X117.756 Y7.407
X117.687 Y7.361
X116.29 Y6.458
X116.231 Y6.421
X115.16 Y5.771
X115.111 Y5.742
X114.749 Y5.533
X114.387 Y5.324
X114.34 Y5.298
X113.241 Y4.695
X113.18 Y4.663
X111.7 Y3.904
X111.625 Y3.867
X110.126 Y3.161
X110.051 Y3.127
X108.535 Y2.473
X108.459 Y2.441
X106.928 Y1.84
X106.85 Y1.811
X105.304 Y1.261
X105.226 Y1.235
X103.666 Y0.738
X103.588 Y0.714
X102.017 Y0.269
X101.938 Y0.248
X100.357 Y-0.144
X100.278 Y-0.163
X98.687 Y-0.503
X98.607 Y-0.518
X97.008 Y-0.806
X96.928 Y-0.819
X95.323 Y-1.055
X95.243 Y-1.065
X93.632 Y-1.248
X93.552 Y-1.256
X91.937 Y-1.387
X91.857 Y-1.392
X90.239 Y-1.471
X90.159 Y-1.473
X88.54 Y-1.5
X88.459
X86.841 Y-1.473
X86.76 Y-1.471
X85.143 Y-1.392
X85.063 Y-1.387
X83.448 Y-1.256
X83.368 Y-1.248
X81.757 Y-1.065
X81.676 Y-1.055
X80.071 Y-0.819
X79.991 Y-0.806
X78.393 Y-0.518
X78.313 Y-0.503
X76.722 Y-0.162
X76.643 Y-0.144
X75.061 Y0.248
X74.982 Y0.269
X73.411 Y0.714
X73.333 Y0.738
X71.774 Y1.235
X71.696 Y1.261
X70.15 Y1.811
X70.073 Y1.839
X68.541 Y2.441
X68.465 Y2.473
X66.949 Y3.127
X66.873 Y3.161
X65.375 Y3.867
X65.3 Y3.904
X63.82 Y4.663
X63.759 Y4.695
X62.66 Y5.298
X62.612 Y5.325
X62.25 Y5.534
X61.888 Y5.743
X61.84 Y5.771
X60.769 Y6.421
X60.71 Y6.458
X59.313 Y7.361
X59.244 Y7.407
X57.883 Y8.352
X57.816 Y8.4
X56.491 Y9.386
X56.426 Y9.436
X55.139 Y10.461
X55.075 Y10.514
X53.827 Y11.578
X53.765 Y11.632
X52.555 Y12.734
X52.495 Y12.79
X51.325 Y13.928
X51.267 Y13.986
X50.136 Y15.159
X50.081 Y15.219
X48.991 Y16.426
X48.937 Y16.488
X47.888 Y17.728
X47.837 Y17.791
X46.83 Y19.064
X46.781 Y19.128
X45.817 Y20.431
X45.77 Y20.497
X44.85 Y21.83
X44.805 Y21.897
X43.928 Y23.258
X43.886 Y23.327
X43.054 Y24.715
X43.014 Y24.785
X42.227 Y26.2
X42.189 Y26.271
X41.448 Y27.711
X41.412 Y27.783
X40.719 Y29.247
X40.685 Y29.321
X40.038 Y30.807
X40.007 Y30.882
X39.409 Y32.39
X39.38 Y32.466
X38.83 Y33.994
X38.803 Y34.071
X38.303 Y35.619
X38.279 Y35.696
X37.828 Y37.262
X37.807 Y37.341
X37.406 Y38.924
X37.388 Y39.004
X37.039 Y40.603
X37.022 Y40.683
X36.725 Y42.297
X36.712 Y42.378
X36.467 Y44.006
X36.456 Y44.087
X36.265 Y45.727
X36.257 Y45.809
X36.119 Y47.461
X36.114 Y47.543
X36.031 Y49.205
X36.028 Y49.274
X36 Y50.527
Y50.582
Y541.001
G2 X38.5 Y543.501 I2.5 J0
G1 X63.5
G2 X66 Y541.001 I0 J-2.5
G1 Y100.819
X66.012 Y100.255
X66.05 Y99.501
X66.112 Y98.757
X66.198 Y98.02
X66.308 Y97.288
X66.442 Y96.561
X66.599 Y95.842
X66.779 Y95.13
X66.982 Y94.425
X67.207 Y93.729
X67.455 Y93.041
X67.724 Y92.362
X68.015 Y91.694
X68.327 Y91.035
X68.66 Y90.387
X69.015 Y89.75
X69.389 Y89.125
X69.783 Y88.513
X70.198 Y87.913
X70.632 Y87.327
X71.084 Y86.754
X71.556 Y86.196
X72.046 Y85.653
X72.555 Y85.125
X73.082 Y84.612
X73.627 Y84.117
X74.188 Y83.638
X74.767 Y83.177
X75.364 Y82.733
X75.976 Y82.308
X76.611 Y81.898
X77.093 Y81.605
X77.25 Y81.515
X77.407 Y81.424
X77.901 Y81.153
X78.574 Y80.808
X79.248 Y80.49
X79.93 Y80.196
X80.619 Y79.925
X81.315 Y79.678
X82.017 Y79.454
X82.723 Y79.254
X83.435 Y79.077
X84.151 Y78.924
X84.87 Y78.795
X85.592 Y78.689
X86.317 Y78.606
X87.044 Y78.548
X87.772 Y78.512
X88.5 Y78.5
X89.228 Y78.512
X89.956 Y78.548
X90.682 Y78.606
X91.407 Y78.689
X92.129 Y78.795
X92.849 Y78.924
X93.565 Y79.077
X94.276 Y79.254
X94.983 Y79.454
X95.685 Y79.678
X96.38 Y79.925
X97.069 Y80.196
X97.752 Y80.49
X98.425 Y80.808
X99.098 Y81.153
X99.594 Y81.425
X99.75 Y81.515
X99.906 Y81.605
X100.388 Y81.898
X101.024 Y82.308
X101.637 Y82.733
X102.232 Y83.176
X102.811 Y83.638
X103.374 Y84.117
X103.917 Y84.612
X104.444 Y85.125
X104.954 Y85.653
X105.444 Y86.196
X105.915 Y86.754
X106.368 Y87.326
X106.802 Y87.913
X107.216 Y88.513
X107.612 Y89.126
X107.986 Y89.75
X108.339 Y90.386
X108.672 Y91.035
X108.985 Y91.693
X109.276 Y92.363
X109.546 Y93.042
X109.793 Y93.728
X110.018 Y94.424
X110.22 Y95.13
X110.401 Y95.842
X110.558 Y96.561
X110.692 Y97.288
X110.802 Y98.02
X110.888 Y98.757
X110.949 Y99.5
X110.987 Y100.256
X111 Y100.819
Y541.001
G2 X113.33 Y543.495 I2.5 J0
G1 Z-12 F333.3
X113.5 Y543.501 F1000
X138.5
G2 X141 Y541.001 I0 J-2.5
G1 Y50.582
X140.999 Y50.527
X140.971 Y49.274
X140.969 Y49.205
X140.886 Y47.543
X140.88 Y47.461
X140.743 Y45.81
X140.735 Y45.726
X140.543 Y44.086
X140.532 Y44.007
X140.288 Y42.379
X140.274 Y42.296
X139.976 Y40.682
X139.96 Y40.603
X139.611 Y39.004
X139.593 Y38.925
X139.193 Y37.342
X139.171 Y37.262
X138.72 Y35.696
X138.697 Y35.62
X138.197 Y34.072
X138.17 Y33.993
X137.619 Y32.464
X137.591 Y32.391
X136.993 Y30.883
X136.961 Y30.806
X136.314 Y29.32
X136.281 Y29.247
X135.587 Y27.783
X135.551 Y27.711
X134.811 Y26.272
X134.773 Y26.199
X133.986 Y24.785
X133.945 Y24.715
X133.113 Y23.327
X133.071 Y23.259
X132.195 Y21.898
X132.15 Y21.829
X131.229 Y20.496
X131.182 Y20.431
X130.218 Y19.128
X130.169 Y19.064
X129.163 Y17.792
X129.111 Y17.728
X128.062 Y16.487
X128.009 Y16.426
X126.919 Y15.219
X126.863 Y15.159
X125.732 Y13.986
X125.675 Y13.929
X124.505 Y12.79
X124.445 Y12.734
X123.235 Y11.632
X123.173 Y11.578
X121.924 Y10.514
X121.861 Y10.461
X120.574 Y9.436
X120.508 Y9.385
X119.183 Y8.4
X119.117 Y8.352
X117.756 Y7.407
X117.687 Y7.361
X116.29 Y6.458
X116.231 Y6.421
X115.16 Y5.771
X115.111 Y5.742
X114.749 Y5.533
X114.387 Y5.324
X114.34 Y5.298
X113.241 Y4.695
X113.18 Y4.663
X111.7 Y3.904
X111.625 Y3.867
X110.126 Y3.161
X110.051 Y3.127
X108.535 Y2.473
X108.459 Y2.441
X106.928 Y1.84
X106.85 Y1.811
X105.304 Y1.261
X105.226 Y1.235
X103.666 Y0.738
X103.588 Y0.714
X102.017 Y0.269
X101.938 Y0.248
X100.357 Y-0.144
X100.278 Y-0.163
X98.687 Y-0.503
X98.607 Y-0.518
X97.008 Y-0.806
X96.928 Y-0.819
X95.323 Y-1.055
X95.243 Y-1.065
X93.632 Y-1.248
X93.552 Y-1.256
X91.937 Y-1.387
X91.857 Y-1.392
X90.239 Y-1.471
X90.159 Y-1.473
X88.54 Y-1.5
X88.459
X86.841 Y-1.473
X86.76 Y-1.471
X85.143 Y-1.392
X85.063 Y-1.387
X83.448 Y-1.256
X83.368 Y-1.248
X81.757 Y-1.065
X81.676 Y-1.055
X80.071 Y-0.819
X79.991 Y-0.806
X78.393 Y-0.518
X78.313 Y-0.503
X76.722 Y-0.162
X76.643 Y-0.144
X75.061 Y0.248
X74.982 Y0.269
X73.411 Y0.714
X73.333 Y0.738
X71.774 Y1.235
X71.696 Y1.261
X70.15 Y1.811
X70.073 Y1.839
X68.541 Y2.441
X68.465 Y2.473
X66.949 Y3.127
X66.873 Y3.161
X65.375 Y3.867
X65.3 Y3.904
X63.82 Y4.663
X63.759 Y4.695
X62.66 Y5.298
X62.612 Y5.325
X62.25 Y5.534
X61.888 Y5.743
X61.84 Y5.771
X60.769 Y6.421
X60.71 Y6.458
X59.313 Y7.361
X59.244 Y7.407
X57.883 Y8.352
X57.816 Y8.4
X56.491 Y9.386
X56.426 Y9.436
X55.139 Y10.461
X55.075 Y10.514
X53.827 Y11.578
X53.765 Y11.632
X52.555 Y12.734
X52.495 Y12.79
X51.325 Y13.928
X51.267 Y13.986
X50.136 Y15.159
X50.081 Y15.219
X48.991 Y16.426
X48.937 Y16.488
X47.888 Y17.728
X47.837 Y17.791
X46.83 Y19.064
X46.781 Y19.128
X45.817 Y20.431
X45.77 Y20.497
X44.85 Y21.83
X44.805 Y21.897
X43.928 Y23.258
X43.886 Y23.327
X43.054 Y24.715
X43.014 Y24.785
X42.227 Y26.2
X42.189 Y26.271
X41.448 Y27.711
X41.412 Y27.783
X40.719 Y29.247
X40.685 Y29.321
X40.038 Y30.807
X40.007 Y30.882
X39.409 Y32.39
X39.38 Y32.466
X38.83 Y33.994
X38.803 Y34.071
X38.303 Y35.619
X38.279 Y35.696
X37.828 Y37.262
X37.807 Y37.341
X37.406 Y38.924
X37.388 Y39.004
X37.039 Y40.603
X37.022 Y40.683
X36.725 Y42.297
X36.712 Y42.378
X36.467 Y44.006
X36.456 Y44.087
X36.265 Y45.727
X36.257 Y45.809
X36.119 Y47.461
X36.114 Y47.543
X36.031 Y49.205
X36.028 Y49.274
X36 Y50.527
Y50.582
Y541.001
G2 X38.5 Y543.501 I2.5 J0
G1 X63.5
G2 X66 Y541.001 I0 J-2.5
G1 Y100.819
X66.012 Y100.255
X66.05 Y99.501
X66.112 Y98.757
X66.198 Y98.02
X66.308 Y97.288
X66.442 Y96.561
X66.599 Y95.842
X66.779 Y95.13
X66.982 Y94.425
X67.207 Y93.729
X67.455 Y93.041
X67.724 Y92.362
X68.015 Y91.694
X68.327 Y91.035
X68.66 Y90.387
X69.015 Y89.75
X69.389 Y89.125
X69.783 Y88.513
X70.198 Y87.913
X70.632 Y87.327
X71.084 Y86.754
X71.556 Y86.196
X72.046 Y85.653
X72.555 Y85.125
X73.082 Y84.612
X73.627 Y84.117
X74.188 Y83.638
X74.767 Y83.177
X75.364 Y82.733
X75.976 Y82.308
X76.611 Y81.898
X77.093 Y81.605
X77.25 Y81.515
X77.407 Y81.424
X77.901 Y81.153
X78.574 Y80.808
X79.248 Y80.49
X79.93 Y80.196
X80.619 Y79.925
X81.315 Y79.678
X82.017 Y79.454
X82.723 Y79.254
X83.435 Y79.077
X84.151 Y78.924
X84.87 Y78.795
X85.592 Y78.689
X86.317 Y78.606
X87.044 Y78.548
X87.772 Y78.512
X88.5 Y78.5
X89.228 Y78.512
X89.956 Y78.548
X90.682 Y78.606
X91.407 Y78.689
X92.129 Y78.795
X92.849 Y78.924
X93.565 Y79.077
X94.276 Y79.254
X94.983 Y79.454
X95.685 Y79.678
X96.38 Y79.925
X97.069 Y80.196
X97.752 Y80.49
X98.425 Y80.808
X99.098 Y81.153
X99.594 Y81.425
X99.75 Y81.515
X99.906 Y81.605
X100.388 Y81.898
X101.024 Y82.308
X101.637 Y82.733
X102.232 Y83.176
X102.811 Y83.638
X103.374 Y84.117
X103.917 Y84.612
X104.444 Y85.125
X104.954 Y85.653
X105.444 Y86.196
X105.915 Y86.754
X106.368 Y87.326
X106.802 Y87.913
X107.216 Y88.513
X107.612 Y89.126
X107.986 Y89.75
X108.339 Y90.386
X108.672 Y91.035
X108.985 Y91.693
X109.276 Y92.363
X109.546 Y93.042
X109.793 Y93.728
X110.018 Y94.424
X110.22 Y95.13
X110.401 Y95.842
X110.558 Y96.561
X110.692 Y97.288
X110.802 Y98.02
X110.888 Y98.757
X110.949 Y99.5
X110.987 Y100.256
X111 Y100.819
Y541.001
G2 X113.33 Y543.495 I2.5 J0
G1 Z-16 F333.3
X113.5 Y543.501 F1000
X138.5
G2 X141 Y541.001 I0 J-2.5
G1 Y50.582
X140.999 Y50.527
X140.971 Y49.274
X140.969 Y49.205
X140.886 Y47.543
X140.88 Y47.461
X140.743 Y45.81
X140.735 Y45.726
X140.543 Y44.086
X140.532 Y44.007
X140.288 Y42.379
X140.274 Y42.296
X139.976 Y40.682
X139.96 Y40.603
X139.611 Y39.004
X139.593 Y38.925
X139.193 Y37.342
X139.171 Y37.262
X138.72 Y35.696
X138.697 Y35.62
X138.197 Y34.072
X138.17 Y33.993
X137.619 Y32.464
X137.591 Y32.391
X136.993 Y30.883
X136.961 Y30.806
X136.314 Y29.32
X136.281 Y29.247
X135.587 Y27.783
X135.551 Y27.711
X134.811 Y26.272
X134.773 Y26.199
X133.986 Y24.785
X133.945 Y24.715
X133.113 Y23.327
X133.071 Y23.259
X132.195 Y21.898
X132.15 Y21.829
X131.229 Y20.496
X131.182 Y20.431
X130.218 Y19.128
X130.169 Y19.064
X129.163 Y17.792
X129.111 Y17.728
X128.062 Y16.487
X128.009 Y16.426
X126.919 Y15.219
X126.863 Y15.159
X125.732 Y13.986
X125.675 Y13.929
X124.505 Y12.79
X124.445 Y12.734
X123.235 Y11.632
X123.173 Y11.578
X121.924 Y10.514
X121.861 Y10.461
X120.574 Y9.436
X120.508 Y9.385
X119.183 Y8.4
X119.117 Y8.352
X117.756 Y7.407
X117.687 Y7.361
X116.29 Y6.458
X116.231 Y6.421
X115.16 Y5.771
X115.111 Y5.742
X114.749 Y5.533
X114.387 Y5.324
X114.34 Y5.298
X113.241 Y4.695
X113.18 Y4.663
X111.7 Y3.904
X111.625 Y3.867
X110.126 Y3.161
X110.051 Y3.127
X108.535 Y2.473
X108.459 Y2.441
X106.928 Y1.84
X106.85 Y1.811
X105.304 Y1.261
X105.226 Y1.235
X103.666 Y0.738
X103.588 Y0.714
X102.017 Y0.269
X101.938 Y0.248
X100.357 Y-0.144
X100.278 Y-0.163
X98.687 Y-0.503
X98.607 Y-0.518
X97.008 Y-0.806
X96.928 Y-0.819
X95.323 Y-1.055
X95.243 Y-1.065
X93.632 Y-1.248
X93.552 Y-1.256
X91.937 Y-1.387
X91.857 Y-1.392
X90.239 Y-1.471
X90.159 Y-1.473
X88.54 Y-1.5
X88.459
X86.841 Y-1.473
X86.76 Y-1.471
X85.143 Y-1.392
X85.063 Y-1.387
X83.448 Y-1.256
X83.368 Y-1.248
X81.757 Y-1.065
X81.676 Y-1.055
X80.071 Y-0.819
X79.991 Y-0.806
X78.393 Y-0.518
X78.313 Y-0.503
X76.722 Y-0.162
X76.643 Y-0.144
X75.061 Y0.248
X74.982 Y0.269
X73.411 Y0.714
X73.333 Y0.738
X71.774 Y1.235
X71.696 Y1.261
X70.15 Y1.811
X70.073 Y1.839
X68.541 Y2.441
X68.465 Y2.473
X66.949 Y3.127
X66.873 Y3.161
X65.375 Y3.867
X65.3 Y3.904
X63.82 Y4.663
X63.759 Y4.695
X62.66 Y5.298
X62.612 Y5.325
X62.25 Y5.534
X61.888 Y5.743
X61.84 Y5.771
X60.769 Y6.421
X60.71 Y6.458
X59.313 Y7.361
X59.244 Y7.407
X57.883 Y8.352
X57.816 Y8.4
X56.491 Y9.386
X56.426 Y9.436
X55.139 Y10.461
X55.075 Y10.514
X53.827 Y11.578
X53.765 Y11.632
X52.555 Y12.734
X52.495 Y12.79
X51.325 Y13.928
X51.267 Y13.986
X50.136 Y15.159
X50.081 Y15.219
X48.991 Y16.426
X48.937 Y16.488
X47.888 Y17.728
X47.837 Y17.791
X46.83 Y19.064
X46.781 Y19.128
X45.817 Y20.431
X45.77 Y20.497
X44.85 Y21.83
X44.805 Y21.897
X43.928 Y23.258
X43.886 Y23.327
X43.054 Y24.715
X43.014 Y24.785
X42.227 Y26.2
X42.189 Y26.271
X41.448 Y27.711
X41.412 Y27.783
X40.719 Y29.247
X40.685 Y29.321
X40.038 Y30.807
X40.007 Y30.882
X39.409 Y32.39
X39.38 Y32.466
X38.83 Y33.994
X38.803 Y34.071
X38.303 Y35.619
X38.279 Y35.696
X37.828 Y37.262
X37.807 Y37.341
X37.406 Y38.924
X37.388 Y39.004
X37.039 Y40.603
X37.022 Y40.683
X36.725 Y42.297
X36.712 Y42.378
X36.467 Y44.006
X36.456 Y44.087
X36.265 Y45.727
X36.257 Y45.809
X36.119 Y47.461
X36.114 Y47.543
X36.031 Y49.205
X36.028 Y49.274
X36 Y50.527
Y50.582
Y541.001
G2 X38.5 Y543.501 I2.5 J0
G1 X63.5
G2 X66 Y541.001 I0 J-2.5
G1 Y100.819
X66.012 Y100.255
X66.05 Y99.501
X66.112 Y98.757
X66.198 Y98.02
X66.308 Y97.288
X66.442 Y96.561
X66.599 Y95.842
X66.779 Y95.13
X66.982 Y94.425
X67.207 Y93.729
X67.455 Y93.041
X67.724 Y92.362
X68.015 Y91.694
X68.327 Y91.035
X68.66 Y90.387
X69.015 Y89.75
X69.389 Y89.125
X69.783 Y88.513
X70.198 Y87.913
X70.632 Y87.327
X71.084 Y86.754
X71.556 Y86.196
X72.046 Y85.653
X72.555 Y85.125
X73.082 Y84.612
X73.627 Y84.117
X74.188 Y83.638
X74.767 Y83.177
X75.364 Y82.733
X75.976 Y82.308
X76.611 Y81.898
X77.093 Y81.605
X77.25 Y81.515
X77.407 Y81.424
X77.901 Y81.153
X78.574 Y80.808
X79.248 Y80.49
X79.93 Y80.196
X80.619 Y79.925
X81.315 Y79.678
X82.017 Y79.454
X82.723 Y79.254
X83.435 Y79.077
X84.151 Y78.924
X84.87 Y78.795
X85.592 Y78.689
X86.317 Y78.606
X87.044 Y78.548
X87.772 Y78.512
X88.5 Y78.5
X89.228 Y78.512
X89.956 Y78.548
X90.682 Y78.606
X91.407 Y78.689
X92.129 Y78.795
X92.849 Y78.924
X93.565 Y79.077
X94.276 Y79.254
X94.983 Y79.454
X95.685 Y79.678
X96.38 Y79.925
X97.069 Y80.196
X97.752 Y80.49
X98.425 Y80.808
X99.098 Y81.153
X99.594 Y81.425
X99.75 Y81.515
X99.906 Y81.605
X100.388 Y81.898
X101.024 Y82.308
X101.637 Y82.733
X102.232 Y83.176
X102.811 Y83.638
X103.374 Y84.117
X103.917 Y84.612
X104.444 Y85.125
X104.954 Y85.653
X105.444 Y86.196
X105.915 Y86.754
X106.368 Y87.326
X106.802 Y87.913
X107.216 Y88.513
X107.612 Y89.126
X107.986 Y89.75
X108.339 Y90.386
X108.672 Y91.035
X108.985 Y91.693
X109.276 Y92.363
X109.546 Y93.042
X109.793 Y93.728
X110.018 Y94.424
X110.22 Y95.13
X110.401 Y95.842
X110.558 Y96.561
X110.692 Y97.288
X110.802 Y98.02
X110.888 Y98.757
X110.949 Y99.5
X110.987 Y100.256
X111 Y100.819
Y541.001
G2 X113.33 Y543.495 I2.5 J0
G1 Z-20 F333.3
X113.5 Y543.501 F1000
X138.5
G2 X141 Y541.001 I0 J-2.5
G1 Y50.582
X140.999 Y50.527
X140.971 Y49.274
X140.969 Y49.205
X140.886 Y47.543
X140.88 Y47.461
X140.743 Y45.81
X140.735 Y45.726
X140.543 Y44.086
X140.532 Y44.007
X140.288 Y42.379
X140.274 Y42.296
X139.976 Y40.682
X139.96 Y40.603
X139.611 Y39.004
X139.593 Y38.925
X139.193 Y37.342
X139.171 Y37.262
X138.72 Y35.696
X138.697 Y35.62
X138.197 Y34.072
X138.17 Y33.993
X137.619 Y32.464
X137.591 Y32.391
X136.993 Y30.883
X136.961 Y30.806
X136.314 Y29.32
X136.281 Y29.247
X135.587 Y27.783
X135.551 Y27.711
X134.811 Y26.272
X134.773 Y26.199
X133.986 Y24.785
X133.945 Y24.715
X133.113 Y23.327
X133.071 Y23.259
X132.195 Y21.898
X132.15 Y21.829
X131.229 Y20.496
X131.182 Y20.431
X130.218 Y19.128
X130.169 Y19.064
X129.163 Y17.792
X129.111 Y17.728
X128.062 Y16.487
X128.009 Y16.426
X126.919 Y15.219
X126.863 Y15.159
X125.732 Y13.986
X125.675 Y13.929
X124.505 Y12.79
X124.445 Y12.734
X123.235 Y11.632
X123.173 Y11.578
X121.924 Y10.514
X121.861 Y10.461
X120.574 Y9.436
X120.508 Y9.385
X119.183 Y8.4
X119.117 Y8.352
X117.756 Y7.407
X117.687 Y7.361
X116.29 Y6.458
X116.231 Y6.421
X115.16 Y5.771
X115.111 Y5.742
X114.749 Y5.533
X114.387 Y5.324
X114.34 Y5.298
X113.241 Y4.695
X113.18 Y4.663
X111.7 Y3.904
X111.625 Y3.867
X110.126 Y3.161
X110.051 Y3.127
X108.535 Y2.473
X108.459 Y2.441
X106.928 Y1.84
X106.85 Y1.811
X105.304 Y1.261
X105.226 Y1.235
X103.666 Y0.738
X103.588 Y0.714
X102.017 Y0.269
X101.938 Y0.248
X100.357 Y-0.144
X100.278 Y-0.163
X98.687 Y-0.503
X98.607 Y-0.518
X97.008 Y-0.806
X96.928 Y-0.819
X95.323 Y-1.055
X95.243 Y-1.065
X93.632 Y-1.248
X93.552 Y-1.256
X91.937 Y-1.387
X91.857 Y-1.392
X90.239 Y-1.471
X90.159 Y-1.473
X88.54 Y-1.5
X88.459
X86.841 Y-1.473
X86.76 Y-1.471
X85.143 Y-1.392
X85.063 Y-1.387
X83.448 Y-1.256
X83.368 Y-1.248
X81.757 Y-1.065
X81.676 Y-1.055
X80.071 Y-0.819
X79.991 Y-0.806
X78.393 Y-0.518
X78.313 Y-0.503
X76.722 Y-0.162
X76.643 Y-0.144
X75.061 Y0.248
X74.982 Y0.269
X73.411 Y0.714
X73.333 Y0.738
X71.774 Y1.235
X71.696 Y1.261
X70.15 Y1.811
X70.073 Y1.839
X68.541 Y2.441
X68.465 Y2.473
X66.949 Y3.127
X66.873 Y3.161
X65.375 Y3.867
X65.3 Y3.904
X63.82 Y4.663
X63.759 Y4.695
X62.66 Y5.298
X62.612 Y5.325
X62.25 Y5.534
X61.888 Y5.743
X61.84 Y5.771
X60.769 Y6.421
X60.71 Y6.458
X59.313 Y7.361
X59.244 Y7.407
X57.883 Y8.352
X57.816 Y8.4
X56.491 Y9.386
X56.426 Y9.436
X55.139 Y10.461
X55.075 Y10.514
X53.827 Y11.578
X53.765 Y11.632
X52.555 Y12.734
X52.495 Y12.79
X51.325 Y13.928
X51.267 Y13.986
X50.136 Y15.159
X50.081 Y15.219
X48.991 Y16.426
X48.937 Y16.488
X47.888 Y17.728
X47.837 Y17.791
X46.83 Y19.064
X46.781 Y19.128
X45.817 Y20.431
X45.77 Y20.497
X44.85 Y21.83
X44.805 Y21.897
X43.928 Y23.258
X43.886 Y23.327
X43.054 Y24.715
X43.014 Y24.785
X42.227 Y26.2
X42.189 Y26.271
X41.448 Y27.711
X41.412 Y27.783
X40.719 Y29.247
X40.685 Y29.321
X40.038 Y30.807
X40.007 Y30.882
X39.409 Y32.39
X39.38 Y32.466
X38.83 Y33.994
X38.803 Y34.071
X38.303 Y35.619
X38.279 Y35.696
X37.828 Y37.262
X37.807 Y37.341
X37.406 Y38.924
X37.388 Y39.004
X37.039 Y40.603
X37.022 Y40.683
X36.725 Y42.297
X36.712 Y42.378
X36.467 Y44.006
X36.456 Y44.087
X36.265 Y45.727
X36.257 Y45.809
X36.119 Y47.461
X36.114 Y47.543
X36.031 Y49.205
X36.028 Y49.274
X36 Y50.527
Y50.582
Y541.001
G2 X38.5 Y543.501 I2.5 J0
G1 X63.5
G2 X66 Y541.001 I0 J-2.5
G1 Y100.819
X66.012 Y100.255
X66.05 Y99.501
X66.112 Y98.757
X66.198 Y98.02
X66.308 Y97.288
X66.442 Y96.561
X66.599 Y95.842
X66.779 Y95.13
X66.982 Y94.425
X67.207 Y93.729
X67.455 Y93.041
X67.724 Y92.362
X68.015 Y91.694
X68.327 Y91.035
X68.66 Y90.387
X69.015 Y89.75
X69.389 Y89.125
X69.783 Y88.513
X70.198 Y87.913
X70.632 Y87.327
X71.084 Y86.754
X71.556 Y86.196
X72.046 Y85.653
X72.555 Y85.125
X73.082 Y84.612
X73.627 Y84.117
X74.188 Y83.638
X74.767 Y83.177
X75.364 Y82.733
X75.976 Y82.308
X76.611 Y81.898
X77.093 Y81.605
X77.25 Y81.515
X77.407 Y81.424
X77.901 Y81.153
X78.574 Y80.808
X79.248 Y80.49
X79.93 Y80.196
X80.619 Y79.925
X81.315 Y79.678
X82.017 Y79.454
X82.723 Y79.254
X83.435 Y79.077
X84.151 Y78.924
X84.87 Y78.795
X85.592 Y78.689
X86.317 Y78.606
X87.044 Y78.548
X87.772 Y78.512
X88.5 Y78.5
X89.228 Y78.512
X89.956 Y78.548
X90.682 Y78.606
X91.407 Y78.689
X92.129 Y78.795
X92.849 Y78.924
X93.565 Y79.077
X94.276 Y79.254
X94.983 Y79.454
X95.685 Y79.678
X96.38 Y79.925
X97.069 Y80.196
X97.752 Y80.49
X98.425 Y80.808
X99.098 Y81.153
X99.594 Y81.425
X99.75 Y81.515
X99.906 Y81.605
X100.388 Y81.898
X101.024 Y82.308
X101.637 Y82.733
X102.232 Y83.176
X102.811 Y83.638
X103.374 Y84.117
X103.917 Y84.612
X104.444 Y85.125
X104.954 Y85.653
X105.444 Y86.196
X105.915 Y86.754
X106.368 Y87.326
X106.802 Y87.913
X107.216 Y88.513
X107.612 Y89.126
X107.986 Y89.75
X108.339 Y90.386
X108.672 Y91.035
X108.985 Y91.693
X109.276 Y92.363
X109.546 Y93.042
X109.793 Y93.728
X110.018 Y94.424
X110.22 Y95.13
X110.401 Y95.842
X110.558 Y96.561
X110.692 Y97.288
X110.802 Y98.02
X110.888 Y98.757
X110.949 Y99.5
X110.987 Y100.256
X111 Y100.819
Y541.001
G2 X113.33 Y543.495 I2.5 J0
G1 Z-24 F333.3
X113.5 Y543.501 F1000
X138.5
G2 X141 Y541.001 I0 J-2.5
G1 Y50.582
X140.999 Y50.527
X140.971 Y49.274
X140.969 Y49.205
X140.886 Y47.543
X140.88 Y47.461
X140.743 Y45.81
X140.735 Y45.726
X140.543 Y44.086
X140.532 Y44.007
X140.288 Y42.379
X140.274 Y42.296
X139.976 Y40.682
X139.96 Y40.603
X139.611 Y39.004
X139.593 Y38.925
X139.193 Y37.342
X139.171 Y37.262
X138.72 Y35.696
X138.697 Y35.62
X138.197 Y34.072
X138.17 Y33.993
X137.619 Y32.464
X137.591 Y32.391
X136.993 Y30.883
X136.961 Y30.806
X136.314 Y29.32
X136.281 Y29.247
X135.587 Y27.783
X135.551 Y27.711
X134.811 Y26.272
X134.773 Y26.199
X133.986 Y24.785
X133.945 Y24.715
X133.113 Y23.327
X133.071 Y23.259
X132.195 Y21.898
X132.15 Y21.829
X131.229 Y20.496
X131.182 Y20.431
X130.218 Y19.128
X130.169 Y19.064
X129.163 Y17.792
X129.111 Y17.728
X128.062 Y16.487
X128.009 Y16.426
X126.919 Y15.219
X126.863 Y15.159
X125.732 Y13.986
X125.675 Y13.929
X124.505 Y12.79
X124.445 Y12.734
X123.235 Y11.632
X123.173 Y11.578
X121.924 Y10.514
X121.861 Y10.461
X120.574 Y9.436
X120.508 Y9.385
X119.183 Y8.4
X119.117 Y8.352
X117.756 Y7.407
X117.687 Y7.361
X116.29 Y6.458
X116.231 Y6.421
X115.16 Y5.771
X115.111 Y5.742
X114.749 Y5.533
X114.387 Y5.324
X114.34 Y5.298
X113.241 Y4.695
X113.18 Y4.663
X111.7 Y3.904
X111.625 Y3.867
X110.126 Y3.161
X110.051 Y3.127
X108.535 Y2.473
X108.459 Y2.441
X106.928 Y1.84
X106.85 Y1.811
X105.304 Y1.261
X105.226 Y1.235
X103.666 Y0.738
X103.588 Y0.714
X102.017 Y0.269
X101.938 Y0.248
X100.357 Y-0.144
X100.278 Y-0.163
X98.687 Y-0.503
X98.607 Y-0.518
X97.008 Y-0.806
X96.928 Y-0.819
X95.323 Y-1.055
X95.243 Y-1.065
X93.632 Y-1.248
X93.552 Y-1.256
X91.937 Y-1.387
X91.857 Y-1.392
X90.239 Y-1.471
X90.159 Y-1.473
X88.54 Y-1.5
X88.459
X86.841 Y-1.473
X86.76 Y-1.471
X85.143 Y-1.392
X85.063 Y-1.387
X83.448 Y-1.256
X83.368 Y-1.248
X81.757 Y-1.065
X81.676 Y-1.055
X80.071 Y-0.819
X79.991 Y-0.806
X78.393 Y-0.518
X78.313 Y-0.503
X76.722 Y-0.162
X76.643 Y-0.144
X75.061 Y0.248
X74.982 Y0.269
X73.411 Y0.714
X73.333 Y0.738
X71.774 Y1.235
X71.696 Y1.261
X70.15 Y1.811
X70.073 Y1.839
X68.541 Y2.441
X68.465 Y2.473
X66.949 Y3.127
X66.873 Y3.161
X65.375 Y3.867
X65.3 Y3.904
X63.82 Y4.663
X63.759 Y4.695
X62.66 Y5.298
X62.612 Y5.325
X62.25 Y5.534
X61.888 Y5.743
X61.84 Y5.771
X60.769 Y6.421
X60.71 Y6.458
X59.313 Y7.361
X59.244 Y7.407
X57.883 Y8.352
X57.816 Y8.4
X56.491 Y9.386
X56.426 Y9.436
X55.139 Y10.461
X55.075 Y10.514
X53.827 Y11.578
X53.765 Y11.632
X52.555 Y12.734
X52.495 Y12.79
X51.325 Y13.928
X51.267 Y13.986
X50.136 Y15.159
X50.081 Y15.219
X48.991 Y16.426
X48.937 Y16.488
X47.888 Y17.728
X47.837 Y17.791
X46.83 Y19.064
X46.781 Y19.128
X45.817 Y20.431
X45.77 Y20.497
X44.85 Y21.83
X44.805 Y21.897
X43.928 Y23.258
X43.886 Y23.327
X43.054 Y24.715
X43.014 Y24.785
X42.227 Y26.2
X42.189 Y26.271
X41.448 Y27.711
X41.412 Y27.783
X40.719 Y29.247
X40.685 Y29.321
X40.038 Y30.807
X40.007 Y30.882
X39.409 Y32.39
X39.38 Y32.466
X38.83 Y33.994
X38.803 Y34.071
X38.303 Y35.619
X38.279 Y35.696
X37.828 Y37.262
X37.807 Y37.341
X37.406 Y38.924
X37.388 Y39.004
X37.039 Y40.603
X37.022 Y40.683
X36.725 Y42.297
X36.712 Y42.378
X36.467 Y44.006
X36.456 Y44.087
X36.265 Y45.727
X36.257 Y45.809
X36.119 Y47.461
X36.114 Y47.543
X36.031 Y49.205
X36.028 Y49.274
X36 Y50.527
Y50.582
Y541.001
G2 X38.5 Y543.501 I2.5 J0
G1 X63.5
G2 X66 Y541.001 I0 J-2.5
G1 Y100.819
X66.012 Y100.255
X66.05 Y99.501
X66.112 Y98.757
X66.198 Y98.02
X66.308 Y97.288
X66.442 Y96.561
X66.599 Y95.842
X66.779 Y95.13
X66.982 Y94.425
X67.207 Y93.729
X67.455 Y93.041
X67.724 Y92.362
X68.015 Y91.694
X68.327 Y91.035
X68.66 Y90.387
X69.015 Y89.75
X69.389 Y89.125
X69.783 Y88.513
X70.198 Y87.913
X70.632 Y87.327
X71.084 Y86.754
X71.556 Y86.196
X72.046 Y85.653
X72.555 Y85.125
X73.082 Y84.612
X73.627 Y84.117
X74.188 Y83.638
X74.767 Y83.177
X75.364 Y82.733
X75.976 Y82.308
X76.611 Y81.898
X77.093 Y81.605
X77.25 Y81.515
X77.407 Y81.424
X77.901 Y81.153
X78.574 Y80.808
X79.248 Y80.49
X79.93 Y80.196
X80.619 Y79.925
X81.315 Y79.678
X82.017 Y79.454
X82.723 Y79.254
X83.435 Y79.077
X84.151 Y78.924
X84.87 Y78.795
X85.592 Y78.689
X86.317 Y78.606
X87.044 Y78.548
X87.772 Y78.512
X88.5 Y78.5
X89.228 Y78.512
X89.956 Y78.548
X90.682 Y78.606
X91.407 Y78.689
X92.129 Y78.795
X92.849 Y78.924
X93.565 Y79.077
X94.276 Y79.254
X94.983 Y79.454
X95.685 Y79.678
X96.38 Y79.925
X97.069 Y80.196
X97.752 Y80.49
X98.425 Y80.808
X99.098 Y81.153
X99.594 Y81.425
X99.75 Y81.515
X99.906 Y81.605
X100.388 Y81.898
X101.024 Y82.308
X101.637 Y82.733
X102.232 Y83.176
X102.811 Y83.638
X103.374 Y84.117
X103.917 Y84.612
X104.444 Y85.125
X104.954 Y85.653
X105.444 Y86.196
X105.915 Y86.754
X106.368 Y87.326
X106.802 Y87.913
X107.216 Y88.513
X107.612 Y89.126
X107.986 Y89.75
X108.339 Y90.386
X108.672 Y91.035
X108.985 Y91.693
X109.276 Y92.363
X109.546 Y93.042
X109.793 Y93.728
X110.018 Y94.424
X110.22 Y95.13
X110.401 Y95.842
X110.558 Y96.561
X110.692 Y97.288
X110.802 Y98.02
X110.888 Y98.757
X110.949 Y99.5
X110.987 Y100.256
X111 Y100.819
Y541.001
G2 X113.33 Y543.495 I2.5 J0
G1 Z-28 F333.3
X113.5 Y543.501 F1000
X138.5
G2 X141 Y541.001 I0 J-2.5
G1 Y50.582
X140.999 Y50.527
X140.971 Y49.274
X140.969 Y49.205
X140.886 Y47.543
X140.88 Y47.461
X140.743 Y45.81
X140.735 Y45.726
X140.543 Y44.086
X140.532 Y44.007
X140.288 Y42.379
X140.274 Y42.296
X139.976 Y40.682
X139.96 Y40.603
X139.611 Y39.004
X139.593 Y38.925
X139.193 Y37.342
X139.171 Y37.262
X138.72 Y35.696
X138.697 Y35.62
X138.197 Y34.072
X138.17 Y33.993
X137.619 Y32.464
X137.591 Y32.391
X136.993 Y30.883
X136.961 Y30.806
X136.314 Y29.32
X136.281 Y29.247
X135.587 Y27.783
X135.551 Y27.711
X134.811 Y26.272
X134.773 Y26.199
X133.986 Y24.785
X133.945 Y24.715
X133.113 Y23.327
X133.071 Y23.259
X132.195 Y21.898
X132.15 Y21.829
X131.229 Y20.496
X131.182 Y20.431
X130.218 Y19.128
X130.169 Y19.064
X129.163 Y17.792
X129.111 Y17.728
X128.062 Y16.487
X128.009 Y16.426
X126.919 Y15.219
X126.863 Y15.159
X125.732 Y13.986
X125.675 Y13.929
X124.505 Y12.79
X124.445 Y12.734
X123.235 Y11.632
X123.173 Y11.578
X121.924 Y10.514
X121.861 Y10.461
X120.574 Y9.436
X120.508 Y9.385
X119.183 Y8.4
X119.117 Y8.352
X117.756 Y7.407
X117.687 Y7.361
X116.29 Y6.458
X116.231 Y6.421
X115.16 Y5.771
X115.111 Y5.742
X114.749 Y5.533
X114.387 Y5.324
X114.34 Y5.298
X113.241 Y4.695
X113.18 Y4.663
X111.7 Y3.904
X111.625 Y3.867
X110.126 Y3.161
X110.051 Y3.127
X108.535 Y2.473
X108.459 Y2.441
X106.928 Y1.84
X106.85 Y1.811
X105.304 Y1.261
X105.226 Y1.235
X103.666 Y0.738
X103.588 Y0.714
X102.017 Y0.269
X101.938 Y0.248
X100.357 Y-0.144
X100.278 Y-0.163
X98.687 Y-0.503
X98.607 Y-0.518
X97.008 Y-0.806
X96.928 Y-0.819
X95.323 Y-1.055
X95.243 Y-1.065
X93.632 Y-1.248
X93.552 Y-1.256
X91.937 Y-1.387
X91.857 Y-1.392
X90.239 Y-1.471
X90.159 Y-1.473
X88.54 Y-1.5
X88.459
X86.841 Y-1.473
X86.76 Y-1.471
X85.143 Y-1.392
X85.063 Y-1.387
X83.448 Y-1.256
X83.368 Y-1.248
X81.757 Y-1.065
X81.676 Y-1.055
X80.071 Y-0.819
X79.991 Y-0.806
X78.393 Y-0.518
X78.313 Y-0.503
X76.722 Y-0.162
X76.643 Y-0.144
X75.061 Y0.248
X74.982 Y0.269
X73.411 Y0.714
X73.333 Y0.738
X71.774 Y1.235
X71.696 Y1.261
X70.15 Y1.811
X70.073 Y1.839
X68.541 Y2.441
X68.465 Y2.473
X66.949 Y3.127
X66.873 Y3.161
X65.375 Y3.867
X65.3 Y3.904
X63.82 Y4.663
X63.759 Y4.695
X62.66 Y5.298
X62.612 Y5.325
X62.25 Y5.534
X61.888 Y5.743
X61.84 Y5.771
X60.769 Y6.421
X60.71 Y6.458
X59.313 Y7.361
X59.244 Y7.407
X57.883 Y8.352
X57.816 Y8.4
X56.491 Y9.386
X56.426 Y9.436
X55.139 Y10.461
X55.075 Y10.514
X53.827 Y11.578
X53.765 Y11.632
X52.555 Y12.734
X52.495 Y12.79
X51.325 Y13.928
X51.267 Y13.986
X50.136 Y15.159
X50.081 Y15.219
X48.991 Y16.426
X48.937 Y16.488
X47.888 Y17.728
X47.837 Y17.791
X46.83 Y19.064
X46.781 Y19.128
X45.817 Y20.431
X45.77 Y20.497
X44.85 Y21.83
X44.805 Y21.897
X43.928 Y23.258
X43.886 Y23.327
X43.054 Y24.715
X43.014 Y24.785
X42.227 Y26.2
X42.189 Y26.271
X41.448 Y27.711
X41.412 Y27.783
X40.719 Y29.247
X40.685 Y29.321
X40.038 Y30.807
X40.007 Y30.882
X39.409 Y32.39
X39.38 Y32.466
X38.83 Y33.994
X38.803 Y34.071
X38.303 Y35.619
X38.279 Y35.696
X37.828 Y37.262
X37.807 Y37.341
X37.406 Y38.924
X37.388 Y39.004
X37.039 Y40.603
X37.022 Y40.683
X36.725 Y42.297
X36.712 Y42.378
X36.467 Y44.006
X36.456 Y44.087
X36.265 Y45.727
X36.257 Y45.809
X36.119 Y47.461
X36.114 Y47.543
X36.031 Y49.205
X36.028 Y49.274
X36 Y50.527
Y50.582
Y541.001
G2 X38.5 Y543.501 I2.5 J0
G1 X63.5
G2 X66 Y541.001 I0 J-2.5
G1 Y100.819
X66.012 Y100.255
X66.05 Y99.501
X66.112 Y98.757
X66.198 Y98.02
X66.308 Y97.288
X66.442 Y96.561
X66.599 Y95.842
X66.779 Y95.13
X66.982 Y94.425
X67.207 Y93.729
X67.455 Y93.041
X67.724 Y92.362
X68.015 Y91.694
X68.327 Y91.035
X68.66 Y90.387
X69.015 Y89.75
X69.389 Y89.125
X69.783 Y88.513
X70.198 Y87.913
X70.632 Y87.327
X71.084 Y86.754
X71.556 Y86.196
X72.046 Y85.653
X72.555 Y85.125
X73.082 Y84.612
X73.627 Y84.117
X74.188 Y83.638
X74.767 Y83.177
X75.364 Y82.733
X75.976 Y82.308
X76.611 Y81.898
X77.093 Y81.605
X77.25 Y81.515
X77.407 Y81.424
X77.901 Y81.153
X78.574 Y80.808
X79.248 Y80.49
X79.93 Y80.196
X80.619 Y79.925
X81.315 Y79.678
X82.017 Y79.454
X82.723 Y79.254
X83.435 Y79.077
X84.151 Y78.924
X84.87 Y78.795
X85.592 Y78.689
X86.317 Y78.606
X87.044 Y78.548
X87.772 Y78.512
X88.5 Y78.5
X89.228 Y78.512
X89.956 Y78.548
X90.682 Y78.606
X91.407 Y78.689
X92.129 Y78.795
X92.849 Y78.924
X93.565 Y79.077
X94.276 Y79.254
X94.983 Y79.454
X95.685 Y79.678
X96.38 Y79.925
X97.069 Y80.196
X97.752 Y80.49
X98.425 Y80.808
X99.098 Y81.153
X99.594 Y81.425
X99.75 Y81.515
X99.906 Y81.605
X100.388 Y81.898
X101.024 Y82.308
X101.637 Y82.733
X102.232 Y83.176
X102.811 Y83.638
X103.374 Y84.117
X103.917 Y84.612
X104.444 Y85.125
X104.954 Y85.653
X105.444 Y86.196
X105.915 Y86.754
X106.368 Y87.326
X106.802 Y87.913
X107.216 Y88.513
X107.612 Y89.126
X107.986 Y89.75
X108.339 Y90.386
X108.672 Y91.035
X108.985 Y91.693
X109.276 Y92.363
X109.546 Y93.042
X109.793 Y93.728
X110.018 Y94.424
X110.22 Y95.13
X110.401 Y95.842
X110.558 Y96.561
X110.692 Y97.288
X110.802 Y98.02
X110.888 Y98.757
X110.949 Y99.5
X110.987 Y100.256
X111 Y100.819
Y541.001
G2 X113.33 Y543.495 I2.5 J0
G1 Z5
G0 Z15

(2D Contour1 3)
G0 X224.379 Y97.005
Z15
Z5
G1 Z3 F333.3
Z-4
G2 X222.049 Y99.499 I0.17 J2.494 F1000
G1 Y539.68
X222.036 Y540.244
X221.998 Y540.999
X221.937 Y541.744
X221.851 Y542.48
X221.741 Y543.213
X221.607 Y543.938
X221.449 Y544.658
X221.27 Y545.368
X221.066 Y546.074
X220.841 Y546.772
X220.593 Y547.46
X220.324 Y548.137
X220.034 Y548.805
X219.72 Y549.464
X219.387 Y550.115
X219.034 Y550.75
X218.66 Y551.374
X218.263 Y551.989
X217.85 Y552.589
X217.417 Y553.173
X216.965 Y553.745
X216.492 Y554.304
X216.002 Y554.848
X215.495 Y555.374
X214.966 Y555.887
X214.42 Y556.385
X213.86 Y556.862
X213.282 Y557.323
X212.685 Y557.767
X212.072 Y558.192
X211.438 Y558.602
X210.955 Y558.895
X210.798 Y558.985
X210.795 Y558.988
X210.642 Y559.076
X210.147 Y559.346
X209.473 Y559.693
X208.802 Y560.009
X208.119 Y560.303
X207.426 Y560.576
X206.733 Y560.823
X206.034 Y561.045
X205.326 Y561.245
X204.612 Y561.422
X203.898 Y561.576
X203.179 Y561.704
X202.455 Y561.811
X201.732 Y561.893
X201.005 Y561.952
X200.275 Y561.988
X199.549 Y562
X198.821 Y561.988
X198.093 Y561.952
X197.366 Y561.893
X196.642 Y561.811
X195.917 Y561.704
X195.2 Y561.576
X194.485 Y561.422
X193.772 Y561.245
X193.063 Y561.045
X192.363 Y560.823
X191.67 Y560.576
X190.979 Y560.303
X190.295 Y560.009
X189.624 Y559.693
X188.95 Y559.346
X188.458 Y559.077
X188.309 Y558.991
X188.295 Y558.982
X188.139 Y558.893
X187.659 Y558.602
X187.025 Y558.192
X186.412 Y557.767
X185.815 Y557.323
X185.236 Y556.862
X184.676 Y556.385
X184.132 Y555.887
X183.603 Y555.375
X183.096 Y554.848
X182.604 Y554.303
X182.132 Y553.745
X181.68 Y553.173
X181.245 Y552.587
X180.832 Y551.989
X180.438 Y551.375
X180.062 Y550.749
X179.71 Y550.116
X179.378 Y549.467
X179.064 Y548.805
X178.772 Y548.136
X178.504 Y547.46
X178.256 Y546.77
X178.03 Y546.074
X177.828 Y545.37
X177.648 Y544.658
X177.49 Y543.938
X177.356 Y543.213
X177.246 Y542.48
X177.16 Y541.744
X177.099 Y541.001
X177.062 Y540.245
X177.049 Y539.68
Y99.499
G2 X174.549 Y96.999 I-2.5 J0
G1 X149.549
G2 X147.049 Y99.499 I0 J2.5
G1 Y589.918
X147.05 Y589.972
X147.077 Y591.225
X147.079 Y591.297
X147.163 Y592.958
X147.169 Y593.039
X147.306 Y594.69
X147.314 Y594.771
X147.504 Y596.411
X147.515 Y596.497
X147.761 Y598.124
X147.774 Y598.201
X148.07 Y599.815
X148.087 Y599.899
X148.437 Y601.497
X148.455 Y601.574
X148.855 Y603.158
X148.877 Y603.239
X149.329 Y604.805
X149.352 Y604.88
X149.852 Y606.428
X149.879 Y606.507
X150.429 Y608.034
X150.457 Y608.108
X151.055 Y609.617
X151.087 Y609.694
X151.734 Y611.18
X151.766 Y611.252
X152.459 Y612.716
X152.497 Y612.792
X153.239 Y614.231
X153.276 Y614.299
X154.062 Y615.714
X154.102 Y615.785
X154.934 Y617.174
X154.978 Y617.243
X155.855 Y618.604
X155.899 Y618.671
X156.819 Y620.003
X156.866 Y620.068
X157.83 Y621.372
X157.879 Y621.437
X158.885 Y622.709
X158.937 Y622.772
X159.985 Y624.012
X160.039 Y624.074
X161.13 Y625.281
X161.184 Y625.339
X162.314 Y626.513
X162.372 Y626.571
X163.543 Y627.71
X163.604 Y627.768
X164.815 Y628.869
X164.876 Y628.922
X166.125 Y629.986
X166.188 Y630.038
X167.474 Y631.063
X167.54 Y631.114
X168.865 Y632.1
X168.931 Y632.148
X170.292 Y633.093
X170.361 Y633.139
X171.758 Y634.042
X171.816 Y634.078
X172.887 Y634.729
X172.943 Y634.762
X173.301 Y634.967
X173.657 Y635.174
X173.708 Y635.202
X174.806 Y635.804
X174.868 Y635.837
X176.349 Y636.596
X176.422 Y636.632
X177.92 Y637.339
X177.997 Y637.374
X179.514 Y638.028
X179.591 Y638.059
X181.123 Y638.66
X181.198 Y638.688
X182.744 Y639.238
X182.822 Y639.265
X184.38 Y639.762
X184.459 Y639.785
X186.031 Y640.23
X186.109 Y640.251
X187.69 Y640.644
X187.771 Y640.663
X189.363 Y641.003
X189.442 Y641.018
X191.04 Y641.306
X191.119 Y641.319
X192.723 Y641.555
X192.807 Y641.566
X194.419 Y641.748
X194.495 Y641.756
X196.109 Y641.888
X196.193 Y641.893
X197.811 Y641.971
X197.891 Y641.974
X199.509 Y642
X199.589
X201.207 Y641.974
X201.288 Y641.971
X202.904 Y641.893
X202.987 Y641.888
X204.603 Y641.756
X204.68 Y641.748
X206.289 Y641.566
X206.371 Y641.555
X207.977 Y641.319
X208.057 Y641.306
X209.655 Y641.018
X209.734 Y641.003
X211.325 Y640.663
X211.406 Y640.644
X212.988 Y640.251
X213.066 Y640.23
X214.637 Y639.785
X214.715 Y639.762
X216.274 Y639.265
X216.353 Y639.238
X217.899 Y638.688
X217.974 Y638.66
X219.506 Y638.059
X219.584 Y638.027
X221.099 Y637.373
X221.174 Y637.339
X222.673 Y636.632
X222.748 Y636.596
X224.228 Y635.837
X224.288 Y635.805
X225.387 Y635.203
X225.433 Y635.177
X225.796 Y634.968
X226.158 Y634.759
X226.208 Y634.73
X227.28 Y634.079
X227.339 Y634.042
X228.736 Y633.139
X228.805 Y633.093
X230.166 Y632.148
X230.233 Y632.099
X231.557 Y631.113
X231.621 Y631.064
X232.908 Y630.039
X232.972 Y629.986
X234.221 Y628.922
X234.283 Y628.868
X235.493 Y627.767
X235.553 Y627.71
X236.724 Y626.571
X236.781 Y626.513
X237.912 Y625.339
X237.968 Y625.28
X239.057 Y624.073
X239.11 Y624.013
X240.159 Y622.773
X240.21 Y622.71
X241.217 Y621.438
X241.267 Y621.372
X242.231 Y620.068
X242.277 Y620.004
X243.198 Y618.672
X243.244 Y618.603
X244.12 Y617.242
X244.163 Y617.174
X244.995 Y615.785
X245.035 Y615.714
X245.821 Y614.299
X245.859 Y614.228
X246.599 Y612.789
X246.634 Y612.718
X247.329 Y611.254
X247.364 Y611.179
X248.01 Y609.693
X248.04 Y609.62
X248.64 Y608.111
X248.669 Y608.034
X249.219 Y606.507
X249.246 Y606.428
X249.746 Y604.88
X249.769 Y604.804
X250.22 Y603.238
X250.242 Y603.158
X250.642 Y601.574
X250.66 Y601.495
X251.009 Y599.897
X251.026 Y599.816
X251.323 Y598.202
X251.336 Y598.121
X251.58 Y596.494
X251.591 Y596.414
X251.783 Y594.774
X251.791 Y594.691
X251.929 Y593.04
X251.935 Y592.957
X252.018 Y591.296
X252.02 Y591.227
X252.048 Y589.974
X252.049 Y589.918
Y99.499
G2 X249.549 Y96.999 I-2.5 J0
G1 X224.549
X224.379 Y97.005
Z-8 F333.3
G2 X222.049 Y99.499 I0.17 J2.494 F1000
G1 Y539.68
X222.036 Y540.244
X221.998 Y540.999
X221.937 Y541.744
X221.851 Y542.48
X221.741 Y543.213
X221.607 Y543.938
X221.449 Y544.658
X221.27 Y545.368
X221.066 Y546.074
X220.841 Y546.772
X220.593 Y547.46
X220.324 Y548.137
X220.034 Y548.805
X219.72 Y549.464
X219.387 Y550.115
X219.034 Y550.75
X218.66 Y551.374
X218.263 Y551.989
X217.85 Y552.589
X217.417 Y553.173
X216.965 Y553.745
X216.492 Y554.304
X216.002 Y554.848
X215.495 Y555.374
X214.966 Y555.887
X214.42 Y556.385
X213.86 Y556.862
X213.282 Y557.323
X212.685 Y557.767
X212.072 Y558.192
X211.438 Y558.602
X210.955 Y558.895
X210.798 Y558.985
X210.795 Y558.988
X210.642 Y559.076
X210.147 Y559.346
X209.473 Y559.693
X208.802 Y560.009
X208.119 Y560.303
X207.426 Y560.576
X206.733 Y560.823
X206.034 Y561.045
X205.326 Y561.245
X204.612 Y561.422
X203.898 Y561.576
X203.179 Y561.704
X202.455 Y561.811
X201.732 Y561.893
X201.005 Y561.952
X200.275 Y561.988
X199.549 Y562
X198.821 Y561.988
X198.093 Y561.952
X197.366 Y561.893
X196.642 Y561.811
X195.917 Y561.704
X195.2 Y561.576
X194.485 Y561.422
X193.772 Y561.245
X193.063 Y561.045
X192.363 Y560.823
X191.67 Y560.576
X190.979 Y560.303
X190.295 Y560.009
X189.624 Y559.693
X188.95 Y559.346
X188.458 Y559.077
X188.309 Y558.991
X188.295 Y558.982
X188.139 Y558.893
X187.659 Y558.602
X187.025 Y558.192
X186.412 Y557.767
X185.815 Y557.323
X185.236 Y556.862
X184.676 Y556.385
X184.132 Y555.887
X183.603 Y555.375
X183.096 Y554.848
X182.604 Y554.303
X182.132 Y553.745
X181.68 Y553.173
X181.245 Y552.587
X180.832 Y551.989
X180.438 Y551.375
X180.062 Y550.749
X179.71 Y550.116
X179.378 Y549.467
X179.064 Y548.805
X178.772 Y548.136
X178.504 Y547.46
X178.256 Y546.77
X178.03 Y546.074
X177.828 Y545.37
X177.648 Y544.658
X177.49 Y543.938
X177.356 Y543.213
X177.246 Y542.48
X177.16 Y541.744
X177.099 Y541.001
X177.062 Y540.245
X177.049 Y539.68
Y99.499
G2 X174.549 Y96.999 I-2.5 J0
G1 X149.549
G2 X147.049 Y99.499 I0 J2.5
G1 Y589.918
X147.05 Y589.972
X147.077 Y591.225
X147.079 Y591.297
X147.163 Y592.958
X147.169 Y593.039
X147.306 Y594.69
X147.314 Y594.771
X147.504 Y596.411
X147.515 Y596.497
X147.761 Y598.124
X147.774 Y598.201
X148.07 Y599.815
X148.087 Y599.899
X148.437 Y601.497
X148.455 Y601.574
X148.855 Y603.158
X148.877 Y603.239
X149.329 Y604.805
X149.352 Y604.88
X149.852 Y606.428
X149.879 Y606.507
X150.429 Y608.034
X150.457 Y608.108
X151.055 Y609.617
X151.087 Y609.694
X151.734 Y611.18
X151.766 Y611.252
X152.459 Y612.716
X152.497 Y612.792
X153.239 Y614.231
X153.276 Y614.299
X154.062 Y615.714
X154.102 Y615.785
X154.934 Y617.174
X154.978 Y617.243
X155.855 Y618.604
X155.899 Y618.671
X156.819 Y620.003
X156.866 Y620.068
X157.83 Y621.372
X157.879 Y621.437
X158.885 Y622.709
X158.937 Y622.772
X159.985 Y624.012
X160.039 Y624.074
X161.13 Y625.281
X161.184 Y625.339
X162.314 Y626.513
X162.372 Y626.571
X163.543 Y627.71
X163.604 Y627.768
X164.815 Y628.869
X164.876 Y628.922
X166.125 Y629.986
X166.188 Y630.038
X167.474 Y631.063
X167.54 Y631.114
X168.865 Y632.1
X168.931 Y632.148
X170.292 Y633.093
X170.361 Y633.139
X171.758 Y634.042
X171.816 Y634.078
X172.887 Y634.729
X172.943 Y634.762
X173.301 Y634.967
X173.657 Y635.174
X173.708 Y635.202
X174.806 Y635.804
X174.868 Y635.837
X176.349 Y636.596
X176.422 Y636.632
X177.92 Y637.339
X177.997 Y637.374
X179.514 Y638.028
X179.591 Y638.059
X181.123 Y638.66
X181.198 Y638.688
X182.744 Y639.238
X182.822 Y639.265
X184.38 Y639.762
X184.459 Y639.785
X186.031 Y640.23
X186.109 Y640.251
X187.69 Y640.644
X187.771 Y640.663
X189.363 Y641.003
X189.442 Y641.018
X191.04 Y641.306
X191.119 Y641.319
X192.723 Y641.555
X192.807 Y641.566
X194.419 Y641.748
X194.495 Y641.756
X196.109 Y641.888
X196.193 Y641.893
X197.811 Y641.971
X197.891 Y641.974
X199.509 Y642
X199.589
X201.207 Y641.974
X201.288 Y641.971
X202.904 Y641.893
X202.987 Y641.888
X204.603 Y641.756
X204.68 Y641.748
X206.289 Y641.566
X206.371 Y641.555
X207.977 Y641.319
X208.057 Y641.306
X209.655 Y641.018
X209.734 Y641.003
X211.325 Y640.663
X211.406 Y640.644
X212.988 Y640.251
X213.066 Y640.23
X214.637 Y639.785
X214.715 Y639.762
X216.274 Y639.265
X216.353 Y639.238
X217.899 Y638.688
X217.974 Y638.66
X219.506 Y638.059
X219.584 Y638.027
X221.099 Y637.373
X221.174 Y637.339
X222.673 Y636.632
X222.748 Y636.596
X224.228 Y635.837
X224.288 Y635.805
X225.387 Y635.203
X225.433 Y635.177
X225.796 Y634.968
X226.158 Y634.759
X226.208 Y634.73
X227.28 Y634.079
X227.339 Y634.042
X228.736 Y633.139
X228.805 Y633.093
X230.166 Y632.148
X230.233 Y632.099
X231.557 Y631.113
X231.621 Y631.064
X232.908 Y630.039
X232.972 Y629.986
X234.221 Y628.922
X234.283 Y628.868
X235.493 Y627.767
X235.553 Y627.71
X236.724 Y626.571
X236.781 Y626.513
X237.912 Y625.339
X237.968 Y625.28
X239.057 Y624.073
X239.11 Y624.013
X240.159 Y622.773
X240.21 Y622.71
X241.217 Y621.438
X241.267 Y621.372
X242.231 Y620.068
X242.277 Y620.004
X243.198 Y618.672
X243.244 Y618.603
X244.12 Y617.242
X244.163 Y617.174
X244.995 Y615.785
X245.035 Y615.714
X245.821 Y614.299
X245.859 Y614.228
X246.599 Y612.789
X246.634 Y612.718
X247.329 Y611.254
X247.364 Y611.179
X248.01 Y609.693
X248.04 Y609.62
X248.64 Y608.111
X248.669 Y608.034
X249.219 Y606.507
X249.246 Y606.428
X249.746 Y604.88
X249.769 Y604.804
X250.22 Y603.238
X250.242 Y603.158
X250.642 Y601.574
X250.66 Y601.495
X251.009 Y599.897
X251.026 Y599.816
X251.323 Y598.202
X251.336 Y598.121
X251.58 Y596.494
X251.591 Y596.414
X251.783 Y594.774
X251.791 Y594.691
X251.929 Y593.04
X251.935 Y592.957
X252.018 Y591.296
X252.02 Y591.227
X252.048 Y589.974
X252.049 Y589.918
Y99.499
G2 X249.549 Y96.999 I-2.5 J0
G1 X224.549
X224.379 Y97.005
Z-12 F333.3
G2 X222.049 Y99.499 I0.17 J2.494 F1000
G1 Y539.68
X222.036 Y540.244
X221.998 Y540.999
X221.937 Y541.744
X221.851 Y542.48
X221.741 Y543.213
X221.607 Y543.938
X221.449 Y544.658
X221.27 Y545.368
X221.066 Y546.074
X220.841 Y546.772
X220.593 Y547.46
X220.324 Y548.137
X220.034 Y548.805
X219.72 Y549.464
X219.387 Y550.115
X219.034 Y550.75
X218.66 Y551.374
X218.263 Y551.989
X217.85 Y552.589
X217.417 Y553.173
X216.965 Y553.745
X216.492 Y554.304
X216.002 Y554.848
X215.495 Y555.374
X214.966 Y555.887
X214.42 Y556.385
X213.86 Y556.862
X213.282 Y557.323
X212.685 Y557.767
X212.072 Y558.192
X211.438 Y558.602
X210.955 Y558.895
X210.798 Y558.985
X210.795 Y558.988
X210.642 Y559.076
X210.147 Y559.346
X209.473 Y559.693
X208.802 Y560.009
X208.119 Y560.303
X207.426 Y560.576
X206.733 Y560.823
X206.034 Y561.045
X205.326 Y561.245
X204.612 Y561.422
X203.898 Y561.576
X203.179 Y561.704
X202.455 Y561.811
X201.732 Y561.893
X201.005 Y561.952
X200.275 Y561.988
X199.549 Y562
X198.821 Y561.988
X198.093 Y561.952
X197.366 Y561.893
X196.642 Y561.811
X195.917 Y561.704
X195.2 Y561.576
X194.485 Y561.422
X193.772 Y561.245
X193.063 Y561.045
X192.363 Y560.823
X191.67 Y560.576
X190.979 Y560.303
X190.295 Y560.009
X189.624 Y559.693
X188.95 Y559.346
X188.458 Y559.077
X188.309 Y558.991
X188.295 Y558.982
X188.139 Y558.893
X187.659 Y558.602
X187.025 Y558.192
X186.412 Y557.767
X185.815 Y557.323
X185.236 Y556.862
X184.676 Y556.385
X184.132 Y555.887
X183.603 Y555.375
X183.096 Y554.848
X182.604 Y554.303
X182.132 Y553.745
X181.68 Y553.173
X181.245 Y552.587
X180.832 Y551.989
X180.438 Y551.375
X180.062 Y550.749
X179.71 Y550.116
X179.378 Y549.467
X179.064 Y548.805
X178.772 Y548.136
X178.504 Y547.46
X178.256 Y546.77
X178.03 Y546.074
X177.828 Y545.37
X177.648 Y544.658
X177.49 Y543.938
X177.356 Y543.213
X177.246 Y542.48
X177.16 Y541.744
X177.099 Y541.001
X177.062 Y540.245
X177.049 Y539.68
Y99.499
G2 X174.549 Y96.999 I-2.5 J0
G1 X149.549
G2 X147.049 Y99.499 I0 J2.5
G1 Y589.918
X147.05 Y589.972
X147.077 Y591.225
X147.079 Y591.297
X147.163 Y592.958
X147.169 Y593.039
X147.306 Y594.69
X147.314 Y594.771
X147.504 Y596.411
X147.515 Y596.497
X147.761 Y598.124
X147.774 Y598.201
X148.07 Y599.815
X148.087 Y599.899
X148.437 Y601.497
X148.455 Y601.574
X148.855 Y603.158
X148.877 Y603.239
X149.329 Y604.805
X149.352 Y604.88
X149.852 Y606.428
X149.879 Y606.507
X150.429 Y608.034
X150.457 Y608.108
X151.055 Y609.617
X151.087 Y609.694
X151.734 Y611.18
X151.766 Y611.252
X152.459 Y612.716
X152.497 Y612.792
X153.239 Y614.231
X153.276 Y614.299
X154.062 Y615.714
X154.102 Y615.785
X154.934 Y617.174
X154.978 Y617.243
X155.855 Y618.604
X155.899 Y618.671
X156.819 Y620.003
X156.866 Y620.068
X157.83 Y621.372
X157.879 Y621.437
X158.885 Y622.709
X158.937 Y622.772
X159.985 Y624.012
X160.039 Y624.074
X161.13 Y625.281
X161.184 Y625.339
X162.314 Y626.513
X162.372 Y626.571
X163.543 Y627.71
X163.604 Y627.768
X164.815 Y628.869
X164.876 Y628.922
X166.125 Y629.986
X166.188 Y630.038
X167.474 Y631.063
X167.54 Y631.114
X168.865 Y632.1
X168.931 Y632.148
X170.292 Y633.093
X170.361 Y633.139
X171.758 Y634.042
X171.816 Y634.078
X172.887 Y634.729
X172.943 Y634.762
X173.301 Y634.967
X173.657 Y635.174
X173.708 Y635.202
X174.806 Y635.804
X174.868 Y635.837
X176.349 Y636.596
X176.422 Y636.632
X177.92 Y637.339
X177.997 Y637.374
X179.514 Y638.028
X179.591 Y638.059
X181.123 Y638.66
X181.198 Y638.688
X182.744 Y639.238
X182.822 Y639.265
X184.38 Y639.762
X184.459 Y639.785
X186.031 Y640.23
X186.109 Y640.251
X187.69 Y640.644
X187.771 Y640.663
X189.363 Y641.003
X189.442 Y641.018
X191.04 Y641.306
X191.119 Y641.319
X192.723 Y641.555
X192.807 Y641.566
X194.419 Y641.748
X194.495 Y641.756
X196.109 Y641.888
X196.193 Y641.893
X197.811 Y641.971
X197.891 Y641.974
X199.509 Y642
X199.589
X201.207 Y641.974
X201.288 Y641.971
X202.904 Y641.893
X202.987 Y641.888
X204.603 Y641.756
X204.68 Y641.748
X206.289 Y641.566
X206.371 Y641.555
X207.977 Y641.319
X208.057 Y641.306
X209.655 Y641.018
X209.734 Y641.003
X211.325 Y640.663
X211.406 Y640.644
X212.988 Y640.251
X213.066 Y640.23
X214.637 Y639.785
X214.715 Y639.762
X216.274 Y639.265
X216.353 Y639.238
X217.899 Y638.688
X217.974 Y638.66
X219.506 Y638.059
X219.584 Y638.027
X221.099 Y637.373
X221.174 Y637.339
X222.673 Y636.632
X222.748 Y636.596
X224.228 Y635.837
X224.288 Y635.805
X225.387 Y635.203
X225.433 Y635.177
X225.796 Y634.968
X226.158 Y634.759
X226.208 Y634.73
X227.28 Y634.079
X227.339 Y634.042
X228.736 Y633.139
X228.805 Y633.093
X230.166 Y632.148
X230.233 Y632.099
X231.557 Y631.113
X231.621 Y631.064
X232.908 Y630.039
X232.972 Y629.986
X234.221 Y628.922
X234.283 Y628.868
X235.493 Y627.767
X235.553 Y627.71
X236.724 Y626.571
X236.781 Y626.513
X237.912 Y625.339
X237.968 Y625.28
X239.057 Y624.073
X239.11 Y624.013
X240.159 Y622.773
X240.21 Y622.71
X241.217 Y621.438
X241.267 Y621.372
X242.231 Y620.068
X242.277 Y620.004
X243.198 Y618.672
X243.244 Y618.603
X244.12 Y617.242
X244.163 Y617.174
X244.995 Y615.785
X245.035 Y615.714
X245.821 Y614.299
X245.859 Y614.228
X246.599 Y612.789
X246.634 Y612.718
X247.329 Y611.254
X247.364 Y611.179
X248.01 Y609.693
X248.04 Y609.62
X248.64 Y608.111
X248.669 Y608.034
X249.219 Y606.507
X249.246 Y606.428
X249.746 Y604.88
X249.769 Y604.804
X250.22 Y603.238
X250.242 Y603.158
X250.642 Y601.574
X250.66 Y601.495
X251.009 Y599.897
X251.026 Y599.816
X251.323 Y598.202
X251.336 Y598.121
X251.58 Y596.494
X251.591 Y596.414
X251.783 Y594.774
X251.791 Y594.691
X251.929 Y593.04
X251.935 Y592.957
X252.018 Y591.296
X252.02 Y591.227
X252.048 Y589.974
X252.049 Y589.918
Y99.499
G2 X249.549 Y96.999 I-2.5 J0
G1 X224.549
X224.379 Y97.005
Z-16 F333.3
G2 X222.049 Y99.499 I0.17 J2.494 F1000
G1 Y539.68
X222.036 Y540.244
X221.998 Y540.999
X221.937 Y541.744
X221.851 Y542.48
X221.741 Y543.213
X221.607 Y543.938
X221.449 Y544.658
X221.27 Y545.368
X221.066 Y546.074
X220.841 Y546.772
X220.593 Y547.46
X220.324 Y548.137
X220.034 Y548.805
X219.72 Y549.464
X219.387 Y550.115
X219.034 Y550.75
X218.66 Y551.374
X218.263 Y551.989
X217.85 Y552.589
X217.417 Y553.173
X216.965 Y553.745
X216.492 Y554.304
X216.002 Y554.848
X215.495 Y555.374
X214.966 Y555.887
X214.42 Y556.385
X213.86 Y556.862
X213.282 Y557.323
X212.685 Y557.767
X212.072 Y558.192
X211.438 Y558.602
X210.955 Y558.895
X210.798 Y558.985
X210.795 Y558.988
X210.642 Y559.076
X210.147 Y559.346
X209.473 Y559.693
X208.802 Y560.009
X208.119 Y560.303
X207.426 Y560.576
X206.733 Y560.823
X206.034 Y561.045
X205.326 Y561.245
X204.612 Y561.422
X203.898 Y561.576
X203.179 Y561.704
X202.455 Y561.811
X201.732 Y561.893
X201.005 Y561.952
X200.275 Y561.988
X199.549 Y562
X198.821 Y561.988
X198.093 Y561.952
X197.366 Y561.893
X196.642 Y561.811
X195.917 Y561.704
X195.2 Y561.576
X194.485 Y561.422
X193.772 Y561.245
X193.063 Y561.045
X192.363 Y560.823
X191.67 Y560.576
X190.979 Y560.303
X190.295 Y560.009
X189.624 Y559.693
X188.95 Y559.346
X188.458 Y559.077
X188.309 Y558.991
X188.295 Y558.982
X188.139 Y558.893
X187.659 Y558.602
X187.025 Y558.192
X186.412 Y557.767
X185.815 Y557.323
X185.236 Y556.862
X184.676 Y556.385
X184.132 Y555.887
X183.603 Y555.375
X183.096 Y554.848
X182.604 Y554.303
X182.132 Y553.745
X181.68 Y553.173
X181.245 Y552.587
X180.832 Y551.989
X180.438 Y551.375
X180.062 Y550.749
X179.71 Y550.116
X179.378 Y549.467
X179.064 Y548.805
X178.772 Y548.136
X178.504 Y547.46
X178.256 Y546.77
X178.03 Y546.074
X177.828 Y545.37
X177.648 Y544.658
X177.49 Y543.938
X177.356 Y543.213
X177.246 Y542.48
X177.16 Y541.744
X177.099 Y541.001
X177.062 Y540.245
X177.049 Y539.68
Y99.499
G2 X174.549 Y96.999 I-2.5 J0
G1 X149.549
G2 X147.049 Y99.499 I0 J2.5
G1 Y589.918
X147.05 Y589.972
X147.077 Y591.225
X147.079 Y591.297
X147.163 Y592.958
X147.169 Y593.039
X147.306 Y594.69
X147.314 Y594.771
X147.504 Y596.411
X147.515 Y596.497
X147.761 Y598.124
X147.774 Y598.201
X148.07 Y599.815
X148.087 Y599.899
X148.437 Y601.497
X148.455 Y601.574
X148.855 Y603.158
X148.877 Y603.239
X149.329 Y604.805
X149.352 Y604.88
X149.852 Y606.428
X149.879 Y606.507
X150.429 Y608.034
X150.457 Y608.108
X151.055 Y609.617
X151.087 Y609.694
X151.734 Y611.18
X151.766 Y611.252
X152.459 Y612.716
X152.497 Y612.792
X153.239 Y614.231
X153.276 Y614.299
X154.062 Y615.714
X154.102 Y615.785
X154.934 Y617.174
X154.978 Y617.243
X155.855 Y618.604
X155.899 Y618.671
X156.819 Y620.003
X156.866 Y620.068
X157.83 Y621.372
X157.879 Y621.437
X158.885 Y622.709
X158.937 Y622.772
X159.985 Y624.012
X160.039 Y624.074
X161.13 Y625.281
X161.184 Y625.339
X162.314 Y626.513
X162.372 Y626.571
X163.543 Y627.71
X163.604 Y627.768
X164.815 Y628.869
X164.876 Y628.922
X166.125 Y629.986
X166.188 Y630.038
X167.474 Y631.063
X167.54 Y631.114
X168.865 Y632.1
X168.931 Y632.148
X170.292 Y633.093
X170.361 Y633.139
X171.758 Y634.042
X171.816 Y634.078
X172.887 Y634.729
X172.943 Y634.762
X173.301 Y634.967
X173.657 Y635.174
X173.708 Y635.202
X174.806 Y635.804
X174.868 Y635.837
X176.349 Y636.596
X176.422 Y636.632
X177.92 Y637.339
X177.997 Y637.374
X179.514 Y638.028
X179.591 Y638.059
X181.123 Y638.66
X181.198 Y638.688
X182.744 Y639.238
X182.822 Y639.265
X184.38 Y639.762
X184.459 Y639.785
X186.031 Y640.23
X186.109 Y640.251
X187.69 Y640.644
X187.771 Y640.663
X189.363 Y641.003
X189.442 Y641.018
X191.04 Y641.306
X191.119 Y641.319
X192.723 Y641.555
X192.807 Y641.566
X194.419 Y641.748
X194.495 Y641.756
X196.109 Y641.888
X196.193 Y641.893
X197.811 Y641.971
X197.891 Y641.974
X199.509 Y642
X199.589
X201.207 Y641.974
X201.288 Y641.971
X202.904 Y641.893
X202.987 Y641.888
X204.603 Y641.756
X204.68 Y641.748
X206.289 Y641.566
X206.371 Y641.555
X207.977 Y641.319
X208.057 Y641.306
X209.655 Y641.018
X209.734 Y641.003
X211.325 Y640.663
X211.406 Y640.644
X212.988 Y640.251
X213.066 Y640.23
X214.637 Y639.785
X214.715 Y639.762
X216.274 Y639.265
X216.353 Y639.238
X217.899 Y638.688
X217.974 Y638.66
X219.506 Y638.059
X219.584 Y638.027
X221.099 Y637.373
X221.174 Y637.339
X222.673 Y636.632
X222.748 Y636.596
X224.228 Y635.837
X224.288 Y635.805
X225.387 Y635.203
X225.433 Y635.177
X225.796 Y634.968
X226.158 Y634.759
X226.208 Y634.73
X227.28 Y634.079
X227.339 Y634.042
X228.736 Y633.139
X228.805 Y633.093
X230.166 Y632.148
X230.233 Y632.099
X231.557 Y631.113
X231.621 Y631.064
X232.908 Y630.039
X232.972 Y629.986
X234.221 Y628.922
X234.283 Y628.868
X235.493 Y627.767
X235.553 Y627.71
X236.724 Y626.571
X236.781 Y626.513
X237.912 Y625.339
X237.968 Y625.28
X239.057 Y624.073
X239.11 Y624.013
X240.159 Y622.773
X240.21 Y622.71
X241.217 Y621.438
X241.267 Y621.372
X242.231 Y620.068
X242.277 Y620.004
X243.198 Y618.672
X243.244 Y618.603
X244.12 Y617.242
X244.163 Y617.174
X244.995 Y615.785
X245.035 Y615.714
X245.821 Y614.299
X245.859 Y614.228
X246.599 Y612.789
X246.634 Y612.718
X247.329 Y611.254
X247.364 Y611.179
X248.01 Y609.693
X248.04 Y609.62
X248.64 Y608.111
X248.669 Y608.034
X249.219 Y606.507
X249.246 Y606.428
X249.746 Y604.88
X249.769 Y604.804
X250.22 Y603.238
X250.242 Y603.158
X250.642 Y601.574
X250.66 Y601.495
X251.009 Y599.897
X251.026 Y599.816
X251.323 Y598.202
X251.336 Y598.121
X251.58 Y596.494
X251.591 Y596.414
X251.783 Y594.774
X251.791 Y594.691
X251.929 Y593.04
X251.935 Y592.957
X252.018 Y591.296
X252.02 Y591.227
X252.048 Y589.974
X252.049 Y589.918
Y99.499
G2 X249.549 Y96.999 I-2.5 J0
G1 X224.549
X224.379 Y97.005
Z-20 F333.3
G2 X222.049 Y99.499 I0.17 J2.494 F1000
G1 Y539.68
X222.036 Y540.244
X221.998 Y540.999
X221.937 Y541.744
X221.851 Y542.48
X221.741 Y543.213
X221.607 Y543.938
X221.449 Y544.658
X221.27 Y545.368
X221.066 Y546.074
X220.841 Y546.772
X220.593 Y547.46
X220.324 Y548.137
X220.034 Y548.805
X219.72 Y549.464
