(PferdeckeLufter_01)
(T4 D=5 CR=0 - ZMIN=-28 - flat end mill)
G90 G94
G17
G21
(-Attention- Property Safe Retracts is set to Clearance Height.)
(Ensure the clearance height will clear the part and or fixtures.)
(Raise the Z-axis to a safe height before starting the program.)

(2D Contour1)
T4
S5000 M3
G17 G90 G94
G54
M8
G0 X75.83 Y97.005
Z15
G0 Z5
G1 Z3 F333.3
Z-4
G2 X73.5 Y99.499 I0.17 J2.494 F1000
G1 Y539.68
X73.487 Y540.245
X73.45 Y540.999
X73.388 Y541.743
X73.302 Y542.48
X73.192 Y543.213
X73.058 Y543.939
X72.901 Y544.659
X72.721 Y545.369
X72.518 Y546.074
X72.293 Y546.771
X72.045 Y547.459
X71.776 Y548.136
X71.485 Y548.805
X71.172 Y549.465
X70.839 Y550.114
X70.486 Y550.75
X70.111 Y551.375
X69.716 Y551.988
X69.302 Y552.588
X68.869 Y553.173
X68.416 Y553.746
X67.944 Y554.304
X67.453 Y554.848
X66.945 Y555.375
X66.418 Y555.887
X65.872 Y556.385
X65.312 Y556.862
X64.733 Y557.323
X64.136 Y557.767
X63.523 Y558.192
X62.889 Y558.602
X62.409 Y558.893
X62.254 Y558.983
X62.245 Y558.988
X62.093 Y559.076
X61.598 Y559.346
X60.924 Y559.693
X60.253 Y560.009
X59.57 Y560.303
X58.879 Y560.576
X58.185 Y560.822
X57.485 Y561.045
X56.777 Y561.245
X56.064 Y561.422
X55.349 Y561.576
X54.631 Y561.704
X53.907 Y561.811
X53.183 Y561.893
X52.456 Y561.952
X51.727 Y561.988
X51 Y562
X50.273 Y561.988
X49.545 Y561.952
X48.817 Y561.893
X48.094 Y561.811
X47.369 Y561.704
X46.651 Y561.576
X45.936 Y561.422
X45.223 Y561.245
X44.515 Y561.045
X43.815 Y560.822
X43.121 Y560.576
X42.431 Y560.303
X41.747 Y560.009
X41.076 Y559.693
X40.402 Y559.346
X39.908 Y559.076
X39.756 Y558.988
X39.747 Y558.983
X39.591 Y558.894
X39.111 Y558.602
X38.477 Y558.192
X37.863 Y557.767
X37.267 Y557.323
X36.688 Y556.862
X36.128 Y556.384
X35.582 Y555.887
X35.055 Y555.375
X34.547 Y554.848
X34.056 Y554.304
X33.584 Y553.746
X33.131 Y553.173
X32.698 Y552.588
X32.284 Y551.988
X31.889 Y551.375
X31.515 Y550.749
X31.161 Y550.114
X30.828 Y549.465
X30.515 Y548.806
X30.224 Y548.136
X29.955 Y547.459
X29.707 Y546.771
X29.482 Y546.074
X29.279 Y545.369
X29.099 Y544.659
X28.942 Y543.939
X28.808 Y543.213
X28.698 Y542.48
X28.612 Y541.743
X28.55 Y540.999
X28.513 Y540.245
X28.5 Y539.68
Y99.499
G2 X26 Y96.999 I-2.5 J0
G1 X1
G2 X-1.5 Y99.499 I0 J2.5
G1 Y589.918
X-1.499 Y589.973
X-1.472 Y591.226
X-1.469 Y591.296
X-1.386 Y592.957
X-1.381 Y593.04
X-1.243 Y594.691
X-1.235 Y594.773
X-1.043 Y596.413
X-1.033 Y596.495
X-0.788 Y598.122
X-0.774 Y598.203
X-0.477 Y599.817
X-0.461 Y599.897
X-0.112 Y601.495
X-0.093 Y601.575
X0.307 Y603.159
X0.328 Y603.238
X0.779 Y604.804
X0.803 Y604.882
X1.304 Y606.43
X1.33 Y606.507
X1.88 Y608.034
X1.909 Y608.109
X2.507 Y609.618
X2.539 Y609.693
X3.185 Y611.18
X3.219 Y611.253
X3.913 Y612.717
X3.949 Y612.79
X4.689 Y614.229
X4.727 Y614.3
X5.514 Y615.715
X5.554 Y615.784
X6.386 Y617.173
X6.429 Y617.243
X7.305 Y618.604
X7.35 Y618.671
X8.271 Y620.003
X8.317 Y620.068
X9.281 Y621.372
X9.331 Y621.437
X10.338 Y622.709
X10.389 Y622.772
X11.438 Y624.012
X11.491 Y624.074
X12.581 Y625.281
X12.636 Y625.339
X13.767 Y626.513
X13.824 Y626.571
X14.995 Y627.71
X15.056 Y627.767
X16.266 Y628.868
X16.327 Y628.922
X17.576 Y629.986
X17.64 Y630.039
X18.927 Y631.064
X18.991 Y631.113
X20.316 Y632.099
X20.383 Y632.148
X21.744 Y633.093
X21.813 Y633.139
X23.21 Y634.042
X23.269 Y634.078
X24.34 Y634.729
X24.392 Y634.76
X24.751 Y634.967
X25.111 Y635.175
X25.161 Y635.203
X26.26 Y635.805
X26.32 Y635.837
X27.8 Y636.596
X27.874 Y636.632
X29.373 Y637.339
X29.449 Y637.373
X30.965 Y638.027
X31.042 Y638.059
X32.574 Y638.66
X32.649 Y638.688
X34.195 Y639.238
X34.274 Y639.265
X35.833 Y639.762
X35.911 Y639.785
X37.482 Y640.23
X37.561 Y640.251
X39.142 Y640.644
X39.222 Y640.663
X40.813 Y641.003
X40.893 Y641.018
X42.491 Y641.306
X42.571 Y641.319
X44.176 Y641.555
X44.259 Y641.566
X45.869 Y641.748
X45.946 Y641.756
X47.561 Y641.888
X47.644 Y641.893
X49.261 Y641.971
X49.342 Y641.974
X50.96 Y642
X51.04
X52.659 Y641.974
X52.739 Y641.971
X54.356 Y641.893
X54.439 Y641.888
X56.054 Y641.756
X56.131 Y641.748
X57.741 Y641.566
X57.824 Y641.555
X59.429 Y641.319
X59.509 Y641.306
X61.108 Y641.018
X61.187 Y641.003
X62.778 Y640.663
X62.858 Y640.644
X64.44 Y640.251
X64.518 Y640.23
X66.089 Y639.785
X66.167 Y639.762
X67.726 Y639.265
X67.805 Y639.238
X69.351 Y638.688
X69.426 Y638.66
X70.958 Y638.059
X71.035 Y638.027
X72.551 Y637.373
X72.627 Y637.339
X74.126 Y636.632
X74.2 Y636.596
X75.68 Y635.837
X75.741 Y635.805
X76.839 Y635.203
X76.889 Y635.175
X77.248 Y634.967
X77.608 Y634.76
X77.66 Y634.729
X78.731 Y634.078
X78.79 Y634.042
X80.187 Y633.139
X80.256 Y633.093
X81.617 Y632.148
X81.684 Y632.099
X83.009 Y631.113
X83.073 Y631.064
X84.36 Y630.039
X84.424 Y629.986
X85.673 Y628.922
X85.734 Y628.868
X86.944 Y627.767
X87.005 Y627.71
X88.176 Y626.571
X88.233 Y626.513
X89.364 Y625.339
X89.419 Y625.281
X90.509 Y624.074
X90.562 Y624.012
X91.611 Y622.772
X91.663 Y622.709
X92.669 Y621.437
X92.719 Y621.372
X93.683 Y620.068
X93.729 Y620.003
X94.65 Y618.671
X94.695 Y618.604
X95.571 Y617.243
X95.614 Y617.173
X96.446 Y615.784
X96.487 Y615.715
X97.273 Y614.3
X97.311 Y614.229
X98.051 Y612.79
X98.088 Y612.717
X98.781 Y611.253
X98.815 Y611.18
X99.461 Y609.693
X99.493 Y609.618
X100.091 Y608.109
X100.12 Y608.034
X100.67 Y606.507
X100.696 Y606.429
X101.197 Y604.881
X101.221 Y604.804
X101.672 Y603.238
X101.693 Y603.159
X102.093 Y601.575
X102.112 Y601.496
X102.461 Y599.898
X102.478 Y599.816
X102.775 Y598.202
X102.788 Y598.121
X103.032 Y596.494
X103.043 Y596.414
X103.235 Y594.774
X103.243 Y594.69
X103.38 Y593.039
X103.386 Y592.957
X103.469 Y591.296
X103.471 Y591.227
X103.499 Y589.974
X103.5 Y589.918
Y99.499
G2 X101 Y96.999 I-2.5 J0
G1 X76
X75.83 Y97.005
Z-8 F333.3
G2 X73.5 Y99.499 I0.17 J2.494 F1000
G1 Y539.68
X73.487 Y540.245
X73.45 Y540.999
X73.388 Y541.743
X73.302 Y542.48
X73.192 Y543.213
X73.058 Y543.939
X72.901 Y544.659
X72.721 Y545.369
X72.518 Y546.074
X72.293 Y546.771
X72.045 Y547.459
X71.776 Y548.136
X71.485 Y548.805
X71.172 Y549.465
X70.839 Y550.114
X70.486 Y550.75
X70.111 Y551.375
X69.716 Y551.988
X69.302 Y552.588
X68.869 Y553.173
X68.416 Y553.746
X67.944 Y554.304
X67.453 Y554.848
X66.945 Y555.375
X66.418 Y555.887
X65.872 Y556.385
X65.312 Y556.862
X64.733 Y557.323
X64.136 Y557.767
X63.523 Y558.192
X62.889 Y558.602
X62.409 Y558.893
X62.254 Y558.983
X62.245 Y558.988
X62.093 Y559.076
X61.598 Y559.346
X60.924 Y559.693
X60.253 Y560.009
X59.57 Y560.303
X58.879 Y560.576
X58.185 Y560.822
X57.485 Y561.045
X56.777 Y561.245
X56.064 Y561.422
X55.349 Y561.576
X54.631 Y561.704
X53.907 Y561.811
X53.183 Y561.893
X52.456 Y561.952
X51.727 Y561.988
X51 Y562
X50.273 Y561.988
X49.545 Y561.952
X48.817 Y561.893
X48.094 Y561.811
X47.369 Y561.704
X46.651 Y561.576
X45.936 Y561.422
X45.223 Y561.245
X44.515 Y561.045
X43.815 Y560.822
X43.121 Y560.576
X42.431 Y560.303
X41.747 Y560.009
X41.076 Y559.693
X40.402 Y559.346
X39.908 Y559.076
X39.756 Y558.988
X39.747 Y558.983
X39.591 Y558.894
X39.111 Y558.602
X38.477 Y558.192
X37.863 Y557.767
X37.267 Y557.323
X36.688 Y556.862
X36.128 Y556.384
X35.582 Y555.887
X35.055 Y555.375
X34.547 Y554.848
X34.056 Y554.304
X33.584 Y553.746
X33.131 Y553.173
X32.698 Y552.588
X32.284 Y551.988
X31.889 Y551.375
X31.515 Y550.749
X31.161 Y550.114
X30.828 Y549.465
X30.515 Y548.806
X30.224 Y548.136
X29.955 Y547.459
X29.707 Y546.771
X29.482 Y546.074
X29.279 Y545.369
X29.099 Y544.659
X28.942 Y543.939
X28.808 Y543.213
X28.698 Y542.48
X28.612 Y541.743
X28.55 Y540.999
X28.513 Y540.245
X28.5 Y539.68
Y99.499
G2 X26 Y96.999 I-2.5 J0
G1 X1
G2 X-1.5 Y99.499 I0 J2.5
G1 Y589.918
X-1.499 Y589.973
X-1.472 Y591.226
X-1.469 Y591.296
X-1.386 Y592.957
X-1.381 Y593.04
X-1.243 Y594.691
X-1.235 Y594.773
X-1.043 Y596.413
X-1.033 Y596.495
X-0.788 Y598.122
X-0.774 Y598.203
X-0.477 Y599.817
X-0.461 Y599.897
X-0.112 Y601.495
X-0.093 Y601.575
X0.307 Y603.159
X0.328 Y603.238
X0.779 Y604.804
X0.803 Y604.882
X1.304 Y606.43
X1.33 Y606.507
X1.88 Y608.034
X1.909 Y608.109
X2.507 Y609.618
X2.539 Y609.693
X3.185 Y611.18
X3.219 Y611.253
X3.913 Y612.717
X3.949 Y612.79
X4.689 Y614.229
X4.727 Y614.3
X5.514 Y615.715
X5.554 Y615.784
X6.386 Y617.173
X6.429 Y617.243
X7.305 Y618.604
X7.35 Y618.671
X8.271 Y620.003
X8.317 Y620.068
X9.281 Y621.372
X9.331 Y621.437
X10.338 Y622.709
X10.389 Y622.772
X11.438 Y624.012
X11.491 Y624.074
X12.581 Y625.281
X12.636 Y625.339
X13.767 Y626.513
X13.824 Y626.571
X14.995 Y627.71
X15.056 Y627.767
X16.266 Y628.868
X16.327 Y628.922
X17.576 Y629.986
X17.64 Y630.039
X18.927 Y631.064
X18.991 Y631.113
X20.316 Y632.099
X20.383 Y632.148
X21.744 Y633.093
X21.813 Y633.139
X23.21 Y634.042
X23.269 Y634.078
X24.34 Y634.729
X24.392 Y634.76
X24.751 Y634.967
X25.111 Y635.175
X25.161 Y635.203
X26.26 Y635.805
X26.32 Y635.837
X27.8 Y636.596
X27.874 Y636.632
X29.373 Y637.339
X29.449 Y637.373
X30.965 Y638.027
X31.042 Y638.059
X32.574 Y638.66
X32.649 Y638.688
X34.195 Y639.238
X34.274 Y639.265
X35.833 Y639.762
X35.911 Y639.785
X37.482 Y640.23
X37.561 Y640.251
X39.142 Y640.644
X39.222 Y640.663
X40.813 Y641.003
X40.893 Y641.018
X42.491 Y641.306
X42.571 Y641.319
X44.176 Y641.555
X44.259 Y641.566
X45.869 Y641.748
X45.946 Y641.756
X47.561 Y641.888
X47.644 Y641.893
X49.261 Y641.971
X49.342 Y641.974
X50.96 Y642
X51.04
X52.659 Y641.974
X52.739 Y641.971
X54.356 Y641.893
X54.439 Y641.888
X56.054 Y641.756
X56.131 Y641.748
X57.741 Y641.566
X57.824 Y641.555
X59.429 Y641.319
X59.509 Y641.306
X61.108 Y641.018
X61.187 Y641.003
X62.778 Y640.663
X62.858 Y640.644
X64.44 Y640.251
X64.518 Y640.23
X66.089 Y639.785
X66.167 Y639.762
X67.726 Y639.265
X67.805 Y639.238
X69.351 Y638.688
X69.426 Y638.66
X70.958 Y638.059
X71.035 Y638.027
X72.551 Y637.373
X72.627 Y637.339
X74.126 Y636.632
X74.2 Y636.596
X75.68 Y635.837
X75.741 Y635.805
X76.839 Y635.203
X76.889 Y635.175
X77.248 Y634.967
X77.608 Y634.76
X77.66 Y634.729
X78.731 Y634.078
X78.79 Y634.042
X80.187 Y633.139
X80.256 Y633.093
X81.617 Y632.148
X81.684 Y632.099
X83.009 Y631.113
X83.073 Y631.064
X84.36 Y630.039
X84.424 Y629.986
X85.673 Y628.922
X85.734 Y628.868
X86.944 Y627.767
X87.005 Y627.71
X88.176 Y626.571
X88.233 Y626.513
X89.364 Y625.339
X89.419 Y625.281
X90.509 Y624.074
X90.562 Y624.012
X91.611 Y622.772
X91.663 Y622.709
X92.669 Y621.437
X92.719 Y621.372
X93.683 Y620.068
X93.729 Y620.003
X94.65 Y618.671
X94.695 Y618.604
X95.571 Y617.243
X95.614 Y617.173
X96.446 Y615.784
X96.487 Y615.715
X97.273 Y614.3
X97.311 Y614.229
X98.051 Y612.79
X98.088 Y612.717
X98.781 Y611.253
X98.815 Y611.18
X99.461 Y609.693
X99.493 Y609.618
X100.091 Y608.109
X100.12 Y608.034
X100.67 Y606.507
X100.696 Y606.429
X101.197 Y604.881
X101.221 Y604.804
X101.672 Y603.238
X101.693 Y603.159
X102.093 Y601.575
X102.112 Y601.496
X102.461 Y599.898
X102.478 Y599.816
X102.775 Y598.202
X102.788 Y598.121
X103.032 Y596.494
X103.043 Y596.414
X103.235 Y594.774
X103.243 Y594.69
X103.38 Y593.039
X103.386 Y592.957
X103.469 Y591.296
X103.471 Y591.227
X103.499 Y589.974
X103.5 Y589.918
Y99.499
G2 X101 Y96.999 I-2.5 J0
G1 X76
X75.83 Y97.005
Z-12 F333.3
G2 X73.5 Y99.499 I0.17 J2.494 F1000
G1 Y539.68
X73.487 Y540.245
X73.45 Y540.999
X73.388 Y541.743
X73.302 Y542.48
X73.192 Y543.213
X73.058 Y543.939
X72.901 Y544.659
X72.721 Y545.369
X72.518 Y546.074
X72.293 Y546.771
X72.045 Y547.459
X71.776 Y548.136
X71.485 Y548.805
X71.172 Y549.465
X70.839 Y550.114
X70.486 Y550.75
X70.111 Y551.375
X69.716 Y551.988
X69.302 Y552.588
X68.869 Y553.173
X68.416 Y553.746
X67.944 Y554.304
X67.453 Y554.848
X66.945 Y555.375
X66.418 Y555.887
X65.872 Y556.385
X65.312 Y556.862
X64.733 Y557.323
X64.136 Y557.767
X63.523 Y558.192
X62.889 Y558.602
X62.409 Y558.893
X62.254 Y558.983
X62.245 Y558.988
X62.093 Y559.076
X61.598 Y559.346
X60.924 Y559.693
X60.253 Y560.009
X59.57 Y560.303
X58.879 Y560.576
X58.185 Y560.822
X57.485 Y561.045
X56.777 Y561.245
X56.064 Y561.422
X55.349 Y561.576
X54.631 Y561.704
X53.907 Y561.811
X53.183 Y561.893
X52.456 Y561.952
X51.727 Y561.988
X51 Y562
X50.273 Y561.988
X49.545 Y561.952
X48.817 Y561.893
X48.094 Y561.811
X47.369 Y561.704
X46.651 Y561.576
X45.936 Y561.422
X45.223 Y561.245
X44.515 Y561.045
X43.815 Y560.822
X43.121 Y560.576
X42.431 Y560.303
X41.747 Y560.009
X41.076 Y559.693
X40.402 Y559.346
X39.908 Y559.076
X39.756 Y558.988
X39.747 Y558.983
X39.591 Y558.894
X39.111 Y558.602
X38.477 Y558.192
X37.863 Y557.767
X37.267 Y557.323
X36.688 Y556.862
X36.128 Y556.384
X35.582 Y555.887
X35.055 Y555.375
X34.547 Y554.848
X34.056 Y554.304
X33.584 Y553.746
X33.131 Y553.173
X32.698 Y552.588
X32.284 Y551.988
X31.889 Y551.375
X31.515 Y550.749
X31.161 Y550.114
X30.828 Y549.465
X30.515 Y548.806
X30.224 Y548.136
X29.955 Y547.459
X29.707 Y546.771
X29.482 Y546.074
X29.279 Y545.369
X29.099 Y544.659
X28.942 Y543.939
X28.808 Y543.213
X28.698 Y542.48
X28.612 Y541.743
X28.55 Y540.999
X28.513 Y540.245
X28.5 Y539.68
Y99.499
G2 X26 Y96.999 I-2.5 J0
G1 X1
G2 X-1.5 Y99.499 I0 J2.5
G1 Y589.918
X-1.499 Y589.973
X-1.472 Y591.226
X-1.469 Y591.296
X-1.386 Y592.957
X-1.381 Y593.04
X-1.243 Y594.691
X-1.235 Y594.773
X-1.043 Y596.413
X-1.033 Y596.495
X-0.788 Y598.122
X-0.774 Y598.203
X-0.477 Y599.817
X-0.461 Y599.897
X-0.112 Y601.495
X-0.093 Y601.575
X0.307 Y603.159
X0.328 Y603.238
X0.779 Y604.804
X0.803 Y604.882
X1.304 Y606.43
X1.33 Y606.507
X1.88 Y608.034
X1.909 Y608.109
X2.507 Y609.618
X2.539 Y609.693
X3.185 Y611.18
X3.219 Y611.253
X3.913 Y612.717
X3.949 Y612.79
X4.689 Y614.229
X4.727 Y614.3
X5.514 Y615.715
X5.554 Y615.784
X6.386 Y617.173
X6.429 Y617.243
X7.305 Y618.604
X7.35 Y618.671
X8.271 Y620.003
X8.317 Y620.068
X9.281 Y621.372
X9.331 Y621.437
X10.338 Y622.709
X10.389 Y622.772
X11.438 Y624.012
X11.491 Y624.074
X12.581 Y625.281
X12.636 Y625.339
X13.767 Y626.513
X13.824 Y626.571
X14.995 Y627.71
X15.056 Y627.767
X16.266 Y628.868
X16.327 Y628.922
X17.576 Y629.986
X17.64 Y630.039
X18.927 Y631.064
X18.991 Y631.113
X20.316 Y632.099
X20.383 Y632.148
X21.744 Y633.093
X21.813 Y633.139
X23.21 Y634.042
X23.269 Y634.078
X24.34 Y634.729
X24.392 Y634.76
X24.751 Y634.967
X25.111 Y635.175
X25.161 Y635.203
X26.26 Y635.805
X26.32 Y635.837
X27.8 Y636.596
X27.874 Y636.632
X29.373 Y637.339
X29.449 Y637.373
X30.965 Y638.027
X31.042 Y638.059
X32.574 Y638.66
X32.649 Y638.688
X34.195 Y639.238
X34.274 Y639.265
X35.833 Y639.762
X35.911 Y639.785
X37.482 Y640.23
X37.561 Y640.251
X39.142 Y640.644
X39.222 Y640.663
X40.813 Y641.003
X40.893 Y641.018
X42.491 Y641.306
X42.571 Y641.319
X44.176 Y641.555
X44.259 Y641.566
X45.869 Y641.748
X45.946 Y641.756
X47.561 Y641.888
X47.644 Y641.893
X49.261 Y641.971
X49.342 Y641.974
X50.96 Y642
X51.04
X52.659 Y641.974
X52.739 Y641.971
X54.356 Y641.893
X54.439 Y641.888
X56.054 Y641.756
X56.131 Y641.748
X57.741 Y641.566
X57.824 Y641.555
X59.429 Y641.319
X59.509 Y641.306
X61.108 Y641.018
X61.187 Y641.003
X62.778 Y640.663
X62.858 Y640.644
X64.44 Y640.251
X64.518 Y640.23
X66.089 Y639.785
X66.167 Y639.762
X67.726 Y639.265
X67.805 Y639.238
X69.351 Y638.688
X69.426 Y638.66
X70.958 Y638.059
X71.035 Y638.027
X72.551 Y637.373
X72.627 Y637.339
X74.126 Y636.632
X74.2 Y636.596
X75.68 Y635.837
X75.741 Y635.805
X76.839 Y635.203
X76.889 Y635.175
X77.248 Y634.967
X77.608 Y634.76
X77.66 Y634.729
X78.731 Y634.078
X78.79 Y634.042
X80.187 Y633.139
X80.256 Y633.093
X81.617 Y632.148
X81.684 Y632.099
X83.009 Y631.113
X83.073 Y631.064
X84.36 Y630.039
X84.424 Y629.986
X85.673 Y628.922
X85.734 Y628.868
X86.944 Y627.767
X87.005 Y627.71
X88.176 Y626.571
X88.233 Y626.513
X89.364 Y625.339
X89.419 Y625.281
X90.509 Y624.074
X90.562 Y624.012
X91.611 Y622.772
X91.663 Y622.709
X92.669 Y621.437
X92.719 Y621.372
X93.683 Y620.068
X93.729 Y620.003
X94.65 Y618.671
X94.695 Y618.604
X95.571 Y617.243
X95.614 Y617.173
X96.446 Y615.784
X96.487 Y615.715
X97.273 Y614.3
X97.311 Y614.229
X98.051 Y612.79
X98.088 Y612.717
X98.781 Y611.253
X98.815 Y611.18
X99.461 Y609.693
X99.493 Y609.618
X100.091 Y608.109
X100.12 Y608.034
X100.67 Y606.507
X100.696 Y606.429
X101.197 Y604.881
X101.221 Y604.804
X101.672 Y603.238
X101.693 Y603.159
X102.093 Y601.575
X102.112 Y601.496
X102.461 Y599.898
X102.478 Y599.816
X102.775 Y598.202
X102.788 Y598.121
X103.032 Y596.494
X103.043 Y596.414
X103.235 Y594.774
X103.243 Y594.69
X103.38 Y593.039
X103.386 Y592.957
X103.469 Y591.296
X103.471 Y591.227
X103.499 Y589.974
X103.5 Y589.918
Y99.499
G2 X101 Y96.999 I-2.5 J0
G1 X76
X75.83 Y97.005
Z-16 F333.3
G2 X73.5 Y99.499 I0.17 J2.494 F1000
G1 Y539.68
X73.487 Y540.245
X73.45 Y540.999
X73.388 Y541.743
X73.302 Y542.48
X73.192 Y543.213
X73.058 Y543.939
X72.901 Y544.659
X72.721 Y545.369
X72.518 Y546.074
X72.293 Y546.771
X72.045 Y547.459
X71.776 Y548.136
X71.485 Y548.805
X71.172 Y549.465
X70.839 Y550.114
X70.486 Y550.75
X70.111 Y551.375
X69.716 Y551.988
X69.302 Y552.588
X68.869 Y553.173
X68.416 Y553.746
X67.944 Y554.304
X67.453 Y554.848
X66.945 Y555.375
X66.418 Y555.887
X65.872 Y556.385
X65.312 Y556.862
X64.733 Y557.323
X64.136 Y557.767
X63.523 Y558.192
X62.889 Y558.602
X62.409 Y558.893
X62.254 Y558.983
X62.245 Y558.988
X62.093 Y559.076
X61.598 Y559.346
X60.924 Y559.693
X60.253 Y560.009
X59.57 Y560.303
X58.879 Y560.576
X58.185 Y560.822
X57.485 Y561.045
X56.777 Y561.245
X56.064 Y561.422
X55.349 Y561.576
X54.631 Y561.704
X53.907 Y561.811
X53.183 Y561.893
X52.456 Y561.952
X51.727 Y561.988
X51 Y562
X50.273 Y561.988
X49.545 Y561.952
X48.817 Y561.893
X48.094 Y561.811
X47.369 Y561.704
X46.651 Y561.576
X45.936 Y561.422
X45.223 Y561.245
X44.515 Y561.045
X43.815 Y560.822
X43.121 Y560.576
X42.431 Y560.303
X41.747 Y560.009
X41.076 Y559.693
X40.402 Y559.346
X39.908 Y559.076
X39.756 Y558.988
X39.747 Y558.983
X39.591 Y558.894
X39.111 Y558.602
X38.477 Y558.192
X37.863 Y557.767
X37.267 Y557.323
X36.688 Y556.862
X36.128 Y556.384
X35.582 Y555.887
X35.055 Y555.375
X34.547 Y554.848
X34.056 Y554.304
X33.584 Y553.746
X33.131 Y553.173
X32.698 Y552.588
X32.284 Y551.988
X31.889 Y551.375
X31.515 Y550.749
X31.161 Y550.114
X30.828 Y549.465
X30.515 Y548.806
X30.224 Y548.136
X29.955 Y547.459
X29.707 Y546.771
X29.482 Y546.074
X29.279 Y545.369
X29.099 Y544.659
X28.942 Y543.939
X28.808 Y543.213
X28.698 Y542.48
X28.612 Y541.743
X28.55 Y540.999
X28.513 Y540.245
X28.5 Y539.68
Y99.499
G2 X26 Y96.999 I-2.5 J0
G1 X1
G2 X-1.5 Y99.499 I0 J2.5
G1 Y589.918
X-1.499 Y589.973
X-1.472 Y591.226
X-1.469 Y591.296
X-1.386 Y592.957
X-1.381 Y593.04
X-1.243 Y594.691
X-1.235 Y594.773
X-1.043 Y596.413
X-1.033 Y596.495
X-0.788 Y598.122
X-0.774 Y598.203
X-0.477 Y599.817
X-0.461 Y599.897
X-0.112 Y601.495
X-0.093 Y601.575
X0.307 Y603.159
X0.328 Y603.238
X0.779 Y604.804
X0.803 Y604.882
X1.304 Y606.43
X1.33 Y606.507
X1.88 Y608.034
X1.909 Y608.109
X2.507 Y609.618
X2.539 Y609.693
X3.185 Y611.18
X3.219 Y611.253
X3.913 Y612.717
X3.949 Y612.79
X4.689 Y614.229
X4.727 Y614.3
X5.514 Y615.715
X5.554 Y615.784
X6.386 Y617.173
X6.429 Y617.243
X7.305 Y618.604
X7.35 Y618.671
X8.271 Y620.003
X8.317 Y620.068
X9.281 Y621.372
X9.331 Y621.437
X10.338 Y622.709
X10.389 Y622.772
X11.438 Y624.012
X11.491 Y624.074
X12.581 Y625.281
X12.636 Y625.339
X13.767 Y626.513
X13.824 Y626.571
X14.995 Y627.71
X15.056 Y627.767
X16.266 Y628.868
X16.327 Y628.922
X17.576 Y629.986
X17.64 Y630.039
X18.927 Y631.064
X18.991 Y631.113
X20.316 Y632.099
X20.383 Y632.148
X21.744 Y633.093
X21.813 Y633.139
X23.21 Y634.042
X23.269 Y634.078
X24.34 Y634.729
X24.392 Y634.76
X24.751 Y634.967
X25.111 Y635.175
X25.161 Y635.203
X26.26 Y635.805
X26.32 Y635.837
X27.8 Y636.596
X27.874 Y636.632
X29.373 Y637.339
X29.449 Y637.373
X30.965 Y638.027
X31.042 Y638.059
X32.574 Y638.66
X32.649 Y638.688
X34.195 Y639.238
X34.274 Y639.265
X35.833 Y639.762
X35.911 Y639.785
X37.482 Y640.23
X37.561 Y640.251
X39.142 Y640.644
X39.222 Y640.663
X40.813 Y641.003
X40.893 Y641.018
X42.491 Y641.306
X42.571 Y641.319
X44.176 Y641.555
X44.259 Y641.566
X45.869 Y641.748
X45.946 Y641.756
X47.561 Y641.888
X47.644 Y641.893
X49.261 Y641.971
X49.342 Y641.974
X50.96 Y642
X51.04
X52.659 Y641.974
X52.739 Y641.971
X54.356 Y641.893
X54.439 Y641.888
X56.054 Y641.756
X56.131 Y641.748
X57.741 Y641.566
X57.824 Y641.555
X59.429 Y641.319
X59.509 Y641.306
X61.108 Y641.018
X61.187 Y641.003
X62.778 Y640.663
X62.858 Y640.644
X64.44 Y640.251
X64.518 Y640.23
X66.089 Y639.785
X66.167 Y639.762
X67.726 Y639.265
X67.805 Y639.238
X69.351 Y638.688
X69.426 Y638.66
X70.958 Y638.059
X71.035 Y638.027
X72.551 Y637.373
X72.627 Y637.339
X74.126 Y636.632
X74.2 Y636.596
X75.68 Y635.837
X75.741 Y635.805
X76.839 Y635.203
X76.889 Y635.175
X77.248 Y634.967
X77.608 Y634.76
X77.66 Y634.729
X78.731 Y634.078
X78.79 Y634.042
X80.187 Y633.139
X80.256 Y633.093
X81.617 Y632.148
X81.684 Y632.099
X83.009 Y631.113
X83.073 Y631.064
X84.36 Y630.039
X84.424 Y629.986
X85.673 Y628.922
X85.734 Y628.868
X86.944 Y627.767
X87.005 Y627.71
X88.176 Y626.571
X88.233 Y626.513
X89.364 Y625.339
X89.419 Y625.281
X90.509 Y624.074
X90.562 Y624.012
X91.611 Y622.772
X91.663 Y622.709
X92.669 Y621.437
X92.719 Y621.372
X93.683 Y620.068
X93.729 Y620.003
X94.65 Y618.671
X94.695 Y618.604
X95.571 Y617.243
X95.614 Y617.173
X96.446 Y615.784
X96.487 Y615.715
X97.273 Y614.3
X97.311 Y614.229
X98.051 Y612.79
X98.088 Y612.717
X98.781 Y611.253
X98.815 Y611.18
X99.461 Y609.693
X99.493 Y609.618
X100.091 Y608.109
X100.12 Y608.034
X100.67 Y606.507
X100.696 Y606.429
X101.197 Y604.881
X101.221 Y604.804
X101.672 Y603.238
X101.693 Y603.159
X102.093 Y601.575
X102.112 Y601.496
X102.461 Y599.898
X102.478 Y599.816
X102.775 Y598.202
X102.788 Y598.121
X103.032 Y596.494
X103.043 Y596.414
X103.235 Y594.774
X103.243 Y594.69
X103.38 Y593.039
X103.386 Y592.957
X103.469 Y591.296
X103.471 Y591.227
X103.499 Y589.974
X103.5 Y589.918
Y99.499
G2 X101 Y96.999 I-2.5 J0
G1 X76
X75.83 Y97.005
Z-20 F333.3
G2 X73.5 Y99.499 I0.17 J2.494 F1000
G1 Y539.68
X73.487 Y540.245
X73.45 Y540.999
X73.388 Y541.743
X73.302 Y542.48
X73.192 Y543.213
X73.058 Y543.939
X72.901 Y544.659
X72.721 Y545.369
X72.518 Y546.074
X72.293 Y546.771
X72.045 Y547.459
X71.776 Y548.136
X71.485 Y548.805
X71.172 Y549.465
X70.839 Y550.114
X70.486 Y550.75
X70.111 Y551.375
X69.716 Y551.988
X69.302 Y552.588
X68.869 Y553.173
X68.416 Y553.746
X67.944 Y554.304
X67.453 Y554.848
X66.945 Y555.375
X66.418 Y555.887
X65.872 Y556.385
X65.312 Y556.862
X64.733 Y557.323
X64.136 Y557.767
X63.523 Y558.192
X62.889 Y558.602
X62.409 Y558.893
X62.254 Y558.983
X62.245 Y558.988
X62.093 Y559.076
X61.598 Y559.346
X60.924 Y559.693
X60.253 Y560.009
X59.57 Y560.303
X58.879 Y560.576
X58.185 Y560.822
X57.485 Y561.045
X56.777 Y561.245
X56.064 Y561.422
X55.349 Y561.576
X54.631 Y561.704
X53.907 Y561.811
X53.183 Y561.893
X52.456 Y561.952
X51.727 Y561.988
X51 Y562
X50.273 Y561.988
X49.545 Y561.952
X48.817 Y561.893
X48.094 Y561.811
X47.369 Y561.704
X46.651 Y561.576
X45.936 Y561.422
X45.223 Y561.245
X44.515 Y561.045
X43.815 Y560.822
X43.121 Y560.576
X42.431 Y560.303
X41.747 Y560.009
X41.076 Y559.693
X40.402 Y559.346
X39.908 Y559.076
X39.756 Y558.988
X39.747 Y558.983
X39.591 Y558.894
X39.111 Y558.602
X38.477 Y558.192
X37.863 Y557.767
X37.267 Y557.323
X36.688 Y556.862
X36.128 Y556.384
X35.582 Y555.887
X35.055 Y555.375
X34.547 Y554.848
X34.056 Y554.304
X33.584 Y553.746
X33.131 Y553.173
X32.698 Y552.588
X32.284 Y551.988
X31.889 Y551.375
X31.515 Y550.749
X31.161 Y550.114
X30.828 Y549.465
X30.515 Y548.806
X30.224 Y548.136
X29.955 Y547.459
X29.707 Y546.771
X29.482 Y546.074
X29.279 Y545.369
X29.099 Y544.659
X28.942 Y543.939
X28.808 Y543.213
X28.698 Y542.48
X28.612 Y541.743
X28.55 Y540.999
X28.513 Y540.245
X28.5 Y539.68
Y99.499
G2 X26 Y96.999 I-2.5 J0
G1 X1
G2 X-1.5 Y99.499 I0 J2.5
G1 Y589.918
X-1.499 Y589.973
X-1.472 Y591.226
X-1.469 Y591.296
X-1.386 Y592.957
X-1.381 Y593.04
X-1.243 Y594.691
X-1.235 Y594.773
X-1.043 Y596.413
X-1.033 Y596.495
X-0.788 Y598.122
X-0.774 Y598.203
X-0.477 Y599.817
X-0.461 Y599.897
X-0.112 Y601.495
X-0.093 Y601.575
X0.307 Y603.159
X0.328 Y603.238
X0.779 Y604.804
X0.803 Y604.882
X1.304 Y606.43
X1.33 Y606.507
X1.88 Y608.034
X1.909 Y608.109
X2.507 Y609.618
X2.539 Y609.693
X3.185 Y611.18
X3.219 Y611.253
X3.913 Y612.717
X3.949 Y612.79
X4.689 Y614.229
X4.727 Y614.3
X5.514 Y615.715
X5.554 Y615.784
X6.386 Y617.173
X6.429 Y617.243
X7.305 Y618.604
X7.35 Y618.671
X8.271 Y620.003
X8.317 Y620.068
X9.281 Y621.372
X9.331 Y621.437
X10.338 Y622.709
X10.389 Y622.772
X11.438 Y624.012
X11.491 Y624.074
X12.581 Y625.281
X12.636 Y625.339
X13.767 Y626.513
X13.824 Y626.571
X14.995 Y627.71
X15.056 Y627.767
X16.266 Y628.868
X16.327 Y628.922
X17.576 Y629.986
X17.64 Y630.039
X18.927 Y631.064
X18.991 Y631.113
X20.316 Y632.099
X20.383 Y632.148
X21.744 Y633.093
X21.813 Y633.139
X23.21 Y634.042
X23.269 Y634.078
X24.34 Y634.729
X24.392 Y634.76
X24.751 Y634.967
X25.111 Y635.175
X25.161 Y635.203
X26.26 Y635.805
X26.32 Y635.837
X27.8 Y636.596
X27.874 Y636.632
X29.373 Y637.339
X29.449 Y637.373
X30.965 Y638.027
X31.042 Y638.059
X32.574 Y638.66
X32.649 Y638.688
X34.195 Y639.238
X34.274 Y639.265
X35.833 Y639.762
X35.911 Y639.785
X37.482 Y640.23
X37.561 Y640.251
X39.142 Y640.644
X39.222 Y640.663
X40.813 Y641.003
X40.893 Y641.018
X42.491 Y641.306
X42.571 Y641.319
X44.176 Y641.555
X44.259 Y641.566
X45.869 Y641.748
X45.946 Y641.756
X47.561 Y641.888
X47.644 Y641.893
X49.261 Y641.971
X49.342 Y641.974
X50.96 Y642
X51.04
X52.659 Y641.974
X52.739 Y641.971
X54.356 Y641.893
X54.439 Y641.888
X56.054 Y641.756
X56.131 Y641.748
X57.741 Y641.566
X57.824 Y641.555
X59.429 Y641.319
X59.509 Y641.306
X61.108 Y641.018
X61.187 Y641.003
X62.778 Y640.663
X62.858 Y640.644
X64.44 Y640.251
X64.518 Y640.23
X66.089 Y639.785
X66.167 Y639.762
X67.726 Y639.265
X67.805 Y639.238
X69.351 Y638.688
X69.426 Y638.66
X70.958 Y638.059
X71.035 Y638.027
X72.551 Y637.373
X72.627 Y637.339
X74.126 Y636.632
X74.2 Y636.596
X75.68 Y635.837
X75.741 Y635.805
X76.839 Y635.203
X76.889 Y635.175
X77.248 Y634.967
X77.608 Y634.76
X77.66 Y634.729
X78.731 Y634.078
X78.79 Y634.042
X80.187 Y633.139
X80.256 Y633.093
X81.617 Y632.148
X81.684 Y632.099
X83.009 Y631.113
X83.073 Y631.064
X84.36 Y630.039
X84.424 Y629.986
X85.673 Y628.922
X85.734 Y628.868
X86.944 Y627.767
X87.005 Y627.71
X88.176 Y626.571
X88.233 Y626.513
X89.364 Y625.339
X89.419 Y625.281
X90.509 Y624.074
X90.562 Y624.012
X91.611 Y622.772
X91.663 Y622.709
X92.669 Y621.437
X92.719 Y621.372
X93.683 Y620.068
X93.729 Y620.003
X94.65 Y618.671
X94.695 Y618.604
X95.571 Y617.243
X95.614 Y617.173
X96.446 Y615.784
X96.487 Y615.715
X97.273 Y614.3
X97.311 Y614.229
X98.051 Y612.79
X98.088 Y612.717
X98.781 Y611.253
X98.815 Y611.18
X99.461 Y609.693
X99.493 Y609.618
X100.091 Y608.109
X100.12 Y608.034
X100.67 Y606.507
X100.696 Y606.429
X101.197 Y604.881
X101.221 Y604.804
X101.672 Y603.238
X101.693 Y603.159
X102.093 Y601.575
X102.112 Y601.496
X102.461 Y599.898
X102.478 Y599.816
X102.775 Y598.202
X102.788 Y598.121
X103.032 Y596.494
X103.043 Y596.414
X103.235 Y594.774
X103.243 Y594.69
X103.38 Y593.039
X103.386 Y592.957
X103.469 Y591.296
X103.471 Y591.227
X103.499 Y589.974
X103.5 Y589.918
Y99.499
G2 X101 Y96.999 I-2.5 J0
G1 X76
X75.83 Y97.005
Z-24 F333.3
G2 X73.5 Y99.499 I0.17 J2.494 F1000
G1 Y539.68
X73.487 Y540.245
X73.45 Y540.999
X73.388 Y541.743
X73.302 Y542.48
X73.192 Y543.213
X73.058 Y543.939
X72.901 Y544.659
X72.721 Y545.369
X72.518 Y546.074
X72.293 Y546.771
X72.045 Y547.459
X71.776 Y548.136
X71.485 Y548.805
X71.172 Y549.465
X70.839 Y550.114
X70.486 Y550.75
X70.111 Y551.375
X69.716 Y551.988
X69.302 Y552.588
X68.869 Y553.173
X68.416 Y553.746
X67.944 Y554.304
X67.453 Y554.848
X66.945 Y555.375
X66.418 Y555.887
X65.872 Y556.385
X65.312 Y556.862
X64.733 Y557.323
X64.136 Y557.767
X63.523 Y558.192
X62.889 Y558.602
X62.409 Y558.893
X62.254 Y558.983
X62.245 Y558.988
X62.093 Y559.076
X61.598 Y559.346
X60.924 Y559.693
X60.253 Y560.009
X59.57 Y560.303
X58.879 Y560.576
X58.185 Y560.822
X57.485 Y561.045
X56.777 Y561.245
X56.064 Y561.422
X55.349 Y561.576
X54.631 Y561.704
X53.907 Y561.811
X53.183 Y561.893
X52.456 Y561.952
X51.727 Y561.988
X51 Y562
X50.273 Y561.988
X49.545 Y561.952
X48.817 Y561.893
X48.094 Y561.811
X47.369 Y561.704
X46.651 Y561.576
X45.936 Y561.422
X45.223 Y561.245
X44.515 Y561.045
X43.815 Y560.822
X43.121 Y560.576
X42.431 Y560.303
X41.747 Y560.009
X41.076 Y559.693
X40.402 Y559.346
X39.908 Y559.076
X39.756 Y558.988
X39.747 Y558.983
X39.591 Y558.894
X39.111 Y558.602
X38.477 Y558.192
X37.863 Y557.767
X37.267 Y557.323
X36.688 Y556.862
X36.128 Y556.384
X35.582 Y555.887
X35.055 Y555.375
X34.547 Y554.848
X34.056 Y554.304
X33.584 Y553.746
X33.131 Y553.173
X32.698 Y552.588
X32.284 Y551.988
X31.889 Y551.375
X31.515 Y550.749
X31.161 Y550.114
X30.828 Y549.465
X30.515 Y548.806
X30.224 Y548.136
X29.955 Y547.459
X29.707 Y546.771
X29.482 Y546.074
X29.279 Y545.369
X29.099 Y544.659
X28.942 Y543.939
X28.808 Y543.213
X28.698 Y542.48
X28.612 Y541.743
X28.55 Y540.999
X28.513 Y540.245
X28.5 Y539.68
Y99.499
G2 X26 Y96.999 I-2.5 J0
G1 X1
G2 X-1.5 Y99.499 I0 J2.5
G1 Y589.918
X-1.499 Y589.973
X-1.472 Y591.226
X-1.469 Y591.296
X-1.386 Y592.957
X-1.381 Y593.04
X-1.243 Y594.691
X-1.235 Y594.773
X-1.043 Y596.413
X-1.033 Y596.495
X-0.788 Y598.122
X-0.774 Y598.203
X-0.477 Y599.817
X-0.461 Y599.897
X-0.112 Y601.495
X-0.093 Y601.575
X0.307 Y603.159
X0.328 Y603.238
X0.779 Y604.804
X0.803 Y604.882
X1.304 Y606.43
X1.33 Y606.507
X1.88 Y608.034
X1.909 Y608.109
X2.507 Y609.618
X2.539 Y609.693
X3.185 Y611.18
X3.219 Y611.253
X3.913 Y612.717
X3.949 Y612.79
X4.689 Y614.229
X4.727 Y614.3
X5.514 Y615.715
X5.554 Y615.784
X6.386 Y617.173
X6.429 Y617.243
X7.305 Y618.604
X7.35 Y618.671
X8.271 Y620.003
X8.317 Y620.068
X9.281 Y621.372
X9.331 Y621.437
X10.338 Y622.709
X10.389 Y622.772
X11.438 Y624.012
X11.491 Y624.074
X12.581 Y625.281
X12.636 Y625.339
X13.767 Y626.513
X13.824 Y626.571
X14.995 Y627.71
X15.056 Y627.767
X16.266 Y628.868
X16.327 Y628.922
X17.576 Y629.986
X17.64 Y630.039
X18.927 Y631.064
X18.991 Y631.113
X20.316 Y632.099
X20.383 Y632.148
X21.744 Y633.093
X21.813 Y633.139
X23.21 Y634.042
X23.269 Y634.078
X24.34 Y634.729
X24.392 Y634.76
X24.751 Y634.967
X25.111 Y635.175
X25.161 Y635.203
X26.26 Y635.805
X26.32 Y635.837
X27.8 Y636.596
X27.874 Y636.632
X29.373 Y637.339
X29.449 Y637.373
X30.965 Y638.027
X31.042 Y638.059
X32.574 Y638.66
X32.649 Y638.688
X34.195 Y639.238
X34.274 Y639.265
X35.833 Y639.762
X35.911 Y639.785
X37.482 Y640.23
X37.561 Y640.251
X39.142 Y640.644
X39.222 Y640.663
X40.813 Y641.003
X40.893 Y641.018
X42.491 Y641.306
X42.571 Y641.319
X44.176 Y641.555
X44.259 Y641.566
X45.869 Y641.748
X45.946 Y641.756
X47.561 Y641.888
X47.644 Y641.893
X49.261 Y641.971
X49.342 Y641.974
X50.96 Y642
X51.04
X52.659 Y641.974
X52.739 Y641.971
X54.356 Y641.893
X54.439 Y641.888
X56.054 Y641.756
X56.131 Y641.748
X57.741 Y641.566
X57.824 Y641.555
X59.429 Y641.319
X59.509 Y641.306
X61.108 Y641.018
X61.187 Y641.003
X62.778 Y640.663
X62.858 Y640.644
X64.44 Y640.251
X64.518 Y640.23
X66.089 Y639.785
X66.167 Y639.762
X67.726 Y639.265
X67.805 Y639.238
X69.351 Y638.688
X69.426 Y638.66
X70.958 Y638.059
X71.035 Y638.027
X72.551 Y637.373
X72.627 Y637.339
X74.126 Y636.632
X74.2 Y636.596
X75.68 Y635.837
X75.741 Y635.805
X76.839 Y635.203
X76.889 Y635.175
X77.248 Y634.967
X77.608 Y634.76
X77.66 Y634.729
X78.731 Y634.078
X78.79 Y634.042
X80.187 Y633.139
X80.256 Y633.093
X81.617 Y632.148
X81.684 Y632.099
X83.009 Y631.113
X83.073 Y631.064
X84.36 Y630.039
X84.424 Y629.986
X85.673 Y628.922
X85.734 Y628.868
X86.944 Y627.767
X87.005 Y627.71
X88.176 Y626.571
X88.233 Y626.513
X89.364 Y625.339
X89.419 Y625.281
X90.509 Y624.074
X90.562 Y624.012
X91.611 Y622.772
X91.663 Y622.709
X92.669 Y621.437
X92.719 Y621.372
X93.683 Y620.068
X93.729 Y620.003
X94.65 Y618.671
X94.695 Y618.604
X95.571 Y617.243
X95.614 Y617.173
X96.446 Y615.784
X96.487 Y615.715
X97.273 Y614.3
X97.311 Y614.229
X98.051 Y612.79
X98.088 Y612.717
X98.781 Y611.253
X98.815 Y611.18
X99.461 Y609.693
X99.493 Y609.618
X100.091 Y608.109
X100.12 Y608.034
X100.67 Y606.507
X100.696 Y606.429
X101.197 Y604.881
X101.221 Y604.804
X101.672 Y603.238
X101.693 Y603.159
X102.093 Y601.575
X102.112 Y601.496
X102.461 Y599.898
X102.478 Y599.816
X102.775 Y598.202
X102.788 Y598.121
X103.032 Y596.494
X103.043 Y596.414
X103.235 Y594.774
X103.243 Y594.69
X103.38 Y593.039
X103.386 Y592.957
X103.469 Y591.296
X103.471 Y591.227
X103.499 Y589.974
X103.5 Y589.918
Y99.499
G2 X101 Y96.999 I-2.5 J0
G1 X76
X75.83 Y97.005
Z-28 F333.3
G2 X73.5 Y99.499 I0.17 J2.494 F1000
G1 Y539.68
X73.487 Y540.245
X73.45 Y540.999
X73.388 Y541.743
X73.302 Y542.48
X73.192 Y543.213
X73.058 Y543.939
X72.901 Y544.659
X72.721 Y545.369
X72.518 Y546.074
X72.293 Y546.771
X72.045 Y547.459
X71.776 Y548.136
X71.485 Y548.805
X71.172 Y549.465
X70.839 Y550.114
X70.486 Y550.75
X70.111 Y551.375
X69.716 Y551.988
X69.302 Y552.588
X68.869 Y553.173
X68.416 Y553.746
X67.944 Y554.304
X67.453 Y554.848
X66.945 Y555.375
X66.418 Y555.887
X65.872 Y556.385
X65.312 Y556.862
X64.733 Y557.323
X64.136 Y557.767
X63.523 Y558.192
X62.889 Y558.602
X62.409 Y558.893
X62.254 Y558.983
X62.245 Y558.988
X62.093 Y559.076
X61.598 Y559.346
X60.924 Y559.693
X60.253 Y560.009
X59.57 Y560.303
X58.879 Y560.576
X58.185 Y560.822
X57.485 Y561.045
X56.777 Y561.245
X56.064 Y561.422
X55.349 Y561.576
X54.631 Y561.704
X53.907 Y561.811
X53.183 Y561.893
X52.456 Y561.952
X51.727 Y561.988
X51 Y562
X50.273 Y561.988
X49.545 Y561.952
X48.817 Y561.893
X48.094 Y561.811
X47.369 Y561.704
X46.651 Y561.576
X45.936 Y561.422
X45.223 Y561.245
X44.515 Y561.045
X43.815 Y560.822
X43.121 Y560.576
X42.431 Y560.303
X41.747 Y560.009
X41.076 Y559.693
X40.402 Y559.346
X39.908 Y559.076
X39.756 Y558.988
X39.747 Y558.983
X39.591 Y558.894
X39.111 Y558.602
X38.477 Y558.192
X37.863 Y557.767
X37.267 Y557.323
X36.688 Y556.862
X36.128 Y556.384
X35.582 Y555.887
X35.055 Y555.375
X34.547 Y554.848
X34.056 Y554.304
X33.584 Y553.746
X33.131 Y553.173
X32.698 Y552.588
X32.284 Y551.988
X31.889 Y551.375
X31.515 Y550.749
X31.161 Y550.114
X30.828 Y549.465
X30.515 Y548.806
X30.224 Y548.136
X29.955 Y547.459
X29.707 Y546.771
X29.482 Y546.074
X29.279 Y545.369
X29.099 Y544.659
X28.942 Y543.939
X28.808 Y543.213
X28.698 Y542.48
X28.612 Y541.743
X28.55 Y540.999
X28.513 Y540.245
X28.5 Y539.68
Y99.499
G2 X26 Y96.999 I-2.5 J0
G1 X1
G2 X-1.5 Y99.499 I0 J2.5
G1 Y589.918
X-1.499 Y589.973
X-1.472 Y591.226
X-1.469 Y591.296
X-1.386 Y592.957
X-1.381 Y593.04
X-1.243 Y594.691
X-1.235 Y594.773
X-1.043 Y596.413
X-1.033 Y596.495
X-0.788 Y598.122
X-0.774 Y598.203
X-0.477 Y599.817
X-0.461 Y599.897
X-0.112 Y601.495
X-0.093 Y601.575
X0.307 Y603.159
X0.328 Y603.238
X0.779 Y604.804
X0.803 Y604.882
X1.304 Y606.43
X1.33 Y606.507
X1.88 Y608.034
X1.909 Y608.109
X2.507 Y609.618
X2.539 Y609.693
X3.185 Y611.18
X3.219 Y611.253
X3.913 Y612.717
X3.949 Y612.79
X4.689 Y614.229
X4.727 Y614.3
X5.514 Y615.715
X5.554 Y615.784
X6.386 Y617.173
X6.429 Y617.243
X7.305 Y618.604
X7.35 Y618.671
X8.271 Y620.003
X8.317 Y620.068
X9.281 Y621.372
X9.331 Y621.437
X10.338 Y622.709
X10.389 Y622.772
X11.438 Y624.012
X11.491 Y624.074
X12.581 Y625.281
X12.636 Y625.339
X13.767 Y626.513
X13.824 Y626.571
X14.995 Y627.71
X15.056 Y627.767
X16.266 Y628.868
X16.327 Y628.922
X17.576 Y629.986
X17.64 Y630.039
X18.927 Y631.064
X18.991 Y631.113
X20.316 Y632.099
X20.383 Y632.148
X21.744 Y633.093
X21.813 Y633.139
X23.21 Y634.042
X23.269 Y634.078
X24.34 Y634.729
X24.392 Y634.76
X24.751 Y634.967
X25.111 Y635.175
X25.161 Y635.203
X26.26 Y635.805
X26.32 Y635.837
X27.8 Y636.596
X27.874 Y636.632
X29.373 Y637.339
X29.449 Y637.373
X30.965 Y638.027
X31.042 Y638.059
X32.574 Y638.66
X32.649 Y638.688
X34.195 Y639.238
X34.274 Y639.265
X35.833 Y639.762
X35.911 Y639.785
X37.482 Y640.23
X37.561 Y640.251
X39.142 Y640.644
X39.222 Y640.663
X40.813 Y641.003
X40.893 Y641.018
X42.491 Y641.306
X42.571 Y641.319
X44.176 Y641.555
X44.259 Y641.566
X45.869 Y641.748
X45.946 Y641.756
X47.561 Y641.888
X47.644 Y641.893
X49.261 Y641.971
X49.342 Y641.974
X50.96 Y642
X51.04
X52.659 Y641.974
X52.739 Y641.971
X54.356 Y641.893
X54.439 Y641.888
X56.054 Y641.756
X56.131 Y641.748
X57.741 Y641.566
X57.824 Y641.555
X59.429 Y641.319
X59.509 Y641.306
X61.108 Y641.018
X61.187 Y641.003
X62.778 Y640.663
X62.858 Y640.644
X64.44 Y640.251
X64.518 Y640.23
X66.089 Y639.785
X66.167 Y639.762
X67.726 Y639.265
X67.805 Y639.238
X69.351 Y638.688
X69.426 Y638.66
X70.958 Y638.059
X71.035 Y638.027
X72.551 Y637.373
X72.627 Y637.339
X74.126 Y636.632
X74.2 Y636.596
X75.68 Y635.837
X75.741 Y635.805
X76.839 Y635.203
X76.889 Y635.175
X77.248 Y634.967
X77.608 Y634.76
X77.66 Y634.729
X78.731 Y634.078
X78.79 Y634.042
X80.187 Y633.139
X80.256 Y633.093
X81.617 Y632.148
X81.684 Y632.099
X83.009 Y631.113
X83.073 Y631.064
X84.36 Y630.039
X84.424 Y629.986
X85.673 Y628.922
X85.734 Y628.868
X86.944 Y627.767
X87.005 Y627.71
X88.176 Y626.571
X88.233 Y626.513
X89.364 Y625.339
X89.419 Y625.281
X90.509 Y624.074
X90.562 Y624.012
X91.611 Y622.772
X91.663 Y622.709
X92.669 Y621.437
X92.719 Y621.372
X93.683 Y620.068
X93.729 Y620.003
X94.65 Y618.671
X94.695 Y618.604
X95.571 Y617.243
X95.614 Y617.173
X96.446 Y615.784
X96.487 Y615.715
X97.273 Y614.3
X97.311 Y614.229
X98.051 Y612.79
X98.088 Y612.717
X98.781 Y611.253
X98.815 Y611.18
X99.461 Y609.693
X99.493 Y609.618
X100.091 Y608.109
X100.12 Y608.034
X100.67 Y606.507
X100.696 Y606.429
X101.197 Y604.881
X101.221 Y604.804
X101.672 Y603.238
X101.693 Y603.159
X102.093 Y601.575
X102.112 Y601.496
X102.461 Y599.898
X102.478 Y599.816
X102.775 Y598.202
X102.788 Y598.121
X103.032 Y596.494
X103.043 Y596.414
X103.235 Y594.774
X103.243 Y594.69
X103.38 Y593.039
X103.386 Y592.957
X103.469 Y591.296
X103.471 Y591.227
X103.499 Y589.974
X103.5 Y589.918
Y99.499
G2 X101 Y96.999 I-2.5 J0
G1 X76
X75.83 Y97.005
Z5
G0 Z15

M9
M5
M30
