(PferdeckeLufter_02)
(T4 D=5 CR=0 - ZMIN=-28 - flat end mill)
G90 G94
G17
G21
(-Attention- Property Safe Retracts is set to Clearance Height.)
(Ensure the clearance height will clear the part and or fixtures.)
(Raise the Z-axis to a safe height before starting the program.)

(2D Contour1 2)
T4
S5000 M3
G17 G90 G94
G54
M8
G0 X113.33 Y543.495
Z15
G0 Z5
G1 Z3 F333.3
Z-4
X113.5 Y543.501 F1000
X138.5
G2 X141 Y541.001 I0 J-2.5
G1 Y50.582
X140.999 Y50.527
X140.971 Y49.274
X140.969 Y49.205
X140.886 Y47.543
X140.88 Y47.461
X140.743 Y45.81
X140.735 Y45.726
X140.543 Y44.086
X140.532 Y44.007
X140.288 Y42.379
X140.274 Y42.296
X139.976 Y40.682
X139.96 Y40.603
X139.611 Y39.004
X139.593 Y38.925
X139.193 Y37.342
X139.171 Y37.262
X138.72 Y35.696
X138.697 Y35.62
X138.197 Y34.072
X138.17 Y33.993
X137.619 Y32.464
X137.591 Y32.391
X136.993 Y30.883
X136.961 Y30.806
X136.314 Y29.32
X136.281 Y29.247
X135.587 Y27.783
X135.551 Y27.711
X134.811 Y26.272
X134.773 Y26.199
X133.986 Y24.785
X133.945 Y24.715
X133.113 Y23.327
X133.071 Y23.259
X132.195 Y21.898
X132.15 Y21.829
X131.229 Y20.496
X131.182 Y20.431
X130.218 Y19.128
X130.169 Y19.064
X129.163 Y17.792
X129.111 Y17.728
X128.062 Y16.487
X128.009 Y16.426
X126.919 Y15.219
X126.863 Y15.159
X125.732 Y13.986
X125.675 Y13.929
X124.505 Y12.79
X124.445 Y12.734
X123.235 Y11.632
X123.173 Y11.578
X121.924 Y10.514
X121.861 Y10.461
X120.574 Y9.436
X120.508 Y9.385
X119.183 Y8.4
X119.117 Y8.352
X117.756 Y7.407
X117.687 Y7.361
X116.29 Y6.458
X116.231 Y6.421
X115.16 Y5.771
X115.111 Y5.742
X114.749 Y5.533
X114.387 Y5.324
X114.34 Y5.298
X113.241 Y4.695
X113.18 Y4.663
X111.7 Y3.904
X111.625 Y3.867
X110.126 Y3.161
X110.051 Y3.127
X108.535 Y2.473
X108.459 Y2.441
X106.928 Y1.84
X106.85 Y1.811
X105.304 Y1.261
X105.226 Y1.235
X103.666 Y0.738
X103.588 Y0.714
X102.017 Y0.269
X101.938 Y0.248
X100.357 Y-0.144
X100.278 Y-0.163
X98.687 Y-0.503
X98.607 Y-0.518
X97.008 Y-0.806
X96.928 Y-0.819
X95.323 Y-1.055
X95.243 Y-1.065
X93.632 Y-1.248
X93.552 Y-1.256
X91.937 Y-1.387
X91.857 Y-1.392
X90.239 Y-1.471
X90.159 Y-1.473
X88.54 Y-1.5
X88.459
X86.841 Y-1.473
X86.76 Y-1.471
X85.143 Y-1.392
X85.063 Y-1.387
X83.448 Y-1.256
X83.368 Y-1.248
X81.757 Y-1.065
X81.676 Y-1.055
X80.071 Y-0.819
X79.991 Y-0.806
X78.393 Y-0.518
X78.313 Y-0.503
X76.722 Y-0.162
X76.643 Y-0.144
X75.061 Y0.248
X74.982 Y0.269
X73.411 Y0.714
X73.333 Y0.738
X71.774 Y1.235
X71.696 Y1.261
X70.15 Y1.811
X70.073 Y1.839
X68.541 Y2.441
X68.465 Y2.473
X66.949 Y3.127
X66.873 Y3.161
X65.375 Y3.867
X65.3 Y3.904
X63.82 Y4.663
X63.759 Y4.695
X62.66 Y5.298
X62.612 Y5.325
X62.25 Y5.534
X61.888 Y5.743
X61.84 Y5.771
X60.769 Y6.421
X60.71 Y6.458
X59.313 Y7.361
X59.244 Y7.407
X57.883 Y8.352
X57.816 Y8.4
X56.491 Y9.386
X56.426 Y9.436
X55.139 Y10.461
X55.075 Y10.514
X53.827 Y11.578
X53.765 Y11.632
X52.555 Y12.734
X52.495 Y12.79
X51.325 Y13.928
X51.267 Y13.986
X50.136 Y15.159
X50.081 Y15.219
X48.991 Y16.426
X48.937 Y16.488
X47.888 Y17.728
X47.837 Y17.791
X46.83 Y19.064
X46.781 Y19.128
X45.817 Y20.431
X45.77 Y20.497
X44.85 Y21.83
X44.805 Y21.897
X43.928 Y23.258
X43.886 Y23.327
X43.054 Y24.715
X43.014 Y24.785
X42.227 Y26.2
X42.189 Y26.271
X41.448 Y27.711
X41.412 Y27.783
X40.719 Y29.247
X40.685 Y29.321
X40.038 Y30.807
X40.007 Y30.882
X39.409 Y32.39
X39.38 Y32.466
X38.83 Y33.994
X38.803 Y34.071
X38.303 Y35.619
X38.279 Y35.696
X37.828 Y37.262
X37.807 Y37.341
X37.406 Y38.924
X37.388 Y39.004
X37.039 Y40.603
X37.022 Y40.683
X36.725 Y42.297
X36.712 Y42.378
X36.467 Y44.006
X36.456 Y44.087
X36.265 Y45.727
X36.257 Y45.809
X36.119 Y47.461
X36.114 Y47.543
X36.031 Y49.205
X36.028 Y49.274
X36 Y50.527
Y50.582
Y541.001
G2 X38.5 Y543.501 I2.5 J0
G1 X63.5
G2 X66 Y541.001 I0 J-2.5
G1 Y100.819
X66.012 Y100.255
X66.05 Y99.501
X66.112 Y98.757
X66.198 Y98.02
X66.308 Y97.288
X66.442 Y96.561
X66.599 Y95.842
X66.779 Y95.13
X66.982 Y94.425
X67.207 Y93.729
X67.455 Y93.041
X67.724 Y92.362
X68.015 Y91.694
X68.327 Y91.035
X68.66 Y90.387
X69.015 Y89.75
X69.389 Y89.125
X69.783 Y88.513
X70.198 Y87.913
X70.632 Y87.327
X71.084 Y86.754
X71.556 Y86.196
X72.046 Y85.653
X72.555 Y85.125
X73.082 Y84.612
X73.627 Y84.117
X74.188 Y83.638
X74.767 Y83.177
X75.364 Y82.733
X75.976 Y82.308
X76.611 Y81.898
X77.093 Y81.605
X77.25 Y81.515
X77.407 Y81.424
X77.901 Y81.153
X78.574 Y80.808
X79.248 Y80.49
X79.93 Y80.196
X80.619 Y79.925
X81.315 Y79.678
X82.017 Y79.454
X82.723 Y79.254
X83.435 Y79.077
X84.151 Y78.924
X84.87 Y78.795
X85.592 Y78.689
X86.317 Y78.606
X87.044 Y78.548
X87.772 Y78.512
X88.5 Y78.5
X89.228 Y78.512
X89.956 Y78.548
X90.682 Y78.606
X91.407 Y78.689
X92.129 Y78.795
X92.849 Y78.924
X93.565 Y79.077
X94.276 Y79.254
X94.983 Y79.454
X95.685 Y79.678
X96.38 Y79.925
X97.069 Y80.196
X97.752 Y80.49
X98.425 Y80.808
X99.098 Y81.153
X99.594 Y81.425
X99.75 Y81.515
X99.906 Y81.605
X100.388 Y81.898
X101.024 Y82.308
X101.637 Y82.733
X102.232 Y83.176
X102.811 Y83.638
X103.374 Y84.117
X103.917 Y84.612
X104.444 Y85.125
X104.954 Y85.653
X105.444 Y86.196
X105.915 Y86.754
X106.368 Y87.326
X106.802 Y87.913
X107.216 Y88.513
X107.612 Y89.126
X107.986 Y89.75
X108.339 Y90.386
X108.672 Y91.035
X108.985 Y91.693
X109.276 Y92.363
X109.546 Y93.042
X109.793 Y93.728
X110.018 Y94.424
X110.22 Y95.13
X110.401 Y95.842
X110.558 Y96.561
X110.692 Y97.288
X110.802 Y98.02
X110.888 Y98.757
X110.949 Y99.5
X110.987 Y100.256
X111 Y100.819
Y541.001
G2 X113.33 Y543.495 I2.5 J0
G1 Z-8 F333.3
X113.5 Y543.501 F1000
X138.5
G2 X141 Y541.001 I0 J-2.5
G1 Y50.582
X140.999 Y50.527
X140.971 Y49.274
X140.969 Y49.205
X140.886 Y47.543
X140.88 Y47.461
X140.743 Y45.81
X140.735 Y45.726
X140.543 Y44.086
X140.532 Y44.007
X140.288 Y42.379
X140.274 Y42.296
X139.976 Y40.682
X139.96 Y40.603
X139.611 Y39.004
X139.593 Y38.925
X139.193 Y37.342
X139.171 Y37.262
X138.72 Y35.696
X138.697 Y35.62
X138.197 Y34.072
X138.17 Y33.993
X137.619 Y32.464
X137.591 Y32.391
X136.993 Y30.883
X136.961 Y30.806
X136.314 Y29.32
X136.281 Y29.247
X135.587 Y27.783
X135.551 Y27.711
X134.811 Y26.272
X134.773 Y26.199
X133.986 Y24.785
X133.945 Y24.715
X133.113 Y23.327
X133.071 Y23.259
X132.195 Y21.898
X132.15 Y21.829
X131.229 Y20.496
X131.182 Y20.431
X130.218 Y19.128
X130.169 Y19.064
X129.163 Y17.792
X129.111 Y17.728
X128.062 Y16.487
X128.009 Y16.426
X126.919 Y15.219
X126.863 Y15.159
X125.732 Y13.986
X125.675 Y13.929
X124.505 Y12.79
X124.445 Y12.734
X123.235 Y11.632
X123.173 Y11.578
X121.924 Y10.514
X121.861 Y10.461
X120.574 Y9.436
X120.508 Y9.385
X119.183 Y8.4
X119.117 Y8.352
X117.756 Y7.407
X117.687 Y7.361
X116.29 Y6.458
X116.231 Y6.421
X115.16 Y5.771
X115.111 Y5.742
X114.749 Y5.533
X114.387 Y5.324
X114.34 Y5.298
X113.241 Y4.695
X113.18 Y4.663
X111.7 Y3.904
X111.625 Y3.867
X110.126 Y3.161
X110.051 Y3.127
X108.535 Y2.473
X108.459 Y2.441
X106.928 Y1.84
X106.85 Y1.811
X105.304 Y1.261
X105.226 Y1.235
X103.666 Y0.738
X103.588 Y0.714
X102.017 Y0.269
X101.938 Y0.248
X100.357 Y-0.144
X100.278 Y-0.163
X98.687 Y-0.503
X98.607 Y-0.518
X97.008 Y-0.806
X96.928 Y-0.819
X95.323 Y-1.055
X95.243 Y-1.065
X93.632 Y-1.248
X93.552 Y-1.256
X91.937 Y-1.387
X91.857 Y-1.392
X90.239 Y-1.471
X90.159 Y-1.473
X88.54 Y-1.5
X88.459
X86.841 Y-1.473
X86.76 Y-1.471
X85.143 Y-1.392
X85.063 Y-1.387
X83.448 Y-1.256
X83.368 Y-1.248
X81.757 Y-1.065
X81.676 Y-1.055
X80.071 Y-0.819
X79.991 Y-0.806
X78.393 Y-0.518
X78.313 Y-0.503
X76.722 Y-0.162
X76.643 Y-0.144
X75.061 Y0.248
X74.982 Y0.269
X73.411 Y0.714
X73.333 Y0.738
X71.774 Y1.235
X71.696 Y1.261
X70.15 Y1.811
X70.073 Y1.839
X68.541 Y2.441
X68.465 Y2.473
X66.949 Y3.127
X66.873 Y3.161
X65.375 Y3.867
X65.3 Y3.904
X63.82 Y4.663
X63.759 Y4.695
X62.66 Y5.298
X62.612 Y5.325
X62.25 Y5.534
X61.888 Y5.743
X61.84 Y5.771
X60.769 Y6.421
X60.71 Y6.458
X59.313 Y7.361
X59.244 Y7.407
X57.883 Y8.352
X57.816 Y8.4
X56.491 Y9.386
X56.426 Y9.436
X55.139 Y10.461
X55.075 Y10.514
X53.827 Y11.578
X53.765 Y11.632
X52.555 Y12.734
X52.495 Y12.79
X51.325 Y13.928
X51.267 Y13.986
X50.136 Y15.159
X50.081 Y15.219
X48.991 Y16.426
X48.937 Y16.488
X47.888 Y17.728
X47.837 Y17.791
X46.83 Y19.064
X46.781 Y19.128
X45.817 Y20.431
X45.77 Y20.497
X44.85 Y21.83
X44.805 Y21.897
X43.928 Y23.258
X43.886 Y23.327
X43.054 Y24.715
X43.014 Y24.785
X42.227 Y26.2
X42.189 Y26.271
X41.448 Y27.711
X41.412 Y27.783
X40.719 Y29.247
X40.685 Y29.321
X40.038 Y30.807
X40.007 Y30.882
X39.409 Y32.39
X39.38 Y32.466
X38.83 Y33.994
X38.803 Y34.071
X38.303 Y35.619
X38.279 Y35.696
X37.828 Y37.262
X37.807 Y37.341
X37.406 Y38.924
X37.388 Y39.004
X37.039 Y40.603
X37.022 Y40.683
X36.725 Y42.297
X36.712 Y42.378
X36.467 Y44.006
X36.456 Y44.087
X36.265 Y45.727
X36.257 Y45.809
X36.119 Y47.461
X36.114 Y47.543
X36.031 Y49.205
X36.028 Y49.274
X36 Y50.527
Y50.582
Y541.001
G2 X38.5 Y543.501 I2.5 J0
G1 X63.5
G2 X66 Y541.001 I0 J-2.5
G1 Y100.819
X66.012 Y100.255
X66.05 Y99.501
X66.112 Y98.757
X66.198 Y98.02
X66.308 Y97.288
X66.442 Y96.561
X66.599 Y95.842
X66.779 Y95.13
X66.982 Y94.425
X67.207 Y93.729
X67.455 Y93.041
X67.724 Y92.362
X68.015 Y91.694
X68.327 Y91.035
X68.66 Y90.387
X69.015 Y89.75
X69.389 Y89.125
X69.783 Y88.513
X70.198 Y87.913
X70.632 Y87.327
X71.084 Y86.754
X71.556 Y86.196
X72.046 Y85.653
X72.555 Y85.125
X73.082 Y84.612
X73.627 Y84.117
X74.188 Y83.638
X74.767 Y83.177
X75.364 Y82.733
X75.976 Y82.308
X76.611 Y81.898
X77.093 Y81.605
X77.25 Y81.515
X77.407 Y81.424
X77.901 Y81.153
X78.574 Y80.808
X79.248 Y80.49
X79.93 Y80.196
X80.619 Y79.925
X81.315 Y79.678
X82.017 Y79.454
X82.723 Y79.254
X83.435 Y79.077
X84.151 Y78.924
X84.87 Y78.795
X85.592 Y78.689
X86.317 Y78.606
X87.044 Y78.548
X87.772 Y78.512
X88.5 Y78.5
X89.228 Y78.512
X89.956 Y78.548
X90.682 Y78.606
X91.407 Y78.689
X92.129 Y78.795
X92.849 Y78.924
X93.565 Y79.077
X94.276 Y79.254
X94.983 Y79.454
X95.685 Y79.678
X96.38 Y79.925
X97.069 Y80.196
X97.752 Y80.49
X98.425 Y80.808
X99.098 Y81.153
X99.594 Y81.425
X99.75 Y81.515
X99.906 Y81.605
X100.388 Y81.898
X101.024 Y82.308
X101.637 Y82.733
X102.232 Y83.176
X102.811 Y83.638
X103.374 Y84.117
X103.917 Y84.612
X104.444 Y85.125
X104.954 Y85.653
X105.444 Y86.196
X105.915 Y86.754
X106.368 Y87.326
X106.802 Y87.913
X107.216 Y88.513
X107.612 Y89.126
X107.986 Y89.75
X108.339 Y90.386
X108.672 Y91.035
X108.985 Y91.693
X109.276 Y92.363
X109.546 Y93.042
X109.793 Y93.728
X110.018 Y94.424
X110.22 Y95.13
X110.401 Y95.842
X110.558 Y96.561
X110.692 Y97.288
X110.802 Y98.02
X110.888 Y98.757
X110.949 Y99.5
X110.987 Y100.256
X111 Y100.819
Y541.001
G2 X113.33 Y543.495 I2.5 J0
G1 Z-12 F333.3
X113.5 Y543.501 F1000
X138.5
G2 X141 Y541.001 I0 J-2.5
G1 Y50.582
X140.999 Y50.527
X140.971 Y49.274
X140.969 Y49.205
X140.886 Y47.543
X140.88 Y47.461
X140.743 Y45.81
X140.735 Y45.726
X140.543 Y44.086
X140.532 Y44.007
X140.288 Y42.379
X140.274 Y42.296
X139.976 Y40.682
X139.96 Y40.603
X139.611 Y39.004
X139.593 Y38.925
X139.193 Y37.342
X139.171 Y37.262
X138.72 Y35.696
X138.697 Y35.62
X138.197 Y34.072
X138.17 Y33.993
X137.619 Y32.464
X137.591 Y32.391
X136.993 Y30.883
X136.961 Y30.806
X136.314 Y29.32
X136.281 Y29.247
X135.587 Y27.783
X135.551 Y27.711
X134.811 Y26.272
X134.773 Y26.199
X133.986 Y24.785
X133.945 Y24.715
X133.113 Y23.327
X133.071 Y23.259
X132.195 Y21.898
X132.15 Y21.829
X131.229 Y20.496
X131.182 Y20.431
X130.218 Y19.128
X130.169 Y19.064
X129.163 Y17.792
X129.111 Y17.728
X128.062 Y16.487
X128.009 Y16.426
X126.919 Y15.219
X126.863 Y15.159
X125.732 Y13.986
X125.675 Y13.929
X124.505 Y12.79
X124.445 Y12.734
X123.235 Y11.632
X123.173 Y11.578
X121.924 Y10.514
X121.861 Y10.461
X120.574 Y9.436
X120.508 Y9.385
X119.183 Y8.4
X119.117 Y8.352
X117.756 Y7.407
X117.687 Y7.361
X116.29 Y6.458
X116.231 Y6.421
X115.16 Y5.771
X115.111 Y5.742
X114.749 Y5.533
X114.387 Y5.324
X114.34 Y5.298
X113.241 Y4.695
X113.18 Y4.663
X111.7 Y3.904
X111.625 Y3.867
X110.126 Y3.161
X110.051 Y3.127
X108.535 Y2.473
X108.459 Y2.441
X106.928 Y1.84
X106.85 Y1.811
X105.304 Y1.261
X105.226 Y1.235
X103.666 Y0.738
X103.588 Y0.714
X102.017 Y0.269
X101.938 Y0.248
X100.357 Y-0.144
X100.278 Y-0.163
X98.687 Y-0.503
X98.607 Y-0.518
X97.008 Y-0.806
X96.928 Y-0.819
X95.323 Y-1.055
X95.243 Y-1.065
X93.632 Y-1.248
X93.552 Y-1.256
X91.937 Y-1.387
X91.857 Y-1.392
X90.239 Y-1.471
X90.159 Y-1.473
X88.54 Y-1.5
X88.459
X86.841 Y-1.473
X86.76 Y-1.471
X85.143 Y-1.392
X85.063 Y-1.387
X83.448 Y-1.256
X83.368 Y-1.248
X81.757 Y-1.065
X81.676 Y-1.055
X80.071 Y-0.819
X79.991 Y-0.806
X78.393 Y-0.518
X78.313 Y-0.503
X76.722 Y-0.162
X76.643 Y-0.144
X75.061 Y0.248
X74.982 Y0.269
X73.411 Y0.714
X73.333 Y0.738
X71.774 Y1.235
X71.696 Y1.261
X70.15 Y1.811
X70.073 Y1.839
X68.541 Y2.441
X68.465 Y2.473
X66.949 Y3.127
X66.873 Y3.161
X65.375 Y3.867
X65.3 Y3.904
X63.82 Y4.663
X63.759 Y4.695
X62.66 Y5.298
X62.612 Y5.325
X62.25 Y5.534
X61.888 Y5.743
X61.84 Y5.771
X60.769 Y6.421
X60.71 Y6.458
X59.313 Y7.361
X59.244 Y7.407
X57.883 Y8.352
X57.816 Y8.4
X56.491 Y9.386
X56.426 Y9.436
X55.139 Y10.461
X55.075 Y10.514
X53.827 Y11.578
X53.765 Y11.632
X52.555 Y12.734
X52.495 Y12.79
X51.325 Y13.928
X51.267 Y13.986
X50.136 Y15.159
X50.081 Y15.219
X48.991 Y16.426
X48.937 Y16.488
X47.888 Y17.728
X47.837 Y17.791
X46.83 Y19.064
X46.781 Y19.128
X45.817 Y20.431
X45.77 Y20.497
X44.85 Y21.83
X44.805 Y21.897
X43.928 Y23.258
X43.886 Y23.327
X43.054 Y24.715
X43.014 Y24.785
X42.227 Y26.2
X42.189 Y26.271
X41.448 Y27.711
X41.412 Y27.783
X40.719 Y29.247
X40.685 Y29.321
X40.038 Y30.807
X40.007 Y30.882
X39.409 Y32.39
X39.38 Y32.466
X38.83 Y33.994
X38.803 Y34.071
X38.303 Y35.619
X38.279 Y35.696
X37.828 Y37.262
X37.807 Y37.341
X37.406 Y38.924
X37.388 Y39.004
X37.039 Y40.603
X37.022 Y40.683
X36.725 Y42.297
X36.712 Y42.378
X36.467 Y44.006
X36.456 Y44.087
X36.265 Y45.727
X36.257 Y45.809
X36.119 Y47.461
X36.114 Y47.543
X36.031 Y49.205
X36.028 Y49.274
X36 Y50.527
Y50.582
Y541.001
G2 X38.5 Y543.501 I2.5 J0
G1 X63.5
G2 X66 Y541.001 I0 J-2.5
G1 Y100.819
X66.012 Y100.255
X66.05 Y99.501
X66.112 Y98.757
X66.198 Y98.02
X66.308 Y97.288
X66.442 Y96.561
X66.599 Y95.842
X66.779 Y95.13
X66.982 Y94.425
X67.207 Y93.729
X67.455 Y93.041
X67.724 Y92.362
X68.015 Y91.694
X68.327 Y91.035
X68.66 Y90.387
X69.015 Y89.75
X69.389 Y89.125
X69.783 Y88.513
X70.198 Y87.913
X70.632 Y87.327
X71.084 Y86.754
X71.556 Y86.196
X72.046 Y85.653
X72.555 Y85.125
X73.082 Y84.612
X73.627 Y84.117
X74.188 Y83.638
X74.767 Y83.177
X75.364 Y82.733
X75.976 Y82.308
X76.611 Y81.898
X77.093 Y81.605
X77.25 Y81.515
X77.407 Y81.424
X77.901 Y81.153
X78.574 Y80.808
X79.248 Y80.49
X79.93 Y80.196
X80.619 Y79.925
X81.315 Y79.678
X82.017 Y79.454
X82.723 Y79.254
X83.435 Y79.077
X84.151 Y78.924
X84.87 Y78.795
X85.592 Y78.689
X86.317 Y78.606
X87.044 Y78.548
X87.772 Y78.512
X88.5 Y78.5
X89.228 Y78.512
X89.956 Y78.548
X90.682 Y78.606
X91.407 Y78.689
X92.129 Y78.795
X92.849 Y78.924
X93.565 Y79.077
X94.276 Y79.254
X94.983 Y79.454
X95.685 Y79.678
X96.38 Y79.925
X97.069 Y80.196
X97.752 Y80.49
X98.425 Y80.808
X99.098 Y81.153
X99.594 Y81.425
X99.75 Y81.515
X99.906 Y81.605
X100.388 Y81.898
X101.024 Y82.308
X101.637 Y82.733
X102.232 Y83.176
X102.811 Y83.638
X103.374 Y84.117
X103.917 Y84.612
X104.444 Y85.125
X104.954 Y85.653
X105.444 Y86.196
X105.915 Y86.754
X106.368 Y87.326
X106.802 Y87.913
X107.216 Y88.513
X107.612 Y89.126
X107.986 Y89.75
X108.339 Y90.386
X108.672 Y91.035
X108.985 Y91.693
X109.276 Y92.363
X109.546 Y93.042
X109.793 Y93.728
X110.018 Y94.424
X110.22 Y95.13
X110.401 Y95.842
X110.558 Y96.561
X110.692 Y97.288
X110.802 Y98.02
X110.888 Y98.757
X110.949 Y99.5
X110.987 Y100.256
X111 Y100.819
Y541.001
G2 X113.33 Y543.495 I2.5 J0
G1 Z-16 F333.3
X113.5 Y543.501 F1000
X138.5
G2 X141 Y541.001 I0 J-2.5
G1 Y50.582
X140.999 Y50.527
X140.971 Y49.274
X140.969 Y49.205
X140.886 Y47.543
X140.88 Y47.461
X140.743 Y45.81
X140.735 Y45.726
X140.543 Y44.086
X140.532 Y44.007
X140.288 Y42.379
X140.274 Y42.296
X139.976 Y40.682
X139.96 Y40.603
X139.611 Y39.004
X139.593 Y38.925
X139.193 Y37.342
X139.171 Y37.262
X138.72 Y35.696
X138.697 Y35.62
X138.197 Y34.072
X138.17 Y33.993
X137.619 Y32.464
X137.591 Y32.391
X136.993 Y30.883
X136.961 Y30.806
X136.314 Y29.32
X136.281 Y29.247
X135.587 Y27.783
X135.551 Y27.711
X134.811 Y26.272
X134.773 Y26.199
X133.986 Y24.785
X133.945 Y24.715
X133.113 Y23.327
X133.071 Y23.259
X132.195 Y21.898
X132.15 Y21.829
X131.229 Y20.496
X131.182 Y20.431
X130.218 Y19.128
X130.169 Y19.064
X129.163 Y17.792
X129.111 Y17.728
X128.062 Y16.487
X128.009 Y16.426
X126.919 Y15.219
X126.863 Y15.159
X125.732 Y13.986
X125.675 Y13.929
X124.505 Y12.79
X124.445 Y12.734
X123.235 Y11.632
X123.173 Y11.578
X121.924 Y10.514
X121.861 Y10.461
X120.574 Y9.436
X120.508 Y9.385
X119.183 Y8.4
X119.117 Y8.352
X117.756 Y7.407
X117.687 Y7.361
X116.29 Y6.458
X116.231 Y6.421
X115.16 Y5.771
X115.111 Y5.742
X114.749 Y5.533
X114.387 Y5.324
X114.34 Y5.298
X113.241 Y4.695
X113.18 Y4.663
X111.7 Y3.904
X111.625 Y3.867
X110.126 Y3.161
X110.051 Y3.127
X108.535 Y2.473
X108.459 Y2.441
X106.928 Y1.84
X106.85 Y1.811
X105.304 Y1.261
X105.226 Y1.235
X103.666 Y0.738
X103.588 Y0.714
X102.017 Y0.269
X101.938 Y0.248
X100.357 Y-0.144
X100.278 Y-0.163
X98.687 Y-0.503
X98.607 Y-0.518
X97.008 Y-0.806
X96.928 Y-0.819
X95.323 Y-1.055
X95.243 Y-1.065
X93.632 Y-1.248
X93.552 Y-1.256
X91.937 Y-1.387
X91.857 Y-1.392
X90.239 Y-1.471
X90.159 Y-1.473
X88.54 Y-1.5
X88.459
X86.841 Y-1.473
X86.76 Y-1.471
X85.143 Y-1.392
X85.063 Y-1.387
X83.448 Y-1.256
X83.368 Y-1.248
X81.757 Y-1.065
X81.676 Y-1.055
X80.071 Y-0.819
X79.991 Y-0.806
X78.393 Y-0.518
X78.313 Y-0.503
X76.722 Y-0.162
X76.643 Y-0.144
X75.061 Y0.248
X74.982 Y0.269
X73.411 Y0.714
X73.333 Y0.738
X71.774 Y1.235
X71.696 Y1.261
X70.15 Y1.811
X70.073 Y1.839
X68.541 Y2.441
X68.465 Y2.473
X66.949 Y3.127
X66.873 Y3.161
X65.375 Y3.867
X65.3 Y3.904
X63.82 Y4.663
X63.759 Y4.695
X62.66 Y5.298
X62.612 Y5.325
X62.25 Y5.534
X61.888 Y5.743
X61.84 Y5.771
X60.769 Y6.421
X60.71 Y6.458
X59.313 Y7.361
X59.244 Y7.407
X57.883 Y8.352
X57.816 Y8.4
X56.491 Y9.386
X56.426 Y9.436
X55.139 Y10.461
X55.075 Y10.514
X53.827 Y11.578
X53.765 Y11.632
X52.555 Y12.734
X52.495 Y12.79
X51.325 Y13.928
X51.267 Y13.986
X50.136 Y15.159
X50.081 Y15.219
X48.991 Y16.426
X48.937 Y16.488
X47.888 Y17.728
X47.837 Y17.791
X46.83 Y19.064
X46.781 Y19.128
X45.817 Y20.431
X45.77 Y20.497
X44.85 Y21.83
X44.805 Y21.897
X43.928 Y23.258
X43.886 Y23.327
X43.054 Y24.715
X43.014 Y24.785
X42.227 Y26.2
X42.189 Y26.271
X41.448 Y27.711
X41.412 Y27.783
X40.719 Y29.247
X40.685 Y29.321
X40.038 Y30.807
X40.007 Y30.882
X39.409 Y32.39
X39.38 Y32.466
X38.83 Y33.994
X38.803 Y34.071
X38.303 Y35.619
X38.279 Y35.696
X37.828 Y37.262
X37.807 Y37.341
X37.406 Y38.924
X37.388 Y39.004
X37.039 Y40.603
X37.022 Y40.683
X36.725 Y42.297
X36.712 Y42.378
X36.467 Y44.006
X36.456 Y44.087
X36.265 Y45.727
X36.257 Y45.809
X36.119 Y47.461
X36.114 Y47.543
X36.031 Y49.205
X36.028 Y49.274
X36 Y50.527
Y50.582
Y541.001
G2 X38.5 Y543.501 I2.5 J0
G1 X63.5
G2 X66 Y541.001 I0 J-2.5
G1 Y100.819
X66.012 Y100.255
X66.05 Y99.501
X66.112 Y98.757
X66.198 Y98.02
X66.308 Y97.288
X66.442 Y96.561
X66.599 Y95.842
X66.779 Y95.13
X66.982 Y94.425
X67.207 Y93.729
X67.455 Y93.041
X67.724 Y92.362
X68.015 Y91.694
X68.327 Y91.035
X68.66 Y90.387
X69.015 Y89.75
X69.389 Y89.125
X69.783 Y88.513
X70.198 Y87.913
X70.632 Y87.327
X71.084 Y86.754
X71.556 Y86.196
X72.046 Y85.653
X72.555 Y85.125
X73.082 Y84.612
X73.627 Y84.117
X74.188 Y83.638
X74.767 Y83.177
X75.364 Y82.733
X75.976 Y82.308
X76.611 Y81.898
X77.093 Y81.605
X77.25 Y81.515
X77.407 Y81.424
X77.901 Y81.153
X78.574 Y80.808
X79.248 Y80.49
X79.93 Y80.196
X80.619 Y79.925
X81.315 Y79.678
X82.017 Y79.454
X82.723 Y79.254
X83.435 Y79.077
X84.151 Y78.924
X84.87 Y78.795
X85.592 Y78.689
X86.317 Y78.606
X87.044 Y78.548
X87.772 Y78.512
X88.5 Y78.5
X89.228 Y78.512
X89.956 Y78.548
X90.682 Y78.606
X91.407 Y78.689
X92.129 Y78.795
X92.849 Y78.924
X93.565 Y79.077
X94.276 Y79.254
X94.983 Y79.454
X95.685 Y79.678
X96.38 Y79.925
X97.069 Y80.196
X97.752 Y80.49
X98.425 Y80.808
X99.098 Y81.153
X99.594 Y81.425
X99.75 Y81.515
X99.906 Y81.605
X100.388 Y81.898
X101.024 Y82.308
X101.637 Y82.733
X102.232 Y83.176
X102.811 Y83.638
X103.374 Y84.117
X103.917 Y84.612
X104.444 Y85.125
X104.954 Y85.653
X105.444 Y86.196
X105.915 Y86.754
X106.368 Y87.326
X106.802 Y87.913
X107.216 Y88.513
X107.612 Y89.126
X107.986 Y89.75
X108.339 Y90.386
X108.672 Y91.035
X108.985 Y91.693
X109.276 Y92.363
X109.546 Y93.042
X109.793 Y93.728
X110.018 Y94.424
X110.22 Y95.13
X110.401 Y95.842
X110.558 Y96.561
X110.692 Y97.288
X110.802 Y98.02
X110.888 Y98.757
X110.949 Y99.5
X110.987 Y100.256
X111 Y100.819
Y541.001
G2 X113.33 Y543.495 I2.5 J0
G1 Z-20 F333.3
X113.5 Y543.501 F1000
X138.5
G2 X141 Y541.001 I0 J-2.5
G1 Y50.582
X140.999 Y50.527
X140.971 Y49.274
X140.969 Y49.205
X140.886 Y47.543
X140.88 Y47.461
X140.743 Y45.81
X140.735 Y45.726
X140.543 Y44.086
X140.532 Y44.007
X140.288 Y42.379
X140.274 Y42.296
X139.976 Y40.682
X139.96 Y40.603
X139.611 Y39.004
X139.593 Y38.925
X139.193 Y37.342
X139.171 Y37.262
X138.72 Y35.696
X138.697 Y35.62
X138.197 Y34.072
X138.17 Y33.993
X137.619 Y32.464
X137.591 Y32.391
X136.993 Y30.883
X136.961 Y30.806
X136.314 Y29.32
X136.281 Y29.247
X135.587 Y27.783
X135.551 Y27.711
X134.811 Y26.272
X134.773 Y26.199
X133.986 Y24.785
X133.945 Y24.715
X133.113 Y23.327
X133.071 Y23.259
X132.195 Y21.898
X132.15 Y21.829
X131.229 Y20.496
X131.182 Y20.431
X130.218 Y19.128
X130.169 Y19.064
X129.163 Y17.792
X129.111 Y17.728
X128.062 Y16.487
X128.009 Y16.426
X126.919 Y15.219
X126.863 Y15.159
X125.732 Y13.986
X125.675 Y13.929
X124.505 Y12.79
X124.445 Y12.734
X123.235 Y11.632
X123.173 Y11.578
X121.924 Y10.514
X121.861 Y10.461
X120.574 Y9.436
X120.508 Y9.385
X119.183 Y8.4
X119.117 Y8.352
X117.756 Y7.407
X117.687 Y7.361
X116.29 Y6.458
X116.231 Y6.421
X115.16 Y5.771
X115.111 Y5.742
X114.749 Y5.533
X114.387 Y5.324
X114.34 Y5.298
X113.241 Y4.695
X113.18 Y4.663
X111.7 Y3.904
X111.625 Y3.867
X110.126 Y3.161
X110.051 Y3.127
X108.535 Y2.473
X108.459 Y2.441
X106.928 Y1.84
X106.85 Y1.811
X105.304 Y1.261
X105.226 Y1.235
X103.666 Y0.738
X103.588 Y0.714
X102.017 Y0.269
X101.938 Y0.248
X100.357 Y-0.144
X100.278 Y-0.163
X98.687 Y-0.503
X98.607 Y-0.518
X97.008 Y-0.806
X96.928 Y-0.819
X95.323 Y-1.055
X95.243 Y-1.065
X93.632 Y-1.248
X93.552 Y-1.256
X91.937 Y-1.387
X91.857 Y-1.392
X90.239 Y-1.471
X90.159 Y-1.473
X88.54 Y-1.5
X88.459
X86.841 Y-1.473
X86.76 Y-1.471
X85.143 Y-1.392
X85.063 Y-1.387
X83.448 Y-1.256
X83.368 Y-1.248
X81.757 Y-1.065
X81.676 Y-1.055
X80.071 Y-0.819
X79.991 Y-0.806
X78.393 Y-0.518
X78.313 Y-0.503
X76.722 Y-0.162
X76.643 Y-0.144
X75.061 Y0.248
X74.982 Y0.269
X73.411 Y0.714
X73.333 Y0.738
X71.774 Y1.235
X71.696 Y1.261
X70.15 Y1.811
X70.073 Y1.839
X68.541 Y2.441
X68.465 Y2.473
X66.949 Y3.127
X66.873 Y3.161
X65.375 Y3.867
X65.3 Y3.904
X63.82 Y4.663
X63.759 Y4.695
X62.66 Y5.298
X62.612 Y5.325
X62.25 Y5.534
X61.888 Y5.743
X61.84 Y5.771
X60.769 Y6.421
X60.71 Y6.458
X59.313 Y7.361
X59.244 Y7.407
X57.883 Y8.352
X57.816 Y8.4
X56.491 Y9.386
X56.426 Y9.436
X55.139 Y10.461
X55.075 Y10.514
X53.827 Y11.578
X53.765 Y11.632
X52.555 Y12.734
X52.495 Y12.79
X51.325 Y13.928
X51.267 Y13.986
X50.136 Y15.159
X50.081 Y15.219
X48.991 Y16.426
X48.937 Y16.488
X47.888 Y17.728
X47.837 Y17.791
X46.83 Y19.064
X46.781 Y19.128
X45.817 Y20.431
X45.77 Y20.497
X44.85 Y21.83
X44.805 Y21.897
X43.928 Y23.258
X43.886 Y23.327
X43.054 Y24.715
X43.014 Y24.785
X42.227 Y26.2
X42.189 Y26.271
X41.448 Y27.711
X41.412 Y27.783
X40.719 Y29.247
X40.685 Y29.321
X40.038 Y30.807
X40.007 Y30.882
X39.409 Y32.39
X39.38 Y32.466
X38.83 Y33.994
X38.803 Y34.071
X38.303 Y35.619
X38.279 Y35.696
X37.828 Y37.262
X37.807 Y37.341
X37.406 Y38.924
X37.388 Y39.004
X37.039 Y40.603
X37.022 Y40.683
X36.725 Y42.297
X36.712 Y42.378
X36.467 Y44.006
X36.456 Y44.087
X36.265 Y45.727
X36.257 Y45.809
X36.119 Y47.461
X36.114 Y47.543
X36.031 Y49.205
X36.028 Y49.274
X36 Y50.527
Y50.582
Y541.001
G2 X38.5 Y543.501 I2.5 J0
G1 X63.5
G2 X66 Y541.001 I0 J-2.5
G1 Y100.819
X66.012 Y100.255
X66.05 Y99.501
X66.112 Y98.757
X66.198 Y98.02
X66.308 Y97.288
X66.442 Y96.561
X66.599 Y95.842
X66.779 Y95.13
X66.982 Y94.425
X67.207 Y93.729
X67.455 Y93.041
X67.724 Y92.362
X68.015 Y91.694
X68.327 Y91.035
X68.66 Y90.387
X69.015 Y89.75
X69.389 Y89.125
X69.783 Y88.513
X70.198 Y87.913
X70.632 Y87.327
X71.084 Y86.754
X71.556 Y86.196
X72.046 Y85.653
X72.555 Y85.125
X73.082 Y84.612
X73.627 Y84.117
X74.188 Y83.638
X74.767 Y83.177
X75.364 Y82.733
X75.976 Y82.308
X76.611 Y81.898
X77.093 Y81.605
X77.25 Y81.515
X77.407 Y81.424
X77.901 Y81.153
X78.574 Y80.808
X79.248 Y80.49
X79.93 Y80.196
X80.619 Y79.925
X81.315 Y79.678
X82.017 Y79.454
X82.723 Y79.254
X83.435 Y79.077
X84.151 Y78.924
X84.87 Y78.795
X85.592 Y78.689
X86.317 Y78.606
X87.044 Y78.548
X87.772 Y78.512
X88.5 Y78.5
X89.228 Y78.512
X89.956 Y78.548
X90.682 Y78.606
X91.407 Y78.689
X92.129 Y78.795
X92.849 Y78.924
X93.565 Y79.077
X94.276 Y79.254
X94.983 Y79.454
X95.685 Y79.678
X96.38 Y79.925
X97.069 Y80.196
X97.752 Y80.49
X98.425 Y80.808
X99.098 Y81.153
X99.594 Y81.425
X99.75 Y81.515
X99.906 Y81.605
X100.388 Y81.898
X101.024 Y82.308
X101.637 Y82.733
X102.232 Y83.176
X102.811 Y83.638
X103.374 Y84.117
X103.917 Y84.612
X104.444 Y85.125
X104.954 Y85.653
X105.444 Y86.196
X105.915 Y86.754
X106.368 Y87.326
X106.802 Y87.913
X107.216 Y88.513
X107.612 Y89.126
X107.986 Y89.75
X108.339 Y90.386
X108.672 Y91.035
X108.985 Y91.693
X109.276 Y92.363
X109.546 Y93.042
X109.793 Y93.728
X110.018 Y94.424
X110.22 Y95.13
X110.401 Y95.842
X110.558 Y96.561
X110.692 Y97.288
X110.802 Y98.02
X110.888 Y98.757
X110.949 Y99.5
X110.987 Y100.256
X111 Y100.819
Y541.001
G2 X113.33 Y543.495 I2.5 J0
G1 Z-24 F333.3
X113.5 Y543.501 F1000
X138.5
G2 X141 Y541.001 I0 J-2.5
G1 Y50.582
X140.999 Y50.527
X140.971 Y49.274
X140.969 Y49.205
X140.886 Y47.543
X140.88 Y47.461
X140.743 Y45.81
X140.735 Y45.726
X140.543 Y44.086
X140.532 Y44.007
X140.288 Y42.379
X140.274 Y42.296
X139.976 Y40.682
X139.96 Y40.603
X139.611 Y39.004
X139.593 Y38.925
X139.193 Y37.342
X139.171 Y37.262
X138.72 Y35.696
X138.697 Y35.62
X138.197 Y34.072
X138.17 Y33.993
X137.619 Y32.464
X137.591 Y32.391
X136.993 Y30.883
X136.961 Y30.806
X136.314 Y29.32
X136.281 Y29.247
X135.587 Y27.783
X135.551 Y27.711
X134.811 Y26.272
X134.773 Y26.199
X133.986 Y24.785
X133.945 Y24.715
X133.113 Y23.327
X133.071 Y23.259
X132.195 Y21.898
X132.15 Y21.829
X131.229 Y20.496
X131.182 Y20.431
X130.218 Y19.128
X130.169 Y19.064
X129.163 Y17.792
X129.111 Y17.728
X128.062 Y16.487
X128.009 Y16.426
X126.919 Y15.219
X126.863 Y15.159
X125.732 Y13.986
X125.675 Y13.929
X124.505 Y12.79
X124.445 Y12.734
X123.235 Y11.632
X123.173 Y11.578
X121.924 Y10.514
X121.861 Y10.461
X120.574 Y9.436
X120.508 Y9.385
X119.183 Y8.4
X119.117 Y8.352
X117.756 Y7.407
X117.687 Y7.361
X116.29 Y6.458
X116.231 Y6.421
X115.16 Y5.771
X115.111 Y5.742
X114.749 Y5.533
X114.387 Y5.324
X114.34 Y5.298
X113.241 Y4.695
X113.18 Y4.663
X111.7 Y3.904
X111.625 Y3.867
X110.126 Y3.161
X110.051 Y3.127
X108.535 Y2.473
X108.459 Y2.441
X106.928 Y1.84
X106.85 Y1.811
X105.304 Y1.261
X105.226 Y1.235
X103.666 Y0.738
X103.588 Y0.714
X102.017 Y0.269
X101.938 Y0.248
X100.357 Y-0.144
X100.278 Y-0.163
X98.687 Y-0.503
X98.607 Y-0.518
X97.008 Y-0.806
X96.928 Y-0.819
X95.323 Y-1.055
X95.243 Y-1.065
X93.632 Y-1.248
X93.552 Y-1.256
X91.937 Y-1.387
X91.857 Y-1.392
X90.239 Y-1.471
X90.159 Y-1.473
X88.54 Y-1.5
X88.459
X86.841 Y-1.473
X86.76 Y-1.471
X85.143 Y-1.392
X85.063 Y-1.387
X83.448 Y-1.256
X83.368 Y-1.248
X81.757 Y-1.065
X81.676 Y-1.055
X80.071 Y-0.819
X79.991 Y-0.806
X78.393 Y-0.518
X78.313 Y-0.503
X76.722 Y-0.162
X76.643 Y-0.144
X75.061 Y0.248
X74.982 Y0.269
X73.411 Y0.714
X73.333 Y0.738
X71.774 Y1.235
X71.696 Y1.261
X70.15 Y1.811
X70.073 Y1.839
X68.541 Y2.441
X68.465 Y2.473
X66.949 Y3.127
X66.873 Y3.161
X65.375 Y3.867
X65.3 Y3.904
X63.82 Y4.663
X63.759 Y4.695
X62.66 Y5.298
X62.612 Y5.325
X62.25 Y5.534
X61.888 Y5.743
X61.84 Y5.771
X60.769 Y6.421
X60.71 Y6.458
X59.313 Y7.361
X59.244 Y7.407
X57.883 Y8.352
X57.816 Y8.4
X56.491 Y9.386
X56.426 Y9.436
X55.139 Y10.461
X55.075 Y10.514
X53.827 Y11.578
X53.765 Y11.632
X52.555 Y12.734
X52.495 Y12.79
X51.325 Y13.928
X51.267 Y13.986
X50.136 Y15.159
X50.081 Y15.219
X48.991 Y16.426
X48.937 Y16.488
X47.888 Y17.728
X47.837 Y17.791
X46.83 Y19.064
X46.781 Y19.128
X45.817 Y20.431
X45.77 Y20.497
X44.85 Y21.83
X44.805 Y21.897
X43.928 Y23.258
X43.886 Y23.327
X43.054 Y24.715
X43.014 Y24.785
X42.227 Y26.2
X42.189 Y26.271
X41.448 Y27.711
X41.412 Y27.783
X40.719 Y29.247
X40.685 Y29.321
X40.038 Y30.807
X40.007 Y30.882
X39.409 Y32.39
X39.38 Y32.466
X38.83 Y33.994
X38.803 Y34.071
X38.303 Y35.619
X38.279 Y35.696
X37.828 Y37.262
X37.807 Y37.341
X37.406 Y38.924
X37.388 Y39.004
X37.039 Y40.603
X37.022 Y40.683
X36.725 Y42.297
X36.712 Y42.378
X36.467 Y44.006
X36.456 Y44.087
X36.265 Y45.727
X36.257 Y45.809
X36.119 Y47.461
X36.114 Y47.543
X36.031 Y49.205
X36.028 Y49.274
X36 Y50.527
Y50.582
Y541.001
G2 X38.5 Y543.501 I2.5 J0
G1 X63.5
G2 X66 Y541.001 I0 J-2.5
G1 Y100.819
X66.012 Y100.255
X66.05 Y99.501
X66.112 Y98.757
X66.198 Y98.02
X66.308 Y97.288
X66.442 Y96.561
X66.599 Y95.842
X66.779 Y95.13
X66.982 Y94.425
X67.207 Y93.729
X67.455 Y93.041
X67.724 Y92.362
X68.015 Y91.694
X68.327 Y91.035
X68.66 Y90.387
X69.015 Y89.75
X69.389 Y89.125
X69.783 Y88.513
X70.198 Y87.913
X70.632 Y87.327
X71.084 Y86.754
X71.556 Y86.196
X72.046 Y85.653
X72.555 Y85.125
X73.082 Y84.612
X73.627 Y84.117
X74.188 Y83.638
X74.767 Y83.177
X75.364 Y82.733
X75.976 Y82.308
X76.611 Y81.898
X77.093 Y81.605
X77.25 Y81.515
X77.407 Y81.424
X77.901 Y81.153
X78.574 Y80.808
X79.248 Y80.49
X79.93 Y80.196
X80.619 Y79.925
X81.315 Y79.678
X82.017 Y79.454
X82.723 Y79.254
X83.435 Y79.077
X84.151 Y78.924
X84.87 Y78.795
X85.592 Y78.689
X86.317 Y78.606
X87.044 Y78.548
X87.772 Y78.512
X88.5 Y78.5
X89.228 Y78.512
X89.956 Y78.548
X90.682 Y78.606
X91.407 Y78.689
X92.129 Y78.795
X92.849 Y78.924
X93.565 Y79.077
X94.276 Y79.254
X94.983 Y79.454
X95.685 Y79.678
X96.38 Y79.925
X97.069 Y80.196
X97.752 Y80.49
X98.425 Y80.808
X99.098 Y81.153
X99.594 Y81.425
X99.75 Y81.515
X99.906 Y81.605
X100.388 Y81.898
X101.024 Y82.308
X101.637 Y82.733
X102.232 Y83.176
X102.811 Y83.638
X103.374 Y84.117
X103.917 Y84.612
X104.444 Y85.125
X104.954 Y85.653
X105.444 Y86.196
X105.915 Y86.754
X106.368 Y87.326
X106.802 Y87.913
X107.216 Y88.513
X107.612 Y89.126
X107.986 Y89.75
X108.339 Y90.386
X108.672 Y91.035
X108.985 Y91.693
X109.276 Y92.363
X109.546 Y93.042
X109.793 Y93.728
X110.018 Y94.424
X110.22 Y95.13
X110.401 Y95.842
X110.558 Y96.561
X110.692 Y97.288
X110.802 Y98.02
X110.888 Y98.757
X110.949 Y99.5
X110.987 Y100.256
X111 Y100.819
Y541.001
G2 X113.33 Y543.495 I2.5 J0
G1 Z-28 F333.3
X113.5 Y543.501 F1000
X138.5
G2 X141 Y541.001 I0 J-2.5
G1 Y50.582
X140.999 Y50.527
X140.971 Y49.274
X140.969 Y49.205
X140.886 Y47.543
X140.88 Y47.461
X140.743 Y45.81
X140.735 Y45.726
X140.543 Y44.086
X140.532 Y44.007
X140.288 Y42.379
X140.274 Y42.296
X139.976 Y40.682
X139.96 Y40.603
X139.611 Y39.004
X139.593 Y38.925
X139.193 Y37.342
X139.171 Y37.262
X138.72 Y35.696
X138.697 Y35.62
X138.197 Y34.072
X138.17 Y33.993
X137.619 Y32.464
X137.591 Y32.391
X136.993 Y30.883
X136.961 Y30.806
X136.314 Y29.32
X136.281 Y29.247
X135.587 Y27.783
X135.551 Y27.711
X134.811 Y26.272
X134.773 Y26.199
X133.986 Y24.785
X133.945 Y24.715
X133.113 Y23.327
X133.071 Y23.259
X132.195 Y21.898
X132.15 Y21.829
X131.229 Y20.496
X131.182 Y20.431
X130.218 Y19.128
X130.169 Y19.064
X129.163 Y17.792
X129.111 Y17.728
X128.062 Y16.487
X128.009 Y16.426
X126.919 Y15.219
X126.863 Y15.159
X125.732 Y13.986
X125.675 Y13.929
X124.505 Y12.79
X124.445 Y12.734
X123.235 Y11.632
X123.173 Y11.578
X121.924 Y10.514
X121.861 Y10.461
X120.574 Y9.436
X120.508 Y9.385
X119.183 Y8.4
X119.117 Y8.352
X117.756 Y7.407
X117.687 Y7.361
X116.29 Y6.458
X116.231 Y6.421
X115.16 Y5.771
X115.111 Y5.742
X114.749 Y5.533
X114.387 Y5.324
X114.34 Y5.298
X113.241 Y4.695
X113.18 Y4.663
X111.7 Y3.904
X111.625 Y3.867
X110.126 Y3.161
X110.051 Y3.127
X108.535 Y2.473
X108.459 Y2.441
X106.928 Y1.84
X106.85 Y1.811
X105.304 Y1.261
X105.226 Y1.235
X103.666 Y0.738
X103.588 Y0.714
X102.017 Y0.269
X101.938 Y0.248
X100.357 Y-0.144
X100.278 Y-0.163
X98.687 Y-0.503
X98.607 Y-0.518
X97.008 Y-0.806
X96.928 Y-0.819
X95.323 Y-1.055
X95.243 Y-1.065
X93.632 Y-1.248
X93.552 Y-1.256
X91.937 Y-1.387
X91.857 Y-1.392
X90.239 Y-1.471
X90.159 Y-1.473
X88.54 Y-1.5
X88.459
X86.841 Y-1.473
X86.76 Y-1.471
X85.143 Y-1.392
X85.063 Y-1.387
X83.448 Y-1.256
X83.368 Y-1.248
X81.757 Y-1.065
X81.676 Y-1.055
X80.071 Y-0.819
X79.991 Y-0.806
X78.393 Y-0.518
X78.313 Y-0.503
X76.722 Y-0.162
X76.643 Y-0.144
X75.061 Y0.248
X74.982 Y0.269
X73.411 Y0.714
X73.333 Y0.738
X71.774 Y1.235
X71.696 Y1.261
X70.15 Y1.811
X70.073 Y1.839
X68.541 Y2.441
X68.465 Y2.473
X66.949 Y3.127
X66.873 Y3.161
X65.375 Y3.867
X65.3 Y3.904
X63.82 Y4.663
X63.759 Y4.695
X62.66 Y5.298
X62.612 Y5.325
X62.25 Y5.534
X61.888 Y5.743
X61.84 Y5.771
X60.769 Y6.421
X60.71 Y6.458
X59.313 Y7.361
X59.244 Y7.407
X57.883 Y8.352
X57.816 Y8.4
X56.491 Y9.386
X56.426 Y9.436
X55.139 Y10.461
X55.075 Y10.514
X53.827 Y11.578
X53.765 Y11.632
X52.555 Y12.734
X52.495 Y12.79
X51.325 Y13.928
X51.267 Y13.986
X50.136 Y15.159
X50.081 Y15.219
X48.991 Y16.426
X48.937 Y16.488
X47.888 Y17.728
X47.837 Y17.791
X46.83 Y19.064
X46.781 Y19.128
X45.817 Y20.431
X45.77 Y20.497
X44.85 Y21.83
X44.805 Y21.897
X43.928 Y23.258
X43.886 Y23.327
X43.054 Y24.715
X43.014 Y24.785
X42.227 Y26.2
X42.189 Y26.271
X41.448 Y27.711
X41.412 Y27.783
X40.719 Y29.247
X40.685 Y29.321
X40.038 Y30.807
X40.007 Y30.882
X39.409 Y32.39
X39.38 Y32.466
X38.83 Y33.994
X38.803 Y34.071
X38.303 Y35.619
X38.279 Y35.696
X37.828 Y37.262
X37.807 Y37.341
X37.406 Y38.924
X37.388 Y39.004
X37.039 Y40.603
X37.022 Y40.683
X36.725 Y42.297
X36.712 Y42.378
X36.467 Y44.006
X36.456 Y44.087
X36.265 Y45.727
X36.257 Y45.809
X36.119 Y47.461
X36.114 Y47.543
X36.031 Y49.205
X36.028 Y49.274
X36 Y50.527
Y50.582
Y541.001
G2 X38.5 Y543.501 I2.5 J0
G1 X63.5
G2 X66 Y541.001 I0 J-2.5
G1 Y100.819
X66.012 Y100.255
X66.05 Y99.501
X66.112 Y98.757
X66.198 Y98.02
X66.308 Y97.288
X66.442 Y96.561
X66.599 Y95.842
X66.779 Y95.13
X66.982 Y94.425
X67.207 Y93.729
X67.455 Y93.041
X67.724 Y92.362
X68.015 Y91.694
X68.327 Y91.035
X68.66 Y90.387
X69.015 Y89.75
X69.389 Y89.125
X69.783 Y88.513
X70.198 Y87.913
X70.632 Y87.327
X71.084 Y86.754
X71.556 Y86.196
X72.046 Y85.653
X72.555 Y85.125
X73.082 Y84.612
X73.627 Y84.117
X74.188 Y83.638
X74.767 Y83.177
X75.364 Y82.733
X75.976 Y82.308
X76.611 Y81.898
X77.093 Y81.605
X77.25 Y81.515
X77.407 Y81.424
X77.901 Y81.153
X78.574 Y80.808
X79.248 Y80.49
X79.93 Y80.196
X80.619 Y79.925
X81.315 Y79.678
X82.017 Y79.454
X82.723 Y79.254
X83.435 Y79.077
X84.151 Y78.924
X84.87 Y78.795
X85.592 Y78.689
X86.317 Y78.606
X87.044 Y78.548
X87.772 Y78.512
X88.5 Y78.5
X89.228 Y78.512
X89.956 Y78.548
X90.682 Y78.606
X91.407 Y78.689
X92.129 Y78.795
X92.849 Y78.924
X93.565 Y79.077
X94.276 Y79.254
X94.983 Y79.454
X95.685 Y79.678
X96.38 Y79.925
X97.069 Y80.196
X97.752 Y80.49
X98.425 Y80.808
X99.098 Y81.153
X99.594 Y81.425
X99.75 Y81.515
X99.906 Y81.605
X100.388 Y81.898
X101.024 Y82.308
X101.637 Y82.733
X102.232 Y83.176
X102.811 Y83.638
X103.374 Y84.117
X103.917 Y84.612
X104.444 Y85.125
X104.954 Y85.653
X105.444 Y86.196
X105.915 Y86.754
X106.368 Y87.326
X106.802 Y87.913
X107.216 Y88.513
X107.612 Y89.126
X107.986 Y89.75
X108.339 Y90.386
X108.672 Y91.035
X108.985 Y91.693
X109.276 Y92.363
X109.546 Y93.042
X109.793 Y93.728
X110.018 Y94.424
X110.22 Y95.13
X110.401 Y95.842
X110.558 Y96.561
X110.692 Y97.288
X110.802 Y98.02
X110.888 Y98.757
X110.949 Y99.5
X110.987 Y100.256
X111 Y100.819
Y541.001
G2 X113.33 Y543.495 I2.5 J0
G1 Z5
G0 Z15

M9
M5
M30
