(PferdeckeLufter_04)
(T4 D=5 CR=0 - ZMIN=-28 - flat end mill)
G90 G94
G17
G21
(-Attention- Property Safe Retracts is set to Clearance Height.)
(Ensure the clearance height will clear the part and or fixtures.)
(Raise the Z-axis to a safe height before starting the program.)

(2D Contour1 4)
T4
S5000 M3
G17 G90 G94
G54
M8
G0 X261.879 Y543.495
Z15
G0 Z5
G1 Z3 F333.3
Z-4
X262.049 Y543.501 F1000
X287.049
G2 X289.549 Y541.001 I0 J-2.5
G1 Y50.582
X289.548 Y50.527
X289.52 Y49.274
X289.518 Y49.205
X289.435 Y47.543
X289.429 Y47.46
X289.291 Y45.809
X289.283 Y45.726
X289.091 Y44.086
X289.08 Y44.007
X288.836 Y42.379
X288.823 Y42.297
X288.526 Y40.684
X288.509 Y40.603
X288.16 Y39.004
X288.142 Y38.925
X287.742 Y37.342
X287.72 Y37.262
X287.269 Y35.696
X287.245 Y35.617
X286.743 Y34.069
X286.717 Y33.994
X286.167 Y32.466
X286.139 Y32.391
X285.541 Y30.883
X285.51 Y30.808
X284.864 Y29.321
X284.829 Y29.246
X284.134 Y27.782
X284.099 Y27.711
X283.359 Y26.272
X283.321 Y26.201
X282.535 Y24.786
X282.494 Y24.715
X281.662 Y23.327
X281.62 Y23.259
X280.744 Y21.898
X280.699 Y21.829
X279.778 Y20.496
X279.731 Y20.431
X278.767 Y19.128
X278.717 Y19.063
X277.71 Y17.791
X277.659 Y17.728
X276.61 Y16.487
X276.557 Y16.426
X275.467 Y15.219
X275.412 Y15.16
X274.282 Y13.987
X274.223 Y13.928
X273.052 Y12.79
X272.993 Y12.734
X271.783 Y11.632
X271.721 Y11.578
X270.472 Y10.514
X270.409 Y10.461
X269.122 Y9.436
X269.057 Y9.386
X267.733 Y8.4
X267.665 Y8.351
X266.303 Y7.406
X266.235 Y7.361
X264.838 Y6.458
X264.779 Y6.421
X263.708 Y5.771
X263.662 Y5.744
X263.301 Y5.535
X263.295 Y5.532
X262.932 Y5.323
X262.888 Y5.298
X261.79 Y4.696
X261.728 Y4.663
X260.247 Y3.904
X260.173 Y3.867
X258.674 Y3.161
X258.599 Y3.127
X257.084 Y2.473
X257.007 Y2.441
X255.475 Y1.839
X255.398 Y1.811
X253.852 Y1.261
X253.775 Y1.235
X252.216 Y0.738
X252.137 Y0.714
X250.566 Y0.269
X250.487 Y0.248
X248.905 Y-0.144
X248.826 Y-0.162
X247.236 Y-0.503
X247.156 Y-0.518
X245.557 Y-0.806
X245.477 Y-0.819
X243.871 Y-1.055
X243.791 Y-1.065
X242.182 Y-1.248
X242.101 Y-1.256
X240.485 Y-1.387
X240.404 Y-1.392
X238.788 Y-1.471
X238.707 Y-1.473
X237.089 Y-1.5
X237.009
X235.389 Y-1.473
X235.308 Y-1.471
X233.692 Y-1.392
X233.611 Y-1.387
X231.997 Y-1.256
X231.917 Y-1.248
X230.306 Y-1.065
X230.225 Y-1.055
X228.619 Y-0.819
X228.539 Y-0.806
X226.94 Y-0.518
X226.86 Y-0.503
X225.27 Y-0.162
X225.191 Y-0.144
X223.609 Y0.248
X223.53 Y0.269
X221.959 Y0.714
X221.88 Y0.738
X220.322 Y1.235
X220.245 Y1.261
X218.698 Y1.81
X218.62 Y1.84
X217.089 Y2.441
X217.014 Y2.472
X215.497 Y3.127
X215.421 Y3.161
X213.923 Y3.868
X213.849 Y3.904
X212.368 Y4.663
X212.306 Y4.696
X211.208 Y5.298
X211.158 Y5.326
X210.8 Y5.533
X210.439 Y5.741
X210.388 Y5.771
X209.317 Y6.421
X209.258 Y6.458
X207.861 Y7.361
X207.792 Y7.407
X206.431 Y8.352
X206.365 Y8.4
X205.04 Y9.385
X204.973 Y9.436
X203.687 Y10.462
X203.625 Y10.513
X202.375 Y11.577
X202.313 Y11.632
X201.103 Y12.734
X201.044 Y12.79
X199.873 Y13.928
X199.814 Y13.987
X198.684 Y15.16
X198.63 Y15.218
X197.539 Y16.426
X197.484 Y16.488
X196.436 Y17.729
X196.386 Y17.791
X195.379 Y19.063
X195.328 Y19.129
X194.365 Y20.432
X194.319 Y20.498
X193.399 Y21.83
X193.354 Y21.896
X192.477 Y23.258
X192.435 Y23.327
X191.603 Y24.715
X191.562 Y24.785
X190.775 Y26.199
X190.737 Y26.271
X189.996 Y27.71
X189.959 Y27.785
X189.266 Y29.248
X189.234 Y29.32
X188.587 Y30.806
X188.555 Y30.883
X187.957 Y32.391
X187.929 Y32.466
X187.379 Y33.994
X187.353 Y34.069
X186.851 Y35.617
X186.826 Y35.698
X186.376 Y37.264
X186.355 Y37.342
X185.955 Y38.925
X185.937 Y39.003
X185.587 Y40.602
X185.57 Y40.684
X185.273 Y42.297
X185.26 Y42.378
X185.015 Y44.005
X185.004 Y44.088
X184.813 Y45.728
X184.805 Y45.809
X184.667 Y47.46
X184.661 Y47.545
X184.579 Y49.206
X184.577 Y49.276
X184.55 Y50.529
X184.549 Y50.582
Y541.001
G2 X187.049 Y543.501 I2.5 J0
G1 X212.049
G2 X214.549 Y541.001 I0 J-2.5
G1 Y100.819
X214.562 Y100.255
X214.599 Y99.499
X214.66 Y98.757
X214.746 Y98.02
X214.856 Y97.288
X214.99 Y96.563
X215.148 Y95.842
X215.328 Y95.129
X215.53 Y94.424
X215.755 Y93.728
X216.002 Y93.042
X216.272 Y92.364
X216.565 Y91.692
X216.875 Y91.034
X217.208 Y90.388
X217.562 Y89.751
X217.938 Y89.125
X218.331 Y88.512
X218.745 Y87.914
X219.18 Y87.326
X219.633 Y86.754
X220.104 Y86.196
X220.595 Y85.653
X221.104 Y85.124
X221.631 Y84.612
X222.174 Y84.117
X222.737 Y83.638
X223.315 Y83.177
X223.912 Y82.733
X224.524 Y82.308
X225.16 Y81.898
X225.639 Y81.606
X225.794 Y81.518
X225.803 Y81.512
X225.957 Y81.423
X226.45 Y81.153
X227.122 Y80.808
X227.796 Y80.491
X228.479 Y80.196
X229.168 Y79.925
X229.864 Y79.678
X230.564 Y79.454
X231.273 Y79.254
X231.984 Y79.077
X232.7 Y78.924
X233.418 Y78.795
X234.141 Y78.689
X234.866 Y78.606
X235.593 Y78.548
X236.32 Y78.512
X237.049 Y78.501
X237.776 Y78.512
X238.504 Y78.548
X239.232 Y78.606
X239.955 Y78.689
X240.678 Y78.795
X241.398 Y78.924
X242.112 Y79.077
X242.825 Y79.254
X243.531 Y79.454
X244.234 Y79.678
X244.928 Y79.925
X245.618 Y80.196
X246.299 Y80.49
X246.975 Y80.808
X247.646 Y81.153
X248.144 Y81.426
X248.299 Y81.515
X248.453 Y81.604
X248.938 Y81.899
X249.573 Y82.308
X250.184 Y82.733
X250.781 Y83.177
X251.36 Y83.638
X251.921 Y84.116
X252.465 Y84.612
X252.993 Y85.126
X253.503 Y85.653
X253.991 Y86.195
X254.464 Y86.754
X254.918 Y87.327
X255.35 Y87.912
X255.764 Y88.512
X256.16 Y89.126
X256.533 Y89.75
X256.888 Y90.388
X257.222 Y91.036
X257.534 Y91.693
X257.824 Y92.362
X258.093 Y93.04
X258.341 Y93.728
X258.566 Y94.425
X258.769 Y95.13
X258.949 Y95.841
X259.106 Y96.561
X259.24 Y97.288
X259.35 Y98.02
X259.436 Y98.758
X259.498 Y99.502
X259.536 Y100.256
X259.549 Y100.819
Y541.001
G2 X261.879 Y543.495 I2.5 J0
G1 Z-8 F333.3
X262.049 Y543.501 F1000
X287.049
G2 X289.549 Y541.001 I0 J-2.5
G1 Y50.582
X289.548 Y50.527
X289.52 Y49.274
X289.518 Y49.205
X289.435 Y47.543
X289.429 Y47.46
X289.291 Y45.809
X289.283 Y45.726
X289.091 Y44.086
X289.08 Y44.007
X288.836 Y42.379
X288.823 Y42.297
X288.526 Y40.684
X288.509 Y40.603
X288.16 Y39.004
X288.142 Y38.925
X287.742 Y37.342
X287.72 Y37.262
X287.269 Y35.696
X287.245 Y35.617
X286.743 Y34.069
X286.717 Y33.994
X286.167 Y32.466
X286.139 Y32.391
X285.541 Y30.883
X285.51 Y30.808
X284.864 Y29.321
X284.829 Y29.246
X284.134 Y27.782
X284.099 Y27.711
X283.359 Y26.272
X283.321 Y26.201
X282.535 Y24.786
X282.494 Y24.715
X281.662 Y23.327
X281.62 Y23.259
X280.744 Y21.898
X280.699 Y21.829
X279.778 Y20.496
X279.731 Y20.431
X278.767 Y19.128
X278.717 Y19.063
X277.71 Y17.791
X277.659 Y17.728
X276.61 Y16.487
X276.557 Y16.426
X275.467 Y15.219
X275.412 Y15.16
X274.282 Y13.987
X274.223 Y13.928
X273.052 Y12.79
X272.993 Y12.734
X271.783 Y11.632
X271.721 Y11.578
X270.472 Y10.514
X270.409 Y10.461
X269.122 Y9.436
X269.057 Y9.386
X267.733 Y8.4
X267.665 Y8.351
X266.303 Y7.406
X266.235 Y7.361
X264.838 Y6.458
X264.779 Y6.421
X263.708 Y5.771
X263.662 Y5.744
X263.301 Y5.535
X263.295 Y5.532
X262.932 Y5.323
X262.888 Y5.298
X261.79 Y4.696
X261.728 Y4.663
X260.247 Y3.904
X260.173 Y3.867
X258.674 Y3.161
X258.599 Y3.127
X257.084 Y2.473
X257.007 Y2.441
X255.475 Y1.839
X255.398 Y1.811
X253.852 Y1.261
X253.775 Y1.235
X252.216 Y0.738
X252.137 Y0.714
X250.566 Y0.269
X250.487 Y0.248
X248.905 Y-0.144
X248.826 Y-0.162
X247.236 Y-0.503
X247.156 Y-0.518
X245.557 Y-0.806
X245.477 Y-0.819
X243.871 Y-1.055
X243.791 Y-1.065
X242.182 Y-1.248
X242.101 Y-1.256
X240.485 Y-1.387
X240.404 Y-1.392
X238.788 Y-1.471
X238.707 Y-1.473
X237.089 Y-1.5
X237.009
X235.389 Y-1.473
X235.308 Y-1.471
X233.692 Y-1.392
X233.611 Y-1.387
X231.997 Y-1.256
X231.917 Y-1.248
X230.306 Y-1.065
X230.225 Y-1.055
X228.619 Y-0.819
X228.539 Y-0.806
X226.94 Y-0.518
X226.86 Y-0.503
X225.27 Y-0.162
X225.191 Y-0.144
X223.609 Y0.248
X223.53 Y0.269
X221.959 Y0.714
X221.88 Y0.738
X220.322 Y1.235
X220.245 Y1.261
X218.698 Y1.81
X218.62 Y1.84
X217.089 Y2.441
X217.014 Y2.472
X215.497 Y3.127
X215.421 Y3.161
X213.923 Y3.868
X213.849 Y3.904
X212.368 Y4.663
X212.306 Y4.696
X211.208 Y5.298
X211.158 Y5.326
X210.8 Y5.533
X210.439 Y5.741
X210.388 Y5.771
X209.317 Y6.421
X209.258 Y6.458
X207.861 Y7.361
X207.792 Y7.407
X206.431 Y8.352
X206.365 Y8.4
X205.04 Y9.385
X204.973 Y9.436
X203.687 Y10.462
X203.625 Y10.513
X202.375 Y11.577
X202.313 Y11.632
X201.103 Y12.734
X201.044 Y12.79
X199.873 Y13.928
X199.814 Y13.987
X198.684 Y15.16
X198.63 Y15.218
X197.539 Y16.426
X197.484 Y16.488
X196.436 Y17.729
X196.386 Y17.791
X195.379 Y19.063
X195.328 Y19.129
X194.365 Y20.432
X194.319 Y20.498
X193.399 Y21.83
X193.354 Y21.896
X192.477 Y23.258
X192.435 Y23.327
X191.603 Y24.715
X191.562 Y24.785
X190.775 Y26.199
X190.737 Y26.271
X189.996 Y27.71
X189.959 Y27.785
X189.266 Y29.248
X189.234 Y29.32
X188.587 Y30.806
X188.555 Y30.883
X187.957 Y32.391
X187.929 Y32.466
X187.379 Y33.994
X187.353 Y34.069
X186.851 Y35.617
X186.826 Y35.698
X186.376 Y37.264
X186.355 Y37.342
X185.955 Y38.925
X185.937 Y39.003
X185.587 Y40.602
X185.57 Y40.684
X185.273 Y42.297
X185.26 Y42.378
X185.015 Y44.005
X185.004 Y44.088
X184.813 Y45.728
X184.805 Y45.809
X184.667 Y47.46
X184.661 Y47.545
X184.579 Y49.206
X184.577 Y49.276
X184.55 Y50.529
X184.549 Y50.582
Y541.001
G2 X187.049 Y543.501 I2.5 J0
G1 X212.049
G2 X214.549 Y541.001 I0 J-2.5
G1 Y100.819
X214.562 Y100.255
X214.599 Y99.499
X214.66 Y98.757
X214.746 Y98.02
X214.856 Y97.288
X214.99 Y96.563
X215.148 Y95.842
X215.328 Y95.129
X215.53 Y94.424
X215.755 Y93.728
X216.002 Y93.042
X216.272 Y92.364
X216.565 Y91.692
X216.875 Y91.034
X217.208 Y90.388
X217.562 Y89.751
X217.938 Y89.125
X218.331 Y88.512
X218.745 Y87.914
X219.18 Y87.326
X219.633 Y86.754
X220.104 Y86.196
X220.595 Y85.653
X221.104 Y85.124
X221.631 Y84.612
X222.174 Y84.117
X222.737 Y83.638
X223.315 Y83.177
X223.912 Y82.733
X224.524 Y82.308
X225.16 Y81.898
X225.639 Y81.606
X225.794 Y81.518
X225.803 Y81.512
X225.957 Y81.423
X226.45 Y81.153
X227.122 Y80.808
X227.796 Y80.491
X228.479 Y80.196
X229.168 Y79.925
X229.864 Y79.678
X230.564 Y79.454
X231.273 Y79.254
X231.984 Y79.077
X232.7 Y78.924
X233.418 Y78.795
X234.141 Y78.689
X234.866 Y78.606
X235.593 Y78.548
X236.32 Y78.512
X237.049 Y78.501
X237.776 Y78.512
X238.504 Y78.548
X239.232 Y78.606
X239.955 Y78.689
X240.678 Y78.795
X241.398 Y78.924
X242.112 Y79.077
X242.825 Y79.254
X243.531 Y79.454
X244.234 Y79.678
X244.928 Y79.925
X245.618 Y80.196
X246.299 Y80.49
X246.975 Y80.808
X247.646 Y81.153
X248.144 Y81.426
X248.299 Y81.515
X248.453 Y81.604
X248.938 Y81.899
X249.573 Y82.308
X250.184 Y82.733
X250.781 Y83.177
X251.36 Y83.638
X251.921 Y84.116
X252.465 Y84.612
X252.993 Y85.126
X253.503 Y85.653
X253.991 Y86.195
X254.464 Y86.754
X254.918 Y87.327
X255.35 Y87.912
X255.764 Y88.512
X256.16 Y89.126
X256.533 Y89.75
X256.888 Y90.388
X257.222 Y91.036
X257.534 Y91.693
X257.824 Y92.362
X258.093 Y93.04
X258.341 Y93.728
X258.566 Y94.425
X258.769 Y95.13
X258.949 Y95.841
X259.106 Y96.561
X259.24 Y97.288
X259.35 Y98.02
X259.436 Y98.758
X259.498 Y99.502
X259.536 Y100.256
X259.549 Y100.819
Y541.001
G2 X261.879 Y543.495 I2.5 J0
G1 Z-12 F333.3
X262.049 Y543.501 F1000
X287.049
G2 X289.549 Y541.001 I0 J-2.5
G1 Y50.582
X289.548 Y50.527
X289.52 Y49.274
X289.518 Y49.205
X289.435 Y47.543
X289.429 Y47.46
X289.291 Y45.809
X289.283 Y45.726
X289.091 Y44.086
X289.08 Y44.007
X288.836 Y42.379
X288.823 Y42.297
X288.526 Y40.684
X288.509 Y40.603
X288.16 Y39.004
X288.142 Y38.925
X287.742 Y37.342
X287.72 Y37.262
X287.269 Y35.696
X287.245 Y35.617
X286.743 Y34.069
X286.717 Y33.994
X286.167 Y32.466
X286.139 Y32.391
X285.541 Y30.883
X285.51 Y30.808
X284.864 Y29.321
X284.829 Y29.246
X284.134 Y27.782
X284.099 Y27.711
X283.359 Y26.272
X283.321 Y26.201
X282.535 Y24.786
X282.494 Y24.715
X281.662 Y23.327
X281.62 Y23.259
X280.744 Y21.898
X280.699 Y21.829
X279.778 Y20.496
X279.731 Y20.431
X278.767 Y19.128
X278.717 Y19.063
X277.71 Y17.791
X277.659 Y17.728
X276.61 Y16.487
X276.557 Y16.426
X275.467 Y15.219
X275.412 Y15.16
X274.282 Y13.987
X274.223 Y13.928
X273.052 Y12.79
X272.993 Y12.734
X271.783 Y11.632
X271.721 Y11.578
X270.472 Y10.514
X270.409 Y10.461
X269.122 Y9.436
X269.057 Y9.386
X267.733 Y8.4
X267.665 Y8.351
X266.303 Y7.406
X266.235 Y7.361
X264.838 Y6.458
X264.779 Y6.421
X263.708 Y5.771
X263.662 Y5.744
X263.301 Y5.535
X263.295 Y5.532
X262.932 Y5.323
X262.888 Y5.298
X261.79 Y4.696
X261.728 Y4.663
X260.247 Y3.904
X260.173 Y3.867
X258.674 Y3.161
X258.599 Y3.127
X257.084 Y2.473
X257.007 Y2.441
X255.475 Y1.839
X255.398 Y1.811
X253.852 Y1.261
X253.775 Y1.235
X252.216 Y0.738
X252.137 Y0.714
X250.566 Y0.269
X250.487 Y0.248
X248.905 Y-0.144
X248.826 Y-0.162
X247.236 Y-0.503
X247.156 Y-0.518
X245.557 Y-0.806
X245.477 Y-0.819
X243.871 Y-1.055
X243.791 Y-1.065
X242.182 Y-1.248
X242.101 Y-1.256
X240.485 Y-1.387
X240.404 Y-1.392
X238.788 Y-1.471
X238.707 Y-1.473
X237.089 Y-1.5
X237.009
X235.389 Y-1.473
X235.308 Y-1.471
X233.692 Y-1.392
X233.611 Y-1.387
X231.997 Y-1.256
X231.917 Y-1.248
X230.306 Y-1.065
X230.225 Y-1.055
X228.619 Y-0.819
X228.539 Y-0.806
X226.94 Y-0.518
X226.86 Y-0.503
X225.27 Y-0.162
X225.191 Y-0.144
X223.609 Y0.248
X223.53 Y0.269
X221.959 Y0.714
X221.88 Y0.738
X220.322 Y1.235
X220.245 Y1.261
X218.698 Y1.81
X218.62 Y1.84
X217.089 Y2.441
X217.014 Y2.472
X215.497 Y3.127
X215.421 Y3.161
X213.923 Y3.868
X213.849 Y3.904
X212.368 Y4.663
X212.306 Y4.696
X211.208 Y5.298
X211.158 Y5.326
X210.8 Y5.533
X210.439 Y5.741
X210.388 Y5.771
X209.317 Y6.421
X209.258 Y6.458
X207.861 Y7.361
X207.792 Y7.407
X206.431 Y8.352
X206.365 Y8.4
X205.04 Y9.385
X204.973 Y9.436
X203.687 Y10.462
X203.625 Y10.513
X202.375 Y11.577
X202.313 Y11.632
X201.103 Y12.734
X201.044 Y12.79
X199.873 Y13.928
X199.814 Y13.987
X198.684 Y15.16
X198.63 Y15.218
X197.539 Y16.426
X197.484 Y16.488
X196.436 Y17.729
X196.386 Y17.791
X195.379 Y19.063
X195.328 Y19.129
X194.365 Y20.432
X194.319 Y20.498
X193.399 Y21.83
X193.354 Y21.896
X192.477 Y23.258
X192.435 Y23.327
X191.603 Y24.715
X191.562 Y24.785
X190.775 Y26.199
X190.737 Y26.271
X189.996 Y27.71
X189.959 Y27.785
X189.266 Y29.248
X189.234 Y29.32
X188.587 Y30.806
X188.555 Y30.883
X187.957 Y32.391
X187.929 Y32.466
X187.379 Y33.994
X187.353 Y34.069
X186.851 Y35.617
X186.826 Y35.698
X186.376 Y37.264
X186.355 Y37.342
X185.955 Y38.925
X185.937 Y39.003
X185.587 Y40.602
X185.57 Y40.684
X185.273 Y42.297
X185.26 Y42.378
X185.015 Y44.005
X185.004 Y44.088
X184.813 Y45.728
X184.805 Y45.809
X184.667 Y47.46
X184.661 Y47.545
X184.579 Y49.206
X184.577 Y49.276
X184.55 Y50.529
X184.549 Y50.582
Y541.001
G2 X187.049 Y543.501 I2.5 J0
G1 X212.049
G2 X214.549 Y541.001 I0 J-2.5
G1 Y100.819
X214.562 Y100.255
X214.599 Y99.499
X214.66 Y98.757
X214.746 Y98.02
X214.856 Y97.288
X214.99 Y96.563
X215.148 Y95.842
X215.328 Y95.129
X215.53 Y94.424
X215.755 Y93.728
X216.002 Y93.042
X216.272 Y92.364
X216.565 Y91.692
X216.875 Y91.034
X217.208 Y90.388
X217.562 Y89.751
X217.938 Y89.125
X218.331 Y88.512
X218.745 Y87.914
X219.18 Y87.326
X219.633 Y86.754
X220.104 Y86.196
X220.595 Y85.653
X221.104 Y85.124
X221.631 Y84.612
X222.174 Y84.117
X222.737 Y83.638
X223.315 Y83.177
X223.912 Y82.733
X224.524 Y82.308
X225.16 Y81.898
X225.639 Y81.606
X225.794 Y81.518
X225.803 Y81.512
X225.957 Y81.423
X226.45 Y81.153
X227.122 Y80.808
X227.796 Y80.491
X228.479 Y80.196
X229.168 Y79.925
X229.864 Y79.678
X230.564 Y79.454
X231.273 Y79.254
X231.984 Y79.077
X232.7 Y78.924
X233.418 Y78.795
X234.141 Y78.689
X234.866 Y78.606
X235.593 Y78.548
X236.32 Y78.512
X237.049 Y78.501
X237.776 Y78.512
X238.504 Y78.548
X239.232 Y78.606
X239.955 Y78.689
X240.678 Y78.795
X241.398 Y78.924
X242.112 Y79.077
X242.825 Y79.254
X243.531 Y79.454
X244.234 Y79.678
X244.928 Y79.925
X245.618 Y80.196
X246.299 Y80.49
X246.975 Y80.808
X247.646 Y81.153
X248.144 Y81.426
X248.299 Y81.515
X248.453 Y81.604
X248.938 Y81.899
X249.573 Y82.308
X250.184 Y82.733
X250.781 Y83.177
X251.36 Y83.638
X251.921 Y84.116
X252.465 Y84.612
X252.993 Y85.126
X253.503 Y85.653
X253.991 Y86.195
X254.464 Y86.754
X254.918 Y87.327
X255.35 Y87.912
X255.764 Y88.512
X256.16 Y89.126
X256.533 Y89.75
X256.888 Y90.388
X257.222 Y91.036
X257.534 Y91.693
X257.824 Y92.362
X258.093 Y93.04
X258.341 Y93.728
X258.566 Y94.425
X258.769 Y95.13
X258.949 Y95.841
X259.106 Y96.561
X259.24 Y97.288
X259.35 Y98.02
X259.436 Y98.758
X259.498 Y99.502
X259.536 Y100.256
X259.549 Y100.819
Y541.001
G2 X261.879 Y543.495 I2.5 J0
G1 Z-16 F333.3
X262.049 Y543.501 F1000
X287.049
G2 X289.549 Y541.001 I0 J-2.5
G1 Y50.582
X289.548 Y50.527
X289.52 Y49.274
X289.518 Y49.205
X289.435 Y47.543
X289.429 Y47.46
X289.291 Y45.809
X289.283 Y45.726
X289.091 Y44.086
X289.08 Y44.007
X288.836 Y42.379
X288.823 Y42.297
X288.526 Y40.684
X288.509 Y40.603
X288.16 Y39.004
X288.142 Y38.925
X287.742 Y37.342
X287.72 Y37.262
X287.269 Y35.696
X287.245 Y35.617
X286.743 Y34.069
X286.717 Y33.994
X286.167 Y32.466
X286.139 Y32.391
X285.541 Y30.883
X285.51 Y30.808
X284.864 Y29.321
X284.829 Y29.246
X284.134 Y27.782
X284.099 Y27.711
X283.359 Y26.272
X283.321 Y26.201
X282.535 Y24.786
X282.494 Y24.715
X281.662 Y23.327
X281.62 Y23.259
X280.744 Y21.898
X280.699 Y21.829
X279.778 Y20.496
X279.731 Y20.431
X278.767 Y19.128
X278.717 Y19.063
X277.71 Y17.791
X277.659 Y17.728
X276.61 Y16.487
X276.557 Y16.426
X275.467 Y15.219
X275.412 Y15.16
X274.282 Y13.987
X274.223 Y13.928
X273.052 Y12.79
X272.993 Y12.734
X271.783 Y11.632
X271.721 Y11.578
X270.472 Y10.514
X270.409 Y10.461
X269.122 Y9.436
X269.057 Y9.386
X267.733 Y8.4
X267.665 Y8.351
X266.303 Y7.406
X266.235 Y7.361
X264.838 Y6.458
X264.779 Y6.421
X263.708 Y5.771
X263.662 Y5.744
X263.301 Y5.535
X263.295 Y5.532
X262.932 Y5.323
X262.888 Y5.298
X261.79 Y4.696
X261.728 Y4.663
X260.247 Y3.904
X260.173 Y3.867
X258.674 Y3.161
X258.599 Y3.127
X257.084 Y2.473
X257.007 Y2.441
X255.475 Y1.839
X255.398 Y1.811
X253.852 Y1.261
X253.775 Y1.235
X252.216 Y0.738
X252.137 Y0.714
X250.566 Y0.269
X250.487 Y0.248
X248.905 Y-0.144
X248.826 Y-0.162
X247.236 Y-0.503
X247.156 Y-0.518
X245.557 Y-0.806
X245.477 Y-0.819
X243.871 Y-1.055
X243.791 Y-1.065
X242.182 Y-1.248
X242.101 Y-1.256
X240.485 Y-1.387
X240.404 Y-1.392
X238.788 Y-1.471
X238.707 Y-1.473
X237.089 Y-1.5
X237.009
X235.389 Y-1.473
X235.308 Y-1.471
X233.692 Y-1.392
X233.611 Y-1.387
X231.997 Y-1.256
X231.917 Y-1.248
X230.306 Y-1.065
X230.225 Y-1.055
X228.619 Y-0.819
X228.539 Y-0.806
X226.94 Y-0.518
X226.86 Y-0.503
X225.27 Y-0.162
X225.191 Y-0.144
X223.609 Y0.248
X223.53 Y0.269
X221.959 Y0.714
X221.88 Y0.738
X220.322 Y1.235
X220.245 Y1.261
X218.698 Y1.81
X218.62 Y1.84
X217.089 Y2.441
X217.014 Y2.472
X215.497 Y3.127
X215.421 Y3.161
X213.923 Y3.868
X213.849 Y3.904
X212.368 Y4.663
X212.306 Y4.696
X211.208 Y5.298
X211.158 Y5.326
X210.8 Y5.533
X210.439 Y5.741
X210.388 Y5.771
X209.317 Y6.421
X209.258 Y6.458
X207.861 Y7.361
X207.792 Y7.407
X206.431 Y8.352
X206.365 Y8.4
X205.04 Y9.385
X204.973 Y9.436
X203.687 Y10.462
X203.625 Y10.513
X202.375 Y11.577
X202.313 Y11.632
X201.103 Y12.734
X201.044 Y12.79
X199.873 Y13.928
X199.814 Y13.987
X198.684 Y15.16
X198.63 Y15.218
X197.539 Y16.426
X197.484 Y16.488
X196.436 Y17.729
X196.386 Y17.791
X195.379 Y19.063
X195.328 Y19.129
X194.365 Y20.432
X194.319 Y20.498
X193.399 Y21.83
X193.354 Y21.896
X192.477 Y23.258
X192.435 Y23.327
X191.603 Y24.715
X191.562 Y24.785
X190.775 Y26.199
X190.737 Y26.271
X189.996 Y27.71
X189.959 Y27.785
X189.266 Y29.248
X189.234 Y29.32
X188.587 Y30.806
X188.555 Y30.883
X187.957 Y32.391
X187.929 Y32.466
X187.379 Y33.994
X187.353 Y34.069
X186.851 Y35.617
X186.826 Y35.698
X186.376 Y37.264
X186.355 Y37.342
X185.955 Y38.925
X185.937 Y39.003
X185.587 Y40.602
X185.57 Y40.684
X185.273 Y42.297
X185.26 Y42.378
X185.015 Y44.005
X185.004 Y44.088
X184.813 Y45.728
X184.805 Y45.809
X184.667 Y47.46
X184.661 Y47.545
X184.579 Y49.206
X184.577 Y49.276
X184.55 Y50.529
X184.549 Y50.582
Y541.001
G2 X187.049 Y543.501 I2.5 J0
G1 X212.049
G2 X214.549 Y541.001 I0 J-2.5
G1 Y100.819
X214.562 Y100.255
X214.599 Y99.499
X214.66 Y98.757
X214.746 Y98.02
X214.856 Y97.288
X214.99 Y96.563
X215.148 Y95.842
X215.328 Y95.129
X215.53 Y94.424
X215.755 Y93.728
X216.002 Y93.042
X216.272 Y92.364
X216.565 Y91.692
X216.875 Y91.034
X217.208 Y90.388
X217.562 Y89.751
X217.938 Y89.125
X218.331 Y88.512
X218.745 Y87.914
X219.18 Y87.326
X219.633 Y86.754
X220.104 Y86.196
X220.595 Y85.653
X221.104 Y85.124
X221.631 Y84.612
X222.174 Y84.117
X222.737 Y83.638
X223.315 Y83.177
X223.912 Y82.733
X224.524 Y82.308
X225.16 Y81.898
X225.639 Y81.606
X225.794 Y81.518
X225.803 Y81.512
X225.957 Y81.423
X226.45 Y81.153
X227.122 Y80.808
X227.796 Y80.491
X228.479 Y80.196
X229.168 Y79.925
X229.864 Y79.678
X230.564 Y79.454
X231.273 Y79.254
X231.984 Y79.077
X232.7 Y78.924
X233.418 Y78.795
X234.141 Y78.689
X234.866 Y78.606
X235.593 Y78.548
X236.32 Y78.512
X237.049 Y78.501
X237.776 Y78.512
X238.504 Y78.548
X239.232 Y78.606
X239.955 Y78.689
X240.678 Y78.795
X241.398 Y78.924
X242.112 Y79.077
X242.825 Y79.254
X243.531 Y79.454
X244.234 Y79.678
X244.928 Y79.925
X245.618 Y80.196
X246.299 Y80.49
X246.975 Y80.808
X247.646 Y81.153
X248.144 Y81.426
X248.299 Y81.515
X248.453 Y81.604
X248.938 Y81.899
X249.573 Y82.308
X250.184 Y82.733
X250.781 Y83.177
X251.36 Y83.638
X251.921 Y84.116
X252.465 Y84.612
X252.993 Y85.126
X253.503 Y85.653
X253.991 Y86.195
X254.464 Y86.754
X254.918 Y87.327
X255.35 Y87.912
X255.764 Y88.512
X256.16 Y89.126
X256.533 Y89.75
X256.888 Y90.388
X257.222 Y91.036
X257.534 Y91.693
X257.824 Y92.362
X258.093 Y93.04
X258.341 Y93.728
X258.566 Y94.425
X258.769 Y95.13
X258.949 Y95.841
X259.106 Y96.561
X259.24 Y97.288
X259.35 Y98.02
X259.436 Y98.758
X259.498 Y99.502
X259.536 Y100.256
X259.549 Y100.819
Y541.001
G2 X261.879 Y543.495 I2.5 J0
G1 Z-20 F333.3
X262.049 Y543.501 F1000
X287.049
G2 X289.549 Y541.001 I0 J-2.5
G1 Y50.582
X289.548 Y50.527
X289.52 Y49.274
X289.518 Y49.205
X289.435 Y47.543
X289.429 Y47.46
X289.291 Y45.809
X289.283 Y45.726
X289.091 Y44.086
X289.08 Y44.007
X288.836 Y42.379
X288.823 Y42.297
X288.526 Y40.684
X288.509 Y40.603
X288.16 Y39.004
X288.142 Y38.925
X287.742 Y37.342
X287.72 Y37.262
X287.269 Y35.696
X287.245 Y35.617
X286.743 Y34.069
X286.717 Y33.994
X286.167 Y32.466
X286.139 Y32.391
X285.541 Y30.883
X285.51 Y30.808
X284.864 Y29.321
X284.829 Y29.246
X284.134 Y27.782
X284.099 Y27.711
X283.359 Y26.272
X283.321 Y26.201
X282.535 Y24.786
X282.494 Y24.715
X281.662 Y23.327
X281.62 Y23.259
X280.744 Y21.898
X280.699 Y21.829
X279.778 Y20.496
X279.731 Y20.431
X278.767 Y19.128
X278.717 Y19.063
X277.71 Y17.791
X277.659 Y17.728
X276.61 Y16.487
X276.557 Y16.426
X275.467 Y15.219
X275.412 Y15.16
X274.282 Y13.987
X274.223 Y13.928
X273.052 Y12.79
X272.993 Y12.734
X271.783 Y11.632
X271.721 Y11.578
X270.472 Y10.514
X270.409 Y10.461
X269.122 Y9.436
X269.057 Y9.386
X267.733 Y8.4
X267.665 Y8.351
X266.303 Y7.406
X266.235 Y7.361
X264.838 Y6.458
X264.779 Y6.421
X263.708 Y5.771
X263.662 Y5.744
X263.301 Y5.535
X263.295 Y5.532
X262.932 Y5.323
X262.888 Y5.298
X261.79 Y4.696
X261.728 Y4.663
X260.247 Y3.904
X260.173 Y3.867
X258.674 Y3.161
X258.599 Y3.127
X257.084 Y2.473
X257.007 Y2.441
X255.475 Y1.839
X255.398 Y1.811
X253.852 Y1.261
X253.775 Y1.235
X252.216 Y0.738
X252.137 Y0.714
X250.566 Y0.269
X250.487 Y0.248
X248.905 Y-0.144
X248.826 Y-0.162
X247.236 Y-0.503
X247.156 Y-0.518
X245.557 Y-0.806
X245.477 Y-0.819
X243.871 Y-1.055
X243.791 Y-1.065
X242.182 Y-1.248
X242.101 Y-1.256
X240.485 Y-1.387
X240.404 Y-1.392
X238.788 Y-1.471
X238.707 Y-1.473
X237.089 Y-1.5
X237.009
X235.389 Y-1.473
X235.308 Y-1.471
X233.692 Y-1.392
X233.611 Y-1.387
X231.997 Y-1.256
X231.917 Y-1.248
X230.306 Y-1.065
X230.225 Y-1.055
X228.619 Y-0.819
X228.539 Y-0.806
X226.94 Y-0.518
X226.86 Y-0.503
X225.27 Y-0.162
X225.191 Y-0.144
X223.609 Y0.248
X223.53 Y0.269
X221.959 Y0.714
X221.88 Y0.738
X220.322 Y1.235
X220.245 Y1.261
X218.698 Y1.81
X218.62 Y1.84
X217.089 Y2.441
X217.014 Y2.472
X215.497 Y3.127
X215.421 Y3.161
X213.923 Y3.868
X213.849 Y3.904
X212.368 Y4.663
X212.306 Y4.696
X211.208 Y5.298
X211.158 Y5.326
X210.8 Y5.533
X210.439 Y5.741
X210.388 Y5.771
X209.317 Y6.421
X209.258 Y6.458
X207.861 Y7.361
X207.792 Y7.407
X206.431 Y8.352
X206.365 Y8.4
X205.04 Y9.385
X204.973 Y9.436
X203.687 Y10.462
X203.625 Y10.513
X202.375 Y11.577
X202.313 Y11.632
X201.103 Y12.734
X201.044 Y12.79
X199.873 Y13.928
X199.814 Y13.987
X198.684 Y15.16
X198.63 Y15.218
X197.539 Y16.426
X197.484 Y16.488
X196.436 Y17.729
X196.386 Y17.791
X195.379 Y19.063
X195.328 Y19.129
X194.365 Y20.432
X194.319 Y20.498
X193.399 Y21.83
X193.354 Y21.896
X192.477 Y23.258
X192.435 Y23.327
X191.603 Y24.715
X191.562 Y24.785
X190.775 Y26.199
X190.737 Y26.271
X189.996 Y27.71
X189.959 Y27.785
X189.266 Y29.248
X189.234 Y29.32
X188.587 Y30.806
X188.555 Y30.883
X187.957 Y32.391
X187.929 Y32.466
X187.379 Y33.994
X187.353 Y34.069
X186.851 Y35.617
X186.826 Y35.698
X186.376 Y37.264
X186.355 Y37.342
X185.955 Y38.925
X185.937 Y39.003
X185.587 Y40.602
X185.57 Y40.684
X185.273 Y42.297
X185.26 Y42.378
X185.015 Y44.005
X185.004 Y44.088
X184.813 Y45.728
X184.805 Y45.809
X184.667 Y47.46
X184.661 Y47.545
X184.579 Y49.206
X184.577 Y49.276
X184.55 Y50.529
X184.549 Y50.582
Y541.001
G2 X187.049 Y543.501 I2.5 J0
G1 X212.049
G2 X214.549 Y541.001 I0 J-2.5
G1 Y100.819
X214.562 Y100.255
X214.599 Y99.499
X214.66 Y98.757
X214.746 Y98.02
X214.856 Y97.288
X214.99 Y96.563
X215.148 Y95.842
X215.328 Y95.129
X215.53 Y94.424
X215.755 Y93.728
X216.002 Y93.042
X216.272 Y92.364
X216.565 Y91.692
X216.875 Y91.034
X217.208 Y90.388
X217.562 Y89.751
X217.938 Y89.125
X218.331 Y88.512
X218.745 Y87.914
X219.18 Y87.326
X219.633 Y86.754
X220.104 Y86.196
X220.595 Y85.653
X221.104 Y85.124
X221.631 Y84.612
X222.174 Y84.117
X222.737 Y83.638
X223.315 Y83.177
X223.912 Y82.733
X224.524 Y82.308
X225.16 Y81.898
X225.639 Y81.606
X225.794 Y81.518
X225.803 Y81.512
X225.957 Y81.423
X226.45 Y81.153
X227.122 Y80.808
X227.796 Y80.491
X228.479 Y80.196
X229.168 Y79.925
X229.864 Y79.678
X230.564 Y79.454
X231.273 Y79.254
X231.984 Y79.077
X232.7 Y78.924
X233.418 Y78.795
X234.141 Y78.689
X234.866 Y78.606
X235.593 Y78.548
X236.32 Y78.512
X237.049 Y78.501
X237.776 Y78.512
X238.504 Y78.548
X239.232 Y78.606
X239.955 Y78.689
X240.678 Y78.795
X241.398 Y78.924
X242.112 Y79.077
X242.825 Y79.254
X243.531 Y79.454
X244.234 Y79.678
X244.928 Y79.925
X245.618 Y80.196
X246.299 Y80.49
X246.975 Y80.808
X247.646 Y81.153
X248.144 Y81.426
X248.299 Y81.515
X248.453 Y81.604
X248.938 Y81.899
X249.573 Y82.308
X250.184 Y82.733
X250.781 Y83.177
X251.36 Y83.638
X251.921 Y84.116
X252.465 Y84.612
X252.993 Y85.126
X253.503 Y85.653
X253.991 Y86.195
X254.464 Y86.754
X254.918 Y87.327
X255.35 Y87.912
X255.764 Y88.512
X256.16 Y89.126
X256.533 Y89.75
X256.888 Y90.388
X257.222 Y91.036
X257.534 Y91.693
X257.824 Y92.362
X258.093 Y93.04
X258.341 Y93.728
X258.566 Y94.425
X258.769 Y95.13
X258.949 Y95.841
X259.106 Y96.561
X259.24 Y97.288
X259.35 Y98.02
X259.436 Y98.758
X259.498 Y99.502
X259.536 Y100.256
X259.549 Y100.819
Y541.001
G2 X261.879 Y543.495 I2.5 J0
G1 Z-24 F333.3
X262.049 Y543.501 F1000
X287.049
G2 X289.549 Y541.001 I0 J-2.5
G1 Y50.582
X289.548 Y50.527
X289.52 Y49.274
X289.518 Y49.205
X289.435 Y47.543
X289.429 Y47.46
X289.291 Y45.809
X289.283 Y45.726
X289.091 Y44.086
X289.08 Y44.007
X288.836 Y42.379
X288.823 Y42.297
X288.526 Y40.684
X288.509 Y40.603
X288.16 Y39.004
X288.142 Y38.925
X287.742 Y37.342
X287.72 Y37.262
X287.269 Y35.696
X287.245 Y35.617
X286.743 Y34.069
X286.717 Y33.994
X286.167 Y32.466
X286.139 Y32.391
X285.541 Y30.883
X285.51 Y30.808
X284.864 Y29.321
X284.829 Y29.246
X284.134 Y27.782
X284.099 Y27.711
X283.359 Y26.272
X283.321 Y26.201
X282.535 Y24.786
X282.494 Y24.715
X281.662 Y23.327
X281.62 Y23.259
X280.744 Y21.898
X280.699 Y21.829
X279.778 Y20.496
X279.731 Y20.431
X278.767 Y19.128
X278.717 Y19.063
X277.71 Y17.791
X277.659 Y17.728
X276.61 Y16.487
X276.557 Y16.426
X275.467 Y15.219
X275.412 Y15.16
X274.282 Y13.987
X274.223 Y13.928
X273.052 Y12.79
X272.993 Y12.734
X271.783 Y11.632
X271.721 Y11.578
X270.472 Y10.514
X270.409 Y10.461
X269.122 Y9.436
X269.057 Y9.386
X267.733 Y8.4
X267.665 Y8.351
X266.303 Y7.406
X266.235 Y7.361
X264.838 Y6.458
X264.779 Y6.421
X263.708 Y5.771
X263.662 Y5.744
X263.301 Y5.535
X263.295 Y5.532
X262.932 Y5.323
X262.888 Y5.298
X261.79 Y4.696
X261.728 Y4.663
X260.247 Y3.904
X260.173 Y3.867
X258.674 Y3.161
X258.599 Y3.127
X257.084 Y2.473
X257.007 Y2.441
X255.475 Y1.839
X255.398 Y1.811
X253.852 Y1.261
X253.775 Y1.235
X252.216 Y0.738
X252.137 Y0.714
X250.566 Y0.269
X250.487 Y0.248
X248.905 Y-0.144
X248.826 Y-0.162
X247.236 Y-0.503
X247.156 Y-0.518
X245.557 Y-0.806
X245.477 Y-0.819
X243.871 Y-1.055
X243.791 Y-1.065
X242.182 Y-1.248
X242.101 Y-1.256
X240.485 Y-1.387
X240.404 Y-1.392
X238.788 Y-1.471
X238.707 Y-1.473
X237.089 Y-1.5
X237.009
X235.389 Y-1.473
X235.308 Y-1.471
X233.692 Y-1.392
X233.611 Y-1.387
X231.997 Y-1.256
X231.917 Y-1.248
X230.306 Y-1.065
X230.225 Y-1.055
X228.619 Y-0.819
X228.539 Y-0.806
X226.94 Y-0.518
X226.86 Y-0.503
X225.27 Y-0.162
X225.191 Y-0.144
X223.609 Y0.248
X223.53 Y0.269
X221.959 Y0.714
X221.88 Y0.738
X220.322 Y1.235
X220.245 Y1.261
X218.698 Y1.81
X218.62 Y1.84
X217.089 Y2.441
X217.014 Y2.472
X215.497 Y3.127
X215.421 Y3.161
X213.923 Y3.868
X213.849 Y3.904
X212.368 Y4.663
X212.306 Y4.696
X211.208 Y5.298
X211.158 Y5.326
X210.8 Y5.533
X210.439 Y5.741
X210.388 Y5.771
X209.317 Y6.421
X209.258 Y6.458
X207.861 Y7.361
X207.792 Y7.407
X206.431 Y8.352
X206.365 Y8.4
X205.04 Y9.385
X204.973 Y9.436
X203.687 Y10.462
X203.625 Y10.513
X202.375 Y11.577
X202.313 Y11.632
X201.103 Y12.734
X201.044 Y12.79
X199.873 Y13.928
X199.814 Y13.987
X198.684 Y15.16
X198.63 Y15.218
X197.539 Y16.426
X197.484 Y16.488
X196.436 Y17.729
X196.386 Y17.791
X195.379 Y19.063
X195.328 Y19.129
X194.365 Y20.432
X194.319 Y20.498
X193.399 Y21.83
X193.354 Y21.896
X192.477 Y23.258
X192.435 Y23.327
X191.603 Y24.715
X191.562 Y24.785
X190.775 Y26.199
X190.737 Y26.271
X189.996 Y27.71
X189.959 Y27.785
X189.266 Y29.248
X189.234 Y29.32
X188.587 Y30.806
X188.555 Y30.883
X187.957 Y32.391
X187.929 Y32.466
X187.379 Y33.994
X187.353 Y34.069
X186.851 Y35.617
X186.826 Y35.698
X186.376 Y37.264
X186.355 Y37.342
X185.955 Y38.925
X185.937 Y39.003
X185.587 Y40.602
X185.57 Y40.684
X185.273 Y42.297
X185.26 Y42.378
X185.015 Y44.005
X185.004 Y44.088
X184.813 Y45.728
X184.805 Y45.809
X184.667 Y47.46
X184.661 Y47.545
X184.579 Y49.206
X184.577 Y49.276
X184.55 Y50.529
X184.549 Y50.582
Y541.001
G2 X187.049 Y543.501 I2.5 J0
G1 X212.049
G2 X214.549 Y541.001 I0 J-2.5
G1 Y100.819
X214.562 Y100.255
X214.599 Y99.499
X214.66 Y98.757
X214.746 Y98.02
X214.856 Y97.288
X214.99 Y96.563
X215.148 Y95.842
X215.328 Y95.129
X215.53 Y94.424
X215.755 Y93.728
X216.002 Y93.042
X216.272 Y92.364
X216.565 Y91.692
X216.875 Y91.034
X217.208 Y90.388
X217.562 Y89.751
X217.938 Y89.125
X218.331 Y88.512
X218.745 Y87.914
X219.18 Y87.326
X219.633 Y86.754
X220.104 Y86.196
X220.595 Y85.653
X221.104 Y85.124
X221.631 Y84.612
X222.174 Y84.117
X222.737 Y83.638
X223.315 Y83.177
X223.912 Y82.733
X224.524 Y82.308
X225.16 Y81.898
X225.639 Y81.606
X225.794 Y81.518
X225.803 Y81.512
X225.957 Y81.423
X226.45 Y81.153
X227.122 Y80.808
X227.796 Y80.491
X228.479 Y80.196
X229.168 Y79.925
X229.864 Y79.678
X230.564 Y79.454
X231.273 Y79.254
X231.984 Y79.077
X232.7 Y78.924
X233.418 Y78.795
X234.141 Y78.689
X234.866 Y78.606
X235.593 Y78.548
X236.32 Y78.512
X237.049 Y78.501
X237.776 Y78.512
X238.504 Y78.548
X239.232 Y78.606
X239.955 Y78.689
X240.678 Y78.795
X241.398 Y78.924
X242.112 Y79.077
X242.825 Y79.254
X243.531 Y79.454
X244.234 Y79.678
X244.928 Y79.925
X245.618 Y80.196
X246.299 Y80.49
X246.975 Y80.808
X247.646 Y81.153
X248.144 Y81.426
X248.299 Y81.515
X248.453 Y81.604
X248.938 Y81.899
X249.573 Y82.308
X250.184 Y82.733
X250.781 Y83.177
X251.36 Y83.638
X251.921 Y84.116
X252.465 Y84.612
X252.993 Y85.126
X253.503 Y85.653
X253.991 Y86.195
X254.464 Y86.754
X254.918 Y87.327
X255.35 Y87.912
X255.764 Y88.512
X256.16 Y89.126
X256.533 Y89.75
X256.888 Y90.388
X257.222 Y91.036
X257.534 Y91.693
X257.824 Y92.362
X258.093 Y93.04
X258.341 Y93.728
X258.566 Y94.425
X258.769 Y95.13
X258.949 Y95.841
X259.106 Y96.561
X259.24 Y97.288
X259.35 Y98.02
X259.436 Y98.758
X259.498 Y99.502
X259.536 Y100.256
X259.549 Y100.819
Y541.001
G2 X261.879 Y543.495 I2.5 J0
G1 Z-28 F333.3
X262.049 Y543.501 F1000
X287.049
G2 X289.549 Y541.001 I0 J-2.5
G1 Y50.582
X289.548 Y50.527
X289.52 Y49.274
X289.518 Y49.205
X289.435 Y47.543
X289.429 Y47.46
X289.291 Y45.809
X289.283 Y45.726
X289.091 Y44.086
X289.08 Y44.007
X288.836 Y42.379
X288.823 Y42.297
X288.526 Y40.684
X288.509 Y40.603
X288.16 Y39.004
X288.142 Y38.925
X287.742 Y37.342
X287.72 Y37.262
X287.269 Y35.696
X287.245 Y35.617
X286.743 Y34.069
X286.717 Y33.994
X286.167 Y32.466
X286.139 Y32.391
X285.541 Y30.883
X285.51 Y30.808
X284.864 Y29.321
X284.829 Y29.246
X284.134 Y27.782
X284.099 Y27.711
X283.359 Y26.272
X283.321 Y26.201
X282.535 Y24.786
X282.494 Y24.715
X281.662 Y23.327
X281.62 Y23.259
X280.744 Y21.898
X280.699 Y21.829
X279.778 Y20.496
X279.731 Y20.431
X278.767 Y19.128
X278.717 Y19.063
X277.71 Y17.791
X277.659 Y17.728
X276.61 Y16.487
X276.557 Y16.426
X275.467 Y15.219
X275.412 Y15.16
X274.282 Y13.987
X274.223 Y13.928
X273.052 Y12.79
X272.993 Y12.734
X271.783 Y11.632
X271.721 Y11.578
X270.472 Y10.514
X270.409 Y10.461
X269.122 Y9.436
X269.057 Y9.386
X267.733 Y8.4
X267.665 Y8.351
X266.303 Y7.406
X266.235 Y7.361
X264.838 Y6.458
X264.779 Y6.421
X263.708 Y5.771
X263.662 Y5.744
X263.301 Y5.535
X263.295 Y5.532
X262.932 Y5.323
X262.888 Y5.298
X261.79 Y4.696
X261.728 Y4.663
X260.247 Y3.904
X260.173 Y3.867
X258.674 Y3.161
X258.599 Y3.127
X257.084 Y2.473
X257.007 Y2.441
X255.475 Y1.839
X255.398 Y1.811
X253.852 Y1.261
X253.775 Y1.235
X252.216 Y0.738
X252.137 Y0.714
X250.566 Y0.269
X250.487 Y0.248
X248.905 Y-0.144
X248.826 Y-0.162
X247.236 Y-0.503
X247.156 Y-0.518
X245.557 Y-0.806
X245.477 Y-0.819
X243.871 Y-1.055
X243.791 Y-1.065
X242.182 Y-1.248
X242.101 Y-1.256
X240.485 Y-1.387
X240.404 Y-1.392
X238.788 Y-1.471
X238.707 Y-1.473
X237.089 Y-1.5
X237.009
X235.389 Y-1.473
X235.308 Y-1.471
X233.692 Y-1.392
X233.611 Y-1.387
X231.997 Y-1.256
X231.917 Y-1.248
X230.306 Y-1.065
X230.225 Y-1.055
X228.619 Y-0.819
X228.539 Y-0.806
X226.94 Y-0.518
X226.86 Y-0.503
X225.27 Y-0.162
X225.191 Y-0.144
X223.609 Y0.248
X223.53 Y0.269
X221.959 Y0.714
X221.88 Y0.738
X220.322 Y1.235
X220.245 Y1.261
X218.698 Y1.81
X218.62 Y1.84
X217.089 Y2.441
X217.014 Y2.472
X215.497 Y3.127
X215.421 Y3.161
X213.923 Y3.868
X213.849 Y3.904
X212.368 Y4.663
X212.306 Y4.696
X211.208 Y5.298
X211.158 Y5.326
X210.8 Y5.533
X210.439 Y5.741
X210.388 Y5.771
X209.317 Y6.421
X209.258 Y6.458
X207.861 Y7.361
X207.792 Y7.407
X206.431 Y8.352
X206.365 Y8.4
X205.04 Y9.385
X204.973 Y9.436
X203.687 Y10.462
X203.625 Y10.513
X202.375 Y11.577
X202.313 Y11.632
X201.103 Y12.734
X201.044 Y12.79
X199.873 Y13.928
X199.814 Y13.987
X198.684 Y15.16
X198.63 Y15.218
X197.539 Y16.426
X197.484 Y16.488
X196.436 Y17.729
X196.386 Y17.791
X195.379 Y19.063
X195.328 Y19.129
X194.365 Y20.432
X194.319 Y20.498
X193.399 Y21.83
X193.354 Y21.896
X192.477 Y23.258
X192.435 Y23.327
X191.603 Y24.715
X191.562 Y24.785
X190.775 Y26.199
X190.737 Y26.271
X189.996 Y27.71
X189.959 Y27.785
X189.266 Y29.248
X189.234 Y29.32
X188.587 Y30.806
X188.555 Y30.883
X187.957 Y32.391
X187.929 Y32.466
X187.379 Y33.994
X187.353 Y34.069
X186.851 Y35.617
X186.826 Y35.698
X186.376 Y37.264
X186.355 Y37.342
X185.955 Y38.925
X185.937 Y39.003
X185.587 Y40.602
X185.57 Y40.684
X185.273 Y42.297
X185.26 Y42.378
X185.015 Y44.005
X185.004 Y44.088
X184.813 Y45.728
X184.805 Y45.809
X184.667 Y47.46
X184.661 Y47.545
X184.579 Y49.206
X184.577 Y49.276
X184.55 Y50.529
X184.549 Y50.582
Y541.001
G2 X187.049 Y543.501 I2.5 J0
G1 X212.049
G2 X214.549 Y541.001 I0 J-2.5
G1 Y100.819
X214.562 Y100.255
X214.599 Y99.499
X214.66 Y98.757
X214.746 Y98.02
X214.856 Y97.288
X214.99 Y96.563
X215.148 Y95.842
X215.328 Y95.129
X215.53 Y94.424
X215.755 Y93.728
X216.002 Y93.042
X216.272 Y92.364
X216.565 Y91.692
X216.875 Y91.034
X217.208 Y90.388
X217.562 Y89.751
X217.938 Y89.125
X218.331 Y88.512
X218.745 Y87.914
X219.18 Y87.326
X219.633 Y86.754
X220.104 Y86.196
X220.595 Y85.653
X221.104 Y85.124
X221.631 Y84.612
X222.174 Y84.117
X222.737 Y83.638
X223.315 Y83.177
X223.912 Y82.733
X224.524 Y82.308
X225.16 Y81.898
X225.639 Y81.606
X225.794 Y81.518
X225.803 Y81.512
X225.957 Y81.423
X226.45 Y81.153
X227.122 Y80.808
X227.796 Y80.491
X228.479 Y80.196
X229.168 Y79.925
X229.864 Y79.678
X230.564 Y79.454
X231.273 Y79.254
X231.984 Y79.077
X232.7 Y78.924
X233.418 Y78.795
X234.141 Y78.689
X234.866 Y78.606
X235.593 Y78.548
X236.32 Y78.512
X237.049 Y78.501
X237.776 Y78.512
X238.504 Y78.548
X239.232 Y78.606
X239.955 Y78.689
X240.678 Y78.795
X241.398 Y78.924
X242.112 Y79.077
X242.825 Y79.254
X243.531 Y79.454
X244.234 Y79.678
X244.928 Y79.925
X245.618 Y80.196
X246.299 Y80.49
X246.975 Y80.808
X247.646 Y81.153
X248.144 Y81.426
X248.299 Y81.515
X248.453 Y81.604
X248.938 Y81.899
X249.573 Y82.308
X250.184 Y82.733
X250.781 Y83.177
X251.36 Y83.638
X251.921 Y84.116
X252.465 Y84.612
X252.993 Y85.126
X253.503 Y85.653
X253.991 Y86.195
X254.464 Y86.754
X254.918 Y87.327
X255.35 Y87.912
X255.764 Y88.512
X256.16 Y89.126
X256.533 Y89.75
X256.888 Y90.388
X257.222 Y91.036
X257.534 Y91.693
X257.824 Y92.362
X258.093 Y93.04
X258.341 Y93.728
X258.566 Y94.425
X258.769 Y95.13
X258.949 Y95.841
X259.106 Y96.561
X259.24 Y97.288
X259.35 Y98.02
X259.436 Y98.758
X259.498 Y99.502
X259.536 Y100.256
X259.549 Y100.819
Y541.001
G2 X261.879 Y543.495 I2.5 J0
G1 Z5
G0 Z15

M9
M5
M30
