(Staubfuss_20mm)
(T4 D=5 CR=0 - ZMIN=-19 - flat end mill)
G90 G94
G17
G21
(-Attention- Property Safe Retracts is set to Clearance Height.)
(Ensure the clearance height will clear the part and or fixtures.)
(Raise the Z-axis to a safe height before starting the program.)

(2D Contour1)
T4
S5000 M3
G17 G90 G94
G54
M8
G0 X57.5 Y38.5
Z15
G0 Z5
G1 Z1 F333.3
Z-3
G3 X27.5 Y38.5 I-15 J0 F1000
X57.5 Y38.5 I15 J0
G1 Z-6 F333.3
G3 X27.5 Y38.5 I-15 J0 F1000
X57.5 Y38.5 I15 J0
G1 Z-9 F333.3
G3 X27.5 Y38.5 I-15 J0 F1000
X57.5 Y38.5 I15 J0
G1 Z-12 F333.3
G3 X27.5 Y38.5 I-15 J0 F1000
X57.5 Y38.5 I15 J0
G1 Z-15 F333.3
G3 X27.5 Y38.5 I-15 J0 F1000
X57.5 Y38.5 I15 J0
G1 Z-18 F333.3
G3 X27.5 Y38.5 I-15 J0 F1000
X57.5 Y38.5 I15 J0
G1 Z-19 F333.3
G3 X27.5 Y38.5 I-15 J0 F1000
X57.5 Y38.5 I15 J0
G0 Z15

(2D Contour2)
G0 X45.151 Y121.896
Z15
Z5
G1 Z1 F333.3
Z-3
G2 X43 Y124.372 I0.349 J2.476 F1000
G1 Y162.428
G2 X45.5 Y164.928 I2.5 J0
G1 X61.299
G2 X63.799 Y162.428 I0 J-2.5
G1 Y141.583
G2 X86.415 Y100.357 I-21.299 J-38.501
G1 X82.423 Y36.023
G2 X2.547 Y36.566 I-39.923 J2.477
G1 X2.535 Y36.702
X-1.416 Y100.357
G2 X21.201 Y141.583 I43.915 J2.725
G1 Y162.428
G2 X23.701 Y164.928 I2.5 J0
G1 X39.5
G2 X42 Y162.428 I0 J-2.5
G1 Y124.372
G2 X39.849 Y121.896 I-2.5 J0
G3 X45.151 Y84.27 I2.651 J-18.813
X45.151 Y121.896 I-2.651 J18.813
G1 Z-6 F333.3
G2 X43 Y124.372 I0.349 J2.476 F1000
G1 Y162.428
G2 X45.5 Y164.928 I2.5 J0
G1 X61.299
G2 X63.799 Y162.428 I0 J-2.5
G1 Y141.583
G2 X86.415 Y100.357 I-21.299 J-38.501
G1 X82.423 Y36.023
G2 X2.547 Y36.566 I-39.923 J2.477
G1 X2.535 Y36.702
X-1.416 Y100.357
G2 X21.201 Y141.583 I43.915 J2.725
G1 Y162.428
G2 X23.701 Y164.928 I2.5 J0
G1 X39.5
G2 X42 Y162.428 I0 J-2.5
G1 Y124.372
G2 X39.849 Y121.896 I-2.5 J0
G3 X45.151 Y84.27 I2.651 J-18.813
X45.151 Y121.896 I-2.651 J18.813
G1 Z-9 F333.3
G2 X43 Y124.372 I0.349 J2.476 F1000
G1 Y162.428
G2 X45.5 Y164.928 I2.5 J0
G1 X61.299
G2 X63.799 Y162.428 I0 J-2.5
G1 Y141.583
G2 X86.415 Y100.357 I-21.299 J-38.501
G1 X82.423 Y36.023
G2 X2.547 Y36.566 I-39.923 J2.477
G1 X2.535 Y36.702
X-1.416 Y100.357
G2 X21.201 Y141.583 I43.915 J2.725
G1 Y162.428
G2 X23.701 Y164.928 I2.5 J0
G1 X39.5
G2 X42 Y162.428 I0 J-2.5
G1 Y124.372
G2 X39.849 Y121.896 I-2.5 J0
G3 X45.151 Y84.27 I2.651 J-18.813
X45.151 Y121.896 I-2.651 J18.813
G1 Z-12 F333.3
G2 X43 Y124.372 I0.349 J2.476 F1000
G1 Y162.428
G2 X45.5 Y164.928 I2.5 J0
G1 X61.299
G2 X63.799 Y162.428 I0 J-2.5
G1 Y141.583
G2 X86.415 Y100.357 I-21.299 J-38.501
G1 X82.423 Y36.023
G2 X2.547 Y36.566 I-39.923 J2.477
G1 X2.535 Y36.702
X-1.416 Y100.357
G2 X21.201 Y141.583 I43.915 J2.725
G1 Y162.428
G2 X23.701 Y164.928 I2.5 J0
G1 X39.5
G2 X42 Y162.428 I0 J-2.5
G1 Y124.372
G2 X39.849 Y121.896 I-2.5 J0
G3 X45.151 Y84.27 I2.651 J-18.813
X45.151 Y121.896 I-2.651 J18.813
G1 Z-15 F333.3
G2 X43 Y124.372 I0.349 J2.476 F1000
G1 Y162.428
G2 X45.5 Y164.928 I2.5 J0
G1 X61.299
G2 X63.799 Y162.428 I0 J-2.5
G1 Y141.583
G2 X86.415 Y100.357 I-21.299 J-38.501
G1 X82.423 Y36.023
G2 X2.547 Y36.566 I-39.923 J2.477
G1 X2.535 Y36.702
X-1.416 Y100.357
G2 X21.201 Y141.583 I43.915 J2.725
G1 Y162.428
G2 X23.701 Y164.928 I2.5 J0
G1 X39.5
G2 X42 Y162.428 I0 J-2.5
G1 Y124.372
G2 X39.849 Y121.896 I-2.5 J0
G3 X45.151 Y84.27 I2.651 J-18.813
X45.151 Y121.896 I-2.651 J18.813
G1 Z-18 F333.3
G2 X43 Y124.372 I0.349 J2.476 F1000
G1 Y162.428
G2 X45.5 Y164.928 I2.5 J0
G1 X61.299
G2 X63.799 Y162.428 I0 J-2.5
G1 Y141.583
G2 X86.415 Y100.357 I-21.299 J-38.501
G1 X82.423 Y36.023
G2 X2.547 Y36.566 I-39.923 J2.477
G1 X2.535 Y36.702
X-1.416 Y100.357
G2 X21.201 Y141.583 I43.915 J2.725
G1 Y162.428
G2 X23.701 Y164.928 I2.5 J0
G1 X39.5
G2 X42 Y162.428 I0 J-2.5
G1 Y124.372
G2 X39.849 Y121.896 I-2.5 J0
G3 X45.151 Y84.27 I2.651 J-18.813
X45.151 Y121.896 I-2.651 J18.813
G1 Z-19 F333.3
G2 X43 Y124.372 I0.349 J2.476 F1000
G1 Y162.428
G2 X45.5 Y164.928 I2.5 J0
G1 X61.299
G2 X63.799 Y162.428 I0 J-2.5
G1 Y141.583
G2 X86.415 Y100.357 I-21.299 J-38.501
G1 X82.423 Y36.023
G2 X2.547 Y36.566 I-39.923 J2.477
G1 X2.535 Y36.702
X-1.416 Y100.357
G2 X21.201 Y141.583 I43.915 J2.725
G1 Y162.428
G2 X23.701 Y164.928 I2.5 J0
G1 X39.5
G2 X42 Y162.428 I0 J-2.5
G1 Y124.372
G2 X39.849 Y121.896 I-2.5 J0
G3 X45.151 Y84.27 I2.651 J-18.813
X45.151 Y121.896 I-2.651 J18.813
G0 Z15
M9
M5
M30
