(TinyCNCRaspberryFront)
(T3  D=3 CR=0 - ZMIN=-19 - flat end mill)
G90 G94
G17
G21

(2D Pocket12)
T3
S5000 M3
G54
M8
G0 X196.836 Y104.982
Z15
Z5
G1 Z2.8 F333.3
X196.846 Y104.945 Z2.653
X196.879 Y104.845 Z2.544
X196.935 Y104.711 Z2.5
G3 X199.5 Y105.954 Z2.344 I1.282 J0.621
X196.935 Y104.711 Z2.187 I-1.282 J-0.621
X199.5 Y105.954 Z2.031 I1.282 J0.621
X196.935 Y104.711 Z1.875 I-1.282 J-0.621
X199.5 Y105.954 Z1.718 I1.282 J0.621
X196.935 Y104.711 Z1.562 I-1.282 J-0.621
X199.5 Y105.954 Z1.406 I1.282 J0.621
X196.935 Y104.711 Z1.249 I-1.282 J-0.621
X199.5 Y105.954 Z1.093 I1.282 J0.621
X196.935 Y104.711 Z0.937 I-1.282 J-0.621
X199.5 Y105.954 Z0.78 I1.282 J0.621
X196.935 Y104.711 Z0.624 I-1.282 J-0.621
X199.5 Y105.954 Z0.468 I1.282 J0.621
X196.935 Y104.711 Z0.311 I-1.282 J-0.621
X199.5 Y105.954 Z0.155 I1.282 J0.621
X196.935 Y104.711 Z-0.001 I-1.282 J-0.621
X199.5 Y105.954 Z-0.158 I1.282 J0.621
X196.935 Y104.711 Z-0.314 I-1.282 J-0.621
X199.5 Y105.954 Z-0.47 I1.282 J0.621
X196.935 Y104.711 Z-0.627 I-1.282 J-0.621
X199.5 Y105.954 Z-0.783 I1.282 J0.621
X196.935 Y104.711 Z-0.939 I-1.282 J-0.621
X199.5 Y105.954 Z-1.096 I1.282 J0.621
X196.935 Y104.711 Z-1.252 I-1.282 J-0.621
X199.5 Y105.954 Z-1.408 I1.282 J0.621
X196.935 Y104.711 Z-1.565 I-1.282 J-0.621
X199.5 Y105.954 Z-1.721 I1.282 J0.621
X196.935 Y104.711 Z-1.877 I-1.282 J-0.621
X199.607 Y105.015 Z-2 I1.282 J0.621
G1 X199.645 Y105.181 F1000
G3 X199.405 Y105.564 I-0.311 J0.071
G1 X119.132 Y123.904
G3 X118.75 Y123.664 I-0.071 J-0.311
G1 X118.674 Y123.331
G3 X118.914 Y122.949 I0.311 J-0.071
G1 X199.186 Y104.608
G3 X199.569 Y104.849 I0.071 J0.311
G1 X199.607 Y105.015
G2 X200.231 Y105.564 I0.693 J-0.158
G3 X200.284 Y106.394 I-0.041 J0.419
G1 X118.376 Y125.108
G3 X117.994 Y124.867 I-0.071 J-0.311
G1 X117.47 Y122.575
G3 X117.71 Y122.193 I0.311 J-0.071
G1 X199.942 Y103.405
G3 X200.325 Y103.645 I0.071 J0.311
G1 X200.849 Y105.937
G3 X200.608 Y106.32 I-0.311 J0.071
G1 X200.284 Y106.394
G2 X199.23 Y107.506 I0.308 J1.347
G3 X198.177 Y108.619 I-1.361 J-0.234
G1 X117.097 Y127.144
G3 X116.715 Y126.903 I-0.071 J-0.311
G1 X115.434 Y121.297
G3 X115.674 Y120.914 I0.311 J-0.071
G1 X201.221 Y101.369
G3 X201.604 Y101.609 I0.071 J0.311
G1 X202.885 Y107.216
G3 X202.644 Y107.598 I-0.311 J0.071
G1 X198.177 Y108.619
G2 X197.123 Y109.732 I0.308 J1.347
G3 X196.069 Y110.844 I-1.361 J-0.234
G1 X115.819 Y129.18
G3 X115.436 Y128.939 I-0.071 J-0.311
G1 X113.398 Y120.018
G3 X113.638 Y119.636 I0.311 J-0.071
G1 X202.5 Y99.333
G3 X202.882 Y99.573 I0.071 J0.311
G1 X204.92 Y108.495
G3 X204.68 Y108.877 I-0.311 J0.071
G1 X196.069 Y110.844
G2 X195.016 Y111.957 I0.308 J1.347
G3 X193.962 Y113.07 I-1.361 J-0.234
G1 X114.54 Y131.215
G3 X114.158 Y130.975 I-0.071 J-0.311
G1 X111.362 Y118.739
G3 X111.602 Y118.357 I0.311 J-0.071
G1 X203.778 Y97.297
G3 X204.161 Y97.537 I0.071 J0.311
G1 X206.956 Y109.773
G3 X206.716 Y110.156 I-0.311 J0.071
G1 X193.962 Y113.07
G2 X192.909 Y114.182 I0.308 J1.347
G3 X191.855 Y115.295 I-1.361 J-0.234
G1 X113.262 Y133.251
G3 X112.879 Y133.011 I-0.071 J-0.311
G1 X109.326 Y117.461
G3 X109.566 Y117.078 I0.311 J-0.071
G1 X205.057 Y95.261
G3 X205.439 Y95.501 I0.071 J0.311
G1 X208.992 Y111.052
G3 X208.752 Y111.434 I-0.311 J0.071
G1 X191.855 Y115.295
G2 X190.801 Y116.408 I0.308 J1.347
G3 X189.748 Y117.52 I-1.361 J-0.234
G1 X111.983 Y135.287
G3 X111.6 Y135.047 I-0.071 J-0.311
G1 X107.29 Y116.182
G3 X107.53 Y115.8 I0.311 J-0.071
G1 X206.336 Y93.225
G3 X206.718 Y93.465 I0.071 J0.311
G1 X211.028 Y112.33
G3 X210.788 Y112.713 I-0.311 J0.071
G1 X189.748 Y117.52
G2 X188.694 Y118.633 I0.308 J1.347
G3 X187.64 Y119.745 I-1.361 J-0.234
G1 X110.704 Y137.323
G3 X110.322 Y137.083 I-0.071 J-0.311
G1 X105.254 Y114.904
G3 X105.494 Y114.521 I0.311 J-0.071
G1 X207.614 Y91.189
G3 X207.997 Y91.429 I0.071 J0.311
G1 X213.064 Y113.609
G3 X212.824 Y113.992 I-0.311 J0.071
G1 X187.64 Y119.745
G2 X186.587 Y120.858 I0.308 J1.347
G3 X185.533 Y121.971 I-1.361 J-0.234
G1 X109.426 Y139.359
G3 X109.043 Y139.119 I-0.071 J-0.311
G1 X103.218 Y113.625
G3 X103.458 Y113.242 I0.311 J-0.071
G1 X208.893 Y89.153
G3 X209.275 Y89.393 I0.071 J0.311
G1 X215.1 Y114.888
G3 X214.86 Y115.27 I-0.311 J0.071
G1 X185.533 Y121.971
G2 X184.479 Y123.083 I0.308 J1.347
G3 X183.426 Y124.196 I-1.361 J-0.234
G1 X108.147 Y141.395
G3 X107.765 Y141.155 I-0.071 J-0.311
G1 X101.182 Y112.346
G3 X101.423 Y111.964 I0.311 J-0.071
G1 X210.172 Y87.117
G3 X210.554 Y87.357 I0.071 J0.311
G1 X217.136 Y116.166
G3 X216.896 Y116.549 I-0.311 J0.071
G1 X183.426 Y124.196
G2 X182.372 Y125.309 I0.308 J1.347
G3 X181.318 Y126.421 I-1.361 J-0.234
G1 X106.868 Y143.431
G3 X106.486 Y143.191 I-0.071 J-0.311
G1 X99.146 Y111.068
G3 X99.387 Y110.685 I0.311 J-0.071
G1 X211.45 Y85.081
G3 X211.833 Y85.321 I0.071 J0.311
G1 X219.172 Y117.445
G3 X218.932 Y117.828 I-0.311 J0.071
G1 X181.318 Y126.421
G2 X180.265 Y127.534 I0.308 J1.347
G3 X179.211 Y128.646 I-1.361 J-0.234
G1 X105.59 Y145.467
G3 X105.207 Y145.227 I-0.071 J-0.311
G1 X97.11 Y109.789
G3 X97.351 Y109.407 I0.311 J-0.071
G1 X212.729 Y83.045
G3 X213.111 Y83.286 I0.071 J0.311
G1 X221.208 Y118.724
G3 X220.968 Y119.106 I-0.311 J0.071
G1 X179.211 Y128.646
G2 X178.157 Y129.759 I0.308 J1.347
G3 X177.104 Y130.872 I-1.361 J-0.234
G1 X104.311 Y147.503
G3 X103.929 Y147.263 I-0.071 J-0.311
G1 X95.074 Y108.51
G3 X95.315 Y108.128 I0.311 J-0.071
G1 X214.007 Y81.009
G3 X214.39 Y81.25 I0.071 J0.311
G1 X223.244 Y120.002
G3 X223.004 Y120.385 I-0.311 J0.071
G1 X177.104 Y130.872
G2 X176.05 Y131.984 I0.308 J1.347
G3 X174.997 Y133.097 I-1.361 J-0.234
G1 X103.032 Y149.539
G3 X102.65 Y149.299 I-0.071 J-0.311
G1 X93.039 Y107.232
G3 X93.279 Y106.849 I0.311 J-0.071
G1 X215.286 Y78.973
G3 X215.669 Y79.214 I0.071 J0.311
G1 X225.28 Y121.281
G3 X225.04 Y121.663 I-0.311 J0.071
G1 X174.997 Y133.097
G2 X173.943 Y134.21 I0.308 J1.347
G3 X172.889 Y135.322 I-1.361 J-0.234
G1 X101.754 Y151.575
G3 X101.371 Y151.335 I-0.071 J-0.311
G1 X91.003 Y105.953
G3 X91.243 Y105.571 I0.311 J-0.071
G1 X216.565 Y76.937
G3 X216.947 Y77.178 I0.071 J0.311
G1 X227.316 Y122.56
G3 X227.076 Y122.942 I-0.311 J0.071
G1 X172.889 Y135.322
G2 X171.836 Y136.435 I0.308 J1.347
G3 X170.782 Y137.548 I-1.361 J-0.234
G1 X100.475 Y153.611
G3 X100.093 Y153.371 I-0.071 J-0.311
G1 X88.967 Y104.674
G3 X89.207 Y104.292 I0.311 J-0.071
G1 X217.843 Y74.902
G3 X218.226 Y75.142 I0.071 J0.311
G1 X229.352 Y123.838
G3 X229.112 Y124.221 I-0.311 J0.071
G1 X170.782 Y137.548
G2 X169.728 Y138.66 I0.308 J1.347
G3 X168.675 Y139.773 I-1.361 J-0.234
G1 X99.196 Y155.647
G3 X98.814 Y155.407 I-0.071 J-0.311
G1 X86.931 Y103.396
G3 X87.171 Y103.013 I0.311 J-0.071
G1 X219.122 Y72.866
G3 X219.504 Y73.106 I0.071 J0.311
G1 X231.388 Y125.117
G3 X231.148 Y125.499 I-0.311 J0.071
G1 X168.675 Y139.773
G2 X167.621 Y140.885 I0.308 J1.347
G3 X166.567 Y141.998 I-1.361 J-0.234
G1 X97.918 Y157.683
G3 X97.535 Y157.443 I-0.071 J-0.311
G1 X84.895 Y102.117
G3 X85.135 Y101.735 I0.311 J-0.071
G1 X220.401 Y70.83
G3 X220.783 Y71.07 I0.071 J0.311
G1 X233.424 Y126.396
G3 X233.184 Y126.778 I-0.311 J0.071
G1 X166.567 Y141.998
G2 X165.514 Y143.111 I0.308 J1.347
G3 X164.46 Y144.223 I-1.361 J-0.234
G1 X96.639 Y159.719
G3 X96.257 Y159.478 I-0.071 J-0.311
G1 X82.859 Y100.839
G3 X83.099 Y100.456 I0.311 J-0.071
G1 X221.679 Y68.794
G3 X222.062 Y69.034 I0.071 J0.311
G1 X235.46 Y127.674
G3 X235.219 Y128.057 I-0.311 J0.071
G1 X164.46 Y144.223
G2 X163.406 Y145.336 I0.308 J1.347
G3 X162.353 Y146.449 I-1.361 J-0.234
G1 X95.361 Y161.755
G3 X94.978 Y161.514 I-0.071 J-0.311
G1 X80.823 Y99.56
G3 X81.063 Y99.177 I0.311 J-0.071
G1 X222.958 Y66.758
G3 X223.34 Y66.998 I0.071 J0.311
G1 X237.496 Y128.953
G3 X237.255 Y129.335 I-0.311 J0.071
G1 X162.353 Y146.449
G2 X161.299 Y147.561 I0.308 J1.347
G3 X160.245 Y148.674 I-1.361 J-0.234
G1 X94.082 Y163.791
G3 X93.699 Y163.55 I-0.071 J-0.311
G1 X78.787 Y98.281
G3 X79.027 Y97.899 I0.311 J-0.071
G1 X224.237 Y64.722
G3 X224.619 Y64.962 I0.071 J0.311
G1 X239.532 Y130.232
G3 X239.291 Y130.614 I-0.311 J0.071
G1 X160.245 Y148.674
G2 X159.192 Y149.787 I0.308 J1.347
G3 X158.138 Y150.899 I-1.361 J-0.234
G1 X92.803 Y165.827
G3 X92.421 Y165.586 I-0.071 J-0.311
G1 X76.751 Y97.003
G3 X76.991 Y96.62 I0.311 J-0.071
G1 X225.515 Y62.686
G3 X225.898 Y62.926 I0.071 J0.311
G1 X241.568 Y131.51
G3 X241.327 Y131.893 I-0.311 J0.071
G1 X158.138 Y150.899
G2 X157.085 Y152.012 I0.308 J1.347
G3 X156.031 Y153.124 I-1.361 J-0.234
G1 X91.525 Y167.862
G3 X91.142 Y167.622 I-0.071 J-0.311
G1 X74.715 Y95.724
G3 X74.955 Y95.341 I0.311 J-0.071
G1 X226.794 Y60.65
G3 X227.176 Y60.89 I0.071 J0.311
G1 X243.603 Y132.789
G3 X243.363 Y133.171 I-0.311 J0.071
G1 X156.031 Y153.124
G2 X154.977 Y154.237 I0.308 J1.347
G3 X153.924 Y155.35 I-1.361 J-0.234
G1 X90.246 Y169.898
G3 X89.864 Y169.658 I-0.071 J-0.311
G1 X72.679 Y94.445
G3 X72.919 Y94.063 I0.311 J-0.071
G1 X228.073 Y58.614
G3 X228.455 Y58.854 I0.071 J0.311
G1 X245.639 Y134.067
G3 X245.399 Y134.45 I-0.311 J0.071
G1 X153.924 Y155.35
G2 X152.87 Y156.462 I0.308 J1.347
G3 X151.816 Y157.575 I-1.361 J-0.234
G1 X88.967 Y171.934
G3 X88.585 Y171.694 I-0.071 J-0.311
G1 X70.643 Y93.167
G3 X70.883 Y92.784 I0.311 J-0.071
G1 X229.351 Y56.578
G3 X229.734 Y56.818 I0.071 J0.311
G1 X247.675 Y135.346
G3 X247.435 Y135.729 I-0.311 J0.071
G1 X151.816 Y157.575
G2 X150.763 Y158.688 I0.308 J1.347
G3 X149.709 Y159.8 I-1.361 J-0.234
G1 X87.689 Y173.97
G3 X87.306 Y173.73 I-0.071 J-0.311
G1 X68.607 Y91.888
G3 X68.847 Y91.506 I0.311 J-0.071
G1 X230.63 Y54.542
G3 X231.012 Y54.782 I0.071 J0.311
G1 X249.711 Y136.625
G3 X249.471 Y137.007 I-0.311 J0.071
G1 X149.709 Y159.8
G2 X148.655 Y160.913 I0.308 J1.347
G3 X147.602 Y162.026 I-1.361 J-0.234
G1 X86.41 Y176.006
G3 X86.028 Y175.766 I-0.071 J-0.311
G1 X66.571 Y90.609
G3 X66.811 Y90.227 I0.311 J-0.071
G1 X231.908 Y52.506
G3 X232.291 Y52.746 I0.071 J0.311
G1 X251.747 Y137.903
G3 X251.507 Y138.286 I-0.311 J0.071
G1 X147.602 Y162.026
G2 X146.548 Y163.138 I0.308 J1.347
G3 X145.494 Y164.251 I-1.361 J-0.234
G1 X85.131 Y178.042
G3 X84.749 Y177.802 I-0.071 J-0.311
G1 X64.535 Y89.331
G3 X64.775 Y88.948 I0.311 J-0.071
G1 X233.187 Y50.47
G3 X233.57 Y50.71 I0.071 J0.311
G1 X253.783 Y139.182
G3 X253.543 Y139.564 I-0.311 J0.071
G1 X145.494 Y164.251
G2 X144.441 Y165.363 I0.308 J1.347
G3 X143.387 Y166.476 I-1.361 J-0.234
G1 X83.853 Y180.078
G3 X83.47 Y179.838 I-0.071 J-0.311
G1 X62.499 Y88.052
G3 X62.74 Y87.67 I0.311 J-0.071
G1 X234.466 Y48.434
G3 X234.848 Y48.674 I0.071 J0.311
G1 X255.819 Y140.461
G3 X255.579 Y140.843 I-0.311 J0.071
G1 X143.387 Y166.476
G2 X142.333 Y167.589 I0.308 J1.347
G3 X141.28 Y168.701 I-1.361 J-0.234
G1 X82.574 Y182.114
G3 X82.192 Y181.874 I-0.071 J-0.311
G1 X60.463 Y86.773
G3 X60.704 Y86.391 I0.311 J-0.071
G1 X235.744 Y46.398
G3 X236.127 Y46.638 I0.071 J0.311
G1 X257.855 Y141.739
G3 X257.615 Y142.122 I-0.311 J0.071
G1 X141.28 Y168.701
G2 X140.254 Y169.785 I0.299 J1.311
G3 X139.228 Y170.868 I-1.325 J-0.228
G1 X82.042 Y183.933
G3 X80.784 Y183.143 I-0.234 J-1.023
G1 X58.644 Y86.241
G3 X59.434 Y84.983 I1.024 J-0.234
G1 X236.277 Y44.579
G3 X237.534 Y45.369 I0.234 J1.024
G1 X259.674 Y142.272
G3 X258.885 Y143.529 I-1.023 J0.234
G1 X139.228 Y170.868
G2 X138.175 Y171.98 I0.308 J1.347
G3 X137.121 Y173.093 I-1.361 J-0.234
G1 X82.42 Y185.591
G3 X79.127 Y183.522 I-0.613 J-2.681
G1 X56.987 Y86.62
G3 X59.055 Y83.326 I2.681 J-0.613
G1 X235.898 Y42.922
G3 X239.192 Y44.99 I0.613 J2.681
G1 X261.332 Y141.893
G3 X259.263 Y145.187 I-2.681 J0.613
G1 X137.121 Y173.093
G2 X136.036 Y174.238 I0.317 J1.386
G3 X134.952 Y175.384 I-1.401 J-0.241
G1 X82.81 Y187.297
G3 X77.421 Y183.912 I-1.002 J-4.387
G1 X55.281 Y87.009
G3 X58.665 Y81.62 I4.387 J-1.002
G1 X235.508 Y41.216
G3 X240.898 Y44.6 I1.003 J4.387
G1 X263.038 Y141.503
G3 X259.653 Y146.893 I-4.387 J1.003
G1 X134.952 Y175.384
X134.895 Y175.391 Z-1.989
X134.838 Y175.387 Z-1.977
X134.79 Y175.376 Z-1.945
X134.746 Y175.357 Z-1.912
X134.692 Y175.321 Z-1.815
X134.675 Y175.305 Z-1.7
G0 Z15

(2D Pocket13)
X140.345 Y83.969
Z15
Z5
G1 Z-2.867 F333.3
X140.344 Y83.961 Z-2.933 F1000
X140.339 Y83.94 Z-2.997
X140.331 Y83.905 Z-3.054
X140.32 Y83.859 Z-3.101
X140.308 Y83.803 Z-3.137
X140.294 Y83.741 Z-3.159
X140.279 Y83.676 Z-3.167
X139.228 Y79.077
X138.929 Y77.77
G3 X139.169 Y77.388 I0.311 J-0.071
G1 X161.154 Y72.365
G3 X161.537 Y72.605 I0.071 J0.311
G1 X161.837 Y73.917
G3 X161.686 Y74.157 I-0.195 J0.045
G1 X137.812 Y79.615
G3 X137.573 Y79.465 I-0.045 J-0.195
G1 X136.893 Y76.491
G3 X137.133 Y76.109 I0.311 J-0.071
G1 X162.433 Y70.329
G3 X162.815 Y70.569 I0.071 J0.311
G1 X163.494 Y73.538
G3 X163.343 Y73.778 I-0.195 J0.045
G1 X136.153 Y79.986
G3 X135.914 Y79.836 I-0.045 J-0.195
G1 X134.857 Y75.213
G3 X135.098 Y74.83 I0.311 J-0.071
G1 X163.712 Y68.293
G3 X164.094 Y68.533 I0.071 J0.311
G1 X165.151 Y73.159
G3 X165.001 Y73.399 I-0.195 J0.045
G1 X134.494 Y80.357
G3 X134.255 Y80.207 I-0.044 J-0.195
G1 X132.821 Y73.934
G3 X133.062 Y73.552 I0.311 J-0.071
G1 X164.99 Y66.257
G3 X165.373 Y66.497 I0.071 J0.311
G1 X166.808 Y72.78
G3 X166.658 Y73.02 I-0.195 J0.045
G1 X132.839 Y80.745
G3 X132.599 Y80.595 I-0.045 J-0.195
G1 X130.785 Y72.656
G3 X131.026 Y72.273 I0.311 J-0.071
G1 X166.269 Y64.221
G3 X166.651 Y64.461 I0.071 J0.311
G1 X168.465 Y72.402
G3 X168.315 Y72.641 I-0.195 J0.045
G1 X131.18 Y81.116
G3 X130.94 Y80.966 I-0.044 J-0.195
G1 X128.749 Y71.377
G3 X128.99 Y70.994 I0.311 J-0.071
G1 X167.547 Y62.185
G3 X167.93 Y62.425 I0.071 J0.311
G1 X170.123 Y72.023
G3 X169.972 Y72.262 I-0.195 J0.045
G1 X129.525 Y81.504
G3 X129.285 Y81.353 I-0.045 J-0.195
G1 X126.714 Y70.098
G3 X126.954 Y69.716 I0.311 J-0.071
G1 X168.826 Y60.149
G3 X169.209 Y60.389 I0.071 J0.311
G1 X171.78 Y71.644
G3 X171.629 Y71.883 I-0.195 J0.045
G1 X127.863 Y81.886
G3 X127.624 Y81.736 I-0.045 J-0.195
G1 X127.312 Y80.374
X124.6 Y68.505
X170.42 Y58.036
X173.132 Y69.905
X173.443 Y71.267
G3 X173.296 Y71.505 I-0.195 J0.045
G1 X139.607 Y79.823
G3 X139.364 Y79.674 I-0.048 J-0.194
G1 X139.349 Y79.608 Z-3.174
X139.335 Y79.547 Z-3.196
X139.322 Y79.491 Z-3.232
X139.312 Y79.445 Z-3.28
X139.304 Y79.41 Z-3.337
X139.299 Y79.388 Z-3.4
X139.297 Y79.381 Z-3.467
Z-6.033
X139.296 Y79.374 Z-6.1
X139.291 Y79.352 Z-6.163
X139.283 Y79.317 Z-6.22
X139.272 Y79.271 Z-6.268
X139.259 Y79.216 Z-6.304
X139.245 Y79.154 Z-6.326
X139.23 Y79.089 Z-6.333
X139.228 Y79.077
X138.929 Y77.77
G3 X139.169 Y77.388 I0.311 J-0.071
G1 X161.154 Y72.365
G3 X161.537 Y72.605 I0.071 J0.311
G1 X161.837 Y73.917
G3 X161.686 Y74.157 I-0.195 J0.045
G1 X137.812 Y79.615
G3 X137.573 Y79.465 I-0.045 J-0.195
G1 X136.893 Y76.491
G3 X137.133 Y76.109 I0.311 J-0.071
G1 X162.433 Y70.329
G3 X162.815 Y70.569 I0.071 J0.311
G1 X163.494 Y73.538
G3 X163.343 Y73.778 I-0.195 J0.045
G1 X136.153 Y79.986
G3 X135.914 Y79.836 I-0.045 J-0.195
G1 X134.857 Y75.213
G3 X135.098 Y74.83 I0.311 J-0.071
G1 X163.712 Y68.293
G3 X164.094 Y68.533 I0.071 J0.311
G1 X165.151 Y73.159
G3 X165.001 Y73.399 I-0.195 J0.045
G1 X134.494 Y80.357
G3 X134.255 Y80.207 I-0.044 J-0.195
G1 X132.821 Y73.934
G3 X133.062 Y73.552 I0.311 J-0.071
G1 X164.99 Y66.257
G3 X165.373 Y66.497 I0.071 J0.311
G1 X166.808 Y72.78
G3 X166.658 Y73.02 I-0.195 J0.045
G1 X132.839 Y80.745
G3 X132.599 Y80.595 I-0.045 J-0.195
G1 X130.785 Y72.656
G3 X131.026 Y72.273 I0.311 J-0.071
G1 X166.269 Y64.221
G3 X166.651 Y64.461 I0.071 J0.311
G1 X168.465 Y72.402
G3 X168.315 Y72.641 I-0.195 J0.045
G1 X131.18 Y81.116
G3 X130.94 Y80.966 I-0.044 J-0.195
G1 X128.749 Y71.377
G3 X128.99 Y70.994 I0.311 J-0.071
G1 X167.547 Y62.185
G3 X167.93 Y62.425 I0.071 J0.311
G1 X170.123 Y72.023
G3 X169.972 Y72.262 I-0.195 J0.045
G1 X129.525 Y81.504
G3 X129.285 Y81.353 I-0.045 J-0.195
G1 X126.714 Y70.098
G3 X126.954 Y69.716 I0.311 J-0.071
G1 X168.826 Y60.149
G3 X169.209 Y60.389 I0.071 J0.311
G1 X171.78 Y71.644
G3 X171.629 Y71.883 I-0.195 J0.045
G1 X127.863 Y81.886
G3 X127.624 Y81.736 I-0.045 J-0.195
G1 X127.312 Y80.374
X124.6 Y68.505
X170.42 Y58.036
X173.132 Y69.905
X173.443 Y71.267
G3 X173.296 Y71.505 I-0.195 J0.045
G1 X139.607 Y79.823
G3 X139.364 Y79.674 I-0.048 J-0.194
G1 X139.349 Y79.608 Z-6.341
X139.335 Y79.547 Z-6.363
X139.322 Y79.491 Z-6.399
X139.312 Y79.445 Z-6.446
X139.304 Y79.41 Z-6.503
X139.299 Y79.388 Z-6.567
X139.297 Y79.381 Z-6.633
Z-9.2
X139.296 Y79.374 Z-9.267
X139.291 Y79.352 Z-9.33
X139.283 Y79.317 Z-9.387
X139.272 Y79.271 Z-9.435
X139.259 Y79.216 Z-9.47
X139.245 Y79.154 Z-9.492
X139.23 Y79.089 Z-9.5
X139.228 Y79.077
X138.929 Y77.77
G3 X139.169 Y77.388 I0.311 J-0.071
G1 X161.154 Y72.365
G3 X161.537 Y72.605 I0.071 J0.311
G1 X161.837 Y73.917
G3 X161.686 Y74.157 I-0.195 J0.045
G1 X137.812 Y79.615
G3 X137.573 Y79.465 I-0.045 J-0.195
G1 X136.893 Y76.491
G3 X137.133 Y76.109 I0.311 J-0.071
G1 X162.433 Y70.329
G3 X162.815 Y70.569 I0.071 J0.311
G1 X163.494 Y73.538
G3 X163.343 Y73.778 I-0.195 J0.045
G1 X136.153 Y79.986
G3 X135.914 Y79.836 I-0.045 J-0.195
G1 X134.857 Y75.213
G3 X135.098 Y74.83 I0.311 J-0.071
G1 X163.712 Y68.293
G3 X164.094 Y68.533 I0.071 J0.311
G1 X165.151 Y73.159
G3 X165.001 Y73.399 I-0.195 J0.045
G1 X134.494 Y80.357
G3 X134.255 Y80.207 I-0.044 J-0.195
G1 X132.821 Y73.934
G3 X133.062 Y73.552 I0.311 J-0.071
G1 X164.99 Y66.257
G3 X165.373 Y66.497 I0.071 J0.311
G1 X166.808 Y72.78
G3 X166.658 Y73.02 I-0.195 J0.045
G1 X132.839 Y80.745
G3 X132.599 Y80.595 I-0.045 J-0.195
G1 X130.785 Y72.656
G3 X131.026 Y72.273 I0.311 J-0.071
G1 X166.269 Y64.221
G3 X166.651 Y64.461 I0.071 J0.311
G1 X168.465 Y72.402
G3 X168.315 Y72.641 I-0.195 J0.045
G1 X131.18 Y81.116
G3 X130.94 Y80.966 I-0.044 J-0.195
G1 X128.749 Y71.377
G3 X128.99 Y70.994 I0.311 J-0.071
G1 X167.547 Y62.185
G3 X167.93 Y62.425 I0.071 J0.311
G1 X170.123 Y72.023
G3 X169.972 Y72.262 I-0.195 J0.045
G1 X129.525 Y81.504
G3 X129.285 Y81.353 I-0.045 J-0.195
G1 X126.714 Y70.098
G3 X126.954 Y69.716 I0.311 J-0.071
G1 X168.826 Y60.149
G3 X169.209 Y60.389 I0.071 J0.311
G1 X171.78 Y71.644
G3 X171.629 Y71.883 I-0.195 J0.045
G1 X127.863 Y81.886
G3 X127.624 Y81.736 I-0.045 J-0.195
G1 X127.312 Y80.374
X124.6 Y68.505
X170.42 Y58.036
X173.132 Y69.905
X173.443 Y71.267
X173.45 Y71.313
X173.551 Y72.81
X173.555 Y72.876 Z-9.492
X173.56 Y72.94 Z-9.47
X173.563 Y72.996 Z-9.435
X173.567 Y73.044 Z-9.387
X173.569 Y73.08 Z-9.33
X173.571 Y73.102 Z-9.267
Y73.109 Z-9.2
G0 Z15

(2D Pocket10)
X128.811 Y120.626
Z15
Z5
G1 Z2.8 F333.3
X128.79 Y120.658 Z2.653
X128.727 Y120.743 Z2.544
X128.63 Y120.852 Z2.5
G3 X126.596 Y118.855 Z2.344 I-1.017 J-0.998
X128.63 Y120.852 Z2.187 I1.017 J0.998
X126.596 Y118.855 Z2.031 I-1.017 J-0.998
X128.63 Y120.852 Z1.875 I1.017 J0.998
X126.596 Y118.855 Z1.718 I-1.017 J-0.998
X128.63 Y120.852 Z1.562 I1.017 J0.998
X126.596 Y118.855 Z1.406 I-1.017 J-0.998
X128.63 Y120.851 Z1.249 I1.017 J0.998
X126.596 Y118.855 Z1.093 I-1.017 J-0.998
X128.63 Y120.851 Z0.937 I1.017 J0.998
X126.596 Y118.855 Z0.78 I-1.017 J-0.998
X128.63 Y120.851 Z0.624 I1.017 J0.998
X126.596 Y118.855 Z0.468 I-1.017 J-0.998
X128.63 Y120.851 Z0.311 I1.017 J0.998
X126.596 Y118.855 Z0.155 I-1.017 J-0.998
X128.63 Y120.851 Z-0.001 I1.017 J0.998
X126.596 Y118.855 Z-0.158 I-1.017 J-0.998
X128.63 Y120.851 Z-0.314 I1.017 J0.998
X126.596 Y118.855 Z-0.47 I-1.017 J-0.998
X128.63 Y120.851 Z-0.627 I1.017 J0.998
X126.596 Y118.855 Z-0.783 I-1.017 J-0.998
X128.63 Y120.851 Z-0.939 I1.017 J0.998
X126.596 Y118.855 Z-1.096 I-1.017 J-0.998
X128.63 Y120.851 Z-1.252 I1.017 J0.998
X126.596 Y118.855 Z-1.408 I-1.017 J-0.998
X128.63 Y120.851 Z-1.565 I1.017 J0.998
X126.596 Y118.855 Z-1.721 I-1.017 J-0.998
X128.63 Y120.851 Z-1.877 I1.017 J0.998
X126.596 Y118.855 Z-2.034 I-1.017 J-0.998
X128.63 Y120.851 Z-2.19 I1.017 J0.998
X126.596 Y118.855 Z-2.346 I-1.017 J-0.998
X128.63 Y120.851 Z-2.503 I1.017 J0.998
X126.596 Y118.855 Z-2.659 I-1.017 J-0.998
X128.63 Y120.851 Z-2.815 I1.017 J0.998
X126.596 Y118.855 Z-2.972 I-1.017 J-0.998
X127.296 Y118.464 Z-3 I1.017 J0.998
G1 X190.054 Y104.125 F1000
G3 X190.437 Y104.366 I0.071 J0.311
G1 X190.604 Y105.098
G3 X190.364 Y105.481 I-0.311 J0.071
G1 X127.239 Y119.903
G3 X126.857 Y119.663 I-0.071 J-0.311
G1 X126.69 Y118.93
G3 X126.93 Y118.548 I0.311 J-0.071
G1 X127.296 Y118.464
G2 X128.35 Y117.352 I-0.308 J-1.347
G3 X129.403 Y116.239 I1.361 J0.234
G1 X191.333 Y102.09
G3 X191.715 Y102.33 I0.071 J0.311
G1 X192.64 Y106.377
G3 X192.4 Y106.759 I-0.311 J0.071
G1 X125.961 Y121.939
G3 X125.578 Y121.699 I-0.071 J-0.311
G1 X124.654 Y117.652
G3 X124.894 Y117.269 I0.311 J-0.071
G1 X129.403 Y116.239
G2 X130.457 Y115.126 I-0.308 J-1.347
G3 X131.511 Y114.014 I1.361 J0.234
G1 X192.611 Y100.054
G3 X192.994 Y100.294 I0.071 J0.311
G1 X194.676 Y107.655
G3 X194.436 Y108.038 I-0.311 J0.071
G1 X124.682 Y123.975
G3 X124.3 Y123.735 I-0.071 J-0.311
G1 X122.618 Y116.373
G3 X122.858 Y115.991 I0.311 J-0.071
G1 X131.511 Y114.014
G2 X132.564 Y112.901 I-0.308 J-1.347
G3 X133.618 Y111.788 I1.361 J0.234
G1 X193.89 Y98.018
G3 X194.273 Y98.258 I0.071 J0.311
G1 X196.712 Y108.934
G3 X196.472 Y109.316 I-0.311 J0.071
G1 X123.403 Y126.011
G3 X123.021 Y125.771 I-0.071 J-0.311
G1 X120.582 Y115.094
G3 X120.822 Y114.712 I0.311 J-0.071
G1 X133.618 Y111.788
G2 X134.672 Y110.676 I-0.308 J-1.347
G3 X135.725 Y109.563 I1.361 J0.234
G1 X195.169 Y95.982
G3 X195.551 Y96.222 I0.071 J0.311
G1 X198.748 Y110.213
G3 X198.508 Y110.595 I-0.311 J0.071
G1 X122.125 Y128.047
G3 X121.742 Y127.807 I-0.071 J-0.311
G1 X118.546 Y113.816
G3 X118.786 Y113.433 I0.311 J-0.071
G1 X135.725 Y109.563
G2 X136.779 Y108.45 I-0.308 J-1.347
G3 X137.832 Y107.338 I1.361 J0.234
G1 X196.447 Y93.946
G3 X196.83 Y94.186 I0.071 J0.311
G1 X200.784 Y111.491
G3 X200.544 Y111.874 I-0.311 J0.071
G1 X120.846 Y130.083
G3 X120.464 Y129.843 I-0.071 J-0.311
G1 X116.51 Y112.537
G3 X116.75 Y112.155 I0.311 J-0.071
G1 X137.832 Y107.338
G2 X138.886 Y106.225 I-0.308 J-1.347
G3 X139.94 Y105.113 I1.361 J0.234
G1 X197.726 Y91.91
G3 X198.108 Y92.15 I0.071 J0.311
G1 X202.82 Y112.77
G3 X202.579 Y113.152 I-0.311 J0.071
G1 X119.568 Y132.119
G3 X119.185 Y131.878 I-0.071 J-0.311
G1 X114.474 Y111.258
G3 X114.714 Y110.876 I0.311 J-0.071
G1 X139.94 Y105.113
G2 X140.993 Y104 I-0.308 J-1.347
G3 X142.047 Y102.887 I1.361 J0.234
G1 X199.005 Y89.874
G3 X199.387 Y90.114 I0.071 J0.311
G1 X204.856 Y114.049
G3 X204.615 Y114.431 I-0.311 J0.071
G1 X118.289 Y134.155
G3 X117.906 Y133.914 I-0.071 J-0.311
G1 X112.438 Y109.98
G3 X112.678 Y109.597 I0.311 J-0.071
G1 X142.047 Y102.887
G2 X143.101 Y101.775 I-0.308 J-1.347
G3 X144.154 Y100.662 I1.361 J0.234
G1 X200.283 Y87.838
G3 X200.666 Y88.078 I0.071 J0.311
G1 X206.892 Y115.327
G3 X206.651 Y115.71 I-0.311 J0.071
G1 X117.01 Y136.191
G3 X116.628 Y135.95 I-0.071 J-0.311
G1 X110.402 Y108.701
G3 X110.642 Y108.319 I0.311 J-0.071
G1 X144.154 Y100.662
G2 X145.208 Y99.549 I-0.308 J-1.347
G3 X146.262 Y98.437 I1.361 J0.234
G1 X201.562 Y85.802
G3 X201.944 Y86.042 I0.071 J0.311
G1 X208.928 Y116.606
G3 X208.687 Y116.988 I-0.311 J0.071
G1 X115.732 Y138.227
G3 X115.349 Y137.986 I-0.071 J-0.311
G1 X108.366 Y107.423
G3 X108.606 Y107.04 I0.311 J-0.071
G1 X146.262 Y98.437
G2 X147.315 Y97.324 I-0.308 J-1.347
G3 X148.369 Y96.211 I1.361 J0.234
G1 X202.841 Y83.766
G3 X203.223 Y84.006 I0.071 J0.311
G1 X210.963 Y117.885
G3 X210.723 Y118.267 I-0.311 J0.071
G1 X114.453 Y140.262
G3 X114.071 Y140.022 I-0.071 J-0.311
G1 X106.33 Y106.144
G3 X106.57 Y105.761 I0.311 J-0.071
G1 X148.369 Y96.211
G2 X149.423 Y95.099 I-0.308 J-1.347
G3 X150.476 Y93.986 I1.361 J0.234
G1 X204.119 Y81.73
G3 X204.502 Y81.97 I0.071 J0.311
G1 X212.999 Y119.163
G3 X212.759 Y119.546 I-0.311 J0.071
G1 X113.174 Y142.298
G3 X112.792 Y142.058 I-0.071 J-0.311
G1 X104.294 Y104.865
G3 X104.534 Y104.483 I0.311 J-0.071
G1 X150.476 Y93.986
G2 X151.53 Y92.874 I-0.308 J-1.347
G3 X152.584 Y91.761 I1.361 J0.234
G1 X205.398 Y79.694
G3 X205.78 Y79.934 I0.071 J0.311
G1 X215.035 Y120.442
G3 X214.795 Y120.824 I-0.311 J0.071
G1 X111.896 Y144.334
G3 X111.513 Y144.094 I-0.071 J-0.311
G1 X102.258 Y103.587
G3 X102.498 Y103.204 I0.311 J-0.071
G1 X152.584 Y91.761
G2 X153.637 Y90.648 I-0.308 J-1.347
G3 X154.691 Y89.536 I1.361 J0.234
G1 X206.676 Y77.658
G3 X207.059 Y77.898 I0.071 J0.311
G1 X217.071 Y121.72
G3 X216.831 Y122.103 I-0.311 J0.071
G1 X110.617 Y146.37
G3 X110.235 Y146.13 I-0.071 J-0.311
G1 X100.222 Y102.308
G3 X100.462 Y101.925 I0.311 J-0.071
G1 X154.691 Y89.536
G2 X155.744 Y88.423 I-0.308 J-1.347
G3 X156.798 Y87.31 I1.361 J0.234
G1 X207.955 Y75.622
G3 X208.338 Y75.862 I0.071 J0.311
G1 X219.107 Y122.999
G3 X218.867 Y123.382 I-0.311 J0.071
G1 X109.338 Y148.406
G3 X108.956 Y148.166 I-0.071 J-0.311
G1 X98.186 Y101.029
G3 X98.427 Y100.647 I0.311 J-0.071
G1 X156.798 Y87.31
G2 X157.852 Y86.198 I-0.308 J-1.347
G3 X158.905 Y85.085 I1.361 J0.234
G1 X209.234 Y73.586
G3 X209.616 Y73.826 I0.071 J0.311
G1 X221.143 Y124.278
G3 X220.903 Y124.66 I-0.311 J0.071
G1 X108.06 Y150.442
G3 X107.677 Y150.202 I-0.071 J-0.311
G1 X96.15 Y99.751
G3 X96.391 Y99.368 I0.311 J-0.071
G1 X158.905 Y85.085
G2 X159.959 Y83.972 I-0.308 J-1.347
G3 X161.013 Y82.86 I1.361 J0.234
G1 X210.512 Y71.55
G3 X210.895 Y71.79 I0.071 J0.311
G1 X223.179 Y125.556
G3 X222.939 Y125.939 I-0.311 J0.071
G1 X106.781 Y152.478
G3 X106.399 Y152.238 I-0.071 J-0.311
G1 X94.114 Y98.472
G3 X94.355 Y98.09 I0.311 J-0.071
G1 X161.013 Y82.86
G2 X162.066 Y81.747 I-0.308 J-1.347
G3 X163.12 Y80.635 I1.361 J0.234
G1 X211.791 Y69.514
G3 X212.173 Y69.755 I0.071 J0.311
G1 X225.215 Y126.835
G3 X224.975 Y127.217 I-0.311 J0.071
G1 X105.502 Y154.514
G3 X105.12 Y154.274 I-0.071 J-0.311
G1 X92.078 Y97.193
G3 X92.319 Y96.811 I0.311 J-0.071
G1 X163.12 Y80.635
G2 X164.174 Y79.522 I-0.308 J-1.347
G3 X165.227 Y78.409 I1.361 J0.234
G1 X213.07 Y67.478
G3 X213.452 Y67.719 I0.071 J0.311
G1 X227.251 Y128.114
G3 X227.011 Y128.496 I-0.311 J0.071
G1 X104.224 Y156.55
G3 X103.841 Y156.31 I-0.071 J-0.311
G1 X90.043 Y95.915
G3 X90.283 Y95.532 I0.311 J-0.071
G1 X165.227 Y78.409
G2 X166.281 Y77.297 I-0.308 J-1.347
G3 X167.335 Y76.184 I1.361 J0.234
G1 X214.348 Y65.442
G3 X214.731 Y65.683 I0.071 J0.311
G1 X229.287 Y129.392
G3 X229.047 Y129.775 I-0.311 J0.071
G1 X102.945 Y158.586
G3 X102.563 Y158.346 I-0.071 J-0.311
G1 X88.007 Y94.636
G3 X88.247 Y94.254 I0.311 J-0.071
G1 X167.335 Y76.184
G2 X168.388 Y75.071 I-0.308 J-1.347
G3 X169.442 Y73.959 I1.361 J0.234
G1 X215.627 Y63.406
G3 X216.009 Y63.647 I0.071 J0.311
G1 X231.323 Y130.671
G3 X231.083 Y131.053 I-0.311 J0.071
G1 X101.667 Y160.622
G3 X101.284 Y160.382 I-0.071 J-0.311
G1 X85.971 Y93.357
G3 X86.211 Y92.975 I0.311 J-0.071
G1 X169.442 Y73.959
G2 X170.495 Y72.846 I-0.308 J-1.347
G3 X171.549 Y71.733 I1.361 J0.234
G1 X216.906 Y61.371
G3 X217.288 Y61.611 I0.071 J0.311
G1 X233.359 Y131.95
G3 X233.119 Y132.332 I-0.311 J0.071
G1 X100.388 Y162.658
G3 X100.005 Y162.418 I-0.071 J-0.311
G1 X83.935 Y92.079
G3 X84.175 Y91.696 I0.311 J-0.071
G1 X171.549 Y71.733
G2 X172.603 Y70.621 I-0.308 J-1.347
G3 X173.656 Y69.508 I1.361 J0.234
G1 X218.184 Y59.335
G3 X218.567 Y59.575 I0.071 J0.311
G1 X235.395 Y133.228
G3 X235.155 Y133.611 I-0.311 J0.071
G1 X99.109 Y164.694
G3 X98.727 Y164.454 I-0.071 J-0.311
G1 X81.899 Y90.8
G3 X82.139 Y90.418 I0.311 J-0.071
G1 X173.656 Y69.508
G2 X174.71 Y68.396 I-0.308 J-1.347
G3 X175.764 Y67.283 I1.361 J0.234
G1 X219.463 Y57.299
G3 X219.845 Y57.539 I0.071 J0.311
G1 X237.431 Y134.507
G3 X237.191 Y134.889 I-0.311 J0.071
G1 X97.831 Y166.73
G3 X97.448 Y166.49 I-0.071 J-0.311
G1 X79.863 Y89.522
G3 X80.103 Y89.139 I0.311 J-0.071
G1 X175.764 Y67.283
G2 X176.817 Y66.17 I-0.308 J-1.347
G3 X177.871 Y65.058 I1.361 J0.234
G1 X220.742 Y55.263
G3 X221.124 Y55.503 I0.071 J0.311
G1 X239.467 Y135.785
G3 X239.227 Y136.168 I-0.311 J0.071
G1 X96.552 Y168.766
G3 X96.17 Y168.526 I-0.071 J-0.311
G1 X77.827 Y88.243
G3 X78.067 Y87.86 I0.311 J-0.071
G1 X177.871 Y65.058
G2 X178.925 Y63.945 I-0.308 J-1.347
G3 X179.978 Y62.832 I1.361 J0.234
G1 X222.02 Y53.227
G3 X222.403 Y53.467 I0.071 J0.311
G1 X241.503 Y137.064
G3 X241.262 Y137.447 I-0.311 J0.071
G1 X95.273 Y170.802
G3 X94.891 Y170.561 I-0.071 J-0.311
G1 X75.791 Y86.964
G3 X76.031 Y86.582 I0.311 J-0.071
G1 X179.978 Y62.832
G2 X181.032 Y61.72 I-0.308 J-1.347
G3 X182.086 Y60.607 I1.361 J0.234
G1 X223.299 Y51.191
G3 X223.681 Y51.431 I0.071 J0.311
G1 X243.539 Y138.343
G3 X243.298 Y138.725 I-0.311 J0.071
G1 X93.995 Y172.838
G3 X93.612 Y172.597 I-0.071 J-0.311
G1 X73.755 Y85.686
G3 X73.995 Y85.303 I0.311 J-0.071
G1 X182.086 Y60.607
G2 X183.139 Y59.494 I-0.308 J-1.347
G3 X184.193 Y58.382 I1.361 J0.234
G1 X224.577 Y49.155
G3 X224.96 Y49.395 I0.071 J0.311
G1 X245.575 Y139.621
G3 X245.334 Y140.004 I-0.311 J0.071
G1 X92.716 Y174.874
G3 X92.334 Y174.633 I-0.071 J-0.311
G1 X71.719 Y84.407
G3 X71.959 Y84.025 I0.311 J-0.071
G1 X184.193 Y58.382
G2 X185.246 Y57.269 I-0.308 J-1.347
G3 X186.3 Y56.156 I1.361 J0.234
G1 X225.856 Y47.119
G3 X226.239 Y47.359 I0.071 J0.311
G1 X247.611 Y140.9
G3 X247.37 Y141.283 I-0.311 J0.071
G1 X91.437 Y176.91
G3 X91.055 Y176.669 I-0.071 J-0.311
G1 X69.683 Y83.128
G3 X69.923 Y82.746 I0.311 J-0.071
G1 X186.3 Y56.156
G2 X187.357 Y55.041 I-0.309 J-1.35
G3 X188.414 Y53.925 I1.365 J0.235
G1 X227.45 Y45.006
X249.724 Y142.494
X89.844 Y179.023
X67.57 Y81.535
X123.138 Y68.839
X171.882 Y57.702
X188.414 Y53.925
X188.47 Y53.917 Z-2.989
X188.528 Y53.921 Z-2.977
X188.575 Y53.932 Z-2.945
X188.62 Y53.951 Z-2.912
X188.673 Y53.988 Z-2.815
X188.69 Y54.003 Z-2.7
G0 Z5
X128.811 Y120.626
G1 Z0.075 F333.3
Z-0.2 F1000
X128.79 Y120.658 Z-0.347 F333.3
X128.727 Y120.743 Z-0.456
X128.63 Y120.852 Z-0.5
G3 X126.596 Y118.855 Z-0.656 I-1.017 J-0.998
X128.63 Y120.852 Z-0.813 I1.017 J0.998
X126.596 Y118.855 Z-0.969 I-1.017 J-0.998
X128.63 Y120.852 Z-1.125 I1.017 J0.998
X126.596 Y118.855 Z-1.282 I-1.017 J-0.998
X128.63 Y120.852 Z-1.438 I1.017 J0.998
X126.596 Y118.855 Z-1.594 I-1.017 J-0.998
X128.63 Y120.851 Z-1.751 I1.017 J0.998
X126.596 Y118.855 Z-1.907 I-1.017 J-0.998
X128.63 Y120.851 Z-2.063 I1.017 J0.998
X126.596 Y118.855 Z-2.22 I-1.017 J-0.998
X128.63 Y120.851 Z-2.376 I1.017 J0.998
X126.596 Y118.855 Z-2.532 I-1.017 J-0.998
X128.63 Y120.851 Z-2.689 I1.017 J0.998
X126.596 Y118.855 Z-2.845 I-1.017 J-0.998
X128.63 Y120.851 Z-3.001 I1.017 J0.998
X126.596 Y118.855 Z-3.158 I-1.017 J-0.998
X128.63 Y120.851 Z-3.314 I1.017 J0.998
X126.596 Y118.855 Z-3.47 I-1.017 J-0.998
X128.63 Y120.851 Z-3.627 I1.017 J0.998
X126.596 Y118.855 Z-3.783 I-1.017 J-0.998
X128.63 Y120.851 Z-3.939 I1.017 J0.998
X126.596 Y118.855 Z-4.096 I-1.017 J-0.998
X128.63 Y120.851 Z-4.252 I1.017 J0.998
X126.596 Y118.855 Z-4.408 I-1.017 J-0.998
X128.63 Y120.851 Z-4.565 I1.017 J0.998
X126.596 Y118.855 Z-4.721 I-1.017 J-0.998
X128.63 Y120.851 Z-4.877 I1.017 J0.998
X126.596 Y118.855 Z-5.034 I-1.017 J-0.998
X128.63 Y120.851 Z-5.19 I1.017 J0.998
X126.596 Y118.855 Z-5.346 I-1.017 J-0.998
X128.63 Y120.851 Z-5.503 I1.017 J0.998
X126.596 Y118.855 Z-5.659 I-1.017 J-0.998
X128.63 Y120.851 Z-5.815 I1.017 J0.998
X126.596 Y118.855 Z-5.972 I-1.017 J-0.998
X127.296 Y118.464 Z-6 I1.017 J0.998
G1 X190.054 Y104.125 F1000
G3 X190.437 Y104.366 I0.071 J0.311
G1 X190.604 Y105.098
G3 X190.364 Y105.481 I-0.311 J0.071
G1 X127.239 Y119.903
G3 X126.857 Y119.663 I-0.071 J-0.311
G1 X126.69 Y118.93
G3 X126.93 Y118.548 I0.311 J-0.071
G1 X127.296 Y118.464
G2 X128.35 Y117.352 I-0.308 J-1.347
G3 X129.403 Y116.239 I1.361 J0.234
G1 X191.333 Y102.09
G3 X191.715 Y102.33 I0.071 J0.311
G1 X192.64 Y106.377
G3 X192.4 Y106.759 I-0.311 J0.071
G1 X125.961 Y121.939
G3 X125.578 Y121.699 I-0.071 J-0.311
G1 X124.654 Y117.652
G3 X124.894 Y117.269 I0.311 J-0.071
G1 X129.403 Y116.239
G2 X130.457 Y115.126 I-0.308 J-1.347
G3 X131.511 Y114.014 I1.361 J0.234
G1 X192.611 Y100.054
G3 X192.994 Y100.294 I0.071 J0.311
G1 X194.676 Y107.655
G3 X194.436 Y108.038 I-0.311 J0.071
G1 X124.682 Y123.975
G3 X124.3 Y123.735 I-0.071 J-0.311
G1 X122.618 Y116.373
G3 X122.858 Y115.991 I0.311 J-0.071
G1 X131.511 Y114.014
G2 X132.564 Y112.901 I-0.308 J-1.347
G3 X133.618 Y111.788 I1.361 J0.234
G1 X193.89 Y98.018
G3 X194.273 Y98.258 I0.071 J0.311
G1 X196.712 Y108.934
G3 X196.472 Y109.316 I-0.311 J0.071
G1 X123.403 Y126.011
G3 X123.021 Y125.771 I-0.071 J-0.311
G1 X120.582 Y115.094
G3 X120.822 Y114.712 I0.311 J-0.071
G1 X133.618 Y111.788
G2 X134.672 Y110.676 I-0.308 J-1.347
G3 X135.725 Y109.563 I1.361 J0.234
G1 X195.169 Y95.982
G3 X195.551 Y96.222 I0.071 J0.311
G1 X198.748 Y110.213
G3 X198.508 Y110.595 I-0.311 J0.071
G1 X122.125 Y128.047
G3 X121.742 Y127.807 I-0.071 J-0.311
G1 X118.546 Y113.816
G3 X118.786 Y113.433 I0.311 J-0.071
G1 X135.725 Y109.563
G2 X136.779 Y108.45 I-0.308 J-1.347
G3 X137.832 Y107.338 I1.361 J0.234
G1 X196.447 Y93.946
G3 X196.83 Y94.186 I0.071 J0.311
G1 X200.784 Y111.491
G3 X200.544 Y111.874 I-0.311 J0.071
G1 X120.846 Y130.083
G3 X120.464 Y129.843 I-0.071 J-0.311
G1 X116.51 Y112.537
G3 X116.75 Y112.155 I0.311 J-0.071
G1 X137.832 Y107.338
G2 X138.886 Y106.225 I-0.308 J-1.347
G3 X139.94 Y105.113 I1.361 J0.234
G1 X197.726 Y91.91
G3 X198.108 Y92.15 I0.071 J0.311
G1 X202.82 Y112.77
G3 X202.579 Y113.152 I-0.311 J0.071
G1 X119.568 Y132.119
G3 X119.185 Y131.878 I-0.071 J-0.311
G1 X114.474 Y111.258
G3 X114.714 Y110.876 I0.311 J-0.071
G1 X139.94 Y105.113
G2 X140.993 Y104 I-0.308 J-1.347
G3 X142.047 Y102.887 I1.361 J0.234
G1 X199.005 Y89.874
G3 X199.387 Y90.114 I0.071 J0.311
G1 X204.856 Y114.049
G3 X204.615 Y114.431 I-0.311 J0.071
G1 X118.289 Y134.155
G3 X117.906 Y133.914 I-0.071 J-0.311
G1 X112.438 Y109.98
G3 X112.678 Y109.597 I0.311 J-0.071
G1 X142.047 Y102.887
G2 X143.101 Y101.775 I-0.308 J-1.347
G3 X144.154 Y100.662 I1.361 J0.234
G1 X200.283 Y87.838
G3 X200.666 Y88.078 I0.071 J0.311
G1 X206.892 Y115.327
G3 X206.651 Y115.71 I-0.311 J0.071
G1 X117.01 Y136.191
G3 X116.628 Y135.95 I-0.071 J-0.311
G1 X110.402 Y108.701
G3 X110.642 Y108.319 I0.311 J-0.071
G1 X144.154 Y100.662
G2 X145.208 Y99.549 I-0.308 J-1.347
G3 X146.262 Y98.437 I1.361 J0.234
G1 X201.562 Y85.802
G3 X201.944 Y86.042 I0.071 J0.311
G1 X208.928 Y116.606
G3 X208.687 Y116.988 I-0.311 J0.071
G1 X115.732 Y138.227
G3 X115.349 Y137.986 I-0.071 J-0.311
G1 X108.366 Y107.423
G3 X108.606 Y107.04 I0.311 J-0.071
G1 X146.262 Y98.437
G2 X147.315 Y97.324 I-0.308 J-1.347
G3 X148.369 Y96.211 I1.361 J0.234
G1 X202.841 Y83.766
G3 X203.223 Y84.006 I0.071 J0.311
G1 X210.963 Y117.885
G3 X210.723 Y118.267 I-0.311 J0.071
G1 X114.453 Y140.262
G3 X114.071 Y140.022 I-0.071 J-0.311
G1 X106.33 Y106.144
G3 X106.57 Y105.761 I0.311 J-0.071
G1 X148.369 Y96.211
G2 X149.423 Y95.099 I-0.308 J-1.347
G3 X150.476 Y93.986 I1.361 J0.234
G1 X204.119 Y81.73
G3 X204.502 Y81.97 I0.071 J0.311
G1 X212.999 Y119.163
G3 X212.759 Y119.546 I-0.311 J0.071
G1 X113.174 Y142.298
G3 X112.792 Y142.058 I-0.071 J-0.311
G1 X104.294 Y104.865
G3 X104.534 Y104.483 I0.311 J-0.071
G1 X150.476 Y93.986
G2 X151.53 Y92.874 I-0.308 J-1.347
G3 X152.584 Y91.761 I1.361 J0.234
G1 X205.398 Y79.694
G3 X205.78 Y79.934 I0.071 J0.311
G1 X215.035 Y120.442
G3 X214.795 Y120.824 I-0.311 J0.071
G1 X111.896 Y144.334
G3 X111.513 Y144.094 I-0.071 J-0.311
G1 X102.258 Y103.587
G3 X102.498 Y103.204 I0.311 J-0.071
G1 X152.584 Y91.761
G2 X153.637 Y90.648 I-0.308 J-1.347
G3 X154.691 Y89.536 I1.361 J0.234
G1 X206.676 Y77.658
G3 X207.059 Y77.898 I0.071 J0.311
G1 X217.071 Y121.72
G3 X216.831 Y122.103 I-0.311 J0.071
G1 X110.617 Y146.37
G3 X110.235 Y146.13 I-0.071 J-0.311
G1 X100.222 Y102.308
G3 X100.462 Y101.925 I0.311 J-0.071
G1 X154.691 Y89.536
G2 X155.744 Y88.423 I-0.308 J-1.347
G3 X156.798 Y87.31 I1.361 J0.234
G1 X207.955 Y75.622
G3 X208.338 Y75.862 I0.071 J0.311
G1 X219.107 Y122.999
G3 X218.867 Y123.382 I-0.311 J0.071
G1 X109.338 Y148.406
G3 X108.956 Y148.166 I-0.071 J-0.311
G1 X98.186 Y101.029
G3 X98.427 Y100.647 I0.311 J-0.071
G1 X156.798 Y87.31
G2 X157.852 Y86.198 I-0.308 J-1.347
G3 X158.905 Y85.085 I1.361 J0.234
G1 X209.234 Y73.586
G3 X209.616 Y73.826 I0.071 J0.311
G1 X221.143 Y124.278
G3 X220.903 Y124.66 I-0.311 J0.071
G1 X108.06 Y150.442
G3 X107.677 Y150.202 I-0.071 J-0.311
G1 X96.15 Y99.751
G3 X96.391 Y99.368 I0.311 J-0.071
G1 X158.905 Y85.085
G2 X159.959 Y83.972 I-0.308 J-1.347
G3 X161.013 Y82.86 I1.361 J0.234
G1 X210.512 Y71.55
G3 X210.895 Y71.79 I0.071 J0.311
G1 X223.179 Y125.556
G3 X222.939 Y125.939 I-0.311 J0.071
G1 X106.781 Y152.478
G3 X106.399 Y152.238 I-0.071 J-0.311
G1 X94.114 Y98.472
G3 X94.355 Y98.09 I0.311 J-0.071
G1 X161.013 Y82.86
G2 X162.066 Y81.747 I-0.308 J-1.347
G3 X163.12 Y80.635 I1.361 J0.234
G1 X211.791 Y69.514
G3 X212.173 Y69.755 I0.071 J0.311
G1 X225.215 Y126.835
G3 X224.975 Y127.217 I-0.311 J0.071
G1 X105.502 Y154.514
G3 X105.12 Y154.274 I-0.071 J-0.311
G1 X92.078 Y97.193
G3 X92.319 Y96.811 I0.311 J-0.071
G1 X163.12 Y80.635
G2 X164.174 Y79.522 I-0.308 J-1.347
G3 X165.227 Y78.409 I1.361 J0.234
G1 X213.07 Y67.478
G3 X213.452 Y67.719 I0.071 J0.311
G1 X227.251 Y128.114
G3 X227.011 Y128.496 I-0.311 J0.071
G1 X104.224 Y156.55
G3 X103.841 Y156.31 I-0.071 J-0.311
G1 X90.043 Y95.915
G3 X90.283 Y95.532 I0.311 J-0.071
G1 X165.227 Y78.409
G2 X166.281 Y77.297 I-0.308 J-1.347
G3 X167.335 Y76.184 I1.361 J0.234
G1 X214.348 Y65.442
G3 X214.731 Y65.683 I0.071 J0.311
G1 X229.287 Y129.392
G3 X229.047 Y129.775 I-0.311 J0.071
G1 X102.945 Y158.586
G3 X102.563 Y158.346 I-0.071 J-0.311
G1 X88.007 Y94.636
G3 X88.247 Y94.254 I0.311 J-0.071
G1 X167.335 Y76.184
G2 X168.388 Y75.071 I-0.308 J-1.347
G3 X169.442 Y73.959 I1.361 J0.234
G1 X215.627 Y63.406
G3 X216.009 Y63.647 I0.071 J0.311
G1 X231.323 Y130.671
G3 X231.083 Y131.053 I-0.311 J0.071
G1 X101.667 Y160.622
G3 X101.284 Y160.382 I-0.071 J-0.311
G1 X85.971 Y93.357
G3 X86.211 Y92.975 I0.311 J-0.071
G1 X169.442 Y73.959
G2 X170.495 Y72.846 I-0.308 J-1.347
G3 X171.549 Y71.733 I1.361 J0.234
G1 X216.906 Y61.371
G3 X217.288 Y61.611 I0.071 J0.311
G1 X233.359 Y131.95
G3 X233.119 Y132.332 I-0.311 J0.071
G1 X100.388 Y162.658
G3 X100.005 Y162.418 I-0.071 J-0.311
G1 X83.935 Y92.079
G3 X84.175 Y91.696 I0.311 J-0.071
G1 X171.549 Y71.733
G2 X172.603 Y70.621 I-0.308 J-1.347
G3 X173.656 Y69.508 I1.361 J0.234
G1 X218.184 Y59.335
G3 X218.567 Y59.575 I0.071 J0.311
G1 X235.395 Y133.228
G3 X235.155 Y133.611 I-0.311 J0.071
G1 X99.109 Y164.694
G3 X98.727 Y164.454 I-0.071 J-0.311
G1 X81.899 Y90.8
G3 X82.139 Y90.418 I0.311 J-0.071
G1 X173.656 Y69.508
G2 X174.71 Y68.396 I-0.308 J-1.347
G3 X175.764 Y67.283 I1.361 J0.234
G1 X219.463 Y57.299
G3 X219.845 Y57.539 I0.071 J0.311
G1 X237.431 Y134.507
G3 X237.191 Y134.889 I-0.311 J0.071
G1 X97.831 Y166.73
G3 X97.448 Y166.49 I-0.071 J-0.311
G1 X79.863 Y89.522
G3 X80.103 Y89.139 I0.311 J-0.071
G1 X175.764 Y67.283
G2 X176.817 Y66.17 I-0.308 J-1.347
G3 X177.871 Y65.058 I1.361 J0.234
G1 X220.742 Y55.263
G3 X221.124 Y55.503 I0.071 J0.311
G1 X239.467 Y135.785
G3 X239.227 Y136.168 I-0.311 J0.071
G1 X96.552 Y168.766
G3 X96.17 Y168.526 I-0.071 J-0.311
G1 X77.827 Y88.243
G3 X78.067 Y87.86 I0.311 J-0.071
G1 X177.871 Y65.058
G2 X178.925 Y63.945 I-0.308 J-1.347
G3 X179.978 Y62.832 I1.361 J0.234
G1 X222.02 Y53.227
G3 X222.403 Y53.467 I0.071 J0.311
G1 X241.503 Y137.064
G3 X241.262 Y137.447 I-0.311 J0.071
G1 X95.273 Y170.802
G3 X94.891 Y170.561 I-0.071 J-0.311
G1 X75.791 Y86.964
G3 X76.031 Y86.582 I0.311 J-0.071
G1 X179.978 Y62.832
G2 X181.032 Y61.72 I-0.308 J-1.347
G3 X182.086 Y60.607 I1.361 J0.234
G1 X223.299 Y51.191
G3 X223.681 Y51.431 I0.071 J0.311
G1 X243.539 Y138.343
G3 X243.298 Y138.725 I-0.311 J0.071
G1 X93.995 Y172.838
G3 X93.612 Y172.597 I-0.071 J-0.311
G1 X73.755 Y85.686
G3 X73.995 Y85.303 I0.311 J-0.071
G1 X182.086 Y60.607
G2 X183.139 Y59.494 I-0.308 J-1.347
G3 X184.193 Y58.382 I1.361 J0.234
G1 X224.577 Y49.155
G3 X224.96 Y49.395 I0.071 J0.311
G1 X245.575 Y139.621
G3 X245.334 Y140.004 I-0.311 J0.071
G1 X92.716 Y174.874
G3 X92.334 Y174.633 I-0.071 J-0.311
G1 X71.719 Y84.407
G3 X71.959 Y84.025 I0.311 J-0.071
G1 X184.193 Y58.382
G2 X185.246 Y57.269 I-0.308 J-1.347
G3 X186.3 Y56.156 I1.361 J0.234
G1 X225.856 Y47.119
G3 X226.239 Y47.359 I0.071 J0.311
G1 X247.611 Y140.9
G3 X247.37 Y141.283 I-0.311 J0.071
G1 X91.437 Y176.91
G3 X91.055 Y176.669 I-0.071 J-0.311
G1 X69.683 Y83.128
G3 X69.923 Y82.746 I0.311 J-0.071
G1 X186.3 Y56.156
G2 X187.357 Y55.041 I-0.309 J-1.35
G3 X188.414 Y53.925 I1.365 J0.235
G1 X227.45 Y45.006
X249.724 Y142.494
X89.844 Y179.023
X67.57 Y81.535
X123.138 Y68.839
X171.882 Y57.702
X188.414 Y53.925
X188.47 Y53.917 Z-5.989
X188.528 Y53.921 Z-5.977
X188.575 Y53.932 Z-5.945
X188.62 Y53.951 Z-5.912
X188.673 Y53.988 Z-5.815
X188.69 Y54.003 Z-5.7
G0 Z15

(2D Pocket9)
X105.959 Y157.052
Z15
Z5
G1 Z2.8 F333.3
X105.967 Y157.015 Z2.653
X105.995 Y156.913 Z2.544
X106.046 Y156.776 Z2.5
G3 X108.663 Y157.906 Z2.344 I1.308 J0.565
X106.046 Y156.776 Z2.187 I-1.308 J-0.565
X108.663 Y157.906 Z2.031 I1.308 J0.565
X106.046 Y156.776 Z1.875 I-1.308 J-0.565
X108.663 Y157.906 Z1.718 I1.308 J0.565
X106.046 Y156.776 Z1.562 I-1.308 J-0.565
X108.663 Y157.906 Z1.406 I1.308 J0.565
X106.046 Y156.776 Z1.249 I-1.308 J-0.565
X108.663 Y157.906 Z1.093 I1.308 J0.565
X106.046 Y156.776 Z0.937 I-1.308 J-0.565
X108.663 Y157.906 Z0.78 I1.308 J0.565
X106.046 Y156.776 Z0.624 I-1.308 J-0.565
X108.663 Y157.906 Z0.468 I1.308 J0.565
X106.046 Y156.776 Z0.311 I-1.308 J-0.565
X108.663 Y157.906 Z0.155 I1.308 J0.565
X106.046 Y156.776 Z-0.001 I-1.308 J-0.565
X108.663 Y157.906 Z-0.158 I1.308 J0.565
X106.046 Y156.776 Z-0.314 I-1.308 J-0.565
X108.663 Y157.906 Z-0.47 I1.308 J0.565
X106.046 Y156.776 Z-0.627 I-1.308 J-0.565
X108.663 Y157.906 Z-0.783 I1.308 J0.565
X106.046 Y156.776 Z-0.939 I-1.308 J-0.565
X108.663 Y157.906 Z-1.096 I1.308 J0.565
X106.046 Y156.776 Z-1.252 I-1.308 J-0.565
X108.663 Y157.906 Z-1.408 I1.308 J0.565
X106.046 Y156.776 Z-1.565 I-1.308 J-0.565
X108.663 Y157.906 Z-1.721 I1.308 J0.565
X106.046 Y156.776 Z-1.877 I-1.308 J-0.565
X108.663 Y157.906 Z-2.034 I1.308 J0.565
X106.046 Y156.776 Z-2.19 I-1.308 J-0.565
X108.663 Y157.906 Z-2.346 I1.308 J0.565
X106.046 Y156.776 Z-2.503 I-1.308 J-0.565
X108.663 Y157.906 Z-2.659 I1.308 J0.565
X106.046 Y156.776 Z-2.815 I-1.308 J-0.565
X108.663 Y157.906 Z-2.972 I1.308 J0.565
X106.046 Y156.776 Z-3.128 I-1.308 J-0.565
X108.663 Y157.906 Z-3.284 I1.308 J0.565
X106.046 Y156.776 Z-3.441 I-1.308 J-0.565
X108.663 Y157.906 Z-3.597 I1.308 J0.565
X106.046 Y156.776 Z-3.753 I-1.308 J-0.565
X107.037 Y155.952 Z-3.8 I1.308 J0.565
X107.467 Y157.835 I0.215 J0.941
G1 X101.618 Y159.171 F1000
G3 X101.42 Y158.304 I-0.099 J-0.433
G1 X107.269 Y156.967
G3 X107.802 Y157.302 I0.099 J0.434
X107.467 Y157.835 I-0.434 J0.099
G2 X106.813 Y158.526 I0.191 J0.836
G3 X106.159 Y159.216 I-0.845 J-0.145
G1 X101.853 Y160.2
G3 X101.185 Y157.275 I-0.334 J-1.462
G1 X107.034 Y155.938
G3 X107.702 Y158.864 I0.334 J1.463
G1 X106.159 Y159.216
X106.124 Y159.217
X106.092 Y159.205
X106.066 Y159.181
X106.052 Y159.15
X106.051 Y159.115
X106.121 Y158.69
X106.246 Y157.158
X106.242 Y157.124
X106.225 Y157.095
X106.047 Y156.9
X106.031 Y156.873
X106.026 Y156.842
X106.032 Y156.811
G3 X108.677 Y157.871 Z-3.956 I1.323 J0.53 F333.3
X106.032 Y156.811 Z-4.113 I-1.323 J-0.53
X108.677 Y157.871 Z-4.269 I1.323 J0.53
X106.032 Y156.811 Z-4.425 I-1.323 J-0.53
X108.677 Y157.871 Z-4.582 I1.323 J0.53
X106.032 Y156.811 Z-4.738 I-1.323 J-0.53
X108.677 Y157.871 Z-4.894 I1.323 J0.53
X106.032 Y156.811 Z-5.051 I-1.323 J-0.53
X108.677 Y157.871 Z-5.207 I1.323 J0.53
X106.032 Y156.811 Z-5.363 I-1.323 J-0.53
X108.677 Y157.871 Z-5.52 I1.323 J0.53
X106.032 Y156.811 Z-5.676 I-1.323 J-0.53
X108.677 Y157.871 Z-5.832 I1.323 J0.53
X106.032 Y156.811 Z-5.989 I-1.323 J-0.53
X108.677 Y157.871 Z-6.145 I1.323 J0.53
X106.032 Y156.811 Z-6.301 I-1.323 J-0.53
X108.677 Y157.871 Z-6.458 I1.323 J0.53
X106.032 Y156.811 Z-6.614 I-1.323 J-0.53
X108.677 Y157.871 Z-6.77 I1.323 J0.53
X106.032 Y156.811 Z-6.927 I-1.323 J-0.53
X108.677 Y157.871 Z-7.083 I1.323 J0.53
X106.032 Y156.811 Z-7.239 I-1.323 J-0.53
X108.677 Y157.871 Z-7.396 I1.323 J0.53
X106.032 Y156.811 Z-7.552 I-1.323 J-0.53
X107.037 Y155.952 Z-7.6 I1.323 J0.53
X107.467 Y157.835 I0.215 J0.941
G1 X101.618 Y159.171 F1000
G3 X101.42 Y158.304 I-0.099 J-0.433
G1 X107.269 Y156.967
G3 X107.802 Y157.302 I0.099 J0.434
X107.467 Y157.835 I-0.434 J0.099
G2 X106.813 Y158.526 I0.191 J0.836
G3 X106.159 Y159.216 I-0.845 J-0.145
G1 X101.853 Y160.2
G3 X101.185 Y157.275 I-0.334 J-1.462
G1 X107.034 Y155.938
G3 X107.702 Y158.864 I0.334 J1.463
G1 X106.159 Y159.216
X106.124 Y159.217
X106.092 Y159.205
X106.066 Y159.181
X106.052 Y159.15
X106.051 Y159.115
X106.121 Y158.69
X106.246 Y157.158
X106.242 Y157.124
X106.225 Y157.095
X106.047 Y156.9
X106.031 Y156.873
X106.026 Y156.842
X106.032 Y156.811
G3 X108.677 Y157.871 Z-7.756 I1.323 J0.53 F333.3
X106.032 Y156.811 Z-7.913 I-1.323 J-0.53
X108.677 Y157.871 Z-8.069 I1.323 J0.53
X106.032 Y156.811 Z-8.225 I-1.323 J-0.53
X108.677 Y157.871 Z-8.382 I1.323 J0.53
X106.032 Y156.811 Z-8.538 I-1.323 J-0.53
X108.677 Y157.871 Z-8.694 I1.323 J0.53
X106.032 Y156.811 Z-8.851 I-1.323 J-0.53
X108.677 Y157.871 Z-9.007 I1.323 J0.53
X106.032 Y156.811 Z-9.163 I-1.323 J-0.53
X108.677 Y157.871 Z-9.32 I1.323 J0.53
X106.032 Y156.811 Z-9.476 I-1.323 J-0.53
X108.677 Y157.871 Z-9.632 I1.323 J0.53
X106.032 Y156.811 Z-9.789 I-1.323 J-0.53
X108.677 Y157.871 Z-9.945 I1.323 J0.53
X106.032 Y156.811 Z-10.101 I-1.323 J-0.53
X108.677 Y157.871 Z-10.258 I1.323 J0.53
X106.032 Y156.811 Z-10.414 I-1.323 J-0.53
X108.677 Y157.871 Z-10.57 I1.323 J0.53
X106.032 Y156.811 Z-10.727 I-1.323 J-0.53
X108.677 Y157.871 Z-10.883 I1.323 J0.53
X106.032 Y156.811 Z-11.039 I-1.323 J-0.53
X108.677 Y157.871 Z-11.196 I1.323 J0.53
X106.032 Y156.811 Z-11.352 I-1.323 J-0.53
X107.037 Y155.952 Z-11.4 I1.323 J0.53
X107.467 Y157.835 I0.215 J0.941
G1 X101.618 Y159.171 F1000
G3 X101.42 Y158.304 I-0.099 J-0.433
G1 X107.269 Y156.967
G3 X107.802 Y157.302 I0.099 J0.434
X107.467 Y157.835 I-0.434 J0.099
G2 X106.813 Y158.526 I0.191 J0.836
G3 X106.159 Y159.216 I-0.845 J-0.145
G1 X101.853 Y160.2
G3 X101.185 Y157.275 I-0.334 J-1.462
G1 X107.034 Y155.938
G3 X107.702 Y158.864 I0.334 J1.463
G1 X106.159 Y159.216
X106.124 Y159.217
X106.092 Y159.205
X106.066 Y159.181
X106.052 Y159.15
X106.051 Y159.115
X106.121 Y158.69
X106.246 Y157.158
X106.242 Y157.124
X106.225 Y157.095
X106.047 Y156.9
X106.031 Y156.873
X106.026 Y156.842
X106.032 Y156.811
G3 X108.677 Y157.871 Z-11.556 I1.323 J0.53 F333.3
X106.032 Y156.811 Z-11.713 I-1.323 J-0.53
X108.677 Y157.871 Z-11.869 I1.323 J0.53
X106.032 Y156.811 Z-12.025 I-1.323 J-0.53
X108.677 Y157.871 Z-12.182 I1.323 J0.53
X106.032 Y156.811 Z-12.338 I-1.323 J-0.53
X108.677 Y157.871 Z-12.494 I1.323 J0.53
X106.032 Y156.811 Z-12.651 I-1.323 J-0.53
X108.677 Y157.871 Z-12.807 I1.323 J0.53
X106.032 Y156.811 Z-12.963 I-1.323 J-0.53
X108.677 Y157.871 Z-13.12 I1.323 J0.53
X106.032 Y156.811 Z-13.276 I-1.323 J-0.53
X108.677 Y157.871 Z-13.432 I1.323 J0.53
X106.032 Y156.811 Z-13.589 I-1.323 J-0.53
X108.677 Y157.871 Z-13.745 I1.323 J0.53
X106.032 Y156.811 Z-13.901 I-1.323 J-0.53
X108.677 Y157.871 Z-14.058 I1.323 J0.53
X106.032 Y156.811 Z-14.214 I-1.323 J-0.53
X108.677 Y157.871 Z-14.37 I1.323 J0.53
X106.032 Y156.811 Z-14.527 I-1.323 J-0.53
X108.677 Y157.871 Z-14.683 I1.323 J0.53
X106.032 Y156.811 Z-14.839 I-1.323 J-0.53
X108.677 Y157.871 Z-14.996 I1.323 J0.53
X106.032 Y156.811 Z-15.152 I-1.323 J-0.53
X107.037 Y155.952 Z-15.2 I1.323 J0.53
X107.467 Y157.835 I0.215 J0.941
G1 X101.618 Y159.171 F1000
G3 X101.42 Y158.304 I-0.099 J-0.433
G1 X107.269 Y156.967
G3 X107.802 Y157.302 I0.099 J0.434
X107.467 Y157.835 I-0.434 J0.099
G2 X106.813 Y158.526 I0.191 J0.836
G3 X106.159 Y159.216 I-0.845 J-0.145
G1 X101.853 Y160.2
G3 X101.185 Y157.275 I-0.334 J-1.462
G1 X107.034 Y155.938
G3 X107.702 Y158.864 I0.334 J1.463
G1 X106.159 Y159.216
X106.124 Y159.217
X106.092 Y159.205
X106.066 Y159.181
X106.052 Y159.15
X106.051 Y159.115
X106.121 Y158.69
X106.246 Y157.158
X106.242 Y157.124
X106.225 Y157.095
X106.047 Y156.9
X106.031 Y156.873
X106.026 Y156.842
X106.032 Y156.811
G3 X108.677 Y157.871 Z-15.356 I1.323 J0.53 F333.3
X106.032 Y156.811 Z-15.513 I-1.323 J-0.53
X108.677 Y157.871 Z-15.669 I1.323 J0.53
X106.032 Y156.811 Z-15.825 I-1.323 J-0.53
X108.677 Y157.871 Z-15.982 I1.323 J0.53
X106.032 Y156.811 Z-16.138 I-1.323 J-0.53
X108.677 Y157.871 Z-16.294 I1.323 J0.53
X106.032 Y156.811 Z-16.451 I-1.323 J-0.53
X108.677 Y157.871 Z-16.607 I1.323 J0.53
X106.032 Y156.811 Z-16.763 I-1.323 J-0.53
X108.677 Y157.871 Z-16.92 I1.323 J0.53
X106.032 Y156.811 Z-17.076 I-1.323 J-0.53
X108.677 Y157.871 Z-17.232 I1.323 J0.53
X106.032 Y156.811 Z-17.389 I-1.323 J-0.53
X108.677 Y157.871 Z-17.545 I1.323 J0.53
X106.032 Y156.811 Z-17.701 I-1.323 J-0.53
X108.677 Y157.871 Z-17.858 I1.323 J0.53
X106.032 Y156.811 Z-18.014 I-1.323 J-0.53
X108.677 Y157.871 Z-18.17 I1.323 J0.53
X106.032 Y156.811 Z-18.327 I-1.323 J-0.53
X108.677 Y157.871 Z-18.483 I1.323 J0.53
X106.032 Y156.811 Z-18.639 I-1.323 J-0.53
X108.677 Y157.871 Z-18.796 I1.323 J0.53
X106.032 Y156.811 Z-18.952 I-1.323 J-0.53
X107.037 Y155.952 Z-19 I1.323 J0.53
X107.467 Y157.835 I0.215 J0.941
G1 X101.618 Y159.171 F1000
G3 X101.42 Y158.304 I-0.099 J-0.433
G1 X107.269 Y156.967
G3 X107.802 Y157.302 I0.099 J0.434
X107.467 Y157.835 I-0.434 J0.099
G2 X106.813 Y158.526 I0.191 J0.836
G3 X106.159 Y159.216 I-0.845 J-0.145
G1 X101.853 Y160.2
G3 X101.185 Y157.275 I-0.334 J-1.462
G1 X107.034 Y155.938
G3 X107.702 Y158.864 I0.334 J1.463
G1 X106.159 Y159.216
X106.102 Y159.224 Z-18.989
X106.045 Y159.22 Z-18.977
X105.997 Y159.208 Z-18.945
X105.953 Y159.189 Z-18.912
X105.899 Y159.153 Z-18.815
X105.882 Y159.138 Z-18.7
G0 Z5
X85.487 Y94.388
G1 Z2.8 F333.3
X85.495 Y94.35 Z2.653
X85.523 Y94.248 Z2.544
X85.574 Y94.112 Z2.5
G3 X88.191 Y95.242 Z2.344 I1.308 J0.565
X85.574 Y94.112 Z2.187 I-1.308 J-0.565
X88.191 Y95.242 Z2.031 I1.308 J0.565
X85.574 Y94.112 Z1.875 I-1.308 J-0.565
X88.191 Y95.242 Z1.718 I1.308 J0.565
X85.574 Y94.112 Z1.562 I-1.308 J-0.565
X88.191 Y95.242 Z1.406 I1.308 J0.565
X85.574 Y94.112 Z1.249 I-1.308 J-0.565
X88.191 Y95.242 Z1.093 I1.308 J0.565
X85.574 Y94.112 Z0.937 I-1.308 J-0.565
X88.191 Y95.242 Z0.78 I1.308 J0.565
X85.574 Y94.112 Z0.624 I-1.308 J-0.565
X88.191 Y95.242 Z0.468 I1.308 J0.565
X85.574 Y94.112 Z0.311 I-1.308 J-0.565
X88.191 Y95.242 Z0.155 I1.308 J0.565
X85.574 Y94.112 Z-0.001 I-1.308 J-0.565
X88.191 Y95.242 Z-0.158 I1.308 J0.565
X85.574 Y94.112 Z-0.314 I-1.308 J-0.565
X88.191 Y95.242 Z-0.47 I1.308 J0.565
X85.574 Y94.112 Z-0.627 I-1.308 J-0.565
X88.191 Y95.242 Z-0.783 I1.308 J0.565
X85.574 Y94.112 Z-0.939 I-1.308 J-0.565
X88.191 Y95.242 Z-1.096 I1.308 J0.565
X85.574 Y94.112 Z-1.252 I-1.308 J-0.565
X88.191 Y95.242 Z-1.408 I1.308 J0.565
X85.574 Y94.112 Z-1.565 I-1.308 J-0.565
X88.191 Y95.242 Z-1.721 I1.308 J0.565
X85.574 Y94.112 Z-1.877 I-1.308 J-0.565
X88.191 Y95.242 Z-2.034 I1.308 J0.565
X85.574 Y94.112 Z-2.19 I-1.308 J-0.565
X88.191 Y95.242 Z-2.346 I1.308 J0.565
X85.574 Y94.112 Z-2.503 I-1.308 J-0.565
X88.191 Y95.242 Z-2.659 I1.308 J0.565
X85.574 Y94.112 Z-2.815 I-1.308 J-0.565
X88.191 Y95.242 Z-2.972 I1.308 J0.565
X85.574 Y94.112 Z-3.128 I-1.308 J-0.565
X88.191 Y95.242 Z-3.284 I1.308 J0.565
X85.574 Y94.112 Z-3.441 I-1.308 J-0.565
X88.191 Y95.242 Z-3.597 I1.308 J0.565
X85.574 Y94.112 Z-3.753 I-1.308 J-0.565
X86.565 Y93.288 Z-3.8 I1.308 J0.565
X86.995 Y95.17 I0.215 J0.941
X86.797 Y94.303 I-0.099 J-0.434 F1000
G1 X92.646 Y92.966
G3 X92.845 Y93.834 I0.099 J0.434
G1 X86.995 Y95.17
G2 X86.47 Y95.622 I0.165 J0.723
G3 X85.789 Y95.749 I-0.38 J-0.149
X86.562 Y93.274 I1.107 J-1.012
G1 X92.411 Y91.938
G3 X93.079 Y94.862 I0.334 J1.462
G1 X87.23 Y96.199
G3 X85.789 Y95.749 I-0.334 J-1.462
G1 X85.765 Y95.716
X85.748 Y95.68
X85.738 Y95.641
X85.547 Y94.249
Y94.197
X85.56 Y94.147
G3 X88.205 Y95.207 Z-3.956 I1.323 J0.53 F333.3
X85.56 Y94.147 Z-4.113 I-1.323 J-0.53
X88.205 Y95.207 Z-4.269 I1.323 J0.53
X85.56 Y94.147 Z-4.425 I-1.323 J-0.53
X88.205 Y95.207 Z-4.582 I1.323 J0.53
X85.56 Y94.147 Z-4.738 I-1.323 J-0.53
X88.205 Y95.207 Z-4.894 I1.323 J0.53
X85.56 Y94.147 Z-5.051 I-1.323 J-0.53
X88.205 Y95.207 Z-5.207 I1.323 J0.53
X85.56 Y94.147 Z-5.363 I-1.323 J-0.53
X88.205 Y95.207 Z-5.52 I1.323 J0.53
X85.56 Y94.147 Z-5.676 I-1.323 J-0.53
X88.205 Y95.207 Z-5.832 I1.323 J0.53
X85.56 Y94.147 Z-5.989 I-1.323 J-0.53
X88.205 Y95.207 Z-6.145 I1.323 J0.53
X85.56 Y94.147 Z-6.301 I-1.323 J-0.53
X88.205 Y95.207 Z-6.458 I1.323 J0.53
X85.56 Y94.147 Z-6.614 I-1.323 J-0.53
X88.205 Y95.207 Z-6.77 I1.323 J0.53
X85.56 Y94.147 Z-6.927 I-1.323 J-0.53
X88.205 Y95.207 Z-7.083 I1.323 J0.53
X85.56 Y94.147 Z-7.239 I-1.323 J-0.53
X88.205 Y95.207 Z-7.396 I1.323 J0.53
X85.56 Y94.147 Z-7.552 I-1.323 J-0.53
X86.565 Y93.288 Z-7.6 I1.323 J0.53
X86.995 Y95.17 I0.215 J0.941
X86.797 Y94.303 I-0.099 J-0.434 F1000
G1 X92.646 Y92.966
G3 X92.845 Y93.834 I0.099 J0.434
G1 X86.995 Y95.17
G2 X86.47 Y95.622 I0.165 J0.723
G3 X85.789 Y95.749 I-0.38 J-0.149
X86.562 Y93.274 I1.107 J-1.012
G1 X92.411 Y91.938
G3 X93.079 Y94.862 I0.334 J1.462
G1 X87.23 Y96.199
G3 X85.789 Y95.749 I-0.334 J-1.462
G1 X85.765 Y95.716
X85.748 Y95.68
X85.738 Y95.641
X85.547 Y94.249
Y94.197
X85.56 Y94.147
G3 X88.205 Y95.207 Z-7.756 I1.323 J0.53 F333.3
X85.56 Y94.147 Z-7.913 I-1.323 J-0.53
X88.205 Y95.207 Z-8.069 I1.323 J0.53
X85.56 Y94.147 Z-8.225 I-1.323 J-0.53
X88.205 Y95.207 Z-8.382 I1.323 J0.53
X85.56 Y94.147 Z-8.538 I-1.323 J-0.53
X88.205 Y95.207 Z-8.694 I1.323 J0.53
X85.56 Y94.147 Z-8.851 I-1.323 J-0.53
X88.205 Y95.207 Z-9.007 I1.323 J0.53
X85.56 Y94.147 Z-9.163 I-1.323 J-0.53
X88.205 Y95.207 Z-9.32 I1.323 J0.53
X85.56 Y94.147 Z-9.476 I-1.323 J-0.53
X88.205 Y95.207 Z-9.632 I1.323 J0.53
X85.56 Y94.147 Z-9.789 I-1.323 J-0.53
X88.205 Y95.207 Z-9.945 I1.323 J0.53
X85.56 Y94.147 Z-10.101 I-1.323 J-0.53
X88.205 Y95.207 Z-10.258 I1.323 J0.53
X85.56 Y94.147 Z-10.414 I-1.323 J-0.53
X88.205 Y95.207 Z-10.57 I1.323 J0.53
X85.56 Y94.147 Z-10.727 I-1.323 J-0.53
X88.205 Y95.207 Z-10.883 I1.323 J0.53
X85.56 Y94.147 Z-11.039 I-1.323 J-0.53
X88.205 Y95.207 Z-11.196 I1.323 J0.53
X85.56 Y94.147 Z-11.352 I-1.323 J-0.53
X86.565 Y93.288 Z-11.4 I1.323 J0.53
X86.995 Y95.17 I0.215 J0.941
X86.797 Y94.303 I-0.099 J-0.434 F1000
G1 X92.646 Y92.966
G3 X92.845 Y93.834 I0.099 J0.434
G1 X86.995 Y95.17
G2 X86.47 Y95.622 I0.165 J0.723
G3 X85.789 Y95.749 I-0.38 J-0.149
X86.562 Y93.274 I1.107 J-1.012
G1 X92.411 Y91.938
G3 X93.079 Y94.862 I0.334 J1.462
G1 X87.23 Y96.199
G3 X85.789 Y95.749 I-0.334 J-1.462
G1 X85.765 Y95.716
X85.748 Y95.68
X85.738 Y95.641
X85.547 Y94.249
Y94.197
X85.56 Y94.147
G3 X88.205 Y95.207 Z-11.556 I1.323 J0.53 F333.3
X85.56 Y94.147 Z-11.713 I-1.323 J-0.53
X88.205 Y95.207 Z-11.869 I1.323 J0.53
X85.56 Y94.147 Z-12.025 I-1.323 J-0.53
X88.205 Y95.207 Z-12.182 I1.323 J0.53
X85.56 Y94.147 Z-12.338 I-1.323 J-0.53
X88.205 Y95.207 Z-12.494 I1.323 J0.53
X85.56 Y94.147 Z-12.651 I-1.323 J-0.53
X88.205 Y95.207 Z-12.807 I1.323 J0.53
X85.56 Y94.147 Z-12.963 I-1.323 J-0.53
X88.205 Y95.207 Z-13.12 I1.323 J0.53
X85.56 Y94.147 Z-13.276 I-1.323 J-0.53
X88.205 Y95.207 Z-13.432 I1.323 J0.53
X85.56 Y94.147 Z-13.589 I-1.323 J-0.53
X88.205 Y95.207 Z-13.745 I1.323 J0.53
X85.56 Y94.147 Z-13.901 I-1.323 J-0.53
X88.205 Y95.207 Z-14.058 I1.323 J0.53
X85.56 Y94.147 Z-14.214 I-1.323 J-0.53
X88.205 Y95.207 Z-14.37 I1.323 J0.53
X85.56 Y94.147 Z-14.527 I-1.323 J-0.53
X88.205 Y95.207 Z-14.683 I1.323 J0.53
X85.56 Y94.147 Z-14.839 I-1.323 J-0.53
X88.205 Y95.207 Z-14.996 I1.323 J0.53
X85.56 Y94.147 Z-15.152 I-1.323 J-0.53
X86.565 Y93.288 Z-15.2 I1.323 J0.53
X86.995 Y95.17 I0.215 J0.941
X86.797 Y94.303 I-0.099 J-0.434 F1000
G1 X92.646 Y92.966
G3 X92.845 Y93.834 I0.099 J0.434
G1 X86.995 Y95.17
G2 X86.47 Y95.622 I0.165 J0.723
G3 X85.789 Y95.749 I-0.38 J-0.149
X86.562 Y93.274 I1.107 J-1.012
G1 X92.411 Y91.938
G3 X93.079 Y94.862 I0.334 J1.462
G1 X87.23 Y96.199
G3 X85.789 Y95.749 I-0.334 J-1.462
G1 X85.765 Y95.716
X85.748 Y95.68
X85.738 Y95.641
X85.547 Y94.249
Y94.197
X85.56 Y94.147
G3 X88.205 Y95.207 Z-15.356 I1.323 J0.53 F333.3
X85.56 Y94.147 Z-15.513 I-1.323 J-0.53
X88.205 Y95.207 Z-15.669 I1.323 J0.53
X85.56 Y94.147 Z-15.825 I-1.323 J-0.53
X88.205 Y95.207 Z-15.982 I1.323 J0.53
X85.56 Y94.147 Z-16.138 I-1.323 J-0.53
X88.205 Y95.207 Z-16.294 I1.323 J0.53
X85.56 Y94.147 Z-16.451 I-1.323 J-0.53
X88.205 Y95.207 Z-16.607 I1.323 J0.53
X85.56 Y94.147 Z-16.763 I-1.323 J-0.53
X88.205 Y95.207 Z-16.92 I1.323 J0.53
X85.56 Y94.147 Z-17.076 I-1.323 J-0.53
X88.205 Y95.207 Z-17.232 I1.323 J0.53
X85.56 Y94.147 Z-17.389 I-1.323 J-0.53
X88.205 Y95.207 Z-17.545 I1.323 J0.53
X85.56 Y94.147 Z-17.701 I-1.323 J-0.53
X88.205 Y95.207 Z-17.858 I1.323 J0.53
X85.56 Y94.147 Z-18.014 I-1.323 J-0.53
X88.205 Y95.207 Z-18.17 I1.323 J0.53
X85.56 Y94.147 Z-18.327 I-1.323 J-0.53
X88.205 Y95.207 Z-18.483 I1.323 J0.53
X85.56 Y94.147 Z-18.639 I-1.323 J-0.53
X88.205 Y95.207 Z-18.796 I1.323 J0.53
X85.56 Y94.147 Z-18.952 I-1.323 J-0.53
X86.565 Y93.288 Z-19 I1.323 J0.53
X86.995 Y95.17 I0.215 J0.941
X86.797 Y94.303 I-0.099 J-0.434 F1000
G1 X92.646 Y92.966
G3 X92.845 Y93.834 I0.099 J0.434
G1 X86.995 Y95.17
G2 X86.47 Y95.622 I0.165 J0.723
G3 X85.789 Y95.749 I-0.38 J-0.149
X86.562 Y93.274 I1.107 J-1.012
G1 X92.411 Y91.938
G3 X93.079 Y94.862 I0.334 J1.462
G1 X87.23 Y96.199
G3 X85.789 Y95.749 I-0.334 J-1.462
G1 X85.754 Y95.703 Z-18.989
X85.729 Y95.651 Z-18.977
X85.716 Y95.604 Z-18.945
X85.71 Y95.556 Z-18.912
X85.715 Y95.491 Z-18.815
X85.72 Y95.469 Z-18.7
G0 Z5
X217.184 Y65.64
G1 Z2.8 F333.3
X217.176 Y65.677 Z2.653
X217.148 Y65.779 Z2.544
X217.097 Y65.915 Z2.5
G3 X214.48 Y64.786 Z2.344 I-1.308 J-0.565
X217.097 Y65.915 Z2.187 I1.308 J0.565
X214.48 Y64.786 Z2.031 I-1.308 J-0.565
X217.097 Y65.915 Z1.875 I1.308 J0.565
X214.48 Y64.786 Z1.718 I-1.308 J-0.565
X217.097 Y65.915 Z1.562 I1.308 J0.565
X214.48 Y64.786 Z1.406 I-1.308 J-0.565
X217.097 Y65.915 Z1.249 I1.308 J0.565
X214.48 Y64.786 Z1.093 I-1.308 J-0.565
X217.097 Y65.915 Z0.937 I1.308 J0.565
X214.48 Y64.786 Z0.78 I-1.308 J-0.565
X217.097 Y65.915 Z0.624 I1.308 J0.565
X214.48 Y64.786 Z0.468 I-1.308 J-0.565
X217.097 Y65.915 Z0.311 I1.308 J0.565
X214.48 Y64.786 Z0.155 I-1.308 J-0.565
X217.097 Y65.915 Z-0.001 I1.308 J0.565
X214.48 Y64.786 Z-0.158 I-1.308 J-0.565
X217.097 Y65.915 Z-0.314 I1.308 J0.565
X214.48 Y64.786 Z-0.47 I-1.308 J-0.565
X217.097 Y65.915 Z-0.627 I1.308 J0.565
X214.48 Y64.786 Z-0.783 I-1.308 J-0.565
X217.097 Y65.915 Z-0.939 I1.308 J0.565
X214.48 Y64.786 Z-1.096 I-1.308 J-0.565
X217.097 Y65.915 Z-1.252 I1.308 J0.565
X214.48 Y64.786 Z-1.408 I-1.308 J-0.565
X217.097 Y65.915 Z-1.565 I1.308 J0.565
X214.48 Y64.786 Z-1.721 I-1.308 J-0.565
X217.097 Y65.915 Z-1.877 I1.308 J0.565
X214.48 Y64.786 Z-2.034 I-1.308 J-0.565
X217.097 Y65.915 Z-2.19 I1.308 J0.565
X214.48 Y64.786 Z-2.346 I-1.308 J-0.565
X217.097 Y65.915 Z-2.503 I1.308 J0.565
X214.48 Y64.786 Z-2.659 I-1.308 J-0.565
X217.097 Y65.915 Z-2.815 I1.308 J0.565
X214.48 Y64.786 Z-2.972 I-1.308 J-0.565
X217.097 Y65.915 Z-3.128 I1.308 J0.565
X214.48 Y64.786 Z-3.284 I-1.308 J-0.565
X217.097 Y65.915 Z-3.441 I1.308 J0.565
X214.48 Y64.786 Z-3.597 I-1.308 J-0.565
X217.097 Y65.915 Z-3.753 I1.308 J0.565
X216.106 Y66.74 Z-3.8 I-1.308 J-0.565
X215.676 Y64.857 I-0.215 J-0.941
X216.209 Y65.192 I0.099 J0.434 F1000
X215.874 Y65.725 I-0.434 J0.099
G1 X210.025 Y67.061
G3 X209.492 Y66.726 I-0.099 J-0.434
X209.827 Y66.193 I0.434 J-0.099
G1 X215.676 Y64.857
G2 X216.201 Y64.405 I-0.165 J-0.723
G3 X216.882 Y64.279 I0.38 J0.149
X216.109 Y66.753 I-1.107 J1.012
G1 X210.26 Y68.09
G3 X208.464 Y66.961 I-0.334 J-1.462
X209.592 Y65.165 I1.462 J-0.334
G1 X215.441 Y63.829
G3 X216.882 Y64.279 I0.334 J1.462
G1 X216.906 Y64.311
X216.923 Y64.348
X216.933 Y64.387
X217.124 Y65.779
Y65.831
X217.111 Y65.881
G3 X214.466 Y64.82 Z-3.956 I-1.323 J-0.53 F333.3
X217.111 Y65.881 Z-4.113 I1.323 J0.53
X214.466 Y64.82 Z-4.269 I-1.323 J-0.53
X217.111 Y65.881 Z-4.425 I1.323 J0.53
X214.466 Y64.82 Z-4.582 I-1.323 J-0.53
X217.111 Y65.881 Z-4.738 I1.323 J0.53
X214.466 Y64.82 Z-4.894 I-1.323 J-0.53
X217.111 Y65.881 Z-5.051 I1.323 J0.53
X214.466 Y64.82 Z-5.207 I-1.323 J-0.53
X217.111 Y65.881 Z-5.363 I1.323 J0.53
X214.466 Y64.82 Z-5.52 I-1.323 J-0.53
X217.111 Y65.881 Z-5.676 I1.323 J0.53
X214.466 Y64.82 Z-5.832 I-1.323 J-0.53
X217.111 Y65.881 Z-5.989 I1.323 J0.53
X214.466 Y64.82 Z-6.145 I-1.323 J-0.53
X217.111 Y65.881 Z-6.301 I1.323 J0.53
X214.466 Y64.82 Z-6.458 I-1.323 J-0.53
X217.111 Y65.881 Z-6.614 I1.323 J0.53
X214.466 Y64.82 Z-6.77 I-1.323 J-0.53
X217.111 Y65.881 Z-6.927 I1.323 J0.53
X214.466 Y64.82 Z-7.083 I-1.323 J-0.53
X217.111 Y65.881 Z-7.239 I1.323 J0.53
X214.466 Y64.82 Z-7.396 I-1.323 J-0.53
X217.111 Y65.881 Z-7.552 I1.323 J0.53
X216.106 Y66.74 Z-7.6 I-1.323 J-0.53
X215.676 Y64.857 I-0.215 J-0.941
X216.209 Y65.192 I0.099 J0.434 F1000
X215.874 Y65.725 I-0.434 J0.099
G1 X210.025 Y67.061
G3 X209.492 Y66.726 I-0.099 J-0.434
X209.827 Y66.193 I0.434 J-0.099
G1 X215.676 Y64.857
G2 X216.201 Y64.405 I-0.165 J-0.723
G3 X216.882 Y64.279 I0.38 J0.149
X216.109 Y66.753 I-1.107 J1.012
G1 X210.26 Y68.09
G3 X208.464 Y66.961 I-0.334 J-1.462
X209.592 Y65.165 I1.462 J-0.334
G1 X215.441 Y63.829
G3 X216.882 Y64.279 I0.334 J1.462
G1 X216.906 Y64.311
X216.923 Y64.348
X216.933 Y64.387
X217.124 Y65.779
Y65.831
X217.111 Y65.881
G3 X214.466 Y64.82 Z-7.756 I-1.323 J-0.53 F333.3
X217.111 Y65.881 Z-7.913 I1.323 J0.53
X214.466 Y64.82 Z-8.069 I-1.323 J-0.53
X217.111 Y65.881 Z-8.225 I1.323 J0.53
X214.466 Y64.82 Z-8.382 I-1.323 J-0.53
X217.111 Y65.881 Z-8.538 I1.323 J0.53
X214.466 Y64.82 Z-8.694 I-1.323 J-0.53
X217.111 Y65.881 Z-8.851 I1.323 J0.53
X214.466 Y64.82 Z-9.007 I-1.323 J-0.53
X217.111 Y65.881 Z-9.163 I1.323 J0.53
X214.466 Y64.82 Z-9.32 I-1.323 J-0.53
X217.111 Y65.881 Z-9.476 I1.323 J0.53
X214.466 Y64.82 Z-9.632 I-1.323 J-0.53
X217.111 Y65.881 Z-9.789 I1.323 J0.53
X214.466 Y64.82 Z-9.945 I-1.323 J-0.53
X217.111 Y65.881 Z-10.101 I1.323 J0.53
X214.466 Y64.82 Z-10.258 I-1.323 J-0.53
X217.111 Y65.881 Z-10.414 I1.323 J0.53
X214.466 Y64.82 Z-10.57 I-1.323 J-0.53
X217.111 Y65.881 Z-10.727 I1.323 J0.53
X214.466 Y64.82 Z-10.883 I-1.323 J-0.53
X217.111 Y65.881 Z-11.039 I1.323 J0.53
X214.466 Y64.82 Z-11.196 I-1.323 J-0.53
X217.111 Y65.881 Z-11.352 I1.323 J0.53
X216.106 Y66.74 Z-11.4 I-1.323 J-0.53
X215.676 Y64.857 I-0.215 J-0.941
X216.209 Y65.192 I0.099 J0.434 F1000
X215.874 Y65.725 I-0.434 J0.099
G1 X210.025 Y67.061
G3 X209.492 Y66.726 I-0.099 J-0.434
X209.827 Y66.193 I0.434 J-0.099
G1 X215.676 Y64.857
G2 X216.201 Y64.405 I-0.165 J-0.723
G3 X216.882 Y64.279 I0.38 J0.149
X216.109 Y66.753 I-1.107 J1.012
G1 X210.26 Y68.09
G3 X208.464 Y66.961 I-0.334 J-1.462
X209.592 Y65.165 I1.462 J-0.334
G1 X215.441 Y63.829
G3 X216.882 Y64.279 I0.334 J1.462
G1 X216.906 Y64.311
X216.923 Y64.348
X216.933 Y64.387
X217.124 Y65.779
Y65.831
X217.111 Y65.881
G3 X214.466 Y64.82 Z-11.556 I-1.323 J-0.53 F333.3
X217.111 Y65.881 Z-11.713 I1.323 J0.53
X214.466 Y64.82 Z-11.869 I-1.323 J-0.53
X217.111 Y65.881 Z-12.025 I1.323 J0.53
X214.466 Y64.82 Z-12.182 I-1.323 J-0.53
X217.111 Y65.881 Z-12.338 I1.323 J0.53
X214.466 Y64.82 Z-12.494 I-1.323 J-0.53
X217.111 Y65.881 Z-12.651 I1.323 J0.53
X214.466 Y64.82 Z-12.807 I-1.323 J-0.53
X217.111 Y65.881 Z-12.963 I1.323 J0.53
X214.466 Y64.82 Z-13.12 I-1.323 J-0.53
X217.111 Y65.881 Z-13.276 I1.323 J0.53
X214.466 Y64.82 Z-13.432 I-1.323 J-0.53
X217.111 Y65.881 Z-13.589 I1.323 J0.53
X214.466 Y64.82 Z-13.745 I-1.323 J-0.53
X217.111 Y65.881 Z-13.901 I1.323 J0.53
X214.466 Y64.82 Z-14.058 I-1.323 J-0.53
X217.111 Y65.881 Z-14.214 I1.323 J0.53
X214.466 Y64.82 Z-14.37 I-1.323 J-0.53
X217.111 Y65.881 Z-14.527 I1.323 J0.53
X214.466 Y64.82 Z-14.683 I-1.323 J-0.53
X217.111 Y65.881 Z-14.839 I1.323 J0.53
X214.466 Y64.82 Z-14.996 I-1.323 J-0.53
X217.111 Y65.881 Z-15.152 I1.323 J0.53
X216.106 Y66.74 Z-15.2 I-1.323 J-0.53
X215.676 Y64.857 I-0.215 J-0.941
X216.209 Y65.192 I0.099 J0.434 F1000
X215.874 Y65.725 I-0.434 J0.099
G1 X210.025 Y67.061
G3 X209.492 Y66.726 I-0.099 J-0.434
X209.827 Y66.193 I0.434 J-0.099
G1 X215.676 Y64.857
G2 X216.201 Y64.405 I-0.165 J-0.723
G3 X216.882 Y64.279 I0.38 J0.149
X216.109 Y66.753 I-1.107 J1.012
G1 X210.26 Y68.09
G3 X208.464 Y66.961 I-0.334 J-1.462
X209.592 Y65.165 I1.462 J-0.334
G1 X215.441 Y63.829
G3 X216.882 Y64.279 I0.334 J1.462
G1 X216.906 Y64.311
X216.923 Y64.348
X216.933 Y64.387
X217.124 Y65.779
Y65.831
X217.111 Y65.881
G3 X214.466 Y64.82 Z-15.356 I-1.323 J-0.53 F333.3
X217.111 Y65.881 Z-15.513 I1.323 J0.53
X214.466 Y64.82 Z-15.669 I-1.323 J-0.53
X217.111 Y65.881 Z-15.825 I1.323 J0.53
X214.466 Y64.82 Z-15.982 I-1.323 J-0.53
X217.111 Y65.881 Z-16.138 I1.323 J0.53
X214.466 Y64.82 Z-16.294 I-1.323 J-0.53
X217.111 Y65.881 Z-16.451 I1.323 J0.53
X214.466 Y64.82 Z-16.607 I-1.323 J-0.53
X217.111 Y65.881 Z-16.763 I1.323 J0.53
X214.466 Y64.82 Z-16.92 I-1.323 J-0.53
X217.111 Y65.881 Z-17.076 I1.323 J0.53
X214.466 Y64.82 Z-17.232 I-1.323 J-0.53
X217.111 Y65.881 Z-17.389 I1.323 J0.53
X214.466 Y64.82 Z-17.545 I-1.323 J-0.53
X217.111 Y65.881 Z-17.701 I1.323 J0.53
X214.466 Y64.82 Z-17.858 I-1.323 J-0.53
X217.111 Y65.881 Z-18.014 I1.323 J0.53
X214.466 Y64.82 Z-18.17 I-1.323 J-0.53
X217.111 Y65.881 Z-18.327 I1.323 J0.53
X214.466 Y64.82 Z-18.483 I-1.323 J-0.53
X217.111 Y65.881 Z-18.639 I1.323 J0.53
X214.466 Y64.82 Z-18.796 I-1.323 J-0.53
X217.111 Y65.881 Z-18.952 I1.323 J0.53
X216.106 Y66.74 Z-19 I-1.323 J-0.53
X215.676 Y64.857 I-0.215 J-0.941
X216.209 Y65.192 I0.099 J0.434 F1000
X215.874 Y65.725 I-0.434 J0.099
G1 X210.025 Y67.061
G3 X209.492 Y66.726 I-0.099 J-0.434
X209.827 Y66.193 I0.434 J-0.099
G1 X215.676 Y64.857
G2 X216.201 Y64.405 I-0.165 J-0.723
G3 X216.882 Y64.279 I0.38 J0.149
X216.109 Y66.753 I-1.107 J1.012
G1 X210.26 Y68.09
G3 X208.464 Y66.961 I-0.334 J-1.462
X209.592 Y65.165 I1.462 J-0.334
G1 X215.441 Y63.829
G3 X216.882 Y64.279 I0.334 J1.462
G1 X216.917 Y64.325 Z-18.989
X216.942 Y64.376 Z-18.977
X216.955 Y64.423 Z-18.945
X216.961 Y64.471 Z-18.912
X216.956 Y64.536 Z-18.815
X216.951 Y64.558 Z-18.7
G0 Z5
X225.957 Y130.977
G1 Z2.8 F333.3
X225.949 Y131.015 Z2.653
X225.921 Y131.116 Z2.544
X225.87 Y131.253 Z2.5
G3 X223.253 Y130.123 Z2.344 I-1.308 J-0.565
X225.87 Y131.253 Z2.187 I1.308 J0.565
X223.253 Y130.123 Z2.031 I-1.308 J-0.565
X225.87 Y131.253 Z1.875 I1.308 J0.565
X223.253 Y130.123 Z1.718 I-1.308 J-0.565
X225.87 Y131.253 Z1.562 I1.308 J0.565
X223.253 Y130.123 Z1.406 I-1.308 J-0.565
X225.87 Y131.253 Z1.249 I1.308 J0.565
X223.253 Y130.123 Z1.093 I-1.308 J-0.565
X225.87 Y131.253 Z0.937 I1.308 J0.565
X223.253 Y130.123 Z0.78 I-1.308 J-0.565
X225.87 Y131.253 Z0.624 I1.308 J0.565
X223.253 Y130.123 Z0.468 I-1.308 J-0.565
X225.87 Y131.253 Z0.311 I1.308 J0.565
X223.253 Y130.123 Z0.155 I-1.308 J-0.565
X225.87 Y131.253 Z-0.001 I1.308 J0.565
X223.253 Y130.123 Z-0.158 I-1.308 J-0.565
X225.87 Y131.253 Z-0.314 I1.308 J0.565
X223.253 Y130.123 Z-0.47 I-1.308 J-0.565
X225.87 Y131.253 Z-0.627 I1.308 J0.565
X223.253 Y130.123 Z-0.783 I-1.308 J-0.565
X225.87 Y131.253 Z-0.939 I1.308 J0.565
X223.253 Y130.123 Z-1.096 I-1.308 J-0.565
X225.87 Y131.253 Z-1.252 I1.308 J0.565
X223.253 Y130.123 Z-1.408 I-1.308 J-0.565
X225.87 Y131.253 Z-1.565 I1.308 J0.565
X223.253 Y130.123 Z-1.721 I-1.308 J-0.565
X225.87 Y131.253 Z-1.877 I1.308 J0.565
X223.253 Y130.123 Z-2.034 I-1.308 J-0.565
X225.87 Y131.253 Z-2.19 I1.308 J0.565
X223.253 Y130.123 Z-2.346 I-1.308 J-0.565
X225.87 Y131.253 Z-2.503 I1.308 J0.565
X223.253 Y130.123 Z-2.659 I-1.308 J-0.565
X225.87 Y131.253 Z-2.815 I1.308 J0.565
X223.253 Y130.123 Z-2.972 I-1.308 J-0.565
X225.87 Y131.253 Z-3.128 I1.308 J0.565
X223.253 Y130.123 Z-3.284 I-1.308 J-0.565
X225.87 Y131.253 Z-3.441 I1.308 J0.565
X223.253 Y130.123 Z-3.597 I-1.308 J-0.565
X225.87 Y131.253 Z-3.753 I1.308 J0.565
X224.879 Y132.077 Z-3.8 I-1.308 J-0.565
X223.722 Y131.351 I-0.215 J-0.941
X224.449 Y130.194 I0.941 J-0.215
G1 X230.299 Y128.858 F1000
G3 X230.497 Y129.725 I0.099 J0.433
G1 X224.647 Y131.062
G3 X224.114 Y130.727 I-0.099 J-0.434
X224.449 Y130.194 I0.434 J-0.099
G2 X225.103 Y129.504 I-0.191 J-0.836
G3 X225.757 Y128.813 I0.845 J0.145
G1 X230.064 Y127.829
G3 X230.732 Y130.754 I0.334 J1.462
G1 X224.883 Y132.091
G3 X223.085 Y130.963 I-0.335 J-1.463
X224.214 Y129.165 I1.463 J-0.334
G1 X225.757 Y128.813
X225.792 Y128.812
X225.824 Y128.824
X225.849 Y128.848
X225.864 Y128.88
X225.865 Y128.914
X225.795 Y129.339
X225.67 Y130.871
X225.674 Y130.905
X225.691 Y130.935
X225.868 Y131.13
X225.885 Y131.156
X225.89 Y131.187
X225.884 Y131.218
G3 X223.239 Y130.158 Z-3.956 I-1.323 J-0.53 F333.3
X225.884 Y131.218 Z-4.113 I1.323 J0.53
X223.239 Y130.158 Z-4.269 I-1.323 J-0.53
X225.884 Y131.218 Z-4.425 I1.323 J0.53
X223.239 Y130.158 Z-4.582 I-1.323 J-0.53
X225.884 Y131.218 Z-4.738 I1.323 J0.53
X223.239 Y130.158 Z-4.894 I-1.323 J-0.53
X225.884 Y131.218 Z-5.051 I1.323 J0.53
X223.239 Y130.158 Z-5.207 I-1.323 J-0.53
X225.884 Y131.218 Z-5.363 I1.323 J0.53
X223.239 Y130.158 Z-5.52 I-1.323 J-0.53
X225.884 Y131.218 Z-5.676 I1.323 J0.53
X223.239 Y130.158 Z-5.832 I-1.323 J-0.53
X225.884 Y131.218 Z-5.989 I1.323 J0.53
X223.239 Y130.158 Z-6.145 I-1.323 J-0.53
X225.884 Y131.218 Z-6.301 I1.323 J0.53
X223.239 Y130.158 Z-6.458 I-1.323 J-0.53
X225.884 Y131.218 Z-6.614 I1.323 J0.53
X223.239 Y130.158 Z-6.77 I-1.323 J-0.53
X225.884 Y131.218 Z-6.927 I1.323 J0.53
X223.239 Y130.158 Z-7.083 I-1.323 J-0.53
X225.884 Y131.218 Z-7.239 I1.323 J0.53
X223.239 Y130.158 Z-7.396 I-1.323 J-0.53
X225.884 Y131.218 Z-7.552 I1.323 J0.53
X224.879 Y132.077 Z-7.6 I-1.323 J-0.53
X223.722 Y131.351 I-0.215 J-0.941
X224.449 Y130.194 I0.941 J-0.215
G1 X230.299 Y128.858 F1000
G3 X230.497 Y129.725 I0.099 J0.433
G1 X224.647 Y131.062
G3 X224.114 Y130.727 I-0.099 J-0.434
X224.449 Y130.194 I0.434 J-0.099
G2 X225.103 Y129.504 I-0.191 J-0.836
G3 X225.757 Y128.813 I0.845 J0.145
G1 X230.064 Y127.829
G3 X230.732 Y130.754 I0.334 J1.462
G1 X224.883 Y132.091
G3 X223.085 Y130.963 I-0.335 J-1.463
X224.214 Y129.165 I1.463 J-0.334
G1 X225.757 Y128.813
X225.792 Y128.812
X225.824 Y128.824
X225.849 Y128.848
X225.864 Y128.88
X225.865 Y128.914
X225.795 Y129.339
X225.67 Y130.871
X225.674 Y130.905
X225.691 Y130.935
X225.868 Y131.13
X225.885 Y131.156
X225.89 Y131.187
X225.884 Y131.218
G3 X223.239 Y130.158 Z-7.756 I-1.323 J-0.53 F333.3
X225.884 Y131.218 Z-7.913 I1.323 J0.53
X223.239 Y130.158 Z-8.069 I-1.323 J-0.53
X225.884 Y131.218 Z-8.225 I1.323 J0.53
X223.239 Y130.158 Z-8.382 I-1.323 J-0.53
X225.884 Y131.218 Z-8.538 I1.323 J0.53
X223.239 Y130.158 Z-8.694 I-1.323 J-0.53
X225.884 Y131.218 Z-8.851 I1.323 J0.53
X223.239 Y130.158 Z-9.007 I-1.323 J-0.53
X225.884 Y131.218 Z-9.163 I1.323 J0.53
X223.239 Y130.158 Z-9.32 I-1.323 J-0.53
X225.884 Y131.218 Z-9.476 I1.323 J0.53
X223.239 Y130.158 Z-9.632 I-1.323 J-0.53
X225.884 Y131.218 Z-9.789 I1.323 J0.53
X223.239 Y130.158 Z-9.945 I-1.323 J-0.53
X225.884 Y131.218 Z-10.101 I1.323 J0.53
X223.239 Y130.158 Z-10.258 I-1.323 J-0.53
X225.884 Y131.218 Z-10.414 I1.323 J0.53
X223.239 Y130.158 Z-10.57 I-1.323 J-0.53
X225.884 Y131.218 Z-10.727 I1.323 J0.53
X223.239 Y130.158 Z-10.883 I-1.323 J-0.53
X225.884 Y131.218 Z-11.039 I1.323 J0.53
X223.239 Y130.158 Z-11.196 I-1.323 J-0.53
X225.884 Y131.218 Z-11.352 I1.323 J0.53
X224.879 Y132.077 Z-11.4 I-1.323 J-0.53
X223.722 Y131.351 I-0.215 J-0.941
X224.449 Y130.194 I0.941 J-0.215
G1 X230.299 Y128.858 F1000
G3 X230.497 Y129.725 I0.099 J0.433
G1 X224.647 Y131.062
G3 X224.114 Y130.727 I-0.099 J-0.434
X224.449 Y130.194 I0.434 J-0.099
G2 X225.103 Y129.504 I-0.191 J-0.836
G3 X225.757 Y128.813 I0.845 J0.145
G1 X230.064 Y127.829
G3 X230.732 Y130.754 I0.334 J1.462
G1 X224.883 Y132.091
G3 X223.085 Y130.963 I-0.335 J-1.463
X224.214 Y129.165 I1.463 J-0.334
G1 X225.757 Y128.813
X225.792 Y128.812
X225.824 Y128.824
X225.849 Y128.848
X225.864 Y128.88
X225.865 Y128.914
X225.795 Y129.339
X225.67 Y130.871
X225.674 Y130.905
X225.691 Y130.935
X225.868 Y131.13
X225.885 Y131.156
X225.89 Y131.187
X225.884 Y131.218
G3 X223.239 Y130.158 Z-11.556 I-1.323 J-0.53 F333.3
X225.884 Y131.218 Z-11.713 I1.323 J0.53
X223.239 Y130.158 Z-11.869 I-1.323 J-0.53
X225.884 Y131.218 Z-12.025 I1.323 J0.53
X223.239 Y130.158 Z-12.182 I-1.323 J-0.53
X225.884 Y131.218 Z-12.338 I1.323 J0.53
X223.239 Y130.158 Z-12.494 I-1.323 J-0.53
X225.884 Y131.218 Z-12.651 I1.323 J0.53
X223.239 Y130.158 Z-12.807 I-1.323 J-0.53
X225.884 Y131.218 Z-12.963 I1.323 J0.53
X223.239 Y130.158 Z-13.12 I-1.323 J-0.53
X225.884 Y131.218 Z-13.276 I1.323 J0.53
X223.239 Y130.158 Z-13.432 I-1.323 J-0.53
X225.884 Y131.218 Z-13.589 I1.323 J0.53
X223.239 Y130.158 Z-13.745 I-1.323 J-0.53
X225.884 Y131.218 Z-13.901 I1.323 J0.53
X223.239 Y130.158 Z-14.058 I-1.323 J-0.53
X225.884 Y131.218 Z-14.214 I1.323 J0.53
X223.239 Y130.158 Z-14.37 I-1.323 J-0.53
X225.884 Y131.218 Z-14.527 I1.323 J0.53
X223.239 Y130.158 Z-14.683 I-1.323 J-0.53
X225.884 Y131.218 Z-14.839 I1.323 J0.53
X223.239 Y130.158 Z-14.996 I-1.323 J-0.53
X225.884 Y131.218 Z-15.152 I1.323 J0.53
X224.879 Y132.077 Z-15.2 I-1.323 J-0.53
X223.722 Y131.351 I-0.215 J-0.941
X224.449 Y130.194 I0.941 J-0.215
G1 X230.299 Y128.858 F1000
G3 X230.497 Y129.725 I0.099 J0.433
G1 X224.647 Y131.062
G3 X224.114 Y130.727 I-0.099 J-0.434
X224.449 Y130.194 I0.434 J-0.099
G2 X225.103 Y129.504 I-0.191 J-0.836
G3 X225.757 Y128.813 I0.845 J0.145
G1 X230.064 Y127.829
G3 X230.732 Y130.754 I0.334 J1.462
G1 X224.883 Y132.091
G3 X223.085 Y130.963 I-0.335 J-1.463
X224.214 Y129.165 I1.463 J-0.334
G1 X225.757 Y128.813
X225.792 Y128.812
X225.824 Y128.824
X225.849 Y128.848
X225.864 Y128.88
X225.865 Y128.914
X225.795 Y129.339
X225.67 Y130.871
X225.674 Y130.905
X225.691 Y130.935
X225.868 Y131.13
X225.885 Y131.156
X225.89 Y131.187
X225.884 Y131.218
G3 X223.239 Y130.158 Z-15.356 I-1.323 J-0.53 F333.3
X225.884 Y131.218 Z-15.513 I1.323 J0.53
X223.239 Y130.158 Z-15.669 I-1.323 J-0.53
X225.884 Y131.218 Z-15.825 I1.323 J0.53
X223.239 Y130.158 Z-15.982 I-1.323 J-0.53
X225.884 Y131.218 Z-16.138 I1.323 J0.53
X223.239 Y130.158 Z-16.294 I-1.323 J-0.53
X225.884 Y131.218 Z-16.451 I1.323 J0.53
X223.239 Y130.158 Z-16.607 I-1.323 J-0.53
X225.884 Y131.218 Z-16.763 I1.323 J0.53
X223.239 Y130.158 Z-16.92 I-1.323 J-0.53
X225.884 Y131.218 Z-17.076 I1.323 J0.53
X223.239 Y130.158 Z-17.232 I-1.323 J-0.53
X225.884 Y131.218 Z-17.389 I1.323 J0.53
X223.239 Y130.158 Z-17.545 I-1.323 J-0.53
X225.884 Y131.218 Z-17.701 I1.323 J0.53
X223.239 Y130.158 Z-17.858 I-1.323 J-0.53
X225.884 Y131.218 Z-18.014 I1.323 J0.53
X223.239 Y130.158 Z-18.17 I-1.323 J-0.53
X225.884 Y131.218 Z-18.327 I1.323 J0.53
X223.239 Y130.158 Z-18.483 I-1.323 J-0.53
X225.884 Y131.218 Z-18.639 I1.323 J0.53
X223.239 Y130.158 Z-18.796 I-1.323 J-0.53
X225.884 Y131.218 Z-18.952 I1.323 J0.53
X224.879 Y132.077 Z-19 I-1.323 J-0.53
X223.722 Y131.351 I-0.215 J-0.941
X224.449 Y130.194 I0.941 J-0.215
G1 X230.299 Y128.858 F1000
G3 X230.497 Y129.725 I0.099 J0.433
G1 X224.647 Y131.062
G3 X224.114 Y130.727 I-0.099 J-0.434
X224.449 Y130.194 I0.434 J-0.099
G2 X225.103 Y129.504 I-0.191 J-0.836
G3 X225.757 Y128.813 I0.845 J0.145
G1 X230.064 Y127.829
G3 X230.732 Y130.754 I0.334 J1.462
G1 X224.883 Y132.091
G3 X223.085 Y130.963 I-0.335 J-1.463
X224.214 Y129.165 I1.463 J-0.334
G1 X225.757 Y128.813
X225.814 Y128.806 Z-18.989
X225.871 Y128.809 Z-18.977
X225.918 Y128.821 Z-18.945
X225.963 Y128.84 Z-18.912
X226.017 Y128.876 Z-18.815
X226.034 Y128.891 Z-18.7
G0 Z15

(2D Contour9)
X204.785 Y101.165
Z15
Z5
G1 Z-3.7 F333.3
X204.793 Y101.163 Z-3.767 F1000
X204.814 Y101.158 Z-3.83
X204.849 Y101.15 Z-3.887
X204.896 Y101.14 Z-3.935
X204.951 Y101.127 Z-3.97
X205.013 Y101.113 Z-3.992
X205.078 Y101.098 Z-4
X205.37 Y101.031
G3 X205.73 Y101.257 I0.067 J0.292
G1 X213.821 Y136.67
X119.655 Y158.184
X103.473 Y87.359
X197.639 Y65.844
X205.73 Y101.257
G3 X205.504 Y101.616 I-0.292 J0.067
G1 X205.212 Y101.683
X205.146 Y101.698 Z-3.992
X205.085 Y101.712 Z-3.97
X205.029 Y101.725 Z-3.935
X204.983 Y101.735 Z-3.887
X204.948 Y101.743 Z-3.83
X204.926 Y101.748 Z-3.767
X204.919 Y101.75 Z-3.7
X204.785 Y101.165
Z-7.7 F333.3
X204.793 Y101.163 Z-7.767 F1000
X204.814 Y101.158 Z-7.83
X204.849 Y101.15 Z-7.887
X204.896 Y101.14 Z-7.935
X204.951 Y101.127 Z-7.97
X205.013 Y101.113 Z-7.992
X205.078 Y101.098 Z-8
X205.37 Y101.031
G3 X205.73 Y101.257 I0.067 J0.292
G1 X213.821 Y136.67
X119.655 Y158.184
X103.473 Y87.359
X197.639 Y65.844
X205.73 Y101.257
G3 X205.504 Y101.616 I-0.292 J0.067
G1 X205.212 Y101.683
X205.146 Y101.698 Z-7.992
X205.085 Y101.712 Z-7.97
X205.029 Y101.725 Z-7.935
X204.983 Y101.735 Z-7.887
X204.948 Y101.743 Z-7.83
X204.926 Y101.748 Z-7.767
X204.919 Y101.75 Z-7.7
X204.785 Y101.165
Z-11.7 F333.3
X204.793 Y101.163 Z-11.767 F1000
X204.814 Y101.158 Z-11.83
X204.849 Y101.15 Z-11.887
X204.896 Y101.14 Z-11.935
X204.951 Y101.127 Z-11.97
X205.013 Y101.113 Z-11.992
X205.078 Y101.098 Z-12
X205.37 Y101.031
G3 X205.73 Y101.257 I0.067 J0.292
G1 X213.821 Y136.67
X119.655 Y158.184
X103.473 Y87.359
X197.639 Y65.844
X205.73 Y101.257
G3 X205.504 Y101.616 I-0.292 J0.067
G1 X205.212 Y101.683
X205.146 Y101.698 Z-11.992
X205.085 Y101.712 Z-11.97
X205.029 Y101.725 Z-11.935
X204.983 Y101.735 Z-11.887
X204.948 Y101.743 Z-11.83
X204.926 Y101.748 Z-11.767
X204.919 Y101.75 Z-11.7
X204.785 Y101.165
Z-15.7 F333.3
X204.793 Y101.163 Z-15.767 F1000
X204.814 Y101.158 Z-15.83
X204.849 Y101.15 Z-15.887
X204.896 Y101.14 Z-15.935
X204.951 Y101.127 Z-15.97
X205.013 Y101.113 Z-15.992
X205.078 Y101.098 Z-16
X205.37 Y101.031
G3 X205.73 Y101.257 I0.067 J0.292
G1 X213.821 Y136.67
X119.655 Y158.184
X103.473 Y87.359
X197.639 Y65.844
X205.73 Y101.257
G3 X205.504 Y101.616 I-0.292 J0.067
G1 X205.212 Y101.683
X205.146 Y101.698 Z-15.992
X205.085 Y101.712 Z-15.97
X205.029 Y101.725 Z-15.935
X204.983 Y101.735 Z-15.887
X204.948 Y101.743 Z-15.83
X204.926 Y101.748 Z-15.767
X204.919 Y101.75 Z-15.7
X204.785 Y101.165
Z-18 F333.3
X205.078 Y101.098 F1000
X205.37 Y101.031
G3 X205.73 Y101.257 I0.067 J0.292
G1 X206.398 Y104.182
Z-19 F333.3
X213.821 Y136.67 F1000
X193.935 Y141.213
Z-18
X188.085 Y142.549
Z-19 F333.3
X145.39 Y152.304 F1000
Z-18
X139.541 Y153.64
Z-19 F333.3
X119.655 Y158.184 F1000
X112.232 Y125.696
Z-18
X110.896 Y119.846
Z-19 F333.3
X103.473 Y87.359 F1000
X123.359 Y82.815
Z-18
X129.209 Y81.479
Z-19 F333.3
X171.903 Y71.724 F1000
Z-18
X177.753 Y70.388
Z-19 F333.3
X197.639 Y65.844 F1000
X205.061 Y98.332
Z-18
X205.73 Y101.257
G3 X205.504 Y101.616 I-0.292 J0.067
G1 X204.919 Y101.75
G0 Z15

(2D Pocket11)
X225.411 Y129.114
Z15
Z5
G1 Z2.8 F333.3
X225.442 Y129.09 Z2.653
X225.528 Y129.03 Z2.544
X225.654 Y128.958 Z2.5
G3 X226.945 Y131.499 Z2.344 I0.645 J1.27
X225.654 Y128.958 Z2.187 I-0.645 J-1.27
X226.945 Y131.499 Z2.031 I0.645 J1.27
X225.654 Y128.958 Z1.875 I-0.645 J-1.27
X226.945 Y131.499 Z1.718 I0.645 J1.27
X225.654 Y128.958 Z1.562 I-0.645 J-1.27
X226.945 Y131.499 Z1.406 I0.645 J1.27
X225.654 Y128.958 Z1.249 I-0.645 J-1.27
X226.945 Y131.499 Z1.093 I0.645 J1.27
X225.654 Y128.958 Z0.937 I-0.645 J-1.27
X226.945 Y131.499 Z0.78 I0.645 J1.27
X225.654 Y128.958 Z0.624 I-0.645 J-1.27
X226.945 Y131.499 Z0.468 I0.645 J1.27
X225.654 Y128.958 Z0.311 I-0.645 J-1.27
X226.945 Y131.499 Z0.155 I0.645 J1.27
X225.654 Y128.958 Z-0.001 I-0.645 J-1.27
X226.945 Y131.499 Z-0.158 I0.645 J1.27
X225.654 Y128.958 Z-0.314 I-0.645 J-1.27
X226.945 Y131.499 Z-0.47 I0.645 J1.27
X225.654 Y128.958 Z-0.627 I-0.645 J-1.27
X226.945 Y131.499 Z-0.783 I0.645 J1.27
X225.654 Y128.958 Z-0.939 I-0.645 J-1.27
X226.945 Y131.499 Z-1.096 I0.645 J1.27
X225.654 Y128.958 Z-1.252 I-0.645 J-1.27
X226.945 Y131.499 Z-1.408 I0.645 J1.27
X225.654 Y128.958 Z-1.565 I-0.645 J-1.27
X226.945 Y131.499 Z-1.721 I0.645 J1.27
X225.654 Y128.958 Z-1.877 I-0.645 J-1.27
X226.945 Y131.499 Z-2.034 I0.645 J1.27
X225.654 Y128.958 Z-2.19 I-0.645 J-1.27
X226.945 Y131.499 Z-2.346 I0.645 J1.27
X225.654 Y128.958 Z-2.503 I-0.645 J-1.27
X226.945 Y131.499 Z-2.659 I0.645 J1.27
X225.654 Y128.958 Z-2.815 I-0.645 J-1.27
X226.945 Y131.499 Z-2.972 I0.645 J1.27
X225.654 Y128.958 Z-3.128 I-0.645 J-1.27
X226.945 Y131.499 Z-3.284 I0.645 J1.27
X225.654 Y128.958 Z-3.441 I-0.645 J-1.27
X226.945 Y131.499 Z-3.597 I0.645 J1.27
X225.654 Y128.958 Z-3.753 I-0.645 J-1.27
X226.945 Y131.499 Z-3.91 I0.645 J1.27
X224.91 Y130.545 Z-4 I-0.645 J-1.27
G1 X224.903 Y130.514 F1000
X224.902 Y130.476
X224.916 Y130.441
X224.941 Y130.414
X224.976 Y130.398
X229.794 Y129.298
G3 X229.949 Y129.394 I0.029 J0.126
X229.852 Y129.549 I-0.126 J0.029
G1 X225.033 Y130.65
X224.995 Y130.651
X224.96 Y130.637
X224.933 Y130.611
X224.918 Y130.577
X224.91 Y130.545
G2 X224.168 Y129.881 I-0.84 J0.192
G3 X224.113 Y128.886 I0.057 J-0.502
G1 X230.949 Y127.325
G3 X231.331 Y127.565 I0.071 J0.311
G1 X231.989 Y130.442
G3 X231.748 Y130.824 I-0.311 J0.071
G1 X223.997 Y132.595
G3 X223.615 Y132.355 I-0.071 J-0.311
G1 X222.957 Y129.478
G3 X223.198 Y129.096 I0.311 J-0.071
G1 X224.113 Y128.886
G2 X225.169 Y127.771 I-0.309 J-1.351
G3 X226.226 Y126.655 I1.365 J0.235
G1 X232.543 Y125.211
X234.102 Y132.036
X222.403 Y134.709
X220.844 Y127.884
X226.226 Y126.655
G3 X226.44 Y126.955 I0.045 J0.195
G1 X225.356 Y128.693
G2 X225.621 Y128.975 I0.17 J0.106
G3 X226.978 Y131.481 Z-4.156 I0.679 J1.253 F333.3
X225.621 Y128.975 Z-4.313 I-0.679 J-1.253
X226.978 Y131.481 Z-4.469 I0.679 J1.253
X225.621 Y128.975 Z-4.625 I-0.679 J-1.253
X226.978 Y131.481 Z-4.782 I0.679 J1.253
X225.621 Y128.975 Z-4.938 I-0.679 J-1.253
X226.978 Y131.481 Z-5.094 I0.679 J1.253
X225.621 Y128.975 Z-5.251 I-0.679 J-1.253
X226.978 Y131.481 Z-5.407 I0.679 J1.253
X225.621 Y128.975 Z-5.563 I-0.679 J-1.253
X226.978 Y131.481 Z-5.72 I0.679 J1.253
X225.621 Y128.975 Z-5.876 I-0.679 J-1.253
X226.978 Y131.481 Z-6.032 I0.679 J1.253
X225.621 Y128.975 Z-6.189 I-0.679 J-1.253
X226.978 Y131.481 Z-6.345 I0.679 J1.253
X225.621 Y128.975 Z-6.501 I-0.679 J-1.253
X226.978 Y131.481 Z-6.658 I0.679 J1.253
X225.621 Y128.975 Z-6.814 I-0.679 J-1.253
X226.978 Y131.481 Z-6.97 I0.679 J1.253
X225.621 Y128.975 Z-7.127 I-0.679 J-1.253
X226.978 Y131.481 Z-7.283 I0.679 J1.253
X225.621 Y128.975 Z-7.439 I-0.679 J-1.253
X226.978 Y131.481 Z-7.596 I0.679 J1.253
X225.621 Y128.975 Z-7.752 I-0.679 J-1.253
X226.978 Y131.481 Z-7.908 I0.679 J1.253
X224.91 Y130.545 Z-8 I-0.679 J-1.253
G1 X224.903 Y130.514 F1000
X224.902 Y130.476
X224.916 Y130.441
X224.941 Y130.414
X224.976 Y130.398
X229.794 Y129.298
G3 X229.949 Y129.394 I0.029 J0.126
X229.852 Y129.549 I-0.126 J0.029
G1 X225.033 Y130.65
X224.995 Y130.651
X224.96 Y130.637
X224.933 Y130.611
X224.918 Y130.577
X224.91 Y130.545
G2 X224.168 Y129.881 I-0.84 J0.192
G3 X224.113 Y128.886 I0.057 J-0.502
G1 X230.949 Y127.325
G3 X231.331 Y127.565 I0.071 J0.311
G1 X231.989 Y130.442
G3 X231.748 Y130.824 I-0.311 J0.071
G1 X223.997 Y132.595
G3 X223.615 Y132.355 I-0.071 J-0.311
G1 X222.957 Y129.478
G3 X223.198 Y129.096 I0.311 J-0.071
G1 X224.113 Y128.886
G2 X225.169 Y127.771 I-0.309 J-1.351
G3 X226.226 Y126.655 I1.365 J0.235
G1 X232.543 Y125.211
X234.102 Y132.036
X222.403 Y134.709
X220.844 Y127.884
X226.226 Y126.655
X226.283 Y126.647 Z-7.989
X226.34 Y126.651 Z-7.977
X226.387 Y126.662 Z-7.945
X226.432 Y126.681 Z-7.912
X226.486 Y126.717 Z-7.815
X226.503 Y126.733 Z-7.7
G0 Z5
X210.789 Y65.113
G1 Z2.8 F333.3
X210.819 Y65.089 Z2.653
X210.905 Y65.029 Z2.544
X211.032 Y64.957 Z2.5
G3 X212.323 Y67.497 Z2.344 I0.645 J1.27
X211.032 Y64.957 Z2.187 I-0.645 J-1.27
X212.323 Y67.497 Z2.031 I0.645 J1.27
X211.032 Y64.957 Z1.875 I-0.645 J-1.27
X212.323 Y67.497 Z1.718 I0.645 J1.27
X211.032 Y64.957 Z1.562 I-0.645 J-1.27
X212.323 Y67.497 Z1.406 I0.645 J1.27
X211.032 Y64.957 Z1.249 I-0.645 J-1.27
X212.323 Y67.497 Z1.093 I0.645 J1.27
X211.032 Y64.957 Z0.937 I-0.645 J-1.27
X212.323 Y67.497 Z0.78 I0.645 J1.27
X211.032 Y64.957 Z0.624 I-0.645 J-1.27
X212.323 Y67.498 Z0.468 I0.645 J1.27
X211.032 Y64.957 Z0.311 I-0.645 J-1.27
X212.323 Y67.498 Z0.155 I0.645 J1.27
X211.032 Y64.957 Z-0.001 I-0.645 J-1.27
X212.323 Y67.498 Z-0.158 I0.645 J1.27
X211.032 Y64.957 Z-0.314 I-0.645 J-1.27
X212.323 Y67.498 Z-0.47 I0.645 J1.27
X211.032 Y64.957 Z-0.627 I-0.645 J-1.27
X212.323 Y67.498 Z-0.783 I0.645 J1.27
X211.032 Y64.957 Z-0.939 I-0.645 J-1.27
X212.323 Y67.498 Z-1.096 I0.645 J1.27
X211.032 Y64.957 Z-1.252 I-0.645 J-1.27
X212.323 Y67.498 Z-1.408 I0.645 J1.27
X211.032 Y64.957 Z-1.565 I-0.645 J-1.27
X212.323 Y67.498 Z-1.721 I0.645 J1.27
X211.032 Y64.957 Z-1.877 I-0.645 J-1.27
X212.323 Y67.498 Z-2.034 I0.645 J1.27
X211.032 Y64.957 Z-2.19 I-0.645 J-1.27
X212.323 Y67.498 Z-2.346 I0.645 J1.27
X211.032 Y64.957 Z-2.503 I-0.645 J-1.27
X212.323 Y67.498 Z-2.659 I0.645 J1.27
X211.032 Y64.957 Z-2.815 I-0.645 J-1.27
X212.323 Y67.498 Z-2.972 I0.645 J1.27
X211.032 Y64.957 Z-3.128 I-0.645 J-1.27
X212.323 Y67.498 Z-3.284 I0.645 J1.27
X211.032 Y64.957 Z-3.441 I-0.645 J-1.27
X212.323 Y67.498 Z-3.597 I0.645 J1.27
X211.032 Y64.957 Z-3.753 I-0.645 J-1.27
X212.323 Y67.498 Z-3.91 I0.645 J1.27
X210.288 Y66.545 Z-4 I-0.645 J-1.27
G1 X210.281 Y66.513 F1000
X210.28 Y66.475
X210.293 Y66.44
X210.319 Y66.413
X210.353 Y66.398
X215.29 Y65.269
X215.328 Y65.268
X215.363 Y65.282
X215.39 Y65.308
X215.406 Y65.342
X215.42 Y65.405
X215.421 Y65.443
X215.408 Y65.478
X215.382 Y65.505
X215.348 Y65.521
X210.411 Y66.649
X210.373 Y66.65
X210.338 Y66.636
X210.311 Y66.61
X210.295 Y66.576
X210.288 Y66.545
G2 X209.545 Y65.88 I-0.84 J0.192
G3 X209.49 Y64.886 I0.057 J-0.502
G1 X216.326 Y63.324
G3 X216.709 Y63.564 I0.071 J0.311
G1 X217.366 Y66.441
G3 X217.126 Y66.823 I-0.311 J0.071
G1 X209.375 Y68.595
G3 X208.992 Y68.354 I-0.071 J-0.311
G1 X208.335 Y65.477
G3 X208.575 Y65.095 I0.311 J-0.071
G1 X209.49 Y64.886
G2 X210.547 Y63.77 I-0.309 J-1.351
G3 X211.603 Y62.654 I1.365 J0.235
G1 X217.92 Y61.211
X219.479 Y68.035
X207.781 Y70.708
X206.222 Y63.883
X211.603 Y62.654
G3 X211.818 Y62.955 I0.045 J0.195
G1 X210.733 Y64.692
G2 X210.998 Y64.974 I0.17 J0.106
G3 X212.356 Y67.48 Z-4.156 I0.679 J1.253 F333.3
X210.998 Y64.974 Z-4.313 I-0.679 J-1.253
X212.356 Y67.48 Z-4.469 I0.679 J1.253
X210.998 Y64.974 Z-4.625 I-0.679 J-1.253
X212.356 Y67.48 Z-4.782 I0.679 J1.253
X210.998 Y64.974 Z-4.938 I-0.679 J-1.253
X212.356 Y67.48 Z-5.094 I0.679 J1.253
X210.998 Y64.974 Z-5.251 I-0.679 J-1.253
X212.356 Y67.48 Z-5.407 I0.679 J1.253
X210.998 Y64.974 Z-5.563 I-0.679 J-1.253
X212.356 Y67.48 Z-5.72 I0.679 J1.253
X210.998 Y64.974 Z-5.876 I-0.679 J-1.253
X212.356 Y67.48 Z-6.032 I0.679 J1.253
X210.998 Y64.974 Z-6.189 I-0.679 J-1.253
X212.356 Y67.48 Z-6.345 I0.679 J1.253
X210.998 Y64.974 Z-6.501 I-0.679 J-1.253
X212.356 Y67.48 Z-6.658 I0.679 J1.253
X210.998 Y64.974 Z-6.814 I-0.679 J-1.253
X212.356 Y67.48 Z-6.97 I0.679 J1.253
X210.998 Y64.974 Z-7.127 I-0.679 J-1.253
X212.356 Y67.48 Z-7.283 I0.679 J1.253
X210.998 Y64.974 Z-7.439 I-0.679 J-1.253
X212.356 Y67.48 Z-7.596 I0.679 J1.253
X210.998 Y64.974 Z-7.752 I-0.679 J-1.253
X212.356 Y67.48 Z-7.908 I0.679 J1.253
X210.288 Y66.545 Z-8 I-0.679 J-1.253
G1 X210.281 Y66.513 F1000
X210.28 Y66.475
X210.293 Y66.44
X210.319 Y66.413
X210.353 Y66.398
X215.29 Y65.269
X215.328 Y65.268
X215.363 Y65.282
X215.39 Y65.308
X215.406 Y65.342
X215.42 Y65.405
X215.421 Y65.443
X215.408 Y65.478
X215.382 Y65.505
X215.348 Y65.521
X210.411 Y66.649
X210.373 Y66.65
X210.338 Y66.636
X210.311 Y66.61
X210.295 Y66.576
X210.288 Y66.545
G2 X209.545 Y65.88 I-0.84 J0.192
G3 X209.49 Y64.886 I0.057 J-0.502
G1 X216.326 Y63.324
G3 X216.709 Y63.564 I0.071 J0.311
G1 X217.366 Y66.441
G3 X217.126 Y66.823 I-0.311 J0.071
G1 X209.375 Y68.595
G3 X208.992 Y68.354 I-0.071 J-0.311
G1 X208.335 Y65.477
G3 X208.575 Y65.095 I0.311 J-0.071
G1 X209.49 Y64.886
G2 X210.547 Y63.77 I-0.309 J-1.351
G3 X211.603 Y62.654 I1.365 J0.235
G1 X217.92 Y61.211
X219.479 Y68.035
X207.781 Y70.708
X206.222 Y63.883
X211.603 Y62.654
X211.66 Y62.646 Z-7.989
X211.717 Y62.65 Z-7.977
X211.765 Y62.661 Z-7.945
X211.809 Y62.68 Z-7.912
X211.863 Y62.717 Z-7.815
X211.88 Y62.732 Z-7.7
G0 Z5
X93.558 Y93.438
G1 Z2.8 F333.3
X93.582 Y93.468 Z2.653
X93.642 Y93.555 Z2.544
X93.715 Y93.681 Z2.5
G3 X91.174 Y94.972 Z2.344 I-1.27 J0.645
X93.715 Y93.681 Z2.187 I1.27 J-0.645
X91.174 Y94.972 Z2.031 I-1.27 J0.645
X93.715 Y93.681 Z1.875 I1.27 J-0.645
X91.174 Y94.972 Z1.718 I-1.27 J0.645
X93.715 Y93.681 Z1.562 I1.27 J-0.645
X91.174 Y94.972 Z1.406 I-1.27 J0.645
X93.715 Y93.681 Z1.249 I1.27 J-0.645
X91.174 Y94.972 Z1.093 I-1.27 J0.645
X93.715 Y93.681 Z0.937 I1.27 J-0.645
X91.174 Y94.972 Z0.78 I-1.27 J0.645
X93.715 Y93.681 Z0.624 I1.27 J-0.645
X91.174 Y94.972 Z0.468 I-1.27 J0.645
X93.715 Y93.681 Z0.311 I1.27 J-0.645
X91.174 Y94.972 Z0.155 I-1.27 J0.645
X93.715 Y93.681 Z-0.001 I1.27 J-0.645
X91.174 Y94.972 Z-0.158 I-1.27 J0.645
X93.715 Y93.681 Z-0.314 I1.27 J-0.645
X91.174 Y94.972 Z-0.47 I-1.27 J0.645
X93.715 Y93.681 Z-0.627 I1.27 J-0.645
X91.174 Y94.972 Z-0.783 I-1.27 J0.645
X93.715 Y93.681 Z-0.939 I1.27 J-0.645
X91.174 Y94.972 Z-1.096 I-1.27 J0.645
X93.715 Y93.681 Z-1.252 I1.27 J-0.645
X91.174 Y94.972 Z-1.408 I-1.27 J0.645
X93.715 Y93.681 Z-1.565 I1.27 J-0.645
X91.174 Y94.972 Z-1.721 I-1.27 J0.645
X93.715 Y93.681 Z-1.877 I1.27 J-0.645
X91.174 Y94.972 Z-2.034 I-1.27 J0.645
X93.715 Y93.681 Z-2.19 I1.27 J-0.645
X91.174 Y94.972 Z-2.346 I-1.27 J0.645
X93.715 Y93.681 Z-2.503 I1.27 J-0.645
X91.174 Y94.972 Z-2.659 I-1.27 J0.645
X93.715 Y93.681 Z-2.815 I1.27 J-0.645
X91.174 Y94.972 Z-2.972 I-1.27 J0.645
X93.715 Y93.681 Z-3.128 I1.27 J-0.645
X91.174 Y94.972 Z-3.284 I-1.27 J0.645
X93.715 Y93.681 Z-3.441 I1.27 J-0.645
X91.174 Y94.972 Z-3.597 I-1.27 J0.645
X93.715 Y93.681 Z-3.753 I1.27 J-0.645
X91.174 Y94.972 Z-3.91 I-1.27 J0.645
X92.127 Y92.937 Z-4 I1.27 J-0.645
G1 X92.39 Y92.877 F1000
G3 X92.772 Y93.117 I0.071 J0.311
G1 X92.892 Y93.643
G3 X92.652 Y94.026 I-0.311 J0.071
G1 X87.252 Y95.259
G3 X86.869 Y95.019 I-0.071 J-0.311
G1 X86.749 Y94.494
G3 X86.99 Y94.111 I0.311 J-0.071
G1 X92.127 Y92.937
G2 X92.872 Y92.309 I-0.237 J-1.036
G3 X93.843 Y92.391 I0.473 J0.196
G1 X94.337 Y94.55
G3 X94.096 Y94.933 I-0.311 J0.071
G1 X86.345 Y96.704
G3 X85.962 Y96.463 I-0.071 J-0.311
G1 X85.305 Y93.587
G3 X85.545 Y93.204 I0.311 J-0.071
G1 X93.297 Y91.433
G3 X93.679 Y91.673 I0.071 J0.311
G1 X93.843 Y92.391
G2 X94.959 Y93.448 I1.351 J-0.309
G3 X96.075 Y94.504 I-0.235 J1.365
G1 X96.45 Y96.144
X84.751 Y98.817
X83.192 Y91.993
X94.89 Y89.32
X96.075 Y94.504
G3 X95.76 Y94.709 I-0.195 J0.045
G1 X93.993 Y93.392
G2 X93.697 Y93.648 I-0.119 J0.16
G3 X91.191 Y95.005 Z-4.156 I-1.253 J0.679 F333.3
X93.697 Y93.648 Z-4.313 I1.253 J-0.679
X91.191 Y95.005 Z-4.469 I-1.253 J0.679
X93.697 Y93.648 Z-4.625 I1.253 J-0.679
X91.191 Y95.005 Z-4.782 I-1.253 J0.679
X93.697 Y93.648 Z-4.938 I1.253 J-0.679
X91.191 Y95.005 Z-5.094 I-1.253 J0.679
X93.697 Y93.648 Z-5.251 I1.253 J-0.679
X91.191 Y95.005 Z-5.407 I-1.253 J0.679
X93.697 Y93.648 Z-5.563 I1.253 J-0.679
X91.191 Y95.005 Z-5.72 I-1.253 J0.679
X93.697 Y93.648 Z-5.876 I1.253 J-0.679
X91.191 Y95.005 Z-6.032 I-1.253 J0.679
X93.697 Y93.648 Z-6.189 I1.253 J-0.679
X91.191 Y95.005 Z-6.345 I-1.253 J0.679
X93.697 Y93.648 Z-6.501 I1.253 J-0.679
X91.191 Y95.005 Z-6.658 I-1.253 J0.679
X93.697 Y93.648 Z-6.814 I1.253 J-0.679
X91.191 Y95.005 Z-6.97 I-1.253 J0.679
X93.697 Y93.648 Z-7.127 I1.253 J-0.679
X91.191 Y95.005 Z-7.283 I-1.253 J0.679
X93.697 Y93.648 Z-7.439 I1.253 J-0.679
X91.191 Y95.005 Z-7.596 I-1.253 J0.679
X93.697 Y93.648 Z-7.752 I1.253 J-0.679
X91.191 Y95.005 Z-7.908 I-1.253 J0.679
X92.127 Y92.937 Z-8 I1.253 J-0.679
G1 X92.39 Y92.877 F1000
G3 X92.772 Y93.117 I0.071 J0.311
G1 X92.892 Y93.643
G3 X92.652 Y94.026 I-0.311 J0.071
G1 X87.252 Y95.259
G3 X86.869 Y95.019 I-0.071 J-0.311
G1 X86.749 Y94.494
G3 X86.99 Y94.111 I0.311 J-0.071
G1 X92.127 Y92.937
G2 X92.872 Y92.309 I-0.237 J-1.036
G3 X93.843 Y92.391 I0.473 J0.196
G1 X94.337 Y94.55
G3 X94.096 Y94.933 I-0.311 J0.071
G1 X86.345 Y96.704
G3 X85.962 Y96.463 I-0.071 J-0.311
G1 X85.305 Y93.587
G3 X85.545 Y93.204 I0.311 J-0.071
G1 X93.297 Y91.433
G3 X93.679 Y91.673 I0.071 J0.311
G1 X93.843 Y92.391
G2 X94.959 Y93.448 I1.351 J-0.309
G3 X96.075 Y94.504 I-0.235 J1.365
G1 X96.45 Y96.144
X84.751 Y98.817
X83.192 Y91.993
X94.89 Y89.32
X96.075 Y94.504
X96.082 Y94.561 Z-7.989
X96.079 Y94.618 Z-7.977
X96.067 Y94.666 Z-7.945
X96.048 Y94.71 Z-7.912
X96.012 Y94.764 Z-7.815
X95.997 Y94.781 Z-7.7
G0 Z5
X108.181 Y157.439
G1 Z2.8 F333.3
X108.204 Y157.469 Z2.653
X108.265 Y157.556 Z2.544
X108.337 Y157.682 Z2.5
G3 X105.796 Y158.973 Z2.344 I-1.27 J0.645
X108.337 Y157.682 Z2.187 I1.27 J-0.645
X105.796 Y158.973 Z2.031 I-1.27 J0.645
X108.337 Y157.682 Z1.875 I1.27 J-0.645
X105.796 Y158.973 Z1.718 I-1.27 J0.645
X108.337 Y157.682 Z1.562 I1.27 J-0.645
X105.796 Y158.973 Z1.406 I-1.27 J0.645
X108.337 Y157.682 Z1.249 I1.27 J-0.645
X105.796 Y158.973 Z1.093 I-1.27 J0.645
X108.337 Y157.682 Z0.937 I1.27 J-0.645
X105.796 Y158.973 Z0.78 I-1.27 J0.645
X108.337 Y157.682 Z0.624 I1.27 J-0.645
X105.796 Y158.973 Z0.468 I-1.27 J0.645
X108.337 Y157.682 Z0.311 I1.27 J-0.645
X105.796 Y158.973 Z0.155 I-1.27 J0.645
X108.337 Y157.682 Z-0.001 I1.27 J-0.645
X105.796 Y158.973 Z-0.158 I-1.27 J0.645
X108.337 Y157.682 Z-0.314 I1.27 J-0.645
X105.796 Y158.973 Z-0.47 I-1.27 J0.645
X108.337 Y157.682 Z-0.627 I1.27 J-0.645
X105.796 Y158.973 Z-0.783 I-1.27 J0.645
X108.337 Y157.682 Z-0.939 I1.27 J-0.645
X105.796 Y158.973 Z-1.096 I-1.27 J0.645
X108.337 Y157.682 Z-1.252 I1.27 J-0.645
X105.796 Y158.973 Z-1.408 I-1.27 J0.645
X108.337 Y157.682 Z-1.565 I1.27 J-0.645
X105.796 Y158.973 Z-1.721 I-1.27 J0.645
X108.337 Y157.682 Z-1.877 I1.27 J-0.645
X105.796 Y158.973 Z-2.034 I-1.27 J0.645
X108.337 Y157.682 Z-2.19 I1.27 J-0.645
X105.796 Y158.973 Z-2.346 I-1.27 J0.645
X108.337 Y157.682 Z-2.503 I1.27 J-0.645
X105.796 Y158.973 Z-2.659 I-1.27 J0.645
X108.337 Y157.682 Z-2.815 I1.27 J-0.645
X105.796 Y158.973 Z-2.972 I-1.27 J0.645
X108.337 Y157.682 Z-3.128 I1.27 J-0.645
X105.796 Y158.973 Z-3.284 I-1.27 J0.645
X108.337 Y157.682 Z-3.441 I1.27 J-0.645
X105.796 Y158.973 Z-3.597 I-1.27 J0.645
X108.337 Y157.682 Z-3.753 I1.27 J-0.645
X105.796 Y158.973 Z-3.91 I-1.27 J0.645
X106.749 Y156.938 Z-4 I1.27 J-0.645
G1 X107.012 Y156.878 F1000
G3 X107.395 Y157.118 I0.071 J0.311
G1 X107.515 Y157.644
G3 X107.275 Y158.026 I-0.311 J0.071
G1 X101.875 Y159.26
G3 X101.492 Y159.02 I-0.071 J-0.311
G1 X101.372 Y158.494
G3 X101.612 Y158.112 I0.311 J-0.071
G1 X106.749 Y156.938
G2 X107.494 Y156.309 I-0.237 J-1.037
G3 X108.466 Y156.392 I0.473 J0.196
G1 X108.959 Y158.551
G3 X108.719 Y158.934 I-0.311 J0.071
G1 X100.967 Y160.705
G3 X100.585 Y160.464 I-0.071 J-0.311
G1 X99.928 Y157.587
G3 X100.168 Y157.204 I0.311 J-0.071
G1 X107.919 Y155.433
G3 X108.302 Y155.674 I0.071 J0.311
G1 X108.466 Y156.392
G2 X109.582 Y157.448 I1.35 J-0.309
G3 X110.698 Y158.505 I-0.235 J1.365
G1 X111.072 Y160.145
X99.374 Y162.818
X97.815 Y155.993
X109.513 Y153.32
X110.698 Y158.505
G3 X110.383 Y158.71 I-0.195 J0.045
G1 X108.615 Y157.393
G2 X108.32 Y157.648 I-0.119 J0.16
G3 X105.814 Y159.006 Z-4.156 I-1.253 J0.679 F333.3
X108.32 Y157.648 Z-4.313 I1.253 J-0.679
X105.814 Y159.006 Z-4.469 I-1.253 J0.679
X108.32 Y157.648 Z-4.625 I1.253 J-0.679
X105.814 Y159.006 Z-4.782 I-1.253 J0.679
X108.32 Y157.648 Z-4.938 I1.253 J-0.679
X105.814 Y159.006 Z-5.094 I-1.253 J0.679
X108.32 Y157.648 Z-5.251 I1.253 J-0.679
X105.814 Y159.006 Z-5.407 I-1.253 J0.679
X108.32 Y157.648 Z-5.563 I1.253 J-0.679
X105.814 Y159.006 Z-5.72 I-1.253 J0.679
X108.32 Y157.648 Z-5.876 I1.253 J-0.679
X105.814 Y159.006 Z-6.032 I-1.253 J0.679
X108.32 Y157.648 Z-6.189 I1.253 J-0.679
X105.814 Y159.006 Z-6.345 I-1.253 J0.679
X108.32 Y157.648 Z-6.501 I1.253 J-0.679
X105.814 Y159.006 Z-6.658 I-1.253 J0.679
X108.32 Y157.648 Z-6.814 I1.253 J-0.679
X105.814 Y159.006 Z-6.97 I-1.253 J0.679
X108.32 Y157.648 Z-7.127 I1.253 J-0.679
X105.814 Y159.006 Z-7.283 I-1.253 J0.679
X108.32 Y157.648 Z-7.439 I1.253 J-0.679
X105.814 Y159.006 Z-7.596 I-1.253 J0.679
X108.32 Y157.648 Z-7.752 I1.253 J-0.679
X105.814 Y159.006 Z-7.908 I-1.253 J0.679
X106.749 Y156.938 Z-8 I1.253 J-0.679
G1 X107.012 Y156.878 F1000
G3 X107.395 Y157.118 I0.071 J0.311
G1 X107.515 Y157.644
G3 X107.275 Y158.026 I-0.311 J0.071
G1 X101.875 Y159.26
G3 X101.492 Y159.02 I-0.071 J-0.311
G1 X101.372 Y158.494
G3 X101.612 Y158.112 I0.311 J-0.071
G1 X106.749 Y156.938
G2 X107.494 Y156.309 I-0.237 J-1.037
G3 X108.466 Y156.392 I0.473 J0.196
G1 X108.959 Y158.551
G3 X108.719 Y158.934 I-0.311 J0.071
G1 X100.967 Y160.705
G3 X100.585 Y160.464 I-0.071 J-0.311
G1 X99.928 Y157.587
G3 X100.168 Y157.204 I0.311 J-0.071
G1 X107.919 Y155.433
G3 X108.302 Y155.674 I0.071 J0.311
G1 X108.466 Y156.392
G2 X109.582 Y157.448 I1.35 J-0.309
G3 X110.698 Y158.505 I-0.235 J1.365
G1 X111.072 Y160.145
X99.374 Y162.818
X97.815 Y155.993
X109.513 Y153.32
X110.698 Y158.505
X110.705 Y158.562 Z-7.989
X110.702 Y158.619 Z-7.977
X110.69 Y158.666 Z-7.945
X110.671 Y158.711 Z-7.912
X110.635 Y158.765 Z-7.815
X110.62 Y158.782 Z-7.7
G0 Z15

(2D Contour10)
X33.601 Y212.791
Z15
Z5
G1 Z-3.7 F333.3
X33.6 Y212.784 Z-3.767 F1000
X33.595 Y212.762 Z-3.83
X33.588 Y212.727 Z-3.887
X33.579 Y212.681 Z-3.935
X33.567 Y212.625 Z-3.97
X33.554 Y212.563 Z-3.992
X33.541 Y212.497 Z-4
X33.48 Y212.203
G3 X33.713 Y211.849 I0.294 J-0.061
G1 X33.745 Y211.842
X314.51 Y147.694
G2 X315.638 Y145.898 I-0.334 J-1.462
G1 X282.227 Y-0.334
G2 X280.431 Y-1.462 I-1.462 J0.334
G1 X-0.334 Y62.686
G2 X-1.462 Y64.482 I0.334 J1.462
G1 X31.948 Y210.714
G2 X33.713 Y211.849 I1.462 J-0.334
G3 X34.068 Y212.082 I0.061 J0.294
G1 X34.128 Y212.376
X34.142 Y212.442 Z-3.992
X34.155 Y212.504 Z-3.97
X34.166 Y212.559 Z-3.935
X34.176 Y212.606 Z-3.887
X34.183 Y212.641 Z-3.83
X34.187 Y212.663 Z-3.767
X34.189 Y212.67 Z-3.7
X33.601 Y212.791
Z-7.7 F333.3
X33.6 Y212.784 Z-7.767 F1000
X33.595 Y212.762 Z-7.83
X33.588 Y212.727 Z-7.887
X33.579 Y212.681 Z-7.935
X33.567 Y212.625 Z-7.97
X33.554 Y212.563 Z-7.992
X33.541 Y212.497 Z-8
X33.48 Y212.203
G3 X33.713 Y211.849 I0.294 J-0.061
G1 X33.745 Y211.842
X314.51 Y147.694
G2 X315.638 Y145.898 I-0.334 J-1.462
G1 X282.227 Y-0.334
G2 X280.431 Y-1.462 I-1.462 J0.334
G1 X-0.334 Y62.686
G2 X-1.462 Y64.482 I0.334 J1.462
G1 X31.948 Y210.714
G2 X33.713 Y211.849 I1.462 J-0.334
G3 X34.068 Y212.082 I0.061 J0.294
G1 X34.128 Y212.376
X34.142 Y212.442 Z-7.992
X34.155 Y212.504 Z-7.97
X34.166 Y212.559 Z-7.935
X34.176 Y212.606 Z-7.887
X34.183 Y212.641 Z-7.83
X34.187 Y212.663 Z-7.767
X34.189 Y212.67 Z-7.7
X33.601 Y212.791
Z-11.7 F333.3
X33.6 Y212.784 Z-11.767 F1000
X33.595 Y212.762 Z-11.83
X33.588 Y212.727 Z-11.887
X33.579 Y212.681 Z-11.935
X33.567 Y212.625 Z-11.97
X33.554 Y212.563 Z-11.992
X33.541 Y212.497 Z-12
X33.48 Y212.203
G3 X33.713 Y211.849 I0.294 J-0.061
G1 X33.745 Y211.842
X314.51 Y147.694
G2 X315.638 Y145.898 I-0.334 J-1.462
G1 X282.227 Y-0.334
G2 X280.431 Y-1.462 I-1.462 J0.334
G1 X-0.334 Y62.686
G2 X-1.462 Y64.482 I0.334 J1.462
G1 X31.948 Y210.714
G2 X33.713 Y211.849 I1.462 J-0.334
G3 X34.068 Y212.082 I0.061 J0.294
G1 X34.128 Y212.376
X34.142 Y212.442 Z-11.992
X34.155 Y212.504 Z-11.97
X34.166 Y212.559 Z-11.935
X34.176 Y212.606 Z-11.887
X34.183 Y212.641 Z-11.83
X34.187 Y212.663 Z-11.767
X34.189 Y212.67 Z-11.7
X33.601 Y212.791
Z-15.7 F333.3
X33.6 Y212.784 Z-15.767 F1000
X33.595 Y212.762 Z-15.83
X33.588 Y212.727 Z-15.887
X33.579 Y212.681 Z-15.935
X33.567 Y212.625 Z-15.97
X33.554 Y212.563 Z-15.992
X33.541 Y212.497 Z-16
X33.48 Y212.203
G3 X33.713 Y211.849 I0.294 J-0.061
G1 X33.745 Y211.842
X314.51 Y147.694
G2 X315.638 Y145.898 I-0.334 J-1.462
G1 X282.227 Y-0.334
G2 X280.431 Y-1.462 I-1.462 J0.334
G1 X-0.334 Y62.686
G2 X-1.462 Y64.482 I0.334 J1.462
G1 X31.948 Y210.714
G2 X33.713 Y211.849 I1.462 J-0.334
G3 X34.068 Y212.082 I0.061 J0.294
G1 X34.128 Y212.376
X34.142 Y212.442 Z-15.992
X34.155 Y212.504 Z-15.97
X34.166 Y212.559 Z-15.935
X34.176 Y212.606 Z-15.887
X34.183 Y212.641 Z-15.83
X34.187 Y212.663 Z-15.767
X34.189 Y212.67 Z-15.7
X33.601 Y212.791
Z-18.7 F333.3
X33.6 Y212.784 Z-18.767 F1000
X33.595 Y212.762 Z-18.83
X33.588 Y212.727 Z-18.887
X33.579 Y212.681 Z-18.935
X33.567 Y212.625 Z-18.97
X33.554 Y212.563 Z-18.992
X33.541 Y212.497 Z-19
X33.48 Y212.203
G3 X33.713 Y211.849 I0.294 J-0.061
G1 X33.745 Y211.842
X101.011 Y196.473
Z-18.25
X106.861 Y195.137
Z-19 F333.3
X241.393 Y164.4 F1000
Z-18.25
X247.243 Y163.063
Z-19 F333.3
X314.51 Y147.694 F1000
G2 X315.638 Y145.898 I-0.334 J-1.462
G1 X299.601 Y75.706
Z-18.25
X298.265 Y69.857
Z-19 F333.3
X282.227 Y-0.334 F1000
G2 X280.431 Y-1.462 I-1.462 J0.334
G1 X213.165 Y13.906
Z-18.25
X207.315 Y15.243
Z-19 F333.3
X72.782 Y45.981 F1000
Z-18.25
X66.933 Y47.317
Z-19 F333.3
X-0.334 Y62.686 F1000
G2 X-1.462 Y64.482 I0.334 J1.462
G1 X14.575 Y134.673
Z-18.25
X15.911 Y140.523
Z-19 F333.3
X31.948 Y210.714 F1000
G2 X33.713 Y211.849 I1.462 J-0.334
G3 X34.068 Y212.082 I0.061 J0.294
G1 X34.128 Y212.376
X34.142 Y212.442 Z-18.992
X34.155 Y212.504 Z-18.97
X34.166 Y212.559 Z-18.935
X34.176 Y212.606 Z-18.887
X34.183 Y212.641 Z-18.83
X34.187 Y212.663 Z-18.767
X34.189 Y212.67 Z-18.7
G0 Z15
M9
M5
M30
