(TinyCNCBottomBarFront)
(T3  D=3 CR=0 - ZMIN=-19 - flat end mill)
G90 G94
G17
G21

(2D Contour14)
T3
S5000 M3
G54
M8
G0 X-2.4 Y-0.3
Z15
Z5
G1 Z-6.2 F333.3
G18 G2 X-2.1 Z-6.5 I0.3 K0 F1000
G1 X-1.8
G17 G3 X-1.5 Y0 I0 J0.3
G1 Y269
G2 X0 Y270.5 I1.5 J0
G1 X111
G2 X112.5 Y269 I0 J-1.5
G1 Y204.601
G2 X111 Y203.101 I-1.5 J0
G1 X89.073
G3 X80.573 Y194.601 I0 J-8.5
G1 Y74.399
G3 X89.073 Y65.899 I8.5 J0
G1 X111
G2 X112.5 Y64.399 I0 J-1.5
G1 Y0
G2 X111 Y-1.5 I-1.5 J0
G1 X0
G2 X-1.5 Y0 I0 J1.5
G3 X-1.8 Y0.3 I-0.3 J0
G1 X-2.1
G18 G3 X-2.4 Z-6.2 I0 K0.3
G0 Z5
Y-0.3
G1 Z-1.5 F333.3
Z-12.7
G2 X-2.1 Z-13 I0.3 K0 F1000
G1 X-1.8
G17 G3 X-1.5 Y0 I0 J0.3
G1 Y269
G2 X0 Y270.5 I1.5 J0
G1 X111
G2 X112.5 Y269 I0 J-1.5
G1 Y204.601
G2 X111 Y203.101 I-1.5 J0
G1 X89.073
G3 X80.573 Y194.601 I0 J-8.5
G1 Y74.399
G3 X89.073 Y65.899 I8.5 J0
G1 X111
G2 X112.5 Y64.399 I0 J-1.5
G1 Y0
G2 X111 Y-1.5 I-1.5 J0
G1 X0
G2 X-1.5 Y0 I0 J1.5
G3 X-1.8 Y0.3 I-0.3 J0
G1 X-2.1
G18 G3 X-2.4 Z-12.7 I0 K0.3
G0 Z5
Y-0.3
G1 Z-8 F333.3
Z-18.7
G2 X-2.1 Z-19 I0.3 K0 F1000
G1 X-1.8
G17 G3 X-1.5 Y0 I0 J0.3
G1 Y269
G2 X0 Y270.5 I1.5 J0
G1 X111
G2 X112.5 Y269 I0 J-1.5
G1 Y204.601
G2 X111 Y203.101 I-1.5 J0
G1 X89.073
G3 X80.573 Y194.601 I0 J-8.5
G1 Y74.399
G3 X89.073 Y65.899 I8.5 J0
G1 X111
G2 X112.5 Y64.399 I0 J-1.5
G1 Y0
G2 X111 Y-1.5 I-1.5 J0
G1 X0
G2 X-1.5 Y0 I0 J1.5
G3 X-1.8 Y0.3 I-0.3 J0
G1 X-2.1
G18 G3 X-2.4 Z-18.7 I0 K0.3
G0 Z15
G17
M9
M5
M30
