(TinyCNCRaspberryFront)
(T3  D=3 CR=0 - ZMIN=-2 - flat end mill)
G90 G94
G17
G21

(2D Pocket9)
T3
S5000 M3
G54
M8
G0 X154.349 Y76.014
Z15
Z5
G1 Z2.8 F333.3
X154.367 Y75.98 Z2.653
X154.421 Y75.889 Z2.544
X154.506 Y75.772 Z2.5
G3 X156.73 Y77.554 Z2.344 I1.112 J0.891
X154.506 Y75.772 Z2.187 I-1.112 J-0.891
X156.73 Y77.554 Z2.031 I1.112 J0.891
X154.506 Y75.772 Z1.875 I-1.112 J-0.891
X156.73 Y77.554 Z1.718 I1.112 J0.891
X154.506 Y75.772 Z1.562 I-1.112 J-0.891
X156.73 Y77.554 Z1.406 I1.112 J0.891
X154.506 Y75.772 Z1.249 I-1.112 J-0.891
X156.73 Y77.554 Z1.093 I1.112 J0.891
X154.506 Y75.772 Z0.937 I-1.112 J-0.891
X156.73 Y77.554 Z0.78 I1.112 J0.891
X154.506 Y75.772 Z0.624 I-1.112 J-0.891
X156.73 Y77.554 Z0.468 I1.112 J0.891
X154.506 Y75.772 Z0.311 I-1.112 J-0.891
X156.73 Y77.554 Z0.155 I1.112 J0.891
X154.506 Y75.772 Z-0.001 I-1.112 J-0.891
X156.73 Y77.554 Z-0.158 I1.112 J0.891
X154.506 Y75.772 Z-0.314 I-1.112 J-0.891
X156.73 Y77.554 Z-0.47 I1.112 J0.891
X154.506 Y75.772 Z-0.627 I-1.112 J-0.891
X156.73 Y77.554 Z-0.783 I1.112 J0.891
X154.506 Y75.772 Z-0.939 I-1.112 J-0.891
X156.73 Y77.554 Z-1.096 I1.112 J0.891
X154.506 Y75.772 Z-1.252 I-1.112 J-0.891
X156.73 Y77.554 Z-1.408 I1.112 J0.891
X154.506 Y75.772 Z-1.565 I-1.112 J-0.891
X156.73 Y77.554 Z-1.721 I1.112 J0.891
X154.506 Y75.772 Z-1.877 I-1.112 J-0.891
X157.043 Y76.663 Z-2 I1.112 J0.891
G1 Y76.834 F1000
G3 X156.724 Y77.153 I-0.319 J0
G1 X74.382
G3 X74.063 Y76.834 I0 J-0.319
G1 Y76.492
G3 X74.382 Y76.173 I0.319 J0
G1 X156.724
G3 X157.043 Y76.492 I0 J0.319
G1 Y76.663
G2 X157.529 Y77.337 I0.711 J0
G3 X157.396 Y78.158 I-0.133 J0.399
G1 X73.377
G3 X73.058 Y77.839 I0 J-0.319
G1 Y75.487
G3 X73.377 Y75.168 I0.319 J0
G1 X157.729
G3 X158.048 Y75.487 I0 J0.319
G1 Y77.839
G3 X157.729 Y78.158 I-0.319 J0
G1 X157.396
G2 X156.121 Y79.008 I0 J1.381
G3 X154.846 Y79.858 I-1.275 J-0.531
G1 X71.677
G3 X71.358 Y79.539 I0 J-0.319
G1 Y73.787
G3 X71.677 Y73.468 I0.319 J0
G1 X159.429
G3 X159.748 Y73.787 I0 J0.319
G1 Y79.539
G3 X159.429 Y79.858 I-0.319 J0
G1 X154.846
G2 X153.571 Y80.708 I0 J1.381
G3 X152.296 Y81.558 I-1.275 J-0.531
G1 X69.977
G3 X69.658 Y81.239 I0 J-0.319
G1 Y72.087
G3 X69.977 Y71.768 I0.319 J0
G1 X161.129
G3 X161.448 Y72.087 I0 J0.319
G1 Y81.239
G3 X161.129 Y81.558 I-0.319 J0
G1 X152.296
G2 X151.021 Y82.408 I0 J1.381
G3 X149.746 Y83.258 I-1.275 J-0.531
G1 X68.277
G3 X67.958 Y82.939 I0 J-0.319
G1 Y70.387
G3 X68.277 Y70.068 I0.319 J0
G1 X162.829
G3 X163.148 Y70.387 I0 J0.319
G1 Y82.939
G3 X162.829 Y83.258 I-0.319 J0
G1 X149.746
G2 X148.471 Y84.108 I0 J1.381
G3 X147.196 Y84.958 I-1.275 J-0.531
G1 X66.577
G3 X66.258 Y84.639 I0 J-0.319
G1 Y68.687
G3 X66.577 Y68.368 I0.319 J0
G1 X164.529
G3 X164.848 Y68.687 I0 J0.319
G1 Y84.639
G3 X164.529 Y84.958 I-0.319 J0
G1 X147.196
G2 X145.921 Y85.808 I0 J1.381
G3 X144.646 Y86.658 I-1.275 J-0.531
G1 X64.877
G3 X64.558 Y86.339 I0 J-0.319
G1 Y66.987
G3 X64.877 Y66.668 I0.319 J0
G1 X166.229
G3 X166.548 Y66.987 I0 J0.319
G1 Y86.339
G3 X166.229 Y86.658 I-0.319 J0
G1 X144.646
G2 X143.371 Y87.508 I0 J1.381
G3 X142.096 Y88.358 I-1.275 J-0.531
G1 X63.177
G3 X62.858 Y88.039 I0 J-0.319
G1 Y65.287
G3 X63.177 Y64.968 I0.319 J0
G1 X167.929
G3 X168.248 Y65.287 I0 J0.319
G1 Y88.039
G3 X167.929 Y88.358 I-0.319 J0
G1 X142.096
G2 X140.821 Y89.208 I0 J1.381
G3 X139.546 Y90.058 I-1.275 J-0.531
G1 X61.477
G3 X61.158 Y89.739 I0 J-0.319
G1 Y63.587
G3 X61.477 Y63.268 I0.319 J0
G1 X169.629
G3 X169.948 Y63.587 I0 J0.319
G1 Y89.739
G3 X169.629 Y90.058 I-0.319 J0
G1 X139.546
G2 X138.271 Y90.908 I0 J1.381
G3 X136.996 Y91.758 I-1.275 J-0.531
G1 X59.777
G3 X59.458 Y91.439 I0 J-0.319
G1 Y61.887
G3 X59.777 Y61.568 I0.319 J0
G1 X171.329
G3 X171.648 Y61.887 I0 J0.319
G1 Y91.439
G3 X171.329 Y91.758 I-0.319 J0
G1 X136.996
G2 X135.721 Y92.608 I0 J1.381
G3 X134.446 Y93.458 I-1.275 J-0.531
G1 X58.077
G3 X57.758 Y93.139 I0 J-0.319
G1 Y60.187
G3 X58.077 Y59.868 I0.319 J0
G1 X173.029
G3 X173.348 Y60.187 I0 J0.319
G1 Y93.139
G3 X173.029 Y93.458 I-0.319 J0
G1 X134.446
G2 X133.171 Y94.308 I0 J1.381
G3 X131.896 Y95.158 I-1.275 J-0.531
G1 X56.377
G3 X56.058 Y94.839 I0 J-0.319
G1 Y58.487
G3 X56.377 Y58.168 I0.319 J0
G1 X174.729
G3 X175.048 Y58.487 I0 J0.319
G1 Y94.839
G3 X174.729 Y95.158 I-0.319 J0
G1 X131.896
G2 X130.621 Y96.008 I0 J1.381
G3 X129.346 Y96.858 I-1.275 J-0.531
G1 X54.677
G3 X54.358 Y96.539 I0 J-0.319
G1 Y56.787
G3 X54.677 Y56.468 I0.319 J0
G1 X176.429
G3 X176.748 Y56.787 I0 J0.319
G1 Y96.539
G3 X176.429 Y96.858 I-0.319 J0
G1 X129.346
G2 X128.071 Y97.708 I0 J1.381
G3 X126.796 Y98.558 I-1.275 J-0.531
G1 X52.977
G3 X52.658 Y98.239 I0 J-0.319
G1 Y55.087
G3 X52.977 Y54.768 I0.319 J0
G1 X178.129
G3 X178.448 Y55.087 I0 J0.319
G1 Y98.239
G3 X178.129 Y98.558 I-0.319 J0
G1 X126.796
G2 X125.521 Y99.408 I0 J1.381
G3 X124.246 Y100.258 I-1.275 J-0.531
G1 X51.277
G3 X50.958 Y99.939 I0 J-0.319
G1 Y53.387
G3 X51.277 Y53.068 I0.319 J0
G1 X179.829
G3 X180.148 Y53.387 I0 J0.319
G1 Y99.939
G3 X179.829 Y100.258 I-0.319 J0
G1 X124.246
G2 X122.971 Y101.108 I0 J1.381
G3 X121.696 Y101.958 I-1.275 J-0.531
G1 X49.577
G3 X49.258 Y101.639 I0 J-0.319
G1 Y51.687
G3 X49.577 Y51.368 I0.319 J0
G1 X181.529
G3 X181.848 Y51.687 I0 J0.319
G1 Y101.639
G3 X181.529 Y101.958 I-0.319 J0
G1 X121.696
G2 X120.421 Y102.808 I0 J1.381
G3 X119.146 Y103.658 I-1.275 J-0.531
G1 X47.877
G3 X47.558 Y103.339 I0 J-0.319
G1 Y49.987
G3 X47.877 Y49.668 I0.319 J0
G1 X183.229
G3 X183.548 Y49.987 I0 J0.319
G1 Y103.339
G3 X183.229 Y103.658 I-0.319 J0
G1 X119.146
G2 X117.871 Y104.508 I0 J1.381
G3 X116.596 Y105.358 I-1.275 J-0.531
G1 X46.177
G3 X45.858 Y105.039 I0 J-0.319
G1 Y48.287
G3 X46.177 Y47.968 I0.319 J0
G1 X184.929
G3 X185.248 Y48.287 I0 J0.319
G1 Y105.039
G3 X184.929 Y105.358 I-0.319 J0
G1 X116.596
G2 X115.321 Y106.208 I0 J1.381
G3 X114.046 Y107.058 I-1.275 J-0.531
G1 X44.477
G3 X44.158 Y106.739 I0 J-0.319
G1 Y46.587
G3 X44.477 Y46.268 I0.319 J0
G1 X186.629
G3 X186.948 Y46.587 I0 J0.319
G1 Y106.739
G3 X186.629 Y107.058 I-0.319 J0
G1 X114.046
G2 X112.771 Y107.908 I0 J1.381
G3 X111.496 Y108.758 I-1.275 J-0.531
G1 X42.777
G3 X42.458 Y108.439 I0 J-0.319
G1 Y44.887
G3 X42.777 Y44.568 I0.319 J0
G1 X188.329
G3 X188.648 Y44.887 I0 J0.319
G1 Y108.439
G3 X188.329 Y108.758 I-0.319 J0
G1 X111.496
G2 X110.221 Y109.608 I0 J1.381
G3 X108.946 Y110.458 I-1.275 J-0.531
G1 X41.077
G3 X40.758 Y110.139 I0 J-0.319
G1 Y43.187
G3 X41.077 Y42.868 I0.319 J0
G1 X190.029
G3 X190.348 Y43.187 I0 J0.319
G1 Y110.139
G3 X190.029 Y110.458 I-0.319 J0
G1 X108.946
G2 X107.671 Y111.308 I0 J1.381
G3 X106.396 Y112.158 I-1.275 J-0.531
G1 X39.377
G3 X39.058 Y111.839 I0 J-0.319
G1 Y41.487
G3 X39.377 Y41.168 I0.319 J0
G1 X191.729
G3 X192.048 Y41.487 I0 J0.319
G1 Y111.839
G3 X191.729 Y112.158 I-0.319 J0
G1 X106.396
G2 X105.121 Y113.008 I0 J1.381
G3 X103.846 Y113.858 I-1.275 J-0.531
G1 X37.677
G3 X37.358 Y113.539 I0 J-0.319
G1 Y39.787
G3 X37.677 Y39.468 I0.319 J0
G1 X193.429
G3 X193.748 Y39.787 I0 J0.319
G1 Y113.539
G3 X193.429 Y113.858 I-0.319 J0
G1 X103.846
G2 X102.571 Y114.708 I0 J1.381
G3 X101.296 Y115.558 I-1.275 J-0.531
G1 X35.977
G3 X35.658 Y115.239 I0 J-0.319
G1 Y38.087
G3 X35.977 Y37.768 I0.319 J0
G1 X195.129
G3 X195.448 Y38.087 I0 J0.319
G1 Y115.239
G3 X195.129 Y115.558 I-0.319 J0
G1 X101.296
G2 X100.021 Y116.408 I0 J1.381
G3 X98.746 Y117.258 I-1.275 J-0.531
G1 X34.277
G3 X33.958 Y116.939 I0 J-0.319
G1 Y36.387
G3 X34.277 Y36.068 I0.319 J0
G1 X196.829
G3 X197.148 Y36.387 I0 J0.319
G1 Y116.939
G3 X196.829 Y117.258 I-0.319 J0
G1 X98.746
G2 X97.471 Y118.108 I0 J1.381
G3 X96.196 Y118.958 I-1.275 J-0.531
G1 X32.577
G3 X32.258 Y118.639 I0 J-0.319
G1 Y34.687
G3 X32.577 Y34.368 I0.319 J0
G1 X198.529
G3 X198.848 Y34.687 I0 J0.319
G1 Y118.639
G3 X198.529 Y118.958 I-0.319 J0
G1 X96.196
G2 X94.921 Y119.808 I0 J1.381
G3 X93.646 Y120.658 I-1.275 J-0.531
G1 X30.877
G3 X30.558 Y120.339 I0 J-0.319
G1 Y32.987
G3 X30.877 Y32.668 I0.319 J0
G1 X200.229
G3 X200.548 Y32.987 I0 J0.319
G1 Y120.339
G3 X200.229 Y120.658 I-0.319 J0
G1 X93.646
G2 X92.371 Y121.508 I0 J1.381
G3 X91.096 Y122.358 I-1.275 J-0.531
G1 X29.177
G3 X28.858 Y122.039 I0 J-0.319
G1 Y31.287
G3 X29.177 Y30.968 I0.319 J0
G1 X201.929
G3 X202.248 Y31.287 I0 J0.319
G1 Y122.039
G3 X201.929 Y122.358 I-0.319 J0
G1 X91.096
G2 X89.821 Y123.208 I0 J1.381
G3 X88.546 Y124.058 I-1.275 J-0.531
G1 X27.477
G3 X27.158 Y123.739 I0 J-0.319
G1 Y29.587
G3 X27.477 Y29.268 I0.319 J0
G1 X203.629
G3 X203.948 Y29.587 I0 J0.319
G1 Y123.739
G3 X203.629 Y124.058 I-0.319 J0
G1 X88.546
G2 X87.271 Y124.908 I0 J1.381
G3 X85.996 Y125.758 I-1.275 J-0.531
G1 X25.777
G3 X25.458 Y125.439 I0 J-0.319
G1 Y27.887
G3 X25.777 Y27.568 I0.319 J0
G1 X205.329
G3 X205.648 Y27.887 I0 J0.319
G1 Y125.439
G3 X205.329 Y125.758 I-0.319 J0
G1 X85.996
G2 X84.755 Y126.586 I0 J1.345
G3 X83.513 Y127.413 I-1.241 J-0.517
G1 X24.853
G3 X23.803 Y126.363 I0 J-1.05
G1 Y26.963
G3 X24.853 Y25.913 I1.05 J0
G1 X206.253
G3 X207.303 Y26.963 I0 J1.05
G1 Y126.363
G3 X206.253 Y127.413 I-1.05 J0
G1 X83.513
G2 X82.238 Y128.263 I0 J1.381
G3 X80.963 Y129.113 I-1.275 J-0.531
G1 X24.853
G3 X22.103 Y126.363 I0 J-2.75
G1 Y26.963
G3 X24.853 Y24.213 I2.75 J0
G1 X206.253
G3 X209.003 Y26.963 I0 J2.75
G1 Y126.363
G3 X206.253 Y129.113 I-2.75 J0
G1 X80.963
G2 X79.651 Y129.988 I0 J1.422
G3 X78.338 Y130.863 I-1.313 J-0.547
G1 X24.853
G3 X20.353 Y126.363 I0 J-4.5
G1 Y26.963
G3 X24.853 Y22.463 I4.5 J0
G1 X206.253
G3 X210.753 Y26.963 I0 J4.5
G1 Y126.363
G3 X206.253 Y130.863 I-4.5 J0
G1 X78.338
X78.281 Y130.858 Z-1.989
X78.226 Y130.841 Z-1.977
X78.183 Y130.82 Z-1.945
X78.144 Y130.791 Z-1.912
X78.099 Y130.744 Z-1.815
X78.086 Y130.725 Z-1.7
G0 Z15
M9
M5
M30
