(TinyCNCSeitenwandRechts)
(T3  D=3 CR=0 - ZMIN=-19 - flat end mill)
G90 G94
G17
G21

(2D Pocket16)
T3
S5000 M3
G54
M8
G0 X24.465 Y31.237
Z15
Z5
G1 Z2.8 F333.3
X24.498 Y31.257 Z2.653
X24.586 Y31.316 Z2.544
X24.699 Y31.407 Z2.5
G3 X22.801 Y33.533 Z2.344 I-0.949 J1.063
X24.699 Y31.407 Z2.187 I0.949 J-1.063
X22.801 Y33.533 Z2.031 I-0.949 J1.063
X24.699 Y31.407 Z1.875 I0.949 J-1.063
X22.801 Y33.533 Z1.718 I-0.949 J1.063
X24.699 Y31.407 Z1.562 I0.949 J-1.063
X22.801 Y33.533 Z1.406 I-0.949 J1.063
X24.699 Y31.407 Z1.249 I0.949 J-1.063
X22.801 Y33.533 Z1.093 I-0.949 J1.063
X24.699 Y31.407 Z0.937 I0.949 J-1.063
X22.801 Y33.533 Z0.78 I-0.949 J1.063
X24.699 Y31.407 Z0.624 I0.949 J-1.063
X22.801 Y33.533 Z0.468 I-0.949 J1.063
X24.699 Y31.407 Z0.311 I0.949 J-1.063
X22.801 Y33.533 Z0.155 I-0.949 J1.063
X24.699 Y31.407 Z-0.001 I0.949 J-1.063
X22.801 Y33.533 Z-0.158 I-0.949 J1.063
X24.699 Y31.407 Z-0.314 I0.949 J-1.063
X22.801 Y33.533 Z-0.47 I-0.949 J1.063
X24.699 Y31.407 Z-0.627 I0.949 J-1.063
X22.801 Y33.533 Z-0.783 I-0.949 J1.063
X24.699 Y31.407 Z-0.939 I0.949 J-1.063
X22.801 Y33.533 Z-1.096 I-0.949 J1.063
X24.699 Y31.407 Z-1.252 I0.949 J-1.063
X22.801 Y33.533 Z-1.408 I-0.949 J1.063
X24.699 Y31.407 Z-1.565 I0.949 J-1.063
X22.801 Y33.533 Z-1.721 I-0.949 J1.063
X24.699 Y31.407 Z-1.877 I0.949 J-1.063
X22.801 Y33.533 Z-2.034 I-0.949 J1.063
X24.699 Y31.407 Z-2.19 I0.949 J-1.063
X22.801 Y33.533 Z-2.346 I-0.949 J1.063
X24.699 Y31.407 Z-2.503 I0.949 J-1.063
X22.801 Y33.533 Z-2.659 I-0.949 J1.063
X24.699 Y31.407 Z-2.815 I0.949 J-1.063
X22.801 Y33.533 Z-2.972 I-0.949 J1.063
X24.699 Y31.407 Z-3.128 I0.949 J-1.063
X22.801 Y33.533 Z-3.284 I-0.949 J1.063
X24.699 Y31.407 Z-3.441 I0.949 J-1.063
X22.801 Y33.533 Z-3.597 I-0.949 J1.063
X24.699 Y31.407 Z-3.753 I0.949 J-1.063
X22.801 Y33.533 Z-3.91 I-0.949 J1.063
X24.699 Y31.407 Z-4.066 I0.949 J-1.063
X22.801 Y33.533 Z-4.222 I-0.949 J1.063
X24.699 Y31.407 Z-4.379 I0.949 J-1.063
X22.801 Y33.533 Z-4.535 I-0.949 J1.063
X24.699 Y31.407 Z-4.691 I0.949 J-1.063
X22.801 Y33.533 Z-4.848 I-0.949 J1.063
X24.699 Y31.407 Z-5.004 I0.949 J-1.063
X22.801 Y33.533 Z-5.16 I-0.949 J1.063
X24.699 Y31.407 Z-5.317 I0.949 J-1.063
X22.801 Y33.533 Z-5.473 I-0.949 J1.063
X24.699 Y31.407 Z-5.629 I0.949 J-1.063
X22.801 Y33.533 Z-5.786 I-0.949 J1.063
X24.699 Y31.407 Z-5.942 I0.949 J-1.063
X22.801 Y33.533 Z-6.098 I-0.949 J1.063
X24.699 Y31.407 Z-6.255 I0.949 J-1.063
X22.801 Y33.533 Z-6.411 I-0.949 J1.063
X24.699 Y31.407 Z-6.567 I0.949 J-1.063
X22.801 Y33.533 Z-6.724 I-0.949 J1.063
X24.699 Y31.407 Z-6.88 I0.949 J-1.063
X23.75 Y33.895 Z-7 I-0.949 J1.063
G1 X22.924 F1000
G3 X22.605 Y33.576 I0 J-0.319
G1 Y31.924
G3 X22.924 Y31.605 I0.319 J0
G1 X319.076
G3 X319.395 Y31.924 I0 J0.319
G1 Y33.576
G3 X319.076 Y33.895 I-0.319 J0
G1 X23.75
G2 X22.448 Y34.776 I0 J1.402
G3 X20.905 Y34.478 I-0.743 J-0.298
G1 Y30.224
G3 X21.224 Y29.905 I0.319 J0
G1 X320.776
G3 X321.095 Y30.224 I0 J0.319
G1 Y35.276
G3 X320.776 Y35.595 I-0.319 J0
G1 X21.224
G3 X20.905 Y35.276 I0 J-0.319
G1 Y34.478
G2 X20.055 Y33.203 I-1.381 J0
G3 X19.205 Y31.928 I0.531 J-1.275
G1 Y28.524
G3 X19.524 Y28.205 I0.319 J0
G1 X322.476
G3 X322.795 Y28.524 I0 J0.319
G1 Y36.976
G3 X322.476 Y37.295 I-0.319 J0
G1 X19.524
G3 X19.205 Y36.976 I0 J-0.319
G1 Y31.928
G2 X18.353 Y30.649 I-1.385 J0
G3 X17.5 Y29.37 I0.533 J-1.279
G1 Y26.5
X324.5
Y39
X17.5
Y29.37
X17.505 Y29.313 Z-6.989
X17.522 Y29.258 Z-6.977
X17.543 Y29.215 Z-6.945
X17.572 Y29.176 Z-6.912
X17.619 Y29.131 Z-6.815
X17.638 Y29.118 Z-6.7
G0 Z15
X23.035 Y94.263
Z5
G1 Z2.8 F333.3
X23.002 Y94.243 Z2.653
X22.914 Y94.184 Z2.544
X22.801 Y94.093 Z2.5
G3 X24.699 Y91.967 Z2.344 I0.949 J-1.063
X22.801 Y94.093 Z2.187 I-0.949 J1.063
X24.699 Y91.967 Z2.031 I0.949 J-1.063
X22.801 Y94.093 Z1.875 I-0.949 J1.063
X24.699 Y91.967 Z1.718 I0.949 J-1.063
X22.801 Y94.093 Z1.562 I-0.949 J1.063
X24.699 Y91.967 Z1.406 I0.949 J-1.063
X22.801 Y94.093 Z1.249 I-0.949 J1.063
X24.699 Y91.967 Z1.093 I0.949 J-1.063
X22.801 Y94.093 Z0.937 I-0.949 J1.063
X24.699 Y91.967 Z0.78 I0.949 J-1.063
X22.801 Y94.093 Z0.624 I-0.949 J1.063
X24.699 Y91.967 Z0.468 I0.949 J-1.063
X22.801 Y94.093 Z0.311 I-0.949 J1.063
X24.699 Y91.967 Z0.155 I0.949 J-1.063
X22.801 Y94.093 Z-0.001 I-0.949 J1.063
X24.699 Y91.967 Z-0.158 I0.949 J-1.063
X22.801 Y94.093 Z-0.314 I-0.949 J1.063
X24.699 Y91.967 Z-0.47 I0.949 J-1.063
X22.801 Y94.093 Z-0.627 I-0.949 J1.063
X24.699 Y91.967 Z-0.783 I0.949 J-1.063
X22.801 Y94.093 Z-0.939 I-0.949 J1.063
X24.699 Y91.967 Z-1.096 I0.949 J-1.063
X22.801 Y94.093 Z-1.252 I-0.949 J1.063
X24.699 Y91.967 Z-1.408 I0.949 J-1.063
X22.801 Y94.093 Z-1.565 I-0.949 J1.063
X24.699 Y91.967 Z-1.721 I0.949 J-1.063
X22.801 Y94.093 Z-1.877 I-0.949 J1.063
X24.699 Y91.967 Z-2.034 I0.949 J-1.063
X22.801 Y94.093 Z-2.19 I-0.949 J1.063
X24.699 Y91.967 Z-2.346 I0.949 J-1.063
X22.801 Y94.093 Z-2.503 I-0.949 J1.063
X24.699 Y91.967 Z-2.659 I0.949 J-1.063
X22.801 Y94.093 Z-2.815 I-0.949 J1.063
X24.699 Y91.967 Z-2.972 I0.949 J-1.063
X22.801 Y94.093 Z-3.128 I-0.949 J1.063
X24.699 Y91.967 Z-3.284 I0.949 J-1.063
X22.801 Y94.093 Z-3.441 I-0.949 J1.063
X24.699 Y91.967 Z-3.597 I0.949 J-1.063
X22.801 Y94.093 Z-3.753 I-0.949 J1.063
X24.699 Y91.967 Z-3.91 I0.949 J-1.063
X22.801 Y94.093 Z-4.066 I-0.949 J1.063
X24.699 Y91.967 Z-4.222 I0.949 J-1.063
X22.801 Y94.093 Z-4.379 I-0.949 J1.063
X24.699 Y91.967 Z-4.535 I0.949 J-1.063
X22.801 Y94.093 Z-4.691 I-0.949 J1.063
X24.699 Y91.967 Z-4.848 I0.949 J-1.063
X22.801 Y94.093 Z-5.004 I-0.949 J1.063
X24.699 Y91.967 Z-5.16 I0.949 J-1.063
X22.801 Y94.093 Z-5.317 I-0.949 J1.063
X24.699 Y91.967 Z-5.473 I0.949 J-1.063
X22.801 Y94.093 Z-5.629 I-0.949 J1.063
X24.699 Y91.967 Z-5.786 I0.949 J-1.063
X22.801 Y94.093 Z-5.942 I-0.949 J1.063
X24.699 Y91.967 Z-6.098 I0.949 J-1.063
X22.801 Y94.093 Z-6.255 I-0.949 J1.063
X24.699 Y91.967 Z-6.411 I0.949 J-1.063
X22.801 Y94.093 Z-6.567 I-0.949 J1.063
X24.699 Y91.967 Z-6.724 I0.949 J-1.063
X22.801 Y94.093 Z-6.88 I-0.949 J1.063
X23.75 Y91.605 Z-7 I0.949 J-1.063
G1 X319.076 F1000
G3 X319.395 Y91.924 I0 J0.319
G1 Y93.576
G3 X319.076 Y93.895 I-0.319 J0
G1 X22.924
G3 X22.605 Y93.576 I0 J-0.319
G1 Y91.924
G3 X22.924 Y91.605 I0.319 J0
G1 X23.75
G2 X25.025 Y90.755 I0 J-1.381
G3 X26.3 Y89.905 I1.275 J0.531
G1 X320.776
G3 X321.095 Y90.224 I0 J0.319
G1 Y95.276
G3 X320.776 Y95.595 I-0.319 J0
G1 X21.224
G3 X20.905 Y95.276 I0 J-0.319
G1 Y90.224
G3 X21.224 Y89.905 I0.319 J0
G1 X26.3
G2 X27.575 Y89.055 I0 J-1.381
G3 X28.85 Y88.205 I1.275 J0.531
G1 X322.476
G3 X322.795 Y88.524 I0 J0.319
G1 Y96.976
G3 X322.476 Y97.295 I-0.319 J0
G1 X19.524
G3 X19.205 Y96.976 I0 J-0.319
G1 Y88.524
G3 X19.524 Y88.205 I0.319 J0
G1 X28.85
G2 X30.129 Y87.353 I0 J-1.385
G3 X31.407 Y86.5 I1.279 J0.533
G1 X324.5
Y99
X17.5
Y86.5
X31.407
X31.465 Y86.505 Z-6.989
X31.52 Y86.522 Z-6.977
X31.563 Y86.543 Z-6.945
X31.602 Y86.572 Z-6.912
X31.647 Y86.619 Z-6.815
X31.66 Y86.638 Z-6.7
G0 Z15

(2D Pocket17)
X388.394 Y161.694
Z15
Z5
G1 Z-9.2 F333.3
G18 G3 X388.094 Z-9.5 I-0.3 K0 F1000
G1 X387.4
X283.625
G17 G3 X283.306 Y161.375 I0 J-0.319
G1 Y159.625
G3 X283.625 Y159.306 I0.319 J0
G1 X387.391
G3 X387.591 Y159.505 I0 J0.2
G1 X387.6 Y163.193
G3 X387.4 Y163.394 I-0.2 J0.001
G1 X281.925
G3 X281.606 Y163.075 I0 J-0.319
G1 Y157.925
G3 X281.925 Y157.606 I0.319 J0
G1 X387.39
G3 X387.59 Y157.806 I0 J0.2
G1 X387.583 Y164.894
G3 X387.383 Y165.094 I-0.2 J0
G1 X280.225
G3 X279.906 Y164.775 I0 J-0.319
G1 Y156.225
G3 X280.225 Y155.906 I0.319 J0
G1 X387.39
G3 X387.59 Y156.106 I0 J0.2
G1 Y166.594
G3 X387.39 Y166.794 I-0.2 J0
G1 X278.519
G3 X278.206 Y166.481 I0 J-0.313
G1 Y154.519
G3 X278.519 Y154.206 I0.313 J0
G1 X387.383
X387.395
G18 G2 X387.695 Z-9.2 I0 K0.3
G1 Z1
X387.698 Y168.452
Z-9.2
X387.69 Y168.453 Z-9.267
X387.668 Y168.457 Z-9.33
X387.633 Y168.462 Z-9.387
X387.586 Y168.47 Z-9.435
X387.53 Y168.479 Z-9.47
X387.467 Y168.489 Z-9.492
X387.401 Y168.499 Z-9.5
X387.39 Y168.5
X278
G17 G2 X276.5 Y170 I0 J1.5
G3 X273.5 Y170 I-1.5 J0
X275 Y168.5 I1.5 J0
G2 X276.5 Y167 I0 J-1.5
G1 Y154
G2 X275 Y152.5 I-1.5 J0
G3 X275 Y149.5 I0 J-1.5
X276.5 Y151 I0 J1.5
G1 X276.503 Y151.09
X276.511 Y151.18
G3 X276.007 Y151.299 I-0.266 J0
G2 X275.492 Y151.338 I-0.25 J0.125
G3 X275.243 Y151.502 I-0.226 J-0.072
X274.7 Y151.269 I0.094 J-0.968
X274.679 Y150.679 I0.264 J-0.305
X275.269 Y150.7 I0.285 J0.285
X275.502 Y151.243 I-0.736 J0.637
G1 Y151.291
X275.492 Y151.338
X275.468 Y151.39 Z-9.489
X275.432 Y151.435 Z-9.477
X275.394 Y151.465 Z-9.445
X275.351 Y151.487 Z-9.412
X275.319 Y151.497 Z-9.363
X275.287 Y151.502 Z-9.315
X275.265 Y151.503 Z-9.2
G0 Z5
X387.698 Y168.452
G1 Z1 F333.3
Z-9.2 F1000
X387.69 Y168.453 Z-9.267
X387.668 Y168.457 Z-9.33
X387.633 Y168.462 Z-9.387
X387.586 Y168.47 Z-9.435
X387.53 Y168.479 Z-9.47
X387.467 Y168.489 Z-9.492
X387.401 Y168.499 Z-9.5
X387.39 Y168.5
X278
G2 X276.509 Y169.84 I0 J1.5
X275.841 Y169.931 I0 J2.475
X275.274 Y170.294 I0.312 J1.112
G1 X275.269 Y170.3
G3 X274.679 Y170.321 I-0.305 J-0.264
X274.7 Y169.731 I0.285 J-0.285
X275.243 Y169.498 I0.637 J0.736
X275.502 Y169.757 I0.023 J0.236
X275.274 Y170.294 I-0.968 J-0.094
G1 X275.228 Y170.329 Z-9.489
X275.177 Y170.355 Z-9.477
X275.13 Y170.368 Z-9.445
X275.082 Y170.374 Z-9.412
X275.017 Y170.37 Z-9.315
X274.995 Y170.365 Z-9.2
G0 Z5
X388.39 Y168.345
G1 Z-9.23 F333.3
X388.383 Y168.346 Z-9.29 F1000
X388.364 Y168.349 Z-9.347
X388.332 Y168.355 Z-9.398
X388.29 Y168.361 Z-9.441
X388.239 Y168.369 Z-9.473
X388.183 Y168.378 Z-9.493
X388.123 Y168.388 Z-9.5
X387.437 Y168.496
X387.39 Y168.5
X278
G2 X276.5 Y170 I0 J1.5
G3 X273.5 Y170 I-1.5 J0
X275 Y168.5 I1.5 J0
G2 X276.5 Y167 I0 J-1.5
G1 Y154
G2 X275 Y152.5 I-1.5 J0
G3 X275 Y149.5 I0 J-1.5
X276.5 Y151 I0 J1.5
G2 X278 Y152.5 I1.5 J0
G1 X386
X387.397
X387.444 Y152.504
X388.092 Y152.606
X388.158 Y152.617 Z-9.492
X388.22 Y152.627 Z-9.47
X388.277 Y152.636 Z-9.435
X388.324 Y152.643 Z-9.387
X388.359 Y152.649 Z-9.33
X388.381 Y152.652 Z-9.267
X388.388 Y152.653 Z-9.2
G0 Z15
X388.394 Y442.694
Z5
G1 Z-9.2 F333.3
G18 G3 X388.094 Z-9.5 I-0.3 K0 F1000
G1 X387.4
X283.625
G17 G3 X283.306 Y442.375 I0 J-0.319
G1 Y440.625
G3 X283.625 Y440.306 I0.319 J0
G1 X387.391
G3 X387.591 Y440.505 I0 J0.2
G1 X387.6 Y444.194
G3 X387.4 Y444.394 I-0.2 J0
G1 X281.925
G3 X281.606 Y444.075 I0 J-0.319
G1 Y438.925
G3 X281.925 Y438.606 I0.319 J0
G1 X387.39
G3 X387.59 Y438.806 I0 J0.2
G1 X387.583 Y445.894
G3 X387.383 Y446.094 I-0.2 J0
G1 X280.225
G3 X279.906 Y445.775 I0 J-0.319
G1 Y437.225
G3 X280.225 Y436.906 I0.319 J0
G1 X387.39
G3 X387.59 Y437.106 I0 J0.2
G1 Y447.594
G3 X387.39 Y447.794 I-0.2 J0
G1 X278.519
G3 X278.206 Y447.481 I0 J-0.313
G1 Y435.519
G3 X278.519 Y435.206 I0.313 J0
G1 X387.383
X387.395
G18 G2 X387.695 Z-9.2 I0 K0.3
G1 Z1
X387.698 Y449.452
Z-9.2
X387.69 Y449.453 Z-9.267
X387.668 Y449.457 Z-9.33
X387.633 Y449.462 Z-9.387
X387.586 Y449.47 Z-9.435
X387.53 Y449.479 Z-9.47
X387.467 Y449.489 Z-9.492
X387.401 Y449.499 Z-9.5
X387.39 Y449.5
X278
G17 G2 X276.5 Y451 I0 J1.5
G3 X273.5 Y451 I-1.5 J0
X275 Y449.5 I1.5 J0
G2 X276.5 Y448 I0 J-1.5
G1 Y435
G2 X275 Y433.5 I-1.5 J0
G3 X275 Y430.5 I0 J-1.5
X276.5 Y432 I0 J1.5
G1 X276.503 Y432.09
X276.511 Y432.18
G3 X276.007 Y432.299 I-0.266 J0
G2 X275.492 Y432.338 I-0.25 J0.125
G3 X275.243 Y432.502 I-0.226 J-0.072
X274.7 Y432.269 I0.094 J-0.968
X274.679 Y431.679 I0.264 J-0.305
X275.269 Y431.7 I0.285 J0.285
X275.502 Y432.243 I-0.736 J0.637
G1 Y432.291
X275.492 Y432.338
X275.468 Y432.39 Z-9.489
X275.432 Y432.435 Z-9.477
X275.394 Y432.465 Z-9.445
X275.351 Y432.487 Z-9.412
X275.319 Y432.497 Z-9.363
X275.287 Y432.502 Z-9.315
X275.265 Y432.503 Z-9.2
G0 Z5
X387.698 Y449.452
G1 Z1 F333.3
Z-9.2 F1000
X387.69 Y449.453 Z-9.267
X387.668 Y449.457 Z-9.33
X387.633 Y449.462 Z-9.387
X387.586 Y449.47 Z-9.435
X387.53 Y449.479 Z-9.47
X387.467 Y449.489 Z-9.492
X387.401 Y449.499 Z-9.5
X387.39 Y449.5
X278
G2 X276.509 Y450.84 I0 J1.5
X275.841 Y450.931 I0 J2.475
X275.274 Y451.294 I0.312 J1.112
G1 X275.269 Y451.3
G3 X274.679 Y451.321 I-0.305 J-0.264
X274.7 Y450.731 I0.285 J-0.285
X275.243 Y450.498 I0.637 J0.736
X275.502 Y450.757 I0.023 J0.236
X275.274 Y451.294 I-0.968 J-0.094
G1 X275.228 Y451.329 Z-9.489
X275.177 Y451.355 Z-9.477
X275.13 Y451.368 Z-9.445
X275.082 Y451.374 Z-9.412
X275.017 Y451.37 Z-9.315
X274.995 Y451.365 Z-9.2
G0 Z5
X388.39 Y449.345
G1 Z-9.23 F333.3
X388.383 Y449.346 Z-9.29 F1000
X388.364 Y449.349 Z-9.347
X388.332 Y449.355 Z-9.398
X388.29 Y449.361 Z-9.441
X388.239 Y449.369 Z-9.473
X388.183 Y449.378 Z-9.493
X388.123 Y449.388 Z-9.5
X387.437 Y449.496
X387.39 Y449.5
X278
G2 X276.5 Y451 I0 J1.5
G3 X273.5 Y451 I-1.5 J0
X275 Y449.5 I1.5 J0
G2 X276.5 Y448 I0 J-1.5
G1 Y435
G2 X275 Y433.5 I-1.5 J0
G3 X275 Y430.5 I0 J-1.5
X276.5 Y432 I0 J1.5
G2 X278 Y433.5 I1.5 J0
G1 X386
X387.397
X387.444 Y433.504
X388.092 Y433.606
X388.158 Y433.617 Z-9.492
X388.22 Y433.627 Z-9.47
X388.277 Y433.636 Z-9.435
X388.324 Y433.643 Z-9.387
X388.359 Y433.649 Z-9.33
X388.381 Y433.652 Z-9.267
X388.388 Y433.653 Z-9.2
G0 Z15

(2D Contour11)
X253.6 Y361.057
Z15
Z5
G1 Z-6.2 F333.3
G18 G2 X253.9 Z-6.5 I0.3 K0 F1000
G1 X254.2
G17 G3 X254.5 Y361.357 I0 J0.3
G1 Y394.303
G3 X234.668 Y427.974 I-38.5 J0
G2 X223.972 Y436.476 I20.124 J36.294
G1 X215.795 Y445.543
G2 X215.904 Y447.662 I1.114 J1.005
G1 X327.296 Y548.119
G2 X329.415 Y548.01 I1.005 J-1.114
G1 X376.819 Y495.447
G2 X387.5 Y467.653 I-30.819 J-27.793
G1 Y41
G2 X346 Y-0.5 I-41.5 J0
G1 X41
G2 X-0.5 Y41 I0 J41.5
G1 Y252.25
G2 X1 Y253.75 I1.5 J0
G1 X151
G2 X152.5 Y252.25 I0 J-1.5
G1 Y191
G3 X191 Y152.5 I38.5 J0
G1 X216
G3 X254.5 Y191 I0 J38.5
G1 Y361.357
G3 X254.2 Y361.657 I-0.3 J0
G1 X253.9
G18 G3 X253.6 Z-6.2 I0 K0.3
G1 Y361.057
Z-12.7 F333.3
G2 X253.9 Z-13 I0.3 K0 F1000
G1 X254.2
G17 G3 X254.5 Y361.357 I0 J0.3
G1 Y394.303
G3 X234.668 Y427.974 I-38.5 J0
G2 X223.972 Y436.476 I20.124 J36.294
G1 X215.795 Y445.543
G2 X215.904 Y447.662 I1.114 J1.005
G1 X327.296 Y548.119
G2 X329.415 Y548.01 I1.005 J-1.114
G1 X376.819 Y495.447
G2 X387.5 Y467.653 I-30.819 J-27.793
G1 Y41
G2 X346 Y-0.5 I-41.5 J0
G1 X41
G2 X-0.5 Y41 I0 J41.5
G1 Y252.25
G2 X1 Y253.75 I1.5 J0
G1 X151
G2 X152.5 Y252.25 I0 J-1.5
G1 Y191
G3 X191 Y152.5 I38.5 J0
G1 X216
G3 X254.5 Y191 I0 J38.5
G1 Y361.357
G3 X254.2 Y361.657 I-0.3 J0
G1 X253.9
G18 G3 X253.6 Z-12.7 I0 K0.3
G1 Y361.057
Z-18.7 F333.3
G2 X253.9 Z-19 I0.3 K0 F1000
G1 X254.2
G17 G3 X254.5 Y361.357 I0 J0.3
G1 Y394.303
G3 X234.668 Y427.974 I-38.5 J0
G2 X223.972 Y436.476 I20.124 J36.294
G1 X215.795 Y445.543
G2 X215.904 Y447.662 I1.114 J1.005
G1 X327.296 Y548.119
G2 X329.415 Y548.01 I1.005 J-1.114
G1 X376.819 Y495.447
G2 X387.5 Y467.653 I-30.819 J-27.793
G1 Y41
G2 X346 Y-0.5 I-41.5 J0
G1 X41
G2 X-0.5 Y41 I0 J41.5
G1 Y252.25
G2 X1 Y253.75 I1.5 J0
G1 X151
G2 X152.5 Y252.25 I0 J-1.5
G1 Y191
G3 X191 Y152.5 I38.5 J0
G1 X216
G3 X254.5 Y191 I0 J38.5
G1 Y361.357
G3 X254.2 Y361.657 I-0.3 J0
G1 X253.9
G18 G3 X253.6 Z-18.7 I0 K0.3
G0 Z15
G17
M9
M5
M30
