(TinyCNCStepperFlanschZ)
(T3  D=3 CR=0 - ZMIN=-19 - flat end mill)
G90 G94
G17
G21

(Bore2)
T3
S5000 M3
G54
M8
G0 X150.75 Y9.05
Z15
Z2
G1 Z0.3 F1000
G18 G3 X150.45 Z0 I-0.3 K0
G1 X150.3
G17 G3 X150 Y8.75 I0 J-0.3
X152 Y8.75 Z-0.91 I1 J0
X150 Y8.75 Z-1.82 I-1 J0
X152 Y8.75 Z-2.73 I1 J0
X150 Y8.75 Z-3.64 I-1 J0
X152 Y8.75 Z-4.55 I1 J0
X150 Y8.75 Z-5.46 I-1 J0
X152 Y8.75 Z-6.369 I1 J0
X150 Y8.75 Z-7.279 I-1 J0
X152 Y8.75 Z-8.189 I1 J0
X150 Y8.75 Z-9.099 I-1 J0
X152 Y8.75 Z-10.009 I1 J0
X150 Y8.75 Z-10.919 I-1 J0
X152 Y8.75 Z-11.829 I1 J0
X150 Y8.75 Z-12.739 I-1 J0
X152 Y8.75 Z-13.649 I1 J0
X150 Y8.75 Z-14.559 I-1 J0
X152 Y8.75 Z-15.469 I1 J0
X150 Y8.75 Z-16.379 I-1 J0
X152 Y8.75 Z-17.289 I1 J0
X150 Y8.75 Z-18.199 I-1 J0
X151.931 Y8.384 Z-19 I1 J0
X150.069 Y9.116 I-0.931 J0.366
X151.931 Y8.384 I0.931 J-0.366
X151.761 Y8.773 I-0.279 J0.11
G1 X151.622 Y8.828
X151.559 Y8.852 Z-18.992
X151.5 Y8.876 Z-18.97
X151.448 Y8.896 Z-18.935
X151.403 Y8.914 Z-18.887
X151.37 Y8.927 Z-18.83
X151.349 Y8.935 Z-18.767
X151.342 Y8.938 Z-18.7
G0 Z5
X119.75 Y9.05
Z2
G1 Z0.3 F1000
G18 G3 X119.45 Z0 I-0.3 K0
G1 X119.3
G17 G3 X119 Y8.75 I0 J-0.3
X121 Y8.75 Z-0.91 I1 J0
X119 Y8.75 Z-1.82 I-1 J0
X121 Y8.75 Z-2.73 I1 J0
X119 Y8.75 Z-3.64 I-1 J0
X121 Y8.75 Z-4.55 I1 J0
X119 Y8.75 Z-5.46 I-1 J0
X121 Y8.75 Z-6.369 I1 J0
X119 Y8.75 Z-7.279 I-1 J0
X121 Y8.75 Z-8.189 I1 J0
X119 Y8.75 Z-9.099 I-1 J0
X121 Y8.75 Z-10.009 I1 J0
X119 Y8.75 Z-10.919 I-1 J0
X121 Y8.75 Z-11.829 I1 J0
X119 Y8.75 Z-12.739 I-1 J0
X121 Y8.75 Z-13.649 I1 J0
X119 Y8.75 Z-14.559 I-1 J0
X121 Y8.75 Z-15.469 I1 J0
X119 Y8.75 Z-16.379 I-1 J0
X121 Y8.75 Z-17.289 I1 J0
X119 Y8.75 Z-18.199 I-1 J0
X120.931 Y8.384 Z-19 I1 J0
X119.069 Y9.116 I-0.931 J0.366
X120.931 Y8.384 I0.931 J-0.366
X120.761 Y8.773 I-0.279 J0.11
G1 X120.622 Y8.828
X120.559 Y8.852 Z-18.992
X120.5 Y8.876 Z-18.97
X120.448 Y8.896 Z-18.935
X120.403 Y8.914 Z-18.887
X120.37 Y8.927 Z-18.83
X120.349 Y8.935 Z-18.767
X120.342 Y8.938 Z-18.7
G0 Z5
X119.75 Y40.05
Z2
G1 Z0.3 F1000
G18 G3 X119.45 Z0 I-0.3 K0
G1 X119.3
G17 G3 X119 Y39.75 I0 J-0.3
X121 Y39.75 Z-0.91 I1 J0
X119 Y39.75 Z-1.82 I-1 J0
X121 Y39.75 Z-2.73 I1 J0
X119 Y39.75 Z-3.64 I-1 J0
X121 Y39.75 Z-4.55 I1 J0
X119 Y39.75 Z-5.46 I-1 J0
X121 Y39.75 Z-6.369 I1 J0
X119 Y39.75 Z-7.279 I-1 J0
X121 Y39.75 Z-8.189 I1 J0
X119 Y39.75 Z-9.099 I-1 J0
X121 Y39.75 Z-10.009 I1 J0
X119 Y39.75 Z-10.919 I-1 J0
X121 Y39.75 Z-11.829 I1 J0
X119 Y39.75 Z-12.739 I-1 J0
X121 Y39.75 Z-13.649 I1 J0
X119 Y39.75 Z-14.559 I-1 J0
X121 Y39.75 Z-15.469 I1 J0
X119 Y39.75 Z-16.379 I-1 J0
X121 Y39.75 Z-17.289 I1 J0
X119 Y39.75 Z-18.199 I-1 J0
X120.931 Y39.384 Z-19 I1 J0
X119.069 Y40.116 I-0.931 J0.366
X120.931 Y39.384 I0.931 J-0.366
X120.761 Y39.773 I-0.279 J0.11
G1 X120.622 Y39.828
X120.559 Y39.852 Z-18.992
X120.5 Y39.876 Z-18.97
X120.448 Y39.896 Z-18.935
X120.403 Y39.914 Z-18.887
X120.37 Y39.927 Z-18.83
X120.349 Y39.935 Z-18.767
X120.342 Y39.938 Z-18.7
G0 Z5
X150.75 Y40.05
Z2
G1 Z0.3 F1000
G18 G3 X150.45 Z0 I-0.3 K0
G1 X150.3
G17 G3 X150 Y39.75 I0 J-0.3
X152 Y39.75 Z-0.91 I1 J0
X150 Y39.75 Z-1.82 I-1 J0
X152 Y39.75 Z-2.73 I1 J0
X150 Y39.75 Z-3.64 I-1 J0
X152 Y39.75 Z-4.55 I1 J0
X150 Y39.75 Z-5.46 I-1 J0
X152 Y39.75 Z-6.369 I1 J0
X150 Y39.75 Z-7.279 I-1 J0
X152 Y39.75 Z-8.189 I1 J0
X150 Y39.75 Z-9.099 I-1 J0
X152 Y39.75 Z-10.009 I1 J0
X150 Y39.75 Z-10.919 I-1 J0
X152 Y39.75 Z-11.829 I1 J0
X150 Y39.75 Z-12.739 I-1 J0
X152 Y39.75 Z-13.649 I1 J0
X150 Y39.75 Z-14.559 I-1 J0
X152 Y39.75 Z-15.469 I1 J0
X150 Y39.75 Z-16.379 I-1 J0
X152 Y39.75 Z-17.289 I1 J0
X150 Y39.75 Z-18.199 I-1 J0
X151.931 Y39.384 Z-19 I1 J0
X150.069 Y40.116 I-0.931 J0.366
X151.931 Y39.384 I0.931 J-0.366
X151.761 Y39.773 I-0.279 J0.11
G1 X151.622 Y39.828
X151.559 Y39.852 Z-18.992
X151.5 Y39.876 Z-18.97
X151.448 Y39.896 Z-18.935
X151.403 Y39.914 Z-18.887
X151.37 Y39.927 Z-18.83
X151.349 Y39.935 Z-18.767
X151.342 Y39.938 Z-18.7
G0 Z15

(2D Pocket27)
X133.842 Y25.359
Z15
Z5
G1 Z2.782 F333.3
X133.848 Y25.335 Z2.663
X133.865 Y25.268 Z2.564
X133.896 Y25.17 Z2.5
G3 X136.579 Y26.132 Z0.871 I1.341 J0.481
X133.896 Y25.17 Z-0.759 I-1.341 J-0.481
X136.579 Y26.132 Z-2.388 I1.341 J0.481
X133.896 Y25.17 Z-4.018 I-1.341 J-0.481
X135.5 Y24.25 Z-4.75 I1.341 J0.481
G1 X135.542 Y24.258 F1000
X135.577 Y24.27
X135.607 Y24.292
X135.63 Y24.322
X135.642 Y24.357
X135.644 Y24.394
X135.639 Y24.44
X135.629 Y24.486
X135.609 Y24.528
X135.58 Y24.565
X135.548 Y24.599
X135.502 Y24.638
X135.451 Y24.669
X135.395 Y24.69
X135.336 Y24.702
X135.3 Y24.705
G3 X135.021 Y24.642 I-0.046 J-0.445
G1 X134.979 Y24.616
G3 X134.74 Y24.34 I0.311 J-0.509
G1 X134.723 Y24.299
G3 X134.678 Y23.862 I0.681 J-0.289
G1 X134.687 Y23.818
G3 X134.932 Y23.365 I0.869 J0.176
G1 X134.963 Y23.334
G3 X135.483 Y23.055 I0.727 J0.732
G1 X135.525 Y23.047
G3 X136.188 Y23.104 I0.235 J1.152
G1 X136.302 Y23.148
G3 X137.115 Y24.039 I-0.497 J1.272
G1 X137.119 Y24.052
G3 X136.824 Y25.466 I-1.478 J0.43
G1 X136.787 Y25.511
G3 X133.729 Y25.611 I-1.574 J-1.311
G1 X133.706 Y25.588
G3 X133.136 Y24.488 I1.615 J-1.535
G1 X133.128 Y24.449
G3 X133.239 Y23.142 I2.319 J-0.462
G1 X133.254 Y23.103
G3 X134.09 Y21.994 I2.345 J0.897
G1 X134.122 Y21.97
G3 X135.487 Y21.447 I1.593 J2.118
G1 X135.527 Y21.444
G3 X137.036 Y21.738 I0.24 J2.782
G1 X137.224 Y21.834
G3 X138.792 Y23.99 I-1.336 J2.62
X138.15 Y26.476 I-3.171 J0.507
G1 X138.126 Y26.507
G3 X133.183 Y27.329 I-2.92 J-2.285
X132.152 Y26.344 I2.095 J-3.224
G1 X132.141 Y26.329
G3 X131.525 Y25.004 I3.206 J-2.296
G1 X131.521 Y24.987
G3 X131.427 Y23.495 I3.913 J-0.995
G1 X131.429 Y23.477
G3 X131.896 Y22.019 I4.104 J0.509
G1 X131.904 Y22.003
G3 X132.891 Y20.787 I3.725 J2.014
G1 X132.904 Y20.775
G3 X134.291 Y19.985 I2.8 J3.302
G1 X134.307 Y19.979
G3 X135.918 Y19.74 I1.444 J4.181
G1 X135.937 Y19.741
G3 X137.561 Y20.109 I-0.171 J4.519
G1 X137.577 Y20.116
G3 X138.987 Y21.066 I-1.832 J4.24
G1 X139.098 Y21.176
G3 X140.487 Y24.654 I-3.277 J3.325
G1 X140.483 Y24.745
G3 X140.37 Y25.598 I-5.012 J-0.233
X139.873 Y26.854 I-4.168 J-0.923
G1 X139.865 Y26.867
G3 X130.248 Y26.294 I-4.661 J-2.766
G1 X130.243 Y26.284
G3 X129.768 Y24.259 I5.148 J-2.278
G1 X129.767 Y24.241
G3 X130.064 Y22.146 I5.721 J-0.257
G1 X130.07 Y22.129
G3 X131.125 Y20.253 I5.515 J1.869
G1 X131.138 Y20.237
G3 X132.828 Y18.852 I4.542 J3.814
G1 X132.841 Y18.844
G3 X134.94 Y18.156 I2.89 J5.269
G1 X134.959 Y18.153
G3 X137.204 Y18.272 I0.805 J6.062
G1 X137.221 Y18.276
G3 X139.304 Y19.213 I-1.462 J6.036
G1 X139.377 Y19.263
G3 X142.112 Y24.252 I-3.643 J5.242
G1 X142.113 Y24.262
G3 X141.173 Y27.889 I-6.474 J0.257
X139.69 Y29.594 I-5.741 J-3.495
G1 X139.639 Y29.636
G3 X132.363 Y30.6 I-4.417 J-5.394
X130.219 Y29.11 I2.891 J-6.449
G1 X130.204 Y29.095
G3 X128.723 Y26.893 I5.118 J-5.041
G1 X128.717 Y26.878
G3 X128.129 Y24.259 I6.677 J-2.873
G1 Y24.241
G3 X128.537 Y21.552 I7.362 J-0.257
G1 X128.543 Y21.535
G3 X129.918 Y19.146 I7.044 J2.464
G1 X129.931 Y19.131
G3 X132.103 Y17.382 I5.753 J4.923
G1 X132.115 Y17.376
G3 X134.792 Y16.524 I3.617 J6.738
G1 X134.812 Y16.522
G3 X137.655 Y16.697 I0.953 J7.696
G1 X137.673 Y16.701
G3 X140.293 Y17.906 I-1.914 J7.614
G1 X140.362 Y17.955
G3 X142.561 Y28.773 I-4.655 J6.579
G1 X142.464 Y28.93
G3 X133.931 Y32.869 I-7.243 J-4.479
G1 X133.91 Y32.865
G3 X132.343 Y32.475 I1.327 J-8.656
X130.863 Y31.797 I2.906 J-8.313
X129.524 Y30.854 I4.402 J-7.669
X128.366 Y29.664 I5.783 J-6.785
X127.447 Y28.279 I6.967 J-5.621
X126.795 Y26.738 I7.927 J-4.263
X126.437 Y25.095 I8.625 J-2.742
X126.387 Y23.405 I9.031 J-1.109
X126.652 Y21.726 I9.13 J0.58
X127.226 Y20.115 I8.913 J2.267
X128.091 Y18.631 I8.386 J3.894
X129.221 Y17.325 I7.563 J5.403
X130.579 Y16.244 I6.48 J6.75
X132.11 Y15.434 I5.137 J7.85
X133.778 Y14.913 I3.635 J8.714
X135.52 Y14.707 I1.982 J9.281
G1 X135.765 Y14.704
G3 X137.28 Y14.825 I0 J9.539
X138.997 Y15.266 I-1.518 J9.467
X140.611 Y16.019 I-3.247 J9.074
X142.068 Y17.06 I-4.882 J8.365
X143.314 Y18.358 I-6.367 J7.364
X144.306 Y19.87 I-7.652 J6.103
X145.008 Y21.548 I-8.703 J4.624
X145.391 Y23.334 I-9.451 J2.96
G1 X145.5 Y24.25
G3 X125.5 Y24.25 I-10 J0
X145.5 Y24.25 I10 J0
X143.377 Y25.492 Z-5.64 I-1.425 J0 F333.3
G1 X136.461 Y21.607 Z-8.018
G2 X135.065 Y24.092 Z-9.361 I-0.698 J1.242
X135.5 Y24.25 Z-9.5 I0.698 J-1.242
G1 X135.542 Y24.258 F1000
X135.577 Y24.27
X135.607 Y24.292
X135.63 Y24.322
X135.642 Y24.357
X135.644 Y24.394
X135.639 Y24.44
X135.629 Y24.486
X135.609 Y24.528
X135.58 Y24.565
X135.548 Y24.599
X135.502 Y24.638
X135.451 Y24.669
X135.395 Y24.69
X135.336 Y24.702
X135.3 Y24.705
G3 X135.021 Y24.642 I-0.046 J-0.445
G1 X134.979 Y24.616
G3 X134.74 Y24.34 I0.311 J-0.509
G1 X134.723 Y24.299
G3 X134.678 Y23.862 I0.681 J-0.289
G1 X134.687 Y23.818
G3 X134.932 Y23.365 I0.869 J0.176
G1 X134.963 Y23.334
G3 X135.483 Y23.055 I0.727 J0.732
G1 X135.525 Y23.047
G3 X136.188 Y23.104 I0.235 J1.152
G1 X136.302 Y23.148
G3 X137.115 Y24.039 I-0.497 J1.272
G1 X137.119 Y24.052
G3 X136.824 Y25.466 I-1.478 J0.43
G1 X136.787 Y25.511
G3 X133.729 Y25.611 I-1.574 J-1.311
G1 X133.706 Y25.588
G3 X133.136 Y24.488 I1.615 J-1.535
G1 X133.128 Y24.449
G3 X133.239 Y23.142 I2.319 J-0.462
G1 X133.254 Y23.103
G3 X134.09 Y21.994 I2.345 J0.897
G1 X134.122 Y21.97
G3 X135.487 Y21.447 I1.593 J2.118
G1 X135.527 Y21.444
G3 X137.036 Y21.738 I0.24 J2.782
G1 X137.224 Y21.834
G3 X138.792 Y23.99 I-1.336 J2.62
X138.15 Y26.476 I-3.171 J0.507
G1 X138.126 Y26.507
G3 X133.183 Y27.329 I-2.92 J-2.285
X132.152 Y26.344 I2.095 J-3.224
G1 X132.141 Y26.329
G3 X131.525 Y25.004 I3.206 J-2.296
G1 X131.521 Y24.987
G3 X131.427 Y23.495 I3.913 J-0.995
G1 X131.429 Y23.477
G3 X131.896 Y22.019 I4.104 J0.509
G1 X131.904 Y22.003
G3 X132.891 Y20.787 I3.725 J2.014
G1 X132.904 Y20.775
G3 X134.291 Y19.985 I2.8 J3.302
G1 X134.307 Y19.979
G3 X135.918 Y19.74 I1.444 J4.181
G1 X135.937 Y19.741
G3 X137.561 Y20.109 I-0.171 J4.519
G1 X137.577 Y20.116
G3 X138.987 Y21.066 I-1.832 J4.24
G1 X139.098 Y21.176
G3 X140.487 Y24.654 I-3.277 J3.325
G1 X140.483 Y24.745
G3 X140.37 Y25.598 I-5.012 J-0.233
X139.873 Y26.854 I-4.168 J-0.923
G1 X139.865 Y26.867
G3 X130.248 Y26.294 I-4.661 J-2.766
G1 X130.243 Y26.284
G3 X129.768 Y24.259 I5.148 J-2.278
G1 X129.767 Y24.241
G3 X130.064 Y22.146 I5.721 J-0.257
G1 X130.07 Y22.129
G3 X131.125 Y20.253 I5.515 J1.869
G1 X131.138 Y20.237
G3 X132.828 Y18.852 I4.542 J3.814
G1 X132.841 Y18.844
G3 X134.94 Y18.156 I2.89 J5.269
G1 X134.959 Y18.153
G3 X137.204 Y18.272 I0.805 J6.062
G1 X137.221 Y18.276
G3 X139.304 Y19.213 I-1.462 J6.036
G1 X139.377 Y19.263
G3 X142.112 Y24.252 I-3.643 J5.242
G1 X142.113 Y24.262
G3 X141.173 Y27.889 I-6.474 J0.257
X139.69 Y29.594 I-5.741 J-3.495
G1 X139.639 Y29.636
G3 X132.363 Y30.6 I-4.417 J-5.394
X130.219 Y29.11 I2.891 J-6.449
G1 X130.204 Y29.095
G3 X128.723 Y26.893 I5.118 J-5.041
G1 X128.717 Y26.878
G3 X128.129 Y24.259 I6.677 J-2.873
G1 Y24.241
G3 X128.537 Y21.552 I7.362 J-0.257
G1 X128.543 Y21.535
G3 X129.918 Y19.146 I7.044 J2.464
G1 X129.931 Y19.131
G3 X132.103 Y17.382 I5.753 J4.923
G1 X132.115 Y17.376
G3 X134.792 Y16.524 I3.617 J6.738
G1 X134.812 Y16.522
G3 X137.655 Y16.697 I0.953 J7.696
G1 X137.673 Y16.701
G3 X140.293 Y17.906 I-1.914 J7.614
G1 X140.362 Y17.955
G3 X142.561 Y28.773 I-4.655 J6.579
G1 X142.464 Y28.93
G3 X133.931 Y32.869 I-7.243 J-4.479
G1 X133.91 Y32.865
G3 X132.343 Y32.475 I1.327 J-8.656
X130.863 Y31.797 I2.906 J-8.313
X129.524 Y30.854 I4.402 J-7.669
X128.366 Y29.664 I5.783 J-6.785
X127.447 Y28.279 I6.967 J-5.621
X126.795 Y26.738 I7.927 J-4.263
X126.437 Y25.095 I8.625 J-2.742
X126.387 Y23.405 I9.031 J-1.109
X126.652 Y21.726 I9.13 J0.58
X127.226 Y20.115 I8.913 J2.267
X128.091 Y18.631 I8.386 J3.894
X129.221 Y17.325 I7.563 J5.403
X130.579 Y16.244 I6.48 J6.75
X132.11 Y15.434 I5.137 J7.85
X133.778 Y14.913 I3.635 J8.714
X135.52 Y14.707 I1.982 J9.281
G1 X135.765 Y14.704
G3 X137.28 Y14.825 I0 J9.539
X138.997 Y15.266 I-1.518 J9.467
X140.611 Y16.019 I-3.247 J9.074
X142.068 Y17.06 I-4.882 J8.365
X143.314 Y18.358 I-6.367 J7.364
X144.306 Y19.87 I-7.652 J6.103
X145.008 Y21.548 I-8.703 J4.624
X145.391 Y23.334 I-9.451 J2.96
G1 X145.5 Y24.25
G3 X125.5 Y24.25 I-10 J0
X145.5 Y24.25 I10 J0
X143.377 Y25.492 Z-10.39 I-1.425 J0 F333.3
G1 X136.461 Y21.607 Z-12.768
G2 X135.065 Y24.092 Z-14.111 I-0.698 J1.242
X135.5 Y24.25 Z-14.25 I0.698 J-1.242
G1 X135.542 Y24.258 F1000
X135.577 Y24.27
X135.607 Y24.292
X135.63 Y24.322
X135.642 Y24.357
X135.644 Y24.394
X135.639 Y24.44
X135.629 Y24.486
X135.609 Y24.528
X135.58 Y24.565
X135.548 Y24.599
X135.502 Y24.638
X135.451 Y24.669
X135.395 Y24.69
X135.336 Y24.702
X135.3 Y24.705
G3 X135.021 Y24.642 I-0.046 J-0.445
G1 X134.979 Y24.616
G3 X134.74 Y24.34 I0.311 J-0.509
G1 X134.723 Y24.299
G3 X134.678 Y23.862 I0.681 J-0.289
G1 X134.687 Y23.818
G3 X134.932 Y23.365 I0.869 J0.176
G1 X134.963 Y23.334
G3 X135.483 Y23.055 I0.727 J0.732
G1 X135.525 Y23.047
G3 X136.188 Y23.104 I0.235 J1.152
G1 X136.302 Y23.148
G3 X137.115 Y24.039 I-0.497 J1.272
G1 X137.119 Y24.052
G3 X136.824 Y25.466 I-1.478 J0.43
G1 X136.787 Y25.511
G3 X133.729 Y25.611 I-1.574 J-1.311
G1 X133.706 Y25.588
G3 X133.136 Y24.488 I1.615 J-1.535
G1 X133.128 Y24.449
G3 X133.239 Y23.142 I2.319 J-0.462
G1 X133.254 Y23.103
G3 X134.09 Y21.994 I2.345 J0.897
G1 X134.122 Y21.97
G3 X135.487 Y21.447 I1.593 J2.118
G1 X135.527 Y21.444
G3 X137.036 Y21.738 I0.24 J2.782
G1 X137.224 Y21.834
G3 X138.792 Y23.99 I-1.336 J2.62
X138.15 Y26.476 I-3.171 J0.507
G1 X138.126 Y26.507
G3 X133.183 Y27.329 I-2.92 J-2.285
X132.152 Y26.344 I2.095 J-3.224
G1 X132.141 Y26.329
G3 X131.525 Y25.004 I3.206 J-2.296
G1 X131.521 Y24.987
G3 X131.427 Y23.495 I3.913 J-0.995
G1 X131.429 Y23.477
G3 X131.896 Y22.019 I4.104 J0.509
G1 X131.904 Y22.003
G3 X132.891 Y20.787 I3.725 J2.014
G1 X132.904 Y20.775
G3 X134.291 Y19.985 I2.8 J3.302
G1 X134.307 Y19.979
G3 X135.918 Y19.74 I1.444 J4.181
G1 X135.937 Y19.741
G3 X137.561 Y20.109 I-0.171 J4.519
G1 X137.577 Y20.116
G3 X138.987 Y21.066 I-1.832 J4.24
G1 X139.098 Y21.176
G3 X140.487 Y24.654 I-3.277 J3.325
G1 X140.483 Y24.745
G3 X140.37 Y25.598 I-5.012 J-0.233
X139.873 Y26.854 I-4.168 J-0.923
G1 X139.865 Y26.867
G3 X130.248 Y26.294 I-4.661 J-2.766
G1 X130.243 Y26.284
G3 X129.768 Y24.259 I5.148 J-2.278
G1 X129.767 Y24.241
G3 X130.064 Y22.146 I5.721 J-0.257
G1 X130.07 Y22.129
G3 X131.125 Y20.253 I5.515 J1.869
G1 X131.138 Y20.237
G3 X132.828 Y18.852 I4.542 J3.814
G1 X132.841 Y18.844
G3 X134.94 Y18.156 I2.89 J5.269
G1 X134.959 Y18.153
G3 X137.204 Y18.272 I0.805 J6.062
G1 X137.221 Y18.276
G3 X139.304 Y19.213 I-1.462 J6.036
G1 X139.377 Y19.263
G3 X142.112 Y24.252 I-3.643 J5.242
G1 X142.113 Y24.262
G3 X141.173 Y27.889 I-6.474 J0.257
X139.69 Y29.594 I-5.741 J-3.495
G1 X139.639 Y29.636
G3 X132.363 Y30.6 I-4.417 J-5.394
X130.219 Y29.11 I2.891 J-6.449
G1 X130.204 Y29.095
G3 X128.723 Y26.893 I5.118 J-5.041
G1 X128.717 Y26.878
G3 X128.129 Y24.259 I6.677 J-2.873
G1 Y24.241
G3 X128.537 Y21.552 I7.362 J-0.257
G1 X128.543 Y21.535
G3 X129.918 Y19.146 I7.044 J2.464
G1 X129.931 Y19.131
G3 X132.103 Y17.382 I5.753 J4.923
G1 X132.115 Y17.376
G3 X134.792 Y16.524 I3.617 J6.738
G1 X134.812 Y16.522
G3 X137.655 Y16.697 I0.953 J7.696
G1 X137.673 Y16.701
G3 X140.293 Y17.906 I-1.914 J7.614
G1 X140.362 Y17.955
G3 X142.561 Y28.773 I-4.655 J6.579
G1 X142.464 Y28.93
G3 X133.931 Y32.869 I-7.243 J-4.479
G1 X133.91 Y32.865
G3 X132.343 Y32.475 I1.327 J-8.656
X130.863 Y31.797 I2.906 J-8.313
X129.524 Y30.854 I4.402 J-7.669
X128.366 Y29.664 I5.783 J-6.785
X127.447 Y28.279 I6.967 J-5.621
X126.795 Y26.738 I7.927 J-4.263
X126.437 Y25.095 I8.625 J-2.742
X126.387 Y23.405 I9.031 J-1.109
X126.652 Y21.726 I9.13 J0.58
X127.226 Y20.115 I8.913 J2.267
X128.091 Y18.631 I8.386 J3.894
X129.221 Y17.325 I7.563 J5.403
X130.579 Y16.244 I6.48 J6.75
X132.11 Y15.434 I5.137 J7.85
X133.778 Y14.913 I3.635 J8.714
X135.52 Y14.707 I1.982 J9.281
G1 X135.765 Y14.704
G3 X137.28 Y14.825 I0 J9.539
X138.997 Y15.266 I-1.518 J9.467
X140.611 Y16.019 I-3.247 J9.074
X142.068 Y17.06 I-4.882 J8.365
X143.314 Y18.358 I-6.367 J7.364
X144.306 Y19.87 I-7.652 J6.103
X145.008 Y21.548 I-8.703 J4.624
X145.391 Y23.334 I-9.451 J2.96
G1 X145.5 Y24.25
G3 X125.5 Y24.25 I-10 J0
X145.5 Y24.25 I10 J0
X143.377 Y25.492 Z-15.14 I-1.425 J0 F333.3
G1 X136.461 Y21.607 Z-17.518
G2 X135.065 Y24.092 Z-18.861 I-0.698 J1.242
X135.5 Y24.25 Z-19 I0.698 J-1.242
G1 X135.542 Y24.258 F1000
X135.577 Y24.27
X135.607 Y24.292
X135.63 Y24.322
X135.642 Y24.357
X135.644 Y24.394
X135.639 Y24.44
X135.629 Y24.486
X135.609 Y24.528
X135.58 Y24.565
X135.548 Y24.599
X135.502 Y24.638
X135.451 Y24.669
X135.395 Y24.69
X135.336 Y24.702
X135.3 Y24.705
G3 X135.021 Y24.642 I-0.046 J-0.445
G1 X134.979 Y24.616
G3 X134.74 Y24.34 I0.311 J-0.509
G1 X134.723 Y24.299
G3 X134.678 Y23.862 I0.681 J-0.289
G1 X134.687 Y23.818
G3 X134.932 Y23.365 I0.869 J0.176
G1 X134.963 Y23.334
G3 X135.483 Y23.055 I0.727 J0.732
G1 X135.525 Y23.047
G3 X136.188 Y23.104 I0.235 J1.152
G1 X136.302 Y23.148
G3 X137.115 Y24.039 I-0.497 J1.272
G1 X137.119 Y24.052
G3 X136.824 Y25.466 I-1.478 J0.43
G1 X136.787 Y25.511
G3 X133.729 Y25.611 I-1.574 J-1.311
G1 X133.706 Y25.588
G3 X133.136 Y24.488 I1.615 J-1.535
G1 X133.128 Y24.449
G3 X133.239 Y23.142 I2.319 J-0.462
G1 X133.254 Y23.103
G3 X134.09 Y21.994 I2.345 J0.897
G1 X134.122 Y21.97
G3 X135.487 Y21.447 I1.593 J2.118
G1 X135.527 Y21.444
G3 X137.036 Y21.738 I0.24 J2.782
G1 X137.224 Y21.834
G3 X138.792 Y23.99 I-1.336 J2.62
X138.15 Y26.476 I-3.171 J0.507
G1 X138.126 Y26.507
G3 X133.183 Y27.329 I-2.92 J-2.285
X132.152 Y26.344 I2.095 J-3.224
G1 X132.141 Y26.329
G3 X131.525 Y25.004 I3.206 J-2.296
G1 X131.521 Y24.987
G3 X131.427 Y23.495 I3.913 J-0.995
G1 X131.429 Y23.477
G3 X131.896 Y22.019 I4.104 J0.509
G1 X131.904 Y22.003
G3 X132.891 Y20.787 I3.725 J2.014
G1 X132.904 Y20.775
G3 X134.291 Y19.985 I2.8 J3.302
G1 X134.307 Y19.979
G3 X135.918 Y19.74 I1.444 J4.181
G1 X135.937 Y19.741
G3 X137.561 Y20.109 I-0.171 J4.519
G1 X137.577 Y20.116
G3 X138.987 Y21.066 I-1.832 J4.24
G1 X139.098 Y21.176
G3 X140.487 Y24.654 I-3.277 J3.325
G1 X140.483 Y24.745
G3 X140.37 Y25.598 I-5.012 J-0.233
X139.873 Y26.854 I-4.168 J-0.923
G1 X139.865 Y26.867
G3 X130.248 Y26.294 I-4.661 J-2.766
G1 X130.243 Y26.284
G3 X129.768 Y24.259 I5.148 J-2.278
G1 X129.767 Y24.241
G3 X130.064 Y22.146 I5.721 J-0.257
G1 X130.07 Y22.129
G3 X131.125 Y20.253 I5.515 J1.869
G1 X131.138 Y20.237
G3 X132.828 Y18.852 I4.542 J3.814
G1 X132.841 Y18.844
G3 X134.94 Y18.156 I2.89 J5.269
G1 X134.959 Y18.153
G3 X137.204 Y18.272 I0.805 J6.062
G1 X137.221 Y18.276
G3 X139.304 Y19.213 I-1.462 J6.036
G1 X139.377 Y19.263
G3 X142.112 Y24.252 I-3.643 J5.242
G1 X142.113 Y24.262
G3 X141.173 Y27.889 I-6.474 J0.257
X139.69 Y29.594 I-5.741 J-3.495
G1 X139.639 Y29.636
G3 X132.363 Y30.6 I-4.417 J-5.394
X130.219 Y29.11 I2.891 J-6.449
G1 X130.204 Y29.095
G3 X128.723 Y26.893 I5.118 J-5.041
G1 X128.717 Y26.878
G3 X128.129 Y24.259 I6.677 J-2.873
G1 Y24.241
G3 X128.537 Y21.552 I7.362 J-0.257
G1 X128.543 Y21.535
G3 X129.918 Y19.146 I7.044 J2.464
G1 X129.931 Y19.131
G3 X132.103 Y17.382 I5.753 J4.923
G1 X132.115 Y17.376
G3 X134.792 Y16.524 I3.617 J6.738
G1 X134.812 Y16.522
G3 X137.655 Y16.697 I0.953 J7.696
G1 X137.673 Y16.701
G3 X140.293 Y17.906 I-1.914 J7.614
G1 X140.362 Y17.955
G3 X142.561 Y28.773 I-4.655 J6.579
G1 X142.464 Y28.93
G3 X133.931 Y32.869 I-7.243 J-4.479
G1 X133.91 Y32.865
G3 X132.343 Y32.475 I1.327 J-8.656
X130.863 Y31.797 I2.906 J-8.313
X129.524 Y30.854 I4.402 J-7.669
X128.366 Y29.664 I5.783 J-6.785
X127.447 Y28.279 I6.967 J-5.621
X126.795 Y26.738 I7.927 J-4.263
X126.437 Y25.095 I8.625 J-2.742
X126.387 Y23.405 I9.031 J-1.109
X126.652 Y21.726 I9.13 J0.58
X127.226 Y20.115 I8.913 J2.267
X128.091 Y18.631 I8.386 J3.894
X129.221 Y17.325 I7.563 J5.403
X130.579 Y16.244 I6.48 J6.75
X132.11 Y15.434 I5.137 J7.85
X133.778 Y14.913 I3.635 J8.714
X135.52 Y14.707 I1.982 J9.281
G1 X135.765 Y14.704
G3 X137.28 Y14.825 I0 J9.539
X138.997 Y15.266 I-1.518 J9.467
X140.611 Y16.019 I-3.247 J9.074
X142.068 Y17.06 I-4.882 J8.365
X143.314 Y18.358 I-6.367 J7.364
X144.306 Y19.87 I-7.652 J6.103
X145.008 Y21.548 I-8.703 J4.624
X145.391 Y23.334 I-9.451 J2.96
G1 X145.5 Y24.25
G3 X125.5 Y24.25 I-10 J0
X145.5 Y24.25 I10 J0
G1 X145.495 Y24.307 Z-18.989
X145.478 Y24.362 Z-18.977
X145.457 Y24.405 Z-18.945
X145.428 Y24.445 Z-18.912
X145.381 Y24.489 Z-18.815
X145.362 Y24.502 Z-18.7
G0 Z15

(2D Contour17)
X0.7 Y107.4
Z15
Z5
G1 Z-6.2 F333.3
G19 G2 Y107.1 Z-6.5 J-0.3 K0 F1000
G1 Y106.8
G17 G3 X1 Y106.5 I0.3 J0
G1 X110.25
G2 X111.75 Y105 I0 J-1.5
G1 Y55.394
X159.25
Y105
G2 X160.75 Y106.5 I1.5 J0
G1 X270
G2 X271.5 Y105 I0 J-1.5
G1 Y1
G2 X270 Y-0.5 I-1.5 J0
G1 X1
G2 X-0.5 Y1 I0 J1.5
G1 Y105
G2 X1 Y106.5 I1.5 J0
G3 X1.3 Y106.8 I0 J0.3
G1 Y107.1
G19 G3 Y107.4 Z-6.2 J0 K0.3
G1 X0.7
Z-12.7 F333.3
G2 Y107.1 Z-13 J-0.3 K0 F1000
G1 Y106.8
G17 G3 X1 Y106.5 I0.3 J0
G1 X110.25
G2 X111.75 Y105 I0 J-1.5
G1 Y55.394
X159.25
Y105
G2 X160.75 Y106.5 I1.5 J0
G1 X270
G2 X271.5 Y105 I0 J-1.5
G1 Y1
G2 X270 Y-0.5 I-1.5 J0
G1 X1
G2 X-0.5 Y1 I0 J1.5
G1 Y105
G2 X1 Y106.5 I1.5 J0
G3 X1.3 Y106.8 I0 J0.3
G1 Y107.1
G19 G3 Y107.4 Z-12.7 J0 K0.3
G1 X0.7
Z-18.7 F333.3
G2 Y107.1 Z-19 J-0.3 K0 F1000
G1 Y106.8
G17 G3 X1 Y106.5 I0.3 J0
G1 X110.25
G2 X111.75 Y105 I0 J-1.5
G1 Y55.394
X159.25
Y105
G2 X160.75 Y106.5 I1.5 J0
G1 X270
G2 X271.5 Y105 I0 J-1.5
G1 Y1
G2 X270 Y-0.5 I-1.5 J0
G1 X1
G2 X-0.5 Y1 I0 J1.5
G1 Y105
G2 X1 Y106.5 I1.5 J0
G3 X1.3 Y106.8 I0 J0.3
G1 Y107.1
G19 G3 Y107.4 Z-18.7 J0 K0.3
G0 Z15
G17
M9
M5
M30
