(TinyCNCBottomBarBack)
(T3  D=3 CR=0 - ZMIN=-19 - flat end mill)
G90 G94
G17
G21

(2D Pocket19)
T3
S5000 M3
G54
M8
G0 X24.445 Y139.438
Z15
Z5
G1 Z-4.45 F333.3
G19 G3 Y139.738 Z-4.75 J0.3 K0 F1000
G1 Y144.514
Y270.392
G17 G3 X24.245 Y270.592 I-0.2 J0
G1 X22.255 Y270.597
G3 X22.055 Y270.397 I0 J-0.2
G1 Y144.502
G3 X22.237 Y144.303 I0.2 J0
G1 X25.927 Y143.961
G3 X26.145 Y144.16 I0.018 J0.199
G1 Y270.392
G3 X25.945 Y270.592 I-0.2 J0
G1 X20.555 Y270.597
G3 X20.355 Y270.397 I0 J-0.2
G1 Y144.166
G3 X20.535 Y143.967 I0.2 J0
G1 X27.625 Y143.271
G3 X27.845 Y143.47 I0.02 J0.199
G1 Y270.392
G3 X27.645 Y270.592 I-0.2 J0
G1 X18.855 Y270.598
G3 X18.655 Y270.398 I0 J-0.2
G1 Y143.476
G3 X18.834 Y143.277 I0.2 J0
G1 X29.324 Y142.16
G3 X29.545 Y142.359 I0.021 J0.199
G1 Y270.391
G3 X29.345 Y270.591 I-0.2 J0
G1 X17.155 Y270.598
G3 X16.955 Y270.398 I0 J-0.2
G1 Y142.349
G3 X17.13 Y142.15 I0.2 J0
G1 X31.025 Y140.417
G3 X31.25 Y140.616 I0.025 J0.198
G1 Y270.397
G3 X31.05 Y270.597 I-0.2 J0
G1 X15.45 Y270.586
G3 X15.25 Y270.386 I0 J-0.2
G1 Y140.981
Y140.611
G3 X15.52 Y140.423 I0.2 J0
G1 X24.315 Y143.703
X24.358 Y143.726
X24.394 Y143.758
X24.422 Y143.797
X24.439 Y143.843
X24.445 Y143.891
G19 G2 Y144.191 Z-5.05 J0 K-0.3
G1 Z-9.2
G3 Y144.491 Z-9.5 J0.3 K0
G1 Y144.514
Y270.392
G17 G3 X24.245 Y270.592 I-0.2 J0
G1 X22.255 Y270.597
G3 X22.055 Y270.397 I0 J-0.2
G1 Y144.502
G3 X22.237 Y144.303 I0.2 J0
G1 X25.927 Y143.961
G3 X26.145 Y144.16 I0.018 J0.199
G1 Y270.392
G3 X25.945 Y270.592 I-0.2 J0
G1 X20.555 Y270.597
G3 X20.355 Y270.397 I0 J-0.2
G1 Y144.166
G3 X20.535 Y143.967 I0.2 J0
G1 X27.625 Y143.271
G3 X27.845 Y143.47 I0.02 J0.199
G1 Y270.392
G3 X27.645 Y270.592 I-0.2 J0
G1 X18.855 Y270.598
G3 X18.655 Y270.398 I0 J-0.2
G1 Y143.476
G3 X18.834 Y143.277 I0.2 J0
G1 X29.324 Y142.16
G3 X29.545 Y142.359 I0.021 J0.199
G1 Y270.391
G3 X29.345 Y270.591 I-0.2 J0
G1 X17.155 Y270.598
G3 X16.955 Y270.398 I0 J-0.2
G1 Y142.349
G3 X17.13 Y142.15 I0.2 J0
G1 X31.025 Y140.417
G3 X31.25 Y140.616 I0.025 J0.198
G1 Y270.397
G3 X31.05 Y270.597 I-0.2 J0
G1 X15.45 Y270.586
G3 X15.25 Y270.386 I0 J-0.2
G1 Y140.981
Y140.611
X15.254 Y140.564
X15.488 Y139.082
X15.499 Y139.016 Z-9.492
X15.509 Y138.954 Z-9.47
X15.518 Y138.898 Z-9.435
X15.525 Y138.851 Z-9.387
X15.531 Y138.815 Z-9.33
X15.534 Y138.793 Z-9.267
X15.535 Y138.786 Z-9.2
G0 Z15
X22.055 Y129.582
Z5
G1 Z-4.45 F333.3
G19 G2 Y129.282 Z-4.75 J-0.3 K0 F1000
G1 Y124.486
Y-1.392
G17 G3 X22.254 Y-1.592 I0.2 J0
G1 X24.244 Y-1.597
G3 X24.445 Y-1.397 I0.001 J0.2
G1 Y124.498
G3 X24.263 Y124.697 I-0.2 J0
G1 X20.573 Y125.039
G3 X20.355 Y124.84 I-0.018 J-0.199
G1 Y-1.392
G3 X20.555 Y-1.592 I0.2 J0
G1 X25.945 Y-1.597
G3 X26.145 Y-1.397 I0 J0.2
G1 Y124.834
G3 X25.965 Y125.033 I-0.2 J0
G1 X18.875 Y125.729
G3 X18.655 Y125.53 I-0.02 J-0.199
G1 Y-1.391
G3 X18.855 Y-1.591 I0.2 J0
G1 X27.645 Y-1.598
G3 X27.845 Y-1.398 I0 J0.2
G1 Y125.524
G3 X27.666 Y125.723 I-0.2 J0
G1 X17.176 Y126.84
G3 X16.955 Y126.641 I-0.021 J-0.199
G1 Y-1.391
G3 X17.155 Y-1.591 I0.2 J0
G1 X29.345 Y-1.598
G3 X29.545 Y-1.398 I0 J0.2
G1 Y126.651
G3 X29.37 Y126.85 I-0.2 J0
G1 X15.475 Y128.583
G3 X15.25 Y128.384 I-0.025 J-0.198
G1 Y-1.397
G3 X15.45 Y-1.597 I0.2 J0
G1 X31.05 Y-1.586
G3 X31.25 Y-1.386 I0 J0.2
G1 Y128.019
Y128.389
G3 X30.98 Y128.577 I-0.2 J0
G1 X22.185 Y125.297
X22.142 Y125.275
X22.106 Y125.243
X22.078 Y125.203
X22.061 Y125.158
X22.055 Y125.11
G19 G3 Y124.81 Z-5.05 J0 K-0.3
G1 Z-9.2
G2 Y124.51 Z-9.5 J-0.3 K0
G1 Y124.486
Y-1.392
G17 G3 X22.254 Y-1.592 I0.2 J0
G1 X24.244 Y-1.597
G3 X24.445 Y-1.397 I0.001 J0.2
G1 Y124.498
G3 X24.263 Y124.697 I-0.2 J0
G1 X20.573 Y125.039
G3 X20.355 Y124.84 I-0.018 J-0.199
G1 Y-1.392
G3 X20.555 Y-1.592 I0.2 J0
G1 X25.945 Y-1.597
G3 X26.145 Y-1.397 I0 J0.2
G1 Y124.834
G3 X25.965 Y125.033 I-0.2 J0
G1 X18.875 Y125.729
G3 X18.655 Y125.53 I-0.02 J-0.199
G1 Y-1.391
G3 X18.855 Y-1.591 I0.2 J0
G1 X27.645 Y-1.598
G3 X27.845 Y-1.398 I0 J0.2
G1 Y125.524
G3 X27.666 Y125.723 I-0.2 J0
G1 X17.176 Y126.84
G3 X16.955 Y126.641 I-0.021 J-0.199
G1 Y-1.391
G3 X17.155 Y-1.591 I0.2 J0
G1 X29.345 Y-1.598
G3 X29.545 Y-1.398 I0 J0.2
G1 Y126.651
G3 X29.37 Y126.85 I-0.2 J0
G1 X15.475 Y128.583
G3 X15.25 Y128.384 I-0.025 J-0.198
G1 Y-1.397
G3 X15.45 Y-1.597 I0.2 J0
G1 X31.05 Y-1.586
G3 X31.25 Y-1.386 I0 J0.2
G1 Y128.019
Y128.389
X31.246 Y128.436
X31.012 Y129.918
X31.001 Y129.984 Z-9.492
X30.991 Y130.046 Z-9.47
X30.982 Y130.102 Z-9.435
X30.975 Y130.149 Z-9.387
X30.969 Y130.185 Z-9.33
X30.966 Y130.207 Z-9.267
X30.965 Y130.214 Z-9.2
G0 Z15

(Circular5)
X8.05 Y119.25
Z15
Z-2
G1 Z-3.7 F1000
G19 G3 Y119.55 Z-4 J0.3 K0
G1 Y119.7
G17 G3 X7.75 Y120 I-0.3 J0
X7.75 Y118 I0 J-1
X7.75 Y120 I0 J1
X7.45 Y119.7 I0 J-0.3
G1 Y119.55
G19 G2 Y119.25 Z-3.7 J0 K0.3
G0 Z5
X8.05
Z-6
G1 Z-7.7 F1000
G3 Y119.55 Z-8 J0.3 K0
G1 Y119.7
G17 G3 X7.75 Y120 I-0.3 J0
X7.75 Y118 I0 J-1
X7.75 Y120 I0 J1
X7.45 Y119.7 I0 J-0.3
G1 Y119.55
G19 G2 Y119.25 Z-7.7 J0 K0.3
G0 Z5
X8.05
Z-10
G1 Z-11.7 F1000
G3 Y119.55 Z-12 J0.3 K0
G1 Y119.7
G17 G3 X7.75 Y120 I-0.3 J0
X7.75 Y118 I0 J-1
X7.75 Y120 I0 J1
X7.45 Y119.7 I0 J-0.3
G1 Y119.55
G19 G2 Y119.25 Z-11.7 J0 K0.3
G0 Z5
X8.05
Z-13.5
G1 Z-15.2 F1000
G3 Y119.55 Z-15.5 J0.3 K0
G1 Y119.7
G17 G3 X7.75 Y120 I-0.3 J0
X7.75 Y118 I0 J-1
X7.75 Y120 I0 J1
X7.45 Y119.7 I0 J-0.3
G1 Y119.55
G19 G2 Y119.25 Z-15.2 J0 K0.3
G0 Z5
X8.05
Z-17
G1 Z-18.7 F1000
G3 Y119.55 Z-19 J0.3 K0
G1 Y119.7
G17 G3 X7.75 Y120 I-0.3 J0
X7.75 Y118 I0 J-1
X7.75 Y120 I0 J1
X7.45 Y119.7 I0 J-0.3
G1 Y119.55
G19 G2 Y119.25 Z-18.7 J0 K0.3
G0 Z5
X39.05
Z-2
G1 Z-3.7 F1000
G3 Y119.55 Z-4 J0.3 K0
G1 Y119.7
G17 G3 X38.75 Y120 I-0.3 J0
X38.75 Y118 I0 J-1
X38.75 Y120 I0 J1
X38.45 Y119.7 I0 J-0.3
G1 Y119.55
G19 G2 Y119.25 Z-3.7 J0 K0.3
G0 Z5
X39.05
Z-6
G1 Z-7.7 F1000
G3 Y119.55 Z-8 J0.3 K0
G1 Y119.7
G17 G3 X38.75 Y120 I-0.3 J0
X38.75 Y118 I0 J-1
X38.75 Y120 I0 J1
X38.45 Y119.7 I0 J-0.3
G1 Y119.55
G19 G2 Y119.25 Z-7.7 J0 K0.3
G0 Z5
X39.05
Z-10
G1 Z-11.7 F1000
G3 Y119.55 Z-12 J0.3 K0
G1 Y119.7
G17 G3 X38.75 Y120 I-0.3 J0
X38.75 Y118 I0 J-1
X38.75 Y120 I0 J1
X38.45 Y119.7 I0 J-0.3
G1 Y119.55
G19 G2 Y119.25 Z-11.7 J0 K0.3
G0 Z5
X39.05
Z-13.5
G1 Z-15.2 F1000
G3 Y119.55 Z-15.5 J0.3 K0
G1 Y119.7
G17 G3 X38.75 Y120 I-0.3 J0
X38.75 Y118 I0 J-1
X38.75 Y120 I0 J1
X38.45 Y119.7 I0 J-0.3
G1 Y119.55
G19 G2 Y119.25 Z-15.2 J0 K0.3
G0 Z5
X39.05
Z-17
G1 Z-18.7 F1000
G3 Y119.55 Z-19 J0.3 K0
G1 Y119.7
G17 G3 X38.75 Y120 I-0.3 J0
X38.75 Y118 I0 J-1
X38.75 Y120 I0 J1
X38.45 Y119.7 I0 J-0.3
G1 Y119.55
G19 G2 Y119.25 Z-18.7 J0 K0.3
G0 Z5
X39.05 Y150.25
Z-2
G1 Z-3.7 F1000
G3 Y150.55 Z-4 J0.3 K0
G1 Y150.7
G17 G3 X38.75 Y151 I-0.3 J0
X38.75 Y149 I0 J-1
X38.75 Y151 I0 J1
X38.45 Y150.7 I0 J-0.3
G1 Y150.55
G19 G2 Y150.25 Z-3.7 J0 K0.3
G0 Z5
X39.05
Z-6
G1 Z-7.7 F1000
G3 Y150.55 Z-8 J0.3 K0
G1 Y150.7
G17 G3 X38.75 Y151 I-0.3 J0
X38.75 Y149 I0 J-1
X38.75 Y151 I0 J1
X38.45 Y150.7 I0 J-0.3
G1 Y150.55
G19 G2 Y150.25 Z-7.7 J0 K0.3
G0 Z5
X39.05
Z-10
G1 Z-11.7 F1000
G3 Y150.55 Z-12 J0.3 K0
G1 Y150.7
G17 G3 X38.75 Y151 I-0.3 J0
X38.75 Y149 I0 J-1
X38.75 Y151 I0 J1
X38.45 Y150.7 I0 J-0.3
G1 Y150.55
G19 G2 Y150.25 Z-11.7 J0 K0.3
G0 Z5
X39.05
Z-13.5
G1 Z-15.2 F1000
G3 Y150.55 Z-15.5 J0.3 K0
G1 Y150.7
G17 G3 X38.75 Y151 I-0.3 J0
X38.75 Y149 I0 J-1
X38.75 Y151 I0 J1
X38.45 Y150.7 I0 J-0.3
G1 Y150.55
G19 G2 Y150.25 Z-15.2 J0 K0.3
G0 Z5
X39.05
Z-17
G1 Z-18.7 F1000
G3 Y150.55 Z-19 J0.3 K0
G1 Y150.7
G17 G3 X38.75 Y151 I-0.3 J0
X38.75 Y149 I0 J-1
X38.75 Y151 I0 J1
X38.45 Y150.7 I0 J-0.3
G1 Y150.55
G19 G2 Y150.25 Z-18.7 J0 K0.3
G0 Z5
X8.05
Z-2
G1 Z-3.7 F1000
G3 Y150.55 Z-4 J0.3 K0
G1 Y150.7
G17 G3 X7.75 Y151 I-0.3 J0
X7.75 Y149 I0 J-1
X7.75 Y151 I0 J1
X7.45 Y150.7 I0 J-0.3
G1 Y150.55
G19 G2 Y150.25 Z-3.7 J0 K0.3
G0 Z5
X8.05
Z-6
G1 Z-7.7 F1000
G3 Y150.55 Z-8 J0.3 K0
G1 Y150.7
G17 G3 X7.75 Y151 I-0.3 J0
X7.75 Y149 I0 J-1
X7.75 Y151 I0 J1
X7.45 Y150.7 I0 J-0.3
G1 Y150.55
G19 G2 Y150.25 Z-7.7 J0 K0.3
G0 Z5
X8.05
Z-10
G1 Z-11.7 F1000
G3 Y150.55 Z-12 J0.3 K0
G1 Y150.7
G17 G3 X7.75 Y151 I-0.3 J0
X7.75 Y149 I0 J-1
X7.75 Y151 I0 J1
X7.45 Y150.7 I0 J-0.3
G1 Y150.55
G19 G2 Y150.25 Z-11.7 J0 K0.3
G0 Z5
X8.05
Z-13.5
G1 Z-15.2 F1000
G3 Y150.55 Z-15.5 J0.3 K0
G1 Y150.7
G17 G3 X7.75 Y151 I-0.3 J0
X7.75 Y149 I0 J-1
X7.75 Y151 I0 J1
X7.45 Y150.7 I0 J-0.3
G1 Y150.55
G19 G2 Y150.25 Z-15.2 J0 K0.3
G0 Z5
X8.05
Z-17
G1 Z-18.7 F1000
G3 Y150.55 Z-19 J0.3 K0
G1 Y150.7
G17 G3 X7.75 Y151 I-0.3 J0
X7.75 Y149 I0 J-1
X7.75 Y151 I0 J1
X7.45 Y150.7 I0 J-0.3
G1 Y150.55
G19 G2 Y150.25 Z-18.7 J0 K0.3
G0 Z15
G17

(2D Contour13)
G0 X30.936 Y139.381
Z15
Z5
G1 Z-6.2 F333.3
X30.943 Y139.385 Z-6.267 F1000
X30.961 Y139.397 Z-6.33
X30.991 Y139.418 Z-6.387
X31.03 Y139.444 Z-6.435
X31.077 Y139.476 Z-6.47
X31.129 Y139.512 Z-6.492
X31.184 Y139.55 Z-6.5
X31.432 Y139.719
G3 X31.511 Y140.136 I-0.169 J0.248
X14.989 Y128.864 I-8.261 J-5.636
X31.511 Y128.864 I8.261 J5.636
G2 X32.939 Y129.507 I1.239 J-0.845
G1 X52.449 Y127.03
G2 X62.5 Y115.622 I-1.448 J-11.408
G1 Y71.193
G3 X71 Y62.693 I8.5 J0
G2 X82.5 Y51.193 I0 J-11.5
G1 Y0
G2 X81 Y-1.5 I-1.5 J0
G1 X0
G2 X-1.5 Y0 I0 J1.5
G1 Y269
G2 X0 Y270.5 I1.5 J0
G1 X81
G2 X82.5 Y269 I0 J-1.5
G1 Y217.807
G2 X71 Y206.307 I-11.5 J0
G3 X62.5 Y197.807 I0 J-8.5
G1 Y153.378
G2 X52.449 Y141.97 I-11.5 J0
G1 X32.939 Y139.493
G2 X31.511 Y140.136 I-0.189 J1.488
G3 X31.094 Y140.214 I-0.248 J-0.169
G1 X30.846 Y140.045
X30.791 Y140.008 Z-6.492
X30.739 Y139.972 Z-6.47
X30.692 Y139.94 Z-6.435
X30.652 Y139.913 Z-6.387
X30.623 Y139.893 Z-6.33
X30.605 Y139.881 Z-6.267
X30.598 Y139.876 Z-6.2
X30.936 Y139.381
Z-12.7 F333.3
X30.943 Y139.385 Z-12.767 F1000
X30.961 Y139.397 Z-12.83
X30.991 Y139.418 Z-12.887
X31.03 Y139.444 Z-12.935
X31.077 Y139.476 Z-12.97
X31.129 Y139.512 Z-12.992
X31.184 Y139.55 Z-13
X31.432 Y139.719
G3 X31.511 Y140.136 I-0.169 J0.248
X14.989 Y128.864 I-8.261 J-5.636
X31.511 Y128.864 I8.261 J5.636
G2 X32.939 Y129.507 I1.239 J-0.845
G1 X52.449 Y127.03
G2 X62.5 Y115.622 I-1.448 J-11.408
G1 Y71.193
G3 X71 Y62.693 I8.5 J0
G2 X82.5 Y51.193 I0 J-11.5
G1 Y0
G2 X81 Y-1.5 I-1.5 J0
G1 X0
G2 X-1.5 Y0 I0 J1.5
G1 Y269
G2 X0 Y270.5 I1.5 J0
G1 X81
G2 X82.5 Y269 I0 J-1.5
G1 Y217.807
G2 X71 Y206.307 I-11.5 J0
G3 X62.5 Y197.807 I0 J-8.5
G1 Y153.378
G2 X52.449 Y141.97 I-11.5 J0
G1 X32.939 Y139.493
G2 X31.511 Y140.136 I-0.189 J1.488
G3 X31.094 Y140.214 I-0.248 J-0.169
G1 X30.846 Y140.045
X30.791 Y140.008 Z-12.992
X30.739 Y139.972 Z-12.97
X30.692 Y139.94 Z-12.935
X30.652 Y139.913 Z-12.887
X30.623 Y139.893 Z-12.83
X30.605 Y139.881 Z-12.767
X30.598 Y139.876 Z-12.7
X30.936 Y139.381
Z-18.7 F333.3
X30.943 Y139.385 Z-18.767 F1000
X30.961 Y139.397 Z-18.83
X30.991 Y139.418 Z-18.887
X31.03 Y139.444 Z-18.935
X31.077 Y139.476 Z-18.97
X31.129 Y139.512 Z-18.992
X31.184 Y139.55 Z-19
X31.432 Y139.719
G3 X31.511 Y140.136 I-0.169 J0.248
X14.989 Y128.864 I-8.261 J-5.636
X31.511 Y128.864 I8.261 J5.636
G2 X32.939 Y129.507 I1.239 J-0.845
G1 X52.449 Y127.03
G2 X62.5 Y115.622 I-1.448 J-11.408
G1 Y71.193
G3 X71 Y62.693 I8.5 J0
G2 X82.5 Y51.193 I0 J-11.5
G1 Y0
G2 X81 Y-1.5 I-1.5 J0
G1 X0
G2 X-1.5 Y0 I0 J1.5
G1 Y269
G2 X0 Y270.5 I1.5 J0
G1 X81
G2 X82.5 Y269 I0 J-1.5
G1 Y217.807
G2 X71 Y206.307 I-11.5 J0
G3 X62.5 Y197.807 I0 J-8.5
G1 Y153.378
G2 X52.449 Y141.97 I-11.5 J0
G1 X32.939 Y139.493
G2 X31.511 Y140.136 I-0.189 J1.488
G3 X31.094 Y140.214 I-0.248 J-0.169
G1 X30.846 Y140.045
X30.791 Y140.008 Z-18.992
X30.739 Y139.972 Z-18.97
X30.692 Y139.94 Z-18.935
X30.652 Y139.913 Z-18.887
X30.623 Y139.893 Z-18.83
X30.605 Y139.881 Z-18.767
X30.598 Y139.876 Z-18.7
G0 Z15
M9
M5
M30
