(TinyCNCStepperFlansch)
(T3  D=3 CR=0 - ZMIN=-19 - flat end mill)
G90 G94
G17
G21

(Circular2)
T3
S5000 M3
G54
M8
G0 X37 Y5.45
Z15
Z-2
G1 Z-3.7 F1000
G18 G2 X37.3 Z-4 I0.3 K0
G1 X37.45
G17 G3 X37.75 Y5.75 I0 J0.3
X35.75 Y5.75 I-1 J0
X37.75 Y5.75 I1 J0
X37.45 Y6.05 I-0.3 J0
G1 X37.3
G18 G3 X37 Z-3.7 I0 K0.3
G0 Z5
Y5.45
Z-6
G1 Z-7.7 F1000
G2 X37.3 Z-8 I0.3 K0
G1 X37.45
G17 G3 X37.75 Y5.75 I0 J0.3
X35.75 Y5.75 I-1 J0
X37.75 Y5.75 I1 J0
X37.45 Y6.05 I-0.3 J0
G1 X37.3
G18 G3 X37 Z-7.7 I0 K0.3
G0 Z5
Y5.45
Z-10
G1 Z-11.7 F1000
G2 X37.3 Z-12 I0.3 K0
G1 X37.45
G17 G3 X37.75 Y5.75 I0 J0.3
X35.75 Y5.75 I-1 J0
X37.75 Y5.75 I1 J0
X37.45 Y6.05 I-0.3 J0
G1 X37.3
G18 G3 X37 Z-11.7 I0 K0.3
G0 Z5
Y5.45
Z-13.5
G1 Z-15.2 F1000
G2 X37.3 Z-15.5 I0.3 K0
G1 X37.45
G17 G3 X37.75 Y5.75 I0 J0.3
X35.75 Y5.75 I-1 J0
X37.75 Y5.75 I1 J0
X37.45 Y6.05 I-0.3 J0
G1 X37.3
G18 G3 X37 Z-15.2 I0 K0.3
G0 Z5
Y5.45
Z-17
G1 Z-18.7 F1000
G2 X37.3 Z-19 I0.3 K0
G1 X37.45
G17 G3 X37.75 Y5.75 I0 J0.3
X35.75 Y5.75 I-1 J0
X37.75 Y5.75 I1 J0
X37.45 Y6.05 I-0.3 J0
G1 X37.3
G18 G3 X37 Z-18.7 I0 K0.3
G0 Z5
X6 Y5.45
Z-2
G1 Z-3.7 F1000
G2 X6.3 Z-4 I0.3 K0
G1 X6.45
G17 G3 X6.75 Y5.75 I0 J0.3
X4.75 Y5.75 I-1 J0
X6.75 Y5.75 I1 J0
X6.45 Y6.05 I-0.3 J0
G1 X6.3
G18 G3 X6 Z-3.7 I0 K0.3
G0 Z5
Y5.45
Z-6
G1 Z-7.7 F1000
G2 X6.3 Z-8 I0.3 K0
G1 X6.45
G17 G3 X6.75 Y5.75 I0 J0.3
X4.75 Y5.75 I-1 J0
X6.75 Y5.75 I1 J0
X6.45 Y6.05 I-0.3 J0
G1 X6.3
G18 G3 X6 Z-7.7 I0 K0.3
G0 Z5
Y5.45
Z-10
G1 Z-11.7 F1000
G2 X6.3 Z-12 I0.3 K0
G1 X6.45
G17 G3 X6.75 Y5.75 I0 J0.3
X4.75 Y5.75 I-1 J0
X6.75 Y5.75 I1 J0
X6.45 Y6.05 I-0.3 J0
G1 X6.3
G18 G3 X6 Z-11.7 I0 K0.3
G0 Z5
Y5.45
Z-13.5
G1 Z-15.2 F1000
G2 X6.3 Z-15.5 I0.3 K0
G1 X6.45
G17 G3 X6.75 Y5.75 I0 J0.3
X4.75 Y5.75 I-1 J0
X6.75 Y5.75 I1 J0
X6.45 Y6.05 I-0.3 J0
G1 X6.3
G18 G3 X6 Z-15.2 I0 K0.3
G0 Z5
Y5.45
Z-17
G1 Z-18.7 F1000
G2 X6.3 Z-19 I0.3 K0
G1 X6.45
G17 G3 X6.75 Y5.75 I0 J0.3
X4.75 Y5.75 I-1 J0
X6.75 Y5.75 I1 J0
X6.45 Y6.05 I-0.3 J0
G1 X6.3
G18 G3 X6 Z-18.7 I0 K0.3
G0 Z5
Y36.45
Z-2
G1 Z-3.7 F1000
G2 X6.3 Z-4 I0.3 K0
G1 X6.45
G17 G3 X6.75 Y36.75 I0 J0.3
X4.75 Y36.75 I-1 J0
X6.75 Y36.75 I1 J0
X6.45 Y37.05 I-0.3 J0
G1 X6.3
G18 G3 X6 Z-3.7 I0 K0.3
G0 Z5
Y36.45
Z-6
G1 Z-7.7 F1000
G2 X6.3 Z-8 I0.3 K0
G1 X6.45
G17 G3 X6.75 Y36.75 I0 J0.3
X4.75 Y36.75 I-1 J0
X6.75 Y36.75 I1 J0
X6.45 Y37.05 I-0.3 J0
G1 X6.3
G18 G3 X6 Z-7.7 I0 K0.3
G0 Z5
Y36.45
Z-10
G1 Z-11.7 F1000
G2 X6.3 Z-12 I0.3 K0
G1 X6.45
G17 G3 X6.75 Y36.75 I0 J0.3
X4.75 Y36.75 I-1 J0
X6.75 Y36.75 I1 J0
X6.45 Y37.05 I-0.3 J0
G1 X6.3
G18 G3 X6 Z-11.7 I0 K0.3
G0 Z5
Y36.45
Z-13.5
G1 Z-15.2 F1000
G2 X6.3 Z-15.5 I0.3 K0
G1 X6.45
G17 G3 X6.75 Y36.75 I0 J0.3
X4.75 Y36.75 I-1 J0
X6.75 Y36.75 I1 J0
X6.45 Y37.05 I-0.3 J0
G1 X6.3
G18 G3 X6 Z-15.2 I0 K0.3
G0 Z5
Y36.45
Z-17
G1 Z-18.7 F1000
G2 X6.3 Z-19 I0.3 K0
G1 X6.45
G17 G3 X6.75 Y36.75 I0 J0.3
X4.75 Y36.75 I-1 J0
X6.75 Y36.75 I1 J0
X6.45 Y37.05 I-0.3 J0
G1 X6.3
G18 G3 X6 Z-18.7 I0 K0.3
G0 Z5
X37 Y36.45
Z-2
G1 Z-3.7 F1000
G2 X37.3 Z-4 I0.3 K0
G1 X37.45
G17 G3 X37.75 Y36.75 I0 J0.3
X35.75 Y36.75 I-1 J0
X37.75 Y36.75 I1 J0
X37.45 Y37.05 I-0.3 J0
G1 X37.3
G18 G3 X37 Z-3.7 I0 K0.3
G0 Z5
Y36.45
Z-6
G1 Z-7.7 F1000
G2 X37.3 Z-8 I0.3 K0
G1 X37.45
G17 G3 X37.75 Y36.75 I0 J0.3
X35.75 Y36.75 I-1 J0
X37.75 Y36.75 I1 J0
X37.45 Y37.05 I-0.3 J0
G1 X37.3
G18 G3 X37 Z-7.7 I0 K0.3
G0 Z5
Y36.45
Z-10
G1 Z-11.7 F1000
G2 X37.3 Z-12 I0.3 K0
G1 X37.45
G17 G3 X37.75 Y36.75 I0 J0.3
X35.75 Y36.75 I-1 J0
X37.75 Y36.75 I1 J0
X37.45 Y37.05 I-0.3 J0
G1 X37.3
G18 G3 X37 Z-11.7 I0 K0.3
G0 Z5
Y36.45
Z-13.5
G1 Z-15.2 F1000
G2 X37.3 Z-15.5 I0.3 K0
G1 X37.45
G17 G3 X37.75 Y36.75 I0 J0.3
X35.75 Y36.75 I-1 J0
X37.75 Y36.75 I1 J0
X37.45 Y37.05 I-0.3 J0
G1 X37.3
G18 G3 X37 Z-15.2 I0 K0.3
G0 Z5
Y36.45
Z-17
G1 Z-18.7 F1000
G2 X37.3 Z-19 I0.3 K0
G1 X37.45
G17 G3 X37.75 Y36.75 I0 J0.3
X35.75 Y36.75 I-1 J0
X37.75 Y36.75 I1 J0
X37.45 Y37.05 I-0.3 J0
G1 X37.3
G18 G3 X37 Z-18.7 I0 K0.3
G0 Z15
G17

(2D Contour4)
G0 X30.35 Y20.95
Z15
Z5
G1 Z-3.7 F333.3
G18 G2 X30.65 Z-4 I0.3 K0 F1000
G1 X30.95
G17 G3 X31.25 Y21.25 I0 J0.3
X11.25 Y21.25 I-10 J0
X16.033 Y12.719 I10 J0
G2 X16.75 Y11.439 I-0.783 J-1.28
G1 Y5
G2 X10.25 Y-1.5 I-6.5 J0
G1 X5
G2 X-1.5 Y5 I0 J6.5
G1 Y63.5
G2 X0 Y65 I1.5 J0
G1 X42.5
G2 X44 Y63.5 I0 J-1.5
G1 Y5
G2 X37.5 Y-1.5 I-6.5 J0
G1 X32.25
G2 X25.75 Y5 I0 J6.5
G1 Y11.439
G2 X26.467 Y12.719 I1.5 J0
G3 X31.25 Y21.25 I-5.217 J8.531
X30.95 Y21.55 I-0.3 J0
G1 X30.65
G18 G3 X30.35 Z-3.7 I0 K0.3
G1 Y20.95
Z-7.7 F333.3
G2 X30.65 Z-8 I0.3 K0 F1000
G1 X30.95
G17 G3 X31.25 Y21.25 I0 J0.3
X11.25 Y21.25 I-10 J0
X16.033 Y12.719 I10 J0
G2 X16.75 Y11.439 I-0.783 J-1.28
G1 Y5
G2 X10.25 Y-1.5 I-6.5 J0
G1 X5
G2 X-1.5 Y5 I0 J6.5
G1 Y63.5
G2 X0 Y65 I1.5 J0
G1 X42.5
G2 X44 Y63.5 I0 J-1.5
G1 Y5
G2 X37.5 Y-1.5 I-6.5 J0
G1 X32.25
G2 X25.75 Y5 I0 J6.5
G1 Y11.439
G2 X26.467 Y12.719 I1.5 J0
G3 X31.25 Y21.25 I-5.217 J8.531
X30.95 Y21.55 I-0.3 J0
G1 X30.65
G18 G3 X30.35 Z-7.7 I0 K0.3
G1 Y20.95
Z-11.7 F333.3
G2 X30.65 Z-12 I0.3 K0 F1000
G1 X30.95
G17 G3 X31.25 Y21.25 I0 J0.3
X11.25 Y21.25 I-10 J0
X16.033 Y12.719 I10 J0
G2 X16.75 Y11.439 I-0.783 J-1.28
G1 Y5
G2 X10.25 Y-1.5 I-6.5 J0
G1 X5
G2 X-1.5 Y5 I0 J6.5
G1 Y63.5
G2 X0 Y65 I1.5 J0
G1 X42.5
G2 X44 Y63.5 I0 J-1.5
G1 Y5
G2 X37.5 Y-1.5 I-6.5 J0
G1 X32.25
G2 X25.75 Y5 I0 J6.5
G1 Y11.439
G2 X26.467 Y12.719 I1.5 J0
G3 X31.25 Y21.25 I-5.217 J8.531
X30.95 Y21.55 I-0.3 J0
G1 X30.65
G18 G3 X30.35 Z-11.7 I0 K0.3
G1 Y20.95
Z-15.7 F333.3
G2 X30.65 Z-16 I0.3 K0 F1000
G1 X30.95
G17 G3 X31.25 Y21.25 I0 J0.3
X11.25 Y21.25 I-10 J0
X16.033 Y12.719 I10 J0
G2 X16.75 Y11.439 I-0.783 J-1.28
G1 Y5
G2 X10.25 Y-1.5 I-6.5 J0
G1 X5
G2 X-1.5 Y5 I0 J6.5
G1 Y63.5
G2 X0 Y65 I1.5 J0
G1 X42.5
G2 X44 Y63.5 I0 J-1.5
G1 Y5
G2 X37.5 Y-1.5 I-6.5 J0
G1 X32.25
G2 X25.75 Y5 I0 J6.5
G1 Y11.439
G2 X26.467 Y12.719 I1.5 J0
G3 X31.25 Y21.25 I-5.217 J8.531
X30.95 Y21.55 I-0.3 J0
G1 X30.65
G18 G3 X30.35 Z-15.7 I0 K0.3
G1 Y20.95
Z-18.7 F333.3
G2 X30.65 Z-19 I0.3 K0 F1000
G1 X30.95
G17 G3 X31.25 Y21.25 I0 J0.3
X11.25 Y21.25 I-10 J0
X16.033 Y12.719 I10 J0
G2 X16.75 Y11.439 I-0.783 J-1.28
G1 Y5
G2 X10.25 Y-1.5 I-6.5 J0
G1 X5
G2 X-1.5 Y5 I0 J6.5
G1 Y63.5
G2 X0 Y65 I1.5 J0
G1 X42.5
G2 X44 Y63.5 I0 J-1.5
G1 Y5
G2 X37.5 Y-1.5 I-6.5 J0
G1 X32.25
G2 X25.75 Y5 I0 J6.5
G1 Y11.439
G2 X26.467 Y12.719 I1.5 J0
G3 X31.25 Y21.25 I-5.217 J8.531
X30.95 Y21.55 I-0.3 J0
G1 X30.65
G18 G3 X30.35 Z-18.7 I0 K0.3
G0 Z15
G17
M9
M5
M30
