(TinyCNCCarrierZ)
(T3  D=3 CR=0 - ZMIN=-19 - flat end mill)
G90 G94
G17
G21

(2D Pocket28)
T3
S5000 M3
G54
M8
G0 X105.621 Y30.112
Z15
Z5
G1 Z2.782 F333.3
X105.612 Y30.135 Z2.663
X105.587 Y30.199 Z2.564
X105.542 Y30.293 Z2.5
G3 X103.012 Y28.982 Z0.871 I-1.265 J-0.655
X105.542 Y30.293 Z-0.759 I1.265 J0.655
X103.012 Y28.982 Z-2.388 I-1.265 J-0.655
X105.542 Y30.293 Z-4.018 I1.265 J0.655
X103.012 Y28.982 Z-5.647 I-1.265 J-0.655
X104.602 Y28.25 Z-6.333 I1.265 J0.655
G1 X104.647 Y28.261 F1000
X104.671 Y28.271
X104.69 Y28.288
X104.702 Y28.311
X104.715 Y28.351
X104.723 Y28.393
X104.721 Y28.435
X104.71 Y28.476
X104.703 Y28.491
X104.682 Y28.533
X104.652 Y28.569
X104.616 Y28.598
X104.59 Y28.615
X104.539 Y28.643
X104.484 Y28.661
X104.427 Y28.669
X104.41 Y28.671
X104.337 Y28.668
X104.265 Y28.653
X104.198 Y28.625
X104.175 Y28.613
G3 X103.962 Y28.385 I0.227 J-0.426
G1 X103.931 Y28.317
G3 X103.91 Y27.805 I0.63 J-0.284
G1 X103.927 Y27.755
G3 X104.293 Y27.313 I0.782 J0.275
G1 X104.33 Y27.291
G3 X104.959 Y27.176 I0.475 J0.818
G1 X105.021 Y27.186
G3 X105.68 Y27.552 I-0.183 J1.106
G1 X105.716 Y27.593
G3 X106.031 Y28.383 I-0.955 J0.839
G1 X106.033 Y28.437
G3 X105.752 Y29.342 I-1.423 J0.055
G1 X105.72 Y29.385
G3 X104.853 Y29.968 I-1.264 J-0.941
G1 X104.747 Y29.996
G3 X103.06 Y29.56 I-0.451 J-1.735
G1 X103.046 Y29.547
G3 X102.524 Y28.74 I1.415 J-1.489
G1 X102.519 Y28.726
G3 X102.417 Y27.749 I1.995 J-0.702
G1 X102.42 Y27.724
G3 X102.792 Y26.755 I2.204 J0.289
G1 X102.813 Y26.723
G3 X103.605 Y25.997 I1.967 J1.35
X104.632 Y25.687 I1.193 J2.097
G1 X104.665 Y25.685
G3 X105.783 Y25.859 I0.176 J2.55
G1 X105.804 Y25.868
G3 X106.774 Y26.532 I-0.98 J2.471
G1 X106.791 Y26.55
G3 X107.402 Y27.607 I-2.027 J1.877
G1 X107.409 Y27.629
G3 X107.508 Y28.893 I-2.736 J0.85
G1 X107.504 Y28.916
G3 X107.033 Y30.14 I-2.937 J-0.429
G1 X107.02 Y30.159
G3 X106.034 Y31.092 I-2.553 J-1.711
G1 X106.014 Y31.104
G3 X104.68 Y31.535 I-1.62 J-2.732
G1 X104.656 Y31.537
G3 X103.223 Y31.347 I-0.295 J-3.268
G1 X103.211 Y31.343
G3 X101.957 Y30.518 I1.156 J-3.125
G1 X101.925 Y30.484
G3 X101.101 Y29.074 I2.554 J-2.437
G1 X101.098 Y29.062
G3 X100.995 Y27.413 I3.428 J-1.042
G1 X100.999 Y27.388
G3 X101.669 Y25.819 I3.637 J0.625
G1 X101.692 Y25.787
G3 X103.012 Y24.659 I3.104 J2.295
X104.66 Y24.223 I1.788 J3.429
G1 X104.695 Y24.222
G3 X106.437 Y24.55 I0.146 J4.02
G1 X106.459 Y24.559
G3 X107.927 Y25.63 I-1.637 J3.786
G1 X107.942 Y25.648
G3 X108.829 Y27.286 I-3.184 J2.783
G1 X108.836 Y27.308
G3 X108.935 Y29.214 I-4.17 J1.173
G1 X108.931 Y29.237
G3 X108.185 Y31.042 I-4.371 J-0.75
G1 X108.172 Y31.061
G3 X106.689 Y32.401 I-3.71 J-2.615
G1 X106.508 Y32.503
G3 X103.09 Y32.931 I-2.233 J-3.965
X101.161 Y31.908 I1.278 J-4.739
G1 X101.147 Y31.896
G3 X99.776 Y30.001 I3.316 J-3.842
X99.448 Y28.853 I4.732 J-1.971
X99.38 Y28.014 I5.113 J-0.839
X99.393 Y27.647 I5.182 J0
X99.619 Y26.448 I5.224 J0.365
X100.12 Y25.322 I5.052 J1.574
X100.876 Y24.331 I4.598 J2.721
G1 X100.886 Y24.32
G3 X102.909 Y22.999 I3.907 J3.774
X104.097 Y22.704 I1.916 J5.167
X104.837 Y22.654 I0.74 J5.514
X105.334 Y22.677 I0 J5.563
X106.559 Y22.925 I-0.496 J5.594
X107.709 Y23.441 I-1.731 J5.398
X108.727 Y24.204 I-2.903 J4.931
X109.559 Y25.182 I-3.953 J4.21
X110.162 Y26.329 I-4.825 J3.266
G1 X110.181 Y26.379
G3 X110.493 Y27.544 I-5.075 J1.982
G1 X110.6 Y28.25
G3 X98.6 Y28.25 I-6 J0
X110.6 Y28.25 I6 J0
G1 X110.592 Y28.297
X110.57 Y28.34
X110.536 Y28.373
X110.493 Y28.394
X110.446 Y28.4
X108.477 Y28.347
X105.182 Y28.647
X104.996 Y28.61
X104.965 Y28.596
X104.941 Y28.572
X104.928 Y28.54
X104.929 Y28.505
X104.942 Y28.474
X104.967 Y28.45
X104.998 Y28.437
X105.033
X105.065 Y28.45
G3 X103.49 Y30.825 Z-7.963 I-0.787 J1.188 F333.3
X105.065 Y28.45 Z-9.592 I0.787 J-1.188
X103.49 Y30.825 Z-11.222 I-0.787 J1.188
X104.602 Y28.25 Z-12.667 I0.787 J-1.188
G1 X104.647 Y28.261 F1000
X104.671 Y28.271
X104.69 Y28.288
X104.702 Y28.311
X104.715 Y28.351
X104.723 Y28.393
X104.721 Y28.435
X104.71 Y28.476
X104.703 Y28.491
X104.682 Y28.533
X104.652 Y28.569
X104.616 Y28.598
X104.59 Y28.615
X104.539 Y28.643
X104.484 Y28.661
X104.427 Y28.669
X104.41 Y28.671
X104.337 Y28.668
X104.265 Y28.653
X104.198 Y28.625
X104.175 Y28.613
G3 X103.962 Y28.385 I0.227 J-0.426
G1 X103.931 Y28.317
G3 X103.91 Y27.805 I0.63 J-0.284
G1 X103.927 Y27.755
G3 X104.293 Y27.313 I0.782 J0.275
G1 X104.33 Y27.291
G3 X104.959 Y27.176 I0.475 J0.818
G1 X105.021 Y27.186
G3 X105.68 Y27.552 I-0.183 J1.106
G1 X105.716 Y27.593
G3 X106.031 Y28.383 I-0.955 J0.839
G1 X106.033 Y28.437
G3 X105.752 Y29.342 I-1.423 J0.055
G1 X105.72 Y29.385
G3 X104.853 Y29.968 I-1.264 J-0.941
G1 X104.747 Y29.996
G3 X103.06 Y29.56 I-0.451 J-1.735
G1 X103.046 Y29.547
G3 X102.524 Y28.74 I1.415 J-1.489
G1 X102.519 Y28.726
G3 X102.417 Y27.749 I1.995 J-0.702
G1 X102.42 Y27.724
G3 X102.792 Y26.755 I2.204 J0.289
G1 X102.813 Y26.723
G3 X103.605 Y25.997 I1.967 J1.35
X104.632 Y25.687 I1.193 J2.097
G1 X104.665 Y25.685
G3 X105.783 Y25.859 I0.176 J2.55
G1 X105.804 Y25.868
G3 X106.774 Y26.532 I-0.98 J2.471
G1 X106.791 Y26.55
G3 X107.402 Y27.607 I-2.027 J1.877
G1 X107.409 Y27.629
G3 X107.508 Y28.893 I-2.736 J0.85
G1 X107.504 Y28.916
G3 X107.033 Y30.14 I-2.937 J-0.429
G1 X107.02 Y30.159
G3 X106.034 Y31.092 I-2.553 J-1.711
G1 X106.014 Y31.104
G3 X104.68 Y31.535 I-1.62 J-2.732
G1 X104.656 Y31.537
G3 X103.223 Y31.347 I-0.295 J-3.268
G1 X103.211 Y31.343
G3 X101.957 Y30.518 I1.156 J-3.125
G1 X101.925 Y30.484
G3 X101.101 Y29.074 I2.554 J-2.437
G1 X101.098 Y29.062
G3 X100.995 Y27.413 I3.428 J-1.042
G1 X100.999 Y27.388
G3 X101.669 Y25.819 I3.637 J0.625
G1 X101.692 Y25.787
G3 X103.012 Y24.659 I3.104 J2.295
X104.66 Y24.223 I1.788 J3.429
G1 X104.695 Y24.222
G3 X106.437 Y24.55 I0.146 J4.02
G1 X106.459 Y24.559
G3 X107.927 Y25.63 I-1.637 J3.786
G1 X107.942 Y25.648
G3 X108.829 Y27.286 I-3.184 J2.783
G1 X108.836 Y27.308
G3 X108.935 Y29.214 I-4.17 J1.173
G1 X108.931 Y29.237
G3 X108.185 Y31.042 I-4.371 J-0.75
G1 X108.172 Y31.061
G3 X106.689 Y32.401 I-3.71 J-2.615
G1 X106.508 Y32.503
G3 X103.09 Y32.931 I-2.233 J-3.965
X101.161 Y31.908 I1.278 J-4.739
G1 X101.147 Y31.896
G3 X99.776 Y30.001 I3.316 J-3.842
X99.448 Y28.853 I4.732 J-1.971
X99.38 Y28.014 I5.113 J-0.839
X99.393 Y27.647 I5.182 J0
X99.619 Y26.448 I5.224 J0.365
X100.12 Y25.322 I5.052 J1.574
X100.876 Y24.331 I4.598 J2.721
G1 X100.886 Y24.32
G3 X102.909 Y22.999 I3.907 J3.774
X104.097 Y22.704 I1.916 J5.167
X104.837 Y22.654 I0.74 J5.514
X105.334 Y22.677 I0 J5.563
X106.559 Y22.925 I-0.496 J5.594
X107.709 Y23.441 I-1.731 J5.398
X108.727 Y24.204 I-2.903 J4.931
X109.559 Y25.182 I-3.953 J4.21
X110.162 Y26.329 I-4.825 J3.266
G1 X110.181 Y26.379
G3 X110.493 Y27.544 I-5.075 J1.982
G1 X110.6 Y28.25
G3 X98.6 Y28.25 I-6 J0
X110.6 Y28.25 I6 J0
G1 X110.592 Y28.297
X110.57 Y28.34
X110.536 Y28.373
X110.493 Y28.394
X110.446 Y28.4
X108.477 Y28.347
X105.182 Y28.647
X104.996 Y28.61
X104.965 Y28.596
X104.941 Y28.572
X104.928 Y28.54
X104.929 Y28.505
X104.942 Y28.474
X104.967 Y28.45
X104.998 Y28.437
X105.033
X105.065 Y28.45
G3 X103.49 Y30.825 Z-14.296 I-0.787 J1.188 F333.3
X105.065 Y28.45 Z-15.925 I0.787 J-1.188
X103.49 Y30.825 Z-17.555 I-0.787 J1.188
X104.602 Y28.25 Z-19 I0.787 J-1.188
G1 X104.647 Y28.261 F1000
X104.671 Y28.271
X104.69 Y28.288
X104.702 Y28.311
X104.715 Y28.351
X104.723 Y28.393
X104.721 Y28.435
X104.71 Y28.476
X104.703 Y28.491
X104.682 Y28.533
X104.652 Y28.569
X104.616 Y28.598
X104.59 Y28.615
X104.539 Y28.643
X104.484 Y28.661
X104.427 Y28.669
X104.41 Y28.671
X104.337 Y28.668
X104.265 Y28.653
X104.198 Y28.625
X104.175 Y28.613
G3 X103.962 Y28.385 I0.227 J-0.426
G1 X103.931 Y28.317
G3 X103.91 Y27.805 I0.63 J-0.284
G1 X103.927 Y27.755
G3 X104.293 Y27.313 I0.782 J0.275
G1 X104.33 Y27.291
G3 X104.959 Y27.176 I0.475 J0.818
G1 X105.021 Y27.186
G3 X105.68 Y27.552 I-0.183 J1.106
G1 X105.716 Y27.593
G3 X106.031 Y28.383 I-0.955 J0.839
G1 X106.033 Y28.437
G3 X105.752 Y29.342 I-1.423 J0.055
G1 X105.72 Y29.385
G3 X104.853 Y29.968 I-1.264 J-0.941
G1 X104.747 Y29.996
G3 X103.06 Y29.56 I-0.451 J-1.735
G1 X103.046 Y29.547
G3 X102.524 Y28.74 I1.415 J-1.489
G1 X102.519 Y28.726
G3 X102.417 Y27.749 I1.995 J-0.702
G1 X102.42 Y27.724
G3 X102.792 Y26.755 I2.204 J0.289
G1 X102.813 Y26.723
G3 X103.605 Y25.997 I1.967 J1.35
X104.632 Y25.687 I1.193 J2.097
G1 X104.665 Y25.685
G3 X105.783 Y25.859 I0.176 J2.55
G1 X105.804 Y25.868
G3 X106.774 Y26.532 I-0.98 J2.471
G1 X106.791 Y26.55
G3 X107.402 Y27.607 I-2.027 J1.877
G1 X107.409 Y27.629
G3 X107.508 Y28.893 I-2.736 J0.85
G1 X107.504 Y28.916
G3 X107.033 Y30.14 I-2.937 J-0.429
G1 X107.02 Y30.159
G3 X106.034 Y31.092 I-2.553 J-1.711
G1 X106.014 Y31.104
G3 X104.68 Y31.535 I-1.62 J-2.732
G1 X104.656 Y31.537
G3 X103.223 Y31.347 I-0.295 J-3.268
G1 X103.211 Y31.343
G3 X101.957 Y30.518 I1.156 J-3.125
G1 X101.925 Y30.484
G3 X101.101 Y29.074 I2.554 J-2.437
G1 X101.098 Y29.062
G3 X100.995 Y27.413 I3.428 J-1.042
G1 X100.999 Y27.388
G3 X101.669 Y25.819 I3.637 J0.625
G1 X101.692 Y25.787
G3 X103.012 Y24.659 I3.104 J2.295
X104.66 Y24.223 I1.788 J3.429
G1 X104.695 Y24.222
G3 X106.437 Y24.55 I0.146 J4.02
G1 X106.459 Y24.559
G3 X107.927 Y25.63 I-1.637 J3.786
G1 X107.942 Y25.648
G3 X108.829 Y27.286 I-3.184 J2.783
G1 X108.836 Y27.308
G3 X108.935 Y29.214 I-4.17 J1.173
G1 X108.931 Y29.237
G3 X108.185 Y31.042 I-4.371 J-0.75
G1 X108.172 Y31.061
G3 X106.689 Y32.401 I-3.71 J-2.615
G1 X106.508 Y32.503
G3 X103.09 Y32.931 I-2.233 J-3.965
X101.161 Y31.908 I1.278 J-4.739
G1 X101.147 Y31.896
G3 X99.776 Y30.001 I3.316 J-3.842
X99.448 Y28.853 I4.732 J-1.971
X99.38 Y28.014 I5.113 J-0.839
X99.393 Y27.647 I5.182 J0
X99.619 Y26.448 I5.224 J0.365
X100.12 Y25.322 I5.052 J1.574
X100.876 Y24.331 I4.598 J2.721
G1 X100.886 Y24.32
G3 X102.909 Y22.999 I3.907 J3.774
X104.097 Y22.704 I1.916 J5.167
X104.837 Y22.654 I0.74 J5.514
X105.334 Y22.677 I0 J5.563
X106.559 Y22.925 I-0.496 J5.594
X107.709 Y23.441 I-1.731 J5.398
X108.727 Y24.204 I-2.903 J4.931
X109.559 Y25.182 I-3.953 J4.21
X110.162 Y26.329 I-4.825 J3.266
G1 X110.181 Y26.379
G3 X110.493 Y27.544 I-5.075 J1.982
G1 X110.6 Y28.25
G3 X98.6 Y28.25 I-6 J0
X110.6 Y28.25 I6 J0
G1 X110.595 Y28.307 Z-18.989
X110.578 Y28.362 Z-18.977
X110.557 Y28.405 Z-18.945
X110.528 Y28.445 Z-18.912
X110.481 Y28.489 Z-18.815
X110.462 Y28.502 Z-18.7
G0 Z15

(2D Contour18)
X0.7 Y99.9
Z15
Z5
G1 Z-6.2 F333.3
G19 G2 Y99.6 Z-6.5 J-0.3 K0 F1000
G1 Y99.3
G17 G3 X1 Y99 I0.3 J0
G1 X208.2
G2 X209.7 Y97.5 I0 J-1.5
G1 Y1
G2 X208.2 Y-0.5 I-1.5 J0
G1 X1
G2 X-0.5 Y1 I0 J1.5
G1 Y97.5
G2 X1 Y99 I1.5 J0
G3 X1.3 Y99.3 I0 J0.3
G1 Y99.6
G19 G3 Y99.9 Z-6.2 J0 K0.3
G0 Z5
X0.7
G1 Z-1.5 F333.3
Z-12.7
G2 Y99.6 Z-13 J-0.3 K0 F1000
G1 Y99.3
G17 G3 X1 Y99 I0.3 J0
G1 X208.2
G2 X209.7 Y97.5 I0 J-1.5
G1 Y1
G2 X208.2 Y-0.5 I-1.5 J0
G1 X1
G2 X-0.5 Y1 I0 J1.5
G1 Y97.5
G2 X1 Y99 I1.5 J0
G3 X1.3 Y99.3 I0 J0.3
G1 Y99.6
G19 G3 Y99.9 Z-12.7 J0 K0.3
G0 Z5
X0.7
G1 Z-8 F333.3
Z-18.7
G2 Y99.6 Z-19 J-0.3 K0 F1000
G1 Y99.3
G17 G3 X1 Y99 I0.3 J0
G1 X208.2
G2 X209.7 Y97.5 I0 J-1.5
G1 Y1
G2 X208.2 Y-0.5 I-1.5 J0
G1 X1
G2 X-0.5 Y1 I0 J1.5
G1 Y97.5
G2 X1 Y99 I1.5 J0
G3 X1.3 Y99.3 I0 J0.3
G1 Y99.6
G19 G3 Y99.9 Z-18.7 J0 K0.3
G0 Z15
G17
M9
M5
M30
