(TinyCNCRaspberryFront)
(T3  D=3 CR=0 - ZMIN=-2 - flat end mill)
G90 G94
G17
G21

(2D Pocket9)
T3
S5000 M3
G54
M8
G0 X157.002 Y75.064
Z15
Z5
G1 Z2.8 F333.3
X157.036 Y75.082 Z2.653
X157.127 Y75.136 Z2.544
X157.244 Y75.221 Z2.5
G3 X155.462 Y77.445 Z2.344 I-0.891 J1.112
X157.244 Y75.221 Z2.187 I0.891 J-1.112
X155.462 Y77.445 Z2.031 I-0.891 J1.112
X157.244 Y75.221 Z1.875 I0.891 J-1.112
X155.462 Y77.445 Z1.718 I-0.891 J1.112
X157.244 Y75.221 Z1.562 I0.891 J-1.112
X155.462 Y77.445 Z1.406 I-0.891 J1.112
X157.244 Y75.221 Z1.249 I0.891 J-1.112
X155.462 Y77.445 Z1.093 I-0.891 J1.112
X157.244 Y75.221 Z0.937 I0.891 J-1.112
X155.462 Y77.445 Z0.78 I-0.891 J1.112
X157.244 Y75.221 Z0.624 I0.891 J-1.112
X155.462 Y77.445 Z0.468 I-0.891 J1.112
X157.244 Y75.221 Z0.311 I0.891 J-1.112
X155.462 Y77.445 Z0.155 I-0.891 J1.112
X157.244 Y75.221 Z-0.001 I0.891 J-1.112
X155.462 Y77.445 Z-0.158 I-0.891 J1.112
X157.244 Y75.221 Z-0.314 I0.891 J-1.112
X155.462 Y77.445 Z-0.47 I-0.891 J1.112
X157.244 Y75.221 Z-0.627 I0.891 J-1.112
X155.462 Y77.445 Z-0.783 I-0.891 J1.112
X157.244 Y75.221 Z-0.939 I0.891 J-1.112
X155.462 Y77.445 Z-1.096 I-0.891 J1.112
X157.244 Y75.221 Z-1.252 I0.891 J-1.112
X155.462 Y77.445 Z-1.408 I-0.891 J1.112
X157.244 Y75.221 Z-1.565 I0.891 J-1.112
X155.462 Y77.445 Z-1.721 I-0.891 J1.112
X157.244 Y75.221 Z-1.877 I0.891 J-1.112
X156.353 Y77.758 Z-2 I-0.891 J1.112
G1 X73.377 F1000
G3 X73.058 Y77.439 I0 J-0.319
G1 Y75.487
G3 X73.377 Y75.168 I0.319 J0
G1 X157.329
G3 X157.648 Y75.487 I0 J0.319
G1 Y77.439
G3 X157.329 Y77.758 I-0.319 J0
G1 X156.353
G2 X155.078 Y78.608 I0 J1.381
G3 X153.803 Y79.458 I-1.275 J-0.531
G1 X71.677
G3 X71.358 Y79.139 I0 J-0.319
G1 Y73.787
G3 X71.677 Y73.468 I0.319 J0
G1 X159.029
G3 X159.348 Y73.787 I0 J0.319
G1 Y79.139
G3 X159.029 Y79.458 I-0.319 J0
G1 X153.803
G2 X152.528 Y80.308 I0 J1.381
G3 X151.253 Y81.158 I-1.275 J-0.531
G1 X69.977
G3 X69.658 Y80.839 I0 J-0.319
G1 Y72.087
G3 X69.977 Y71.768 I0.319 J0
G1 X160.729
G3 X161.048 Y72.087 I0 J0.319
G1 Y80.839
G3 X160.729 Y81.158 I-0.319 J0
G1 X151.253
G2 X149.978 Y82.008 I0 J1.381
G3 X148.703 Y82.858 I-1.275 J-0.531
G1 X68.277
G3 X67.958 Y82.539 I0 J-0.319
G1 Y70.387
G3 X68.277 Y70.068 I0.319 J0
G1 X162.429
G3 X162.748 Y70.387 I0 J0.319
G1 Y82.539
G3 X162.429 Y82.858 I-0.319 J0
G1 X148.703
G2 X147.428 Y83.708 I0 J1.381
G3 X146.153 Y84.558 I-1.275 J-0.531
G1 X66.577
G3 X66.258 Y84.239 I0 J-0.319
G1 Y68.687
G3 X66.577 Y68.368 I0.319 J0
G1 X164.129
G3 X164.448 Y68.687 I0 J0.319
G1 Y84.239
G3 X164.129 Y84.558 I-0.319 J0
G1 X146.153
G2 X144.878 Y85.408 I0 J1.381
G3 X143.603 Y86.258 I-1.275 J-0.531
G1 X64.877
G3 X64.558 Y85.939 I0 J-0.319
G1 Y66.987
G3 X64.877 Y66.668 I0.319 J0
G1 X165.829
G3 X166.148 Y66.987 I0 J0.319
G1 Y85.939
G3 X165.829 Y86.258 I-0.319 J0
G1 X143.603
G2 X142.328 Y87.108 I0 J1.381
G3 X141.053 Y87.958 I-1.275 J-0.531
G1 X63.177
G3 X62.858 Y87.639 I0 J-0.319
G1 Y65.287
G3 X63.177 Y64.968 I0.319 J0
G1 X167.529
G3 X167.848 Y65.287 I0 J0.319
G1 Y87.639
G3 X167.529 Y87.958 I-0.319 J0
G1 X141.053
G2 X139.778 Y88.808 I0 J1.381
G3 X138.503 Y89.658 I-1.275 J-0.531
G1 X61.477
G3 X61.158 Y89.339 I0 J-0.319
G1 Y63.587
G3 X61.477 Y63.268 I0.319 J0
G1 X169.229
G3 X169.548 Y63.587 I0 J0.319
G1 Y89.339
G3 X169.229 Y89.658 I-0.319 J0
G1 X138.503
G2 X137.228 Y90.508 I0 J1.381
G3 X135.953 Y91.358 I-1.275 J-0.531
G1 X59.777
G3 X59.458 Y91.039 I0 J-0.319
G1 Y61.887
G3 X59.777 Y61.568 I0.319 J0
G1 X170.929
G3 X171.248 Y61.887 I0 J0.319
G1 Y91.039
G3 X170.929 Y91.358 I-0.319 J0
G1 X135.953
G2 X134.678 Y92.208 I0 J1.381
G3 X133.403 Y93.058 I-1.275 J-0.531
G1 X58.077
G3 X57.758 Y92.739 I0 J-0.319
G1 Y60.187
G3 X58.077 Y59.868 I0.319 J0
G1 X172.629
G3 X172.948 Y60.187 I0 J0.319
G1 Y92.739
G3 X172.629 Y93.058 I-0.319 J0
G1 X133.403
G2 X132.128 Y93.908 I0 J1.381
G3 X130.853 Y94.758 I-1.275 J-0.531
G1 X56.377
G3 X56.058 Y94.439 I0 J-0.319
G1 Y58.487
G3 X56.377 Y58.168 I0.319 J0
G1 X174.329
G3 X174.648 Y58.487 I0 J0.319
G1 Y94.439
G3 X174.329 Y94.758 I-0.319 J0
G1 X130.853
G2 X129.578 Y95.608 I0 J1.381
G3 X128.303 Y96.458 I-1.275 J-0.531
G1 X54.677
G3 X54.358 Y96.139 I0 J-0.319
G1 Y56.787
G3 X54.677 Y56.468 I0.319 J0
G1 X176.029
G3 X176.348 Y56.787 I0 J0.319
G1 Y96.139
G3 X176.029 Y96.458 I-0.319 J0
G1 X128.303
G2 X127.028 Y97.308 I0 J1.381
G3 X125.753 Y98.158 I-1.275 J-0.531
G1 X52.977
G3 X52.658 Y97.839 I0 J-0.319
G1 Y55.087
G3 X52.977 Y54.768 I0.319 J0
G1 X177.729
G3 X178.048 Y55.087 I0 J0.319
G1 Y97.839
G3 X177.729 Y98.158 I-0.319 J0
G1 X125.753
G2 X124.478 Y99.008 I0 J1.381
G3 X123.203 Y99.858 I-1.275 J-0.531
G1 X51.277
G3 X50.958 Y99.539 I0 J-0.319
G1 Y53.387
G3 X51.277 Y53.068 I0.319 J0
G1 X179.429
G3 X179.748 Y53.387 I0 J0.319
G1 Y99.539
G3 X179.429 Y99.858 I-0.319 J0
G1 X123.203
G2 X121.928 Y100.708 I0 J1.381
G3 X120.653 Y101.558 I-1.275 J-0.531
G1 X49.577
G3 X49.258 Y101.239 I0 J-0.319
G1 Y51.687
G3 X49.577 Y51.368 I0.319 J0
G1 X181.129
G3 X181.448 Y51.687 I0 J0.319
G1 Y101.239
G3 X181.129 Y101.558 I-0.319 J0
G1 X120.653
G2 X119.378 Y102.408 I0 J1.381
G3 X118.103 Y103.258 I-1.275 J-0.531
G1 X47.877
G3 X47.558 Y102.939 I0 J-0.319
G1 Y49.987
G3 X47.877 Y49.668 I0.319 J0
G1 X182.829
G3 X183.148 Y49.987 I0 J0.319
G1 Y102.939
G3 X182.829 Y103.258 I-0.319 J0
G1 X118.103
G2 X116.828 Y104.108 I0 J1.381
G3 X115.553 Y104.958 I-1.275 J-0.531
G1 X46.177
G3 X45.858 Y104.639 I0 J-0.319
G1 Y48.287
G3 X46.177 Y47.968 I0.319 J0
G1 X184.529
G3 X184.848 Y48.287 I0 J0.319
G1 Y104.639
G3 X184.529 Y104.958 I-0.319 J0
G1 X115.553
G2 X114.278 Y105.808 I0 J1.381
G3 X113.003 Y106.658 I-1.275 J-0.531
G1 X44.477
G3 X44.158 Y106.339 I0 J-0.319
G1 Y46.587
G3 X44.477 Y46.268 I0.319 J0
G1 X186.229
G3 X186.548 Y46.587 I0 J0.319
G1 Y106.339
G3 X186.229 Y106.658 I-0.319 J0
G1 X113.003
G2 X111.728 Y107.508 I0 J1.381
G3 X110.453 Y108.358 I-1.275 J-0.531
G1 X42.777
G3 X42.458 Y108.039 I0 J-0.319
G1 Y44.887
G3 X42.777 Y44.568 I0.319 J0
G1 X187.929
G3 X188.248 Y44.887 I0 J0.319
G1 Y108.039
G3 X187.929 Y108.358 I-0.319 J0
G1 X110.453
G2 X109.178 Y109.208 I0 J1.381
G3 X107.903 Y110.058 I-1.275 J-0.531
G1 X41.077
G3 X40.758 Y109.739 I0 J-0.319
G1 Y43.187
G3 X41.077 Y42.868 I0.319 J0
G1 X189.629
G3 X189.948 Y43.187 I0 J0.319
G1 Y109.739
G3 X189.629 Y110.058 I-0.319 J0
G1 X107.903
G2 X106.628 Y110.908 I0 J1.381
G3 X105.353 Y111.758 I-1.275 J-0.531
G1 X39.377
G3 X39.058 Y111.439 I0 J-0.319
G1 Y41.487
G3 X39.377 Y41.168 I0.319 J0
G1 X191.329
G3 X191.648 Y41.487 I0 J0.319
G1 Y111.439
G3 X191.329 Y111.758 I-0.319 J0
G1 X105.353
G2 X104.078 Y112.608 I0 J1.381
G3 X102.803 Y113.458 I-1.275 J-0.531
G1 X37.677
G3 X37.358 Y113.139 I0 J-0.319
G1 Y39.787
G3 X37.677 Y39.468 I0.319 J0
G1 X193.029
G3 X193.348 Y39.787 I0 J0.319
G1 Y113.139
G3 X193.029 Y113.458 I-0.319 J0
G1 X102.803
G2 X101.528 Y114.308 I0 J1.381
G3 X100.253 Y115.158 I-1.275 J-0.531
G1 X35.977
G3 X35.658 Y114.839 I0 J-0.319
G1 Y38.087
G3 X35.977 Y37.768 I0.319 J0
G1 X194.729
G3 X195.048 Y38.087 I0 J0.319
G1 Y114.839
G3 X194.729 Y115.158 I-0.319 J0
G1 X100.253
G2 X98.978 Y116.008 I0 J1.381
G3 X97.703 Y116.858 I-1.275 J-0.531
G1 X34.277
G3 X33.958 Y116.539 I0 J-0.319
G1 Y36.387
G3 X34.277 Y36.068 I0.319 J0
G1 X196.429
G3 X196.748 Y36.387 I0 J0.319
G1 Y116.539
G3 X196.429 Y116.858 I-0.319 J0
G1 X97.703
G2 X96.428 Y117.708 I0 J1.381
G3 X95.153 Y118.558 I-1.275 J-0.531
G1 X32.577
G3 X32.258 Y118.239 I0 J-0.319
G1 Y34.687
G3 X32.577 Y34.368 I0.319 J0
G1 X198.129
G3 X198.448 Y34.687 I0 J0.319
G1 Y118.239
G3 X198.129 Y118.558 I-0.319 J0
G1 X95.153
G2 X93.878 Y119.408 I0 J1.381
G3 X92.603 Y120.258 I-1.275 J-0.531
G1 X30.877
G3 X30.558 Y119.939 I0 J-0.319
G1 Y32.987
G3 X30.877 Y32.668 I0.319 J0
G1 X199.829
G3 X200.148 Y32.987 I0 J0.319
G1 Y119.939
G3 X199.829 Y120.258 I-0.319 J0
G1 X92.603
G2 X91.328 Y121.108 I0 J1.381
G3 X90.053 Y121.958 I-1.275 J-0.531
G1 X29.177
G3 X28.858 Y121.639 I0 J-0.319
G1 Y31.287
G3 X29.177 Y30.968 I0.319 J0
G1 X201.529
G3 X201.848 Y31.287 I0 J0.319
G1 Y121.639
G3 X201.529 Y121.958 I-0.319 J0
G1 X90.053
G2 X88.778 Y122.808 I0 J1.381
G3 X87.503 Y123.658 I-1.275 J-0.531
G1 X27.477
G3 X27.158 Y123.339 I0 J-0.319
G1 Y29.587
G3 X27.477 Y29.268 I0.319 J0
G1 X203.229
G3 X203.548 Y29.587 I0 J0.319
G1 Y123.339
G3 X203.229 Y123.658 I-0.319 J0
G1 X87.503
G2 X86.228 Y124.508 I0 J1.381
G3 X84.953 Y125.358 I-1.275 J-0.531
G1 X25.777
G3 X25.458 Y125.039 I0 J-0.319
G1 Y27.887
G3 X25.777 Y27.568 I0.319 J0
G1 X204.929
G3 X205.248 Y27.887 I0 J0.319
G1 Y125.039
G3 X204.929 Y125.358 I-0.319 J0
G1 X84.953
G2 X83.712 Y126.186 I0 J1.345
G3 X82.47 Y127.013 I-1.241 J-0.517
G1 X24.853
G3 X23.803 Y125.963 I0 J-1.05
G1 Y26.963
G3 X24.853 Y25.913 I1.05 J0
G1 X205.853
G3 X206.903 Y26.963 I0 J1.05
G1 Y125.963
G3 X205.853 Y127.013 I-1.05 J0
G1 X82.47
G2 X81.196 Y127.863 I0 J1.381
G3 X79.921 Y128.713 I-1.275 J-0.531
G1 X24.853
G3 X22.103 Y125.963 I0 J-2.75
G1 Y26.963
G3 X24.853 Y24.213 I2.75 J0
G1 X205.853
G3 X208.603 Y26.963 I0 J2.75
G1 Y125.963
G3 X205.853 Y128.713 I-2.75 J0
G1 X79.921
G2 X78.608 Y129.588 I0 J1.422
G3 X77.296 Y130.463 I-1.313 J-0.547
G1 X24.853
G3 X20.353 Y125.963 I0 J-4.5
G1 Y26.963
G3 X24.853 Y22.463 I4.5 J0
G1 X205.853
G3 X210.353 Y26.963 I0 J4.5
G1 Y125.963
G3 X205.853 Y130.463 I-4.5 J0
G1 X77.296
X77.238 Y130.458 Z-1.989
X77.183 Y130.441 Z-1.977
X77.14 Y130.42 Z-1.945
X77.101 Y130.391 Z-1.912
X77.056 Y130.344 Z-1.815
X77.043 Y130.325 Z-1.7
G0 Z15
M9
M5
M30
