(TinyCNCSeitenwandRechts)
(T3  D=3 CR=0 - ZMIN=-19 - flat end mill)
G90 G94
G17
G21

(2D Pocket16)
T3
S5000 M3
G54
M8
G0 X251.212 Y22.145
Z15
Z5
G1 Z-3.2 F333.3
G18 G3 X250.912 Z-3.5 I-0.3 K0 F1000
G1 X246.204
X22.924
G17 G3 X22.605 Y21.826 I0 J-0.319
G1 Y20.174
G3 X22.924 Y19.855 I0.319 J0
G1 X246.207
G3 X246.407 Y20.055 I0 J0.2
G1 X246.405 Y23.645
G3 X246.205 Y23.845 I-0.2 J0
G1 X21.224
G3 X20.905 Y23.526 I0 J-0.319
G1 Y18.474
G3 X21.224 Y18.155 I0.319 J0
G1 X246.206
G3 X246.406 Y18.355 I0 J0.2
G1 X246.405 Y25.345
G3 X246.205 Y25.545 I-0.2 J0
G1 X19.524
G3 X19.205 Y25.226 I0 J-0.319
G1 Y16.774
G3 X19.524 Y16.455 I0.319 J0
G1 X246.206
G3 X246.406 Y16.655 I0 J0.2
G1 X246.41 Y27.05
G3 X246.21 Y27.25 I-0.2 J0
G1 X17.5
Y14.75
X244.816
X246.213
G3 X246.412 Y14.933 I0 J0.2
G1 X247.015 Y21.928
G3 X246.816 Y22.145 I-0.199 J0.017
G18 G2 X246.516 Z-3.8 I0 K-0.3
G1 Z-6.7
G3 X246.216 Z-7 I-0.3 K0
G1 X246.204
X22.924
G17 G3 X22.605 Y21.826 I0 J-0.319
G1 Y20.174
G3 X22.924 Y19.855 I0.319 J0
G1 X246.207
G3 X246.407 Y20.055 I0 J0.2
G1 X246.405 Y23.645
G3 X246.205 Y23.845 I-0.2 J0
G1 X21.224
G3 X20.905 Y23.526 I0 J-0.319
G1 Y18.474
G3 X21.224 Y18.155 I0.319 J0
G1 X246.206
G3 X246.406 Y18.355 I0 J0.2
G1 X246.405 Y25.345
G3 X246.205 Y25.545 I-0.2 J0
G1 X19.524
G3 X19.205 Y25.226 I0 J-0.319
G1 Y16.774
G3 X19.524 Y16.455 I0.319 J0
G1 X246.206
G3 X246.406 Y16.655 I0 J0.2
G1 X246.41 Y27.05
G3 X246.21 Y27.25 I-0.2 J0
G1 X17.5
Y14.75
X244.816
X246.213
X246.26 Y14.754
X247.741 Y14.988
X247.807 Y14.999 Z-6.992
X247.87 Y15.009 Z-6.97
X247.926 Y15.018 Z-6.935
X247.973 Y15.025 Z-6.887
X248.008 Y15.031 Z-6.83
X248.03 Y15.034 Z-6.767
X248.038 Y15.035 Z-6.7
G0 Z15
X251.212 Y82.145
Z5
G1 Z-3.2 F333.3
G18 G3 X250.912 Z-3.5 I-0.3 K0 F1000
G1 X246.204
X22.924
G17 G3 X22.605 Y81.826 I0 J-0.319
G1 Y80.174
G3 X22.924 Y79.855 I0.319 J0
G1 X246.207
G3 X246.407 Y80.055 I0 J0.2
G1 X246.405 Y83.645
G3 X246.205 Y83.845 I-0.2 J0
G1 X21.224
G3 X20.905 Y83.526 I0 J-0.319
G1 Y78.474
G3 X21.224 Y78.155 I0.319 J0
G1 X246.206
G3 X246.406 Y78.355 I0 J0.2
G1 X246.405 Y85.345
G3 X246.205 Y85.545 I-0.2 J0
G1 X19.524
G3 X19.205 Y85.226 I0 J-0.319
G1 Y76.774
G3 X19.524 Y76.455 I0.319 J0
G1 X246.206
G3 X246.406 Y76.655 I0 J0.2
G1 X246.41 Y87.05
G3 X246.21 Y87.25 I-0.2 J0
G1 X17.5
Y74.75
X244.816
X246.213
G3 X246.412 Y74.933 I0 J0.2
G1 X247.015 Y81.928
G3 X246.816 Y82.145 I-0.199 J0.017
G18 G2 X246.516 Z-3.8 I0 K-0.3
G1 Z-6.7
G3 X246.216 Z-7 I-0.3 K0
G1 X246.204
X22.924
G17 G3 X22.605 Y81.826 I0 J-0.319
G1 Y80.174
G3 X22.924 Y79.855 I0.319 J0
G1 X246.207
G3 X246.407 Y80.055 I0 J0.2
G1 X246.405 Y83.645
G3 X246.205 Y83.845 I-0.2 J0
G1 X21.224
G3 X20.905 Y83.526 I0 J-0.319
G1 Y78.474
G3 X21.224 Y78.155 I0.319 J0
G1 X246.206
G3 X246.406 Y78.355 I0 J0.2
G1 X246.405 Y85.345
G3 X246.205 Y85.545 I-0.2 J0
G1 X19.524
G3 X19.205 Y85.226 I0 J-0.319
G1 Y76.774
G3 X19.524 Y76.455 I0.319 J0
G1 X246.206
G3 X246.406 Y76.655 I0 J0.2
G1 X246.41 Y87.05
G3 X246.21 Y87.25 I-0.2 J0
G1 X17.5
Y74.75
X244.816
X246.213
X246.26 Y74.754
X247.741 Y74.988
X247.807 Y74.999 Z-6.992
X247.87 Y75.009 Z-6.97
X247.926 Y75.018 Z-6.935
X247.973 Y75.025 Z-6.887
X248.008 Y75.031 Z-6.83
X248.03 Y75.034 Z-6.767
X248.038 Y75.035 Z-6.7
G0 Z15

(2D Pocket24)
X17.656 Y15.648
Z15
Z5
G1 Z-3.23 F333.3
X17.655 Y15.642 Z-3.29 F1000
X17.652 Y15.622 Z-3.347
X17.647 Y15.59 Z-3.398
X17.64 Y15.548 Z-3.441
X17.632 Y15.497 Z-3.473
X17.623 Y15.441 Z-3.493
X17.614 Y15.382 Z-3.5
X17.504 Y14.687
X17.5 Y14.64
Y13.75
X244.816
X246.078
X246.125 Y13.754
X246.773 Y13.856
X246.839 Y13.867 Z-3.492
X246.902 Y13.877 Z-3.47
X246.958 Y13.886 Z-3.435
X247.005 Y13.893 Z-3.387
X247.04 Y13.899 Z-3.33
X247.062 Y13.902 Z-3.267
X247.07 Y13.903 Z-3.2
G0 Z15
X247.072 Y28.095
Z5
G1 Z-3.23 F333.3
X247.065 Y28.096 Z-3.29 F1000
X247.046 Y28.099 Z-3.347
X247.014 Y28.105 Z-3.398
X246.972 Y28.111 Z-3.441
X246.921 Y28.119 Z-3.473
X246.865 Y28.128 Z-3.493
X246.805 Y28.138 Z-3.5
X246.119 Y28.246
X246.072 Y28.25
X17.5
Y27.358
X17.504 Y27.311
X17.606 Y26.663
X17.617 Y26.597 Z-3.492
X17.627 Y26.534 Z-3.47
X17.636 Y26.478 Z-3.435
X17.643 Y26.431 Z-3.387
X17.649 Y26.396 Z-3.33
X17.652 Y26.374 Z-3.267
X17.653 Y26.367 Z-3.2
G0 Z15
X17.656 Y75.648
Z5
G1 Z-3.23 F333.3
X17.655 Y75.642 Z-3.29 F1000
X17.652 Y75.622 Z-3.347
X17.647 Y75.59 Z-3.398
X17.64 Y75.548 Z-3.441
X17.632 Y75.497 Z-3.473
X17.623 Y75.441 Z-3.493
X17.614 Y75.382 Z-3.5
X17.504 Y74.687
X17.5 Y74.64
Y73.75
X244.816
X246.078
X246.125 Y73.754
X246.773 Y73.856
X246.839 Y73.867 Z-3.492
X246.902 Y73.877 Z-3.47
X246.958 Y73.886 Z-3.435
X247.005 Y73.893 Z-3.387
X247.04 Y73.899 Z-3.33
X247.062 Y73.902 Z-3.267
X247.07 Y73.903 Z-3.2
G0 Z15
X247.072 Y88.095
Z5
G1 Z-3.23 F333.3
X247.065 Y88.096 Z-3.29 F1000
X247.046 Y88.099 Z-3.347
X247.014 Y88.105 Z-3.398
X246.972 Y88.111 Z-3.441
X246.921 Y88.119 Z-3.473
X246.865 Y88.128 Z-3.493
X246.805 Y88.138 Z-3.5
X246.119 Y88.246
X246.072 Y88.25
X17.5
Y87.358
X17.504 Y87.311
X17.606 Y86.663
X17.617 Y86.597 Z-3.492
X17.627 Y86.534 Z-3.47
X17.636 Y86.478 Z-3.435
X17.643 Y86.431 Z-3.387
X17.649 Y86.396 Z-3.33
X17.652 Y86.374 Z-3.267
X17.653 Y86.367 Z-3.2
G0 Z15

(2D Pocket17)
X255.484 Y-0.704
Z15
Z5
G1 Z-4.45 F1000
Y-0.697 Z-4.517
Y-0.675 Z-4.58
Y-0.639 Z-4.637
Y-0.591 Z-4.685
Y-0.534 Z-4.72
Y-0.471 Z-4.742
Y-0.404 Z-4.75
Y-0.393
X255.465 Y101
G2 X257.053 Y105.899 I8.351 J0
G3 X255.602 Y106.741 I-0.97 J0
G2 X254.493 Y107.999 I-0.424 J0.744
G1 X254.552 Y108.077
G3 X254.422 Y108.342 I-0.131 J0.1
G1 X254.21
G3 X254.08 Y108.077 I0 J-0.165
G1 X254.175 Y107.95
G3 X254.457 Y107.95 I0.141 J0.104
G1 X254.493 Y107.999
G2 X256.034 Y108.5 I1.127 J-0.846
G3 X257.627 Y108.801 I0.511 J1.664
G2 X259.197 Y109.822 I6.189 J-7.801
G1 X259.228 Y109.845
X259.25 Y109.877
X259.259 Y109.915
X259.257 Y109.953
X259.241 Y109.989
X259.215 Y110.017
X259.181 Y110.036
X259.143 Y110.042
X249.489
X249.451 Y110.036
X249.417 Y110.017
X249.391 Y109.989
X249.375 Y109.953
X249.373 Y109.915
X249.382 Y109.877
X249.404 Y109.845
X249.435 Y109.822
G2 X254.19 Y104.36 I-4.619 J-8.822
G3 X254.442 Y104.36 I0.126 J0.045
G2 X257.627 Y108.801 I9.374 J-3.36
G1 X257.668 Y108.84 Z-4.739
X257.701 Y108.887 Z-4.727
X257.722 Y108.931 Z-4.695
X257.735 Y108.978 Z-4.662
X257.74 Y109.043 Z-4.565
X257.739 Y109.066 Z-4.45
G0 Z5
X313.773 Y118.452
G1 Z-4.45 F1000
X313.766 Y118.453 Z-4.517
X313.744 Y118.457 Z-4.58
X313.709 Y118.462 Z-4.637
X313.662 Y118.47 Z-4.685
X313.606 Y118.479 Z-4.72
X313.543 Y118.489 Z-4.742
X313.477 Y118.499 Z-4.75
X313.465 Y118.5
X234.066
G2 X232.566 Y120 I0 J1.5
G3 X229.566 Y120 I-1.5 J0
X231.066 Y118.5 I1.5 J0
G2 X232.566 Y117 I0 J-1.5
G1 Y104
G2 X231.066 Y102.5 I-1.5 J0
G3 X231.066 Y99.5 I0 J-1.5
X232.566 Y101 I0 J1.5
G1 X232.569 Y101.094
X232.578 Y101.187
G3 X232.053 Y101.476 I-0.342 J0
G2 X231.454 Y101.469 I-0.305 J0.483
G1 X231.408 Y101.49
X231.359 Y101.501
X231.309 Y101.502
X231.188 Y101.489
X231.066 Y101.482
G3 X230.637 Y101.188 I0 J-0.459
X230.745 Y100.679 I0.445 J-0.171
X231.335 Y100.7 I0.285 J0.285
X231.568 Y101.243 I-0.736 J0.637
X231.454 Y101.469 I-0.236 J0.023
G1 X231.419 Y101.486 Z-4.745
X231.381 Y101.498 Z-4.74
X231.345 Y101.503 Z-4.724
X231.309 Y101.502 Z-4.709
X231.238 Y101.495 Z-4.651
X231.188 Y101.489 Z-4.575
X231.161 Y101.486 Z-4.45
G0 Z5
X313.773 Y118.452
G1 Z-4.45 F1000
X313.766 Y118.453 Z-4.517
X313.744 Y118.457 Z-4.58
X313.709 Y118.462 Z-4.637
X313.662 Y118.47 Z-4.685
X313.606 Y118.479 Z-4.72
X313.543 Y118.489 Z-4.742
X313.477 Y118.499 Z-4.75
X313.465 Y118.5
X234.066
G2 X232.575 Y119.839 I0 J1.5
X231.95 Y119.958 I0 J1.706
X231.424 Y120.314 I0.53 J1.348
G1 X231.373 Y120.361
X231.316 Y120.399
X231.254 Y120.429
G3 X230.745 Y120.321 I-0.171 J-0.445
X230.766 Y119.731 I0.285 J-0.285
X231.309 Y119.498 I0.637 J0.736
X231.568 Y119.757 I0.023 J0.236
G1 X231.555 Y119.878
X231.548 Y120
G3 X231.424 Y120.314 I-0.459 J0
G1 X231.382 Y120.354 Z-4.739
X231.334 Y120.384 Z-4.727
X231.289 Y120.403 Z-4.695
X231.241 Y120.413 Z-4.662
X231.176 Y120.416 Z-4.565
X231.154 Y120.413 Z-4.45
G0 Z5
X318.457 Y111.694
G1 Z-4.45 F333.3
G18 G3 X318.157 Z-4.75 I-0.3 K0 F1000
G1 X313.459
X239.691
G17 G3 X239.372 Y111.375 I0 J-0.319
G1 Y109.625
G3 X239.691 Y109.306 I0.319 J0
X242.254 Y109.328 I0 J145.911
G2 X244.816 Y109.351 I2.562 J-145.889
X253.167 Y101 I0 J-8.351
G1 X253.148 Y-0.393
G3 X253.348 Y-0.593 I0.2 J0
G1 X255.284
G3 X255.484 Y-0.393 I0 J0.2
G1 X255.465 Y101
G2 X263.816 Y109.351 I8.351 J0
G1 X313.46 Y109.339
G3 X313.661 Y109.539 I0 J0.2
G1 X313.659 Y113.194
G3 X313.459 Y113.394 I-0.2 J0
G1 X237.991
G3 X237.672 Y113.075 I0 J-0.319
G1 Y107.925
G3 X237.991 Y107.606 I0.319 J0
G1 X244.816 Y107.651
G2 X251.467 Y101 I0 J-6.651
G1 X251.448 Y-0.393
G3 X251.648 Y-0.593 I0.2 J0
G1 X256.984
G3 X257.184 Y-0.393 I0 J0.2
G1 X257.165 Y101
G2 X263.816 Y107.651 I6.651 J0
G1 X313.46 Y107.639
G3 X313.661 Y107.839 I0 J0.2
G1 X313.659 Y114.894
G3 X313.459 Y115.094 I-0.2 J0
G1 X236.291
G3 X235.972 Y114.775 I0 J-0.319
G1 Y106.225
G3 X236.291 Y105.906 I0.319 J0
G1 X244.816 Y105.951
G2 X249.767 Y101 I0 J-4.951
G1 X249.749 Y-0.393
G3 X249.948 Y-0.593 I0.2 J0
G1 X258.683
G3 X258.883 Y-0.393 I0 J0.2
G1 X258.865 Y101
G2 X263.816 Y105.951 I4.951 J0
G1 X313.46 Y105.94
G3 X313.661 Y106.139 I0 J0.2
G1 X313.666 Y116.594
G3 X313.466 Y116.794 I-0.2 J0
G1 X234.585
G3 X234.272 Y116.481 I0 J-0.313
G1 Y104.519
G3 X234.585 Y104.206 I0.313 J0
G1 X244.816 Y104.25
G2 X248.066 Y101 I0 J-3.25
G1 X248.048 Y-0.393
G3 X248.248 Y-0.593 I0.2 J0
G1 X260.384 Y-0.6
G3 X260.584 Y-0.4 I0 J0.2
G1 X260.566 Y101
G2 X263.816 Y104.25 I3.25 J0
G1 X313.46 Y104.239
G3 X313.661 Y104.439 I0 J0.2
G1 X313.665 Y118.3
G3 X313.465 Y118.5 I-0.2 J0
G1 X234.066
G2 X232.566 Y120 I0 J1.5
G3 X229.566 Y120 I-1.5 J0
X231.066 Y118.5 I1.5 J0
G2 X232.566 Y117 I0 J-1.5
G1 Y104
G2 X231.066 Y102.5 I-1.5 J0
G3 X231.066 Y99.5 I0 J-1.5
X232.566 Y101 I0 J1.5
G2 X234.066 Y102.5 I1.5 J0
G1 X244.816
G2 X246.316 Y101 I0 J-1.5
G1 Y1
Y-0.397
G3 X246.516 Y-0.597 I0.2 J0
G1 X262.116 Y-0.599
G3 X262.316 Y-0.399 I0 J0.2
G1 Y101
G2 X263.816 Y102.5 I1.5 J0
G1 X312.066
X313.463
X313.51 Y102.504
X314.991 Y102.738
X315.057 Y102.749 Z-4.742
X315.12 Y102.759 Z-4.72
X315.176 Y102.768 Z-4.685
X315.223 Y102.775 Z-4.637
X315.258 Y102.781 Z-4.58
X315.28 Y102.784 Z-4.517
X315.288 Y102.785 Z-4.45
G0 Z5
X255.484 Y-0.704
G1 Z0.25 F333.3
Z-9.2 F1000
Y-0.697 Z-9.267
Y-0.675 Z-9.33
Y-0.639 Z-9.387
Y-0.591 Z-9.435
Y-0.534 Z-9.47
Y-0.471 Z-9.492
Y-0.404 Z-9.5
Y-0.393
X255.465 Y101
G2 X257.053 Y105.899 I8.351 J0
G3 X255.602 Y106.741 I-0.97 J0
G2 X254.493 Y107.999 I-0.424 J0.744
G1 X254.552 Y108.077
G3 X254.422 Y108.342 I-0.131 J0.1
G1 X254.21
G3 X254.08 Y108.077 I0 J-0.165
G1 X254.175 Y107.95
G3 X254.457 Y107.95 I0.141 J0.104
G1 X254.493 Y107.999
G2 X256.034 Y108.5 I1.127 J-0.846
G3 X257.627 Y108.801 I0.511 J1.664
G2 X259.197 Y109.822 I6.189 J-7.801
G1 X259.228 Y109.845
X259.25 Y109.877
X259.259 Y109.915
X259.257 Y109.953
X259.241 Y109.989
X259.215 Y110.017
X259.181 Y110.036
X259.143 Y110.042
X249.489
X249.451 Y110.036
X249.417 Y110.017
X249.391 Y109.989
X249.375 Y109.953
X249.373 Y109.915
X249.382 Y109.877
X249.404 Y109.845
X249.435 Y109.822
G2 X254.19 Y104.36 I-4.619 J-8.822
G3 X254.442 Y104.36 I0.126 J0.045
G2 X257.627 Y108.801 I9.374 J-3.36
G1 X257.668 Y108.84 Z-9.489
X257.701 Y108.887 Z-9.477
X257.722 Y108.931 Z-9.445
X257.735 Y108.978 Z-9.412
X257.74 Y109.043 Z-9.315
X257.739 Y109.066 Z-9.2
G0 Z5
X313.773 Y118.452
G1 Z0.25 F333.3
Z-9.2 F1000
X313.766 Y118.453 Z-9.267
X313.744 Y118.457 Z-9.33
X313.709 Y118.462 Z-9.387
X313.662 Y118.47 Z-9.435
X313.606 Y118.479 Z-9.47
X313.543 Y118.489 Z-9.492
X313.477 Y118.499 Z-9.5
X313.465 Y118.5
X234.066
G2 X232.566 Y120 I0 J1.5
G3 X229.566 Y120 I-1.5 J0
X231.066 Y118.5 I1.5 J0
G2 X232.566 Y117 I0 J-1.5
G1 Y104
G2 X231.066 Y102.5 I-1.5 J0
G3 X231.066 Y99.5 I0 J-1.5
X232.566 Y101 I0 J1.5
G1 X232.569 Y101.094
X232.578 Y101.187
G3 X232.053 Y101.476 I-0.342 J0
G2 X231.454 Y101.469 I-0.305 J0.483
G1 X231.408 Y101.49
X231.359 Y101.501
X231.309 Y101.502
X231.188 Y101.489
X231.066 Y101.482
G3 X230.637 Y101.188 I0 J-0.459
X230.745 Y100.679 I0.445 J-0.171
X231.335 Y100.7 I0.285 J0.285
X231.568 Y101.243 I-0.736 J0.637
X231.454 Y101.469 I-0.236 J0.023
G1 X231.419 Y101.486 Z-9.495
X231.381 Y101.498 Z-9.49
X231.345 Y101.503 Z-9.474
X231.309 Y101.502 Z-9.459
X231.238 Y101.495 Z-9.401
X231.188 Y101.489 Z-9.325
X231.161 Y101.486 Z-9.2
G0 Z5
X313.773 Y118.452
G1 Z0.25 F333.3
Z-9.2 F1000
X313.766 Y118.453 Z-9.267
X313.744 Y118.457 Z-9.33
X313.709 Y118.462 Z-9.387
X313.662 Y118.47 Z-9.435
X313.606 Y118.479 Z-9.47
X313.543 Y118.489 Z-9.492
X313.477 Y118.499 Z-9.5
X313.465 Y118.5
X234.066
G2 X232.575 Y119.839 I0 J1.5
X231.95 Y119.958 I0 J1.706
X231.424 Y120.314 I0.53 J1.348
G1 X231.373 Y120.361
X231.316 Y120.399
X231.254 Y120.429
G3 X230.745 Y120.321 I-0.171 J-0.445
X230.766 Y119.731 I0.285 J-0.285
X231.309 Y119.498 I0.637 J0.736
X231.568 Y119.757 I0.023 J0.236
G1 X231.555 Y119.878
X231.548 Y120
G3 X231.424 Y120.314 I-0.459 J0
G1 X231.382 Y120.354 Z-9.489
X231.334 Y120.384 Z-9.477
X231.289 Y120.403 Z-9.445
X231.241 Y120.413 Z-9.412
X231.176 Y120.416 Z-9.315
X231.154 Y120.413 Z-9.2
G0 Z5
X318.457 Y111.694
G1 Z-9.2 F333.3
G18 G3 X318.157 Z-9.5 I-0.3 K0 F1000
G1 X313.459
X239.691
G17 G3 X239.372 Y111.375 I0 J-0.319
G1 Y109.625
G3 X239.691 Y109.306 I0.319 J0
X242.254 Y109.328 I0 J145.911
G2 X244.816 Y109.351 I2.562 J-145.889
X253.167 Y101 I0 J-8.351
G1 X253.148 Y-0.393
G3 X253.348 Y-0.593 I0.2 J0
G1 X255.284
G3 X255.484 Y-0.393 I0 J0.2
G1 X255.465 Y101
G2 X263.816 Y109.351 I8.351 J0
G1 X313.46 Y109.339
G3 X313.661 Y109.539 I0 J0.2
G1 X313.659 Y113.194
G3 X313.459 Y113.394 I-0.2 J0
G1 X237.991
G3 X237.672 Y113.075 I0 J-0.319
G1 Y107.925
G3 X237.991 Y107.606 I0.319 J0
G1 X244.816 Y107.651
G2 X251.467 Y101 I0 J-6.651
G1 X251.448 Y-0.393
G3 X251.648 Y-0.593 I0.2 J0
G1 X256.984
G3 X257.184 Y-0.393 I0 J0.2
G1 X257.165 Y101
G2 X263.816 Y107.651 I6.651 J0
G1 X313.46 Y107.639
G3 X313.661 Y107.839 I0 J0.2
G1 X313.659 Y114.894
G3 X313.459 Y115.094 I-0.2 J0
G1 X236.291
G3 X235.972 Y114.775 I0 J-0.319
G1 Y106.225
G3 X236.291 Y105.906 I0.319 J0
G1 X244.816 Y105.951
G2 X249.767 Y101 I0 J-4.951
G1 X249.749 Y-0.393
G3 X249.948 Y-0.593 I0.2 J0
G1 X258.683
G3 X258.883 Y-0.393 I0 J0.2
G1 X258.865 Y101
G2 X263.816 Y105.951 I4.951 J0
G1 X313.46 Y105.94
G3 X313.661 Y106.139 I0 J0.2
G1 X313.666 Y116.594
G3 X313.466 Y116.794 I-0.2 J0
G1 X234.585
G3 X234.272 Y116.481 I0 J-0.313
G1 Y104.519
G3 X234.585 Y104.206 I0.313 J0
G1 X244.816 Y104.25
G2 X248.066 Y101 I0 J-3.25
G1 X248.048 Y-0.393
G3 X248.248 Y-0.593 I0.2 J0
G1 X260.384 Y-0.6
G3 X260.584 Y-0.4 I0 J0.2
G1 X260.566 Y101
G2 X263.816 Y104.25 I3.25 J0
G1 X313.46 Y104.239
G3 X313.661 Y104.439 I0 J0.2
G1 X313.665 Y118.3
G3 X313.465 Y118.5 I-0.2 J0
G1 X234.066
G2 X232.566 Y120 I0 J1.5
G3 X229.566 Y120 I-1.5 J0
X231.066 Y118.5 I1.5 J0
G2 X232.566 Y117 I0 J-1.5
G1 Y104
G2 X231.066 Y102.5 I-1.5 J0
G3 X231.066 Y99.5 I0 J-1.5
X232.566 Y101 I0 J1.5
G2 X234.066 Y102.5 I1.5 J0
G1 X244.816
G2 X246.316 Y101 I0 J-1.5
G1 Y1
Y-0.397
G3 X246.516 Y-0.597 I0.2 J0
G1 X262.116 Y-0.599
G3 X262.316 Y-0.399 I0 J0.2
G1 Y101
G2 X263.816 Y102.5 I1.5 J0
G1 X312.066
X313.463
X313.51 Y102.504
X314.991 Y102.738
X315.057 Y102.749 Z-9.492
X315.12 Y102.759 Z-9.47
X315.176 Y102.768 Z-9.435
X315.223 Y102.775 Z-9.387
X315.258 Y102.781 Z-9.33
X315.28 Y102.784 Z-9.267
X315.288 Y102.785 Z-9.2
G0 Z15
X318.462 Y392.694
Z5
G1 Z-4.45 F333.3
G18 G3 X318.162 Z-4.75 I-0.3 K0 F1000
G1 X313.454
X239.691
G17 G3 X239.372 Y392.375 I0 J-0.319
G1 Y390.625
G3 X239.691 Y390.306 I0.319 J0
G1 X313.451
G3 X313.651 Y390.506 I0 J0.2
G1 X313.654 Y394.194
G3 X313.454 Y394.394 I-0.2 J0
G1 X237.991
G3 X237.672 Y394.075 I0 J-0.319
G1 Y388.925
G3 X237.991 Y388.606 I0.319 J0
G1 X313.451
G3 X313.651 Y388.806 I0 J0.2
G1 X313.655 Y395.894
G3 X313.455 Y396.094 I-0.2 J0
G1 X236.291
G3 X235.972 Y395.775 I0 J-0.319
G1 Y387.225
G3 X236.291 Y386.906 I0.319 J0
G1 X313.451
G3 X313.651 Y387.106 I0 J0.2
G1 X313.661 Y397.594
G3 X313.461 Y397.794 I-0.2 J0
G1 X234.585
G3 X234.272 Y397.481 I0 J-0.313
G1 Y385.519
G3 X234.585 Y385.206 I0.313 J0
G1 X313.461
X314.961
G18 G2 X315.261 Z-4.45 I0 K0.3
G1 Z5
X313.769 Y399.452
Z-4.45
X313.761 Y399.453 Z-4.517
X313.739 Y399.457 Z-4.58
X313.704 Y399.462 Z-4.637
X313.657 Y399.47 Z-4.685
X313.601 Y399.479 Z-4.72
X313.538 Y399.489 Z-4.742
X313.472 Y399.499 Z-4.75
X313.461 Y399.5
X234.066
G17 G2 X232.566 Y401 I0 J1.5
G3 X229.566 Y401 I-1.5 J0
X231.066 Y399.5 I1.5 J0
G2 X232.566 Y398 I0 J-1.5
G1 Y385
G2 X231.066 Y383.5 I-1.5 J0
G3 X231.066 Y380.5 I0 J-1.5
X232.566 Y382 I0 J1.5
G1 X232.569 Y382.094
X232.578 Y382.187
G3 X232.073 Y382.305 I-0.266 J0
G2 X231.557 Y382.341 I-0.251 J0.124
G3 X231.309 Y382.502 I-0.225 J-0.075
X230.766 Y382.269 I0.094 J-0.968
X230.745 Y381.679 I0.264 J-0.305
X231.335 Y381.7 I0.285 J0.285
X231.568 Y382.243 I-0.736 J0.637
G1 X231.567 Y382.292
X231.557 Y382.341
X231.532 Y382.393 Z-4.739
X231.496 Y382.437 Z-4.727
X231.458 Y382.467 Z-4.695
X231.414 Y382.488 Z-4.662
X231.383 Y382.497 Z-4.613
X231.351 Y382.502 Z-4.565
X231.328 Y382.503 Z-4.45
G0 Z5
X313.769 Y399.452
G1 Z-4.45 F1000
X313.761 Y399.453 Z-4.517
X313.739 Y399.457 Z-4.58
X313.704 Y399.462 Z-4.637
X313.657 Y399.47 Z-4.685
X313.601 Y399.479 Z-4.72
X313.538 Y399.489 Z-4.742
X313.472 Y399.499 Z-4.75
X313.461 Y399.5
X234.066
G2 X232.575 Y400.839 I0 J1.5
X231.907 Y400.931 I0 J2.474
X231.34 Y401.294 I0.311 J1.111
G1 X231.335 Y401.3
G3 X230.745 Y401.321 I-0.305 J-0.264
X230.766 Y400.731 I0.285 J-0.285
X231.309 Y400.498 I0.637 J0.736
X231.568 Y400.757 I0.023 J0.236
X231.34 Y401.294 I-0.968 J-0.094
G1 X231.295 Y401.329 Z-4.739
X231.243 Y401.354 Z-4.727
X231.197 Y401.368 Z-4.695
X231.149 Y401.374 Z-4.662
X231.084 Y401.37 Z-4.565
X231.061 Y401.365 Z-4.45
G0 Z5
X318.462 Y398.712
G1 Z-4.48 F333.3
X318.455 Y398.713 Z-4.54 F1000
X318.436 Y398.716 Z-4.597
X318.404 Y398.721 Z-4.648
X318.362 Y398.728 Z-4.691
X318.311 Y398.736 Z-4.723
X318.255 Y398.744 Z-4.743
X318.195 Y398.754 Z-4.75
X313.508 Y399.496
X313.461 Y399.5
X234.066
G2 X232.566 Y401 I0 J1.5
G3 X229.566 Y401 I-1.5 J0
X231.066 Y399.5 I1.5 J0
G2 X232.566 Y398 I0 J-1.5
G1 Y385
G2 X231.066 Y383.5 I-1.5 J0
G3 X231.066 Y380.5 I0 J-1.5
X232.566 Y382 I0 J1.5
G2 X234.066 Y383.5 I1.5 J0
G1 X312.066
X313.463
G3 X313.662 Y383.686 I0 J0.2
G1 X314.277 Y392.48
G3 X314.077 Y392.694 I-0.199 J0.014
G18 G2 X313.777 Z-5.05 I0 K-0.3
G1 Z-9.2
G3 X313.477 Z-9.5 I-0.3 K0
G1 X313.454
X239.691
G17 G3 X239.372 Y392.375 I0 J-0.319
G1 Y390.625
G3 X239.691 Y390.306 I0.319 J0
G1 X313.451
G3 X313.651 Y390.506 I0 J0.2
G1 X313.654 Y394.194
G3 X313.454 Y394.394 I-0.2 J0
G1 X237.991
G3 X237.672 Y394.075 I0 J-0.319
G1 Y388.925
G3 X237.991 Y388.606 I0.319 J0
G1 X313.451
G3 X313.651 Y388.806 I0 J0.2
G1 X313.655 Y395.894
G3 X313.455 Y396.094 I-0.2 J0
G1 X236.291
G3 X235.972 Y395.775 I0 J-0.319
G1 Y387.225
G3 X236.291 Y386.906 I0.319 J0
G1 X313.451
G3 X313.651 Y387.106 I0 J0.2
G1 X313.661 Y397.594
G3 X313.461 Y397.794 I-0.2 J0
G1 X234.585
G3 X234.272 Y397.481 I0 J-0.313
G1 Y385.519
G3 X234.585 Y385.206 I0.313 J0
G1 X313.461
X314.961
G18 G2 X315.261 Z-9.2 I0 K0.3
G1 Z0.25
X313.769 Y399.452
Z-9.2
X313.761 Y399.453 Z-9.267
X313.739 Y399.457 Z-9.33
X313.704 Y399.462 Z-9.387
X313.657 Y399.47 Z-9.435
X313.601 Y399.479 Z-9.47
X313.538 Y399.489 Z-9.492
X313.472 Y399.499 Z-9.5
X313.461 Y399.5
X234.066
G17 G2 X232.566 Y401 I0 J1.5
G3 X229.566 Y401 I-1.5 J0
X231.066 Y399.5 I1.5 J0
G2 X232.566 Y398 I0 J-1.5
G1 Y385
G2 X231.066 Y383.5 I-1.5 J0
G3 X231.066 Y380.5 I0 J-1.5
X232.566 Y382 I0 J1.5
G1 X232.569 Y382.094
X232.578 Y382.187
G3 X232.073 Y382.305 I-0.266 J0
G2 X231.557 Y382.341 I-0.251 J0.124
G3 X231.309 Y382.502 I-0.225 J-0.075
X230.766 Y382.269 I0.094 J-0.968
X230.745 Y381.679 I0.264 J-0.305
X231.335 Y381.7 I0.285 J0.285
X231.568 Y382.243 I-0.736 J0.637
G1 X231.567 Y382.292
X231.557 Y382.341
X231.532 Y382.393 Z-9.489
X231.496 Y382.437 Z-9.477
X231.458 Y382.467 Z-9.445
X231.414 Y382.488 Z-9.412
X231.383 Y382.497 Z-9.363
X231.351 Y382.502 Z-9.315
X231.328 Y382.503 Z-9.2
G0 Z5
X313.769 Y399.452
G1 Z0.25 F333.3
Z-9.2 F1000
X313.761 Y399.453 Z-9.267
X313.739 Y399.457 Z-9.33
X313.704 Y399.462 Z-9.387
X313.657 Y399.47 Z-9.435
X313.601 Y399.479 Z-9.47
X313.538 Y399.489 Z-9.492
X313.472 Y399.499 Z-9.5
X313.461 Y399.5
X234.066
G2 X232.575 Y400.839 I0 J1.5
X231.907 Y400.931 I0 J2.474
X231.34 Y401.294 I0.311 J1.111
G1 X231.335 Y401.3
G3 X230.745 Y401.321 I-0.305 J-0.264
X230.766 Y400.731 I0.285 J-0.285
X231.309 Y400.498 I0.637 J0.736
X231.568 Y400.757 I0.023 J0.236
X231.34 Y401.294 I-0.968 J-0.094
G1 X231.295 Y401.329 Z-9.489
X231.243 Y401.354 Z-9.477
X231.197 Y401.368 Z-9.445
X231.149 Y401.374 Z-9.412
X231.084 Y401.37 Z-9.315
X231.061 Y401.365 Z-9.2
G0 Z5
X318.462 Y398.712
G1 Z-9.23 F333.3
X318.455 Y398.713 Z-9.29 F1000
X318.436 Y398.716 Z-9.347
X318.404 Y398.721 Z-9.398
X318.362 Y398.728 Z-9.441
X318.311 Y398.736 Z-9.473
X318.255 Y398.744 Z-9.493
X318.195 Y398.754 Z-9.5
X313.508 Y399.496
X313.461 Y399.5
X234.066
G2 X232.566 Y401 I0 J1.5
G3 X229.566 Y401 I-1.5 J0
X231.066 Y399.5 I1.5 J0
G2 X232.566 Y398 I0 J-1.5
G1 Y385
G2 X231.066 Y383.5 I-1.5 J0
G3 X231.066 Y380.5 I0 J-1.5
X232.566 Y382 I0 J1.5
G2 X234.066 Y383.5 I1.5 J0
G1 X312.066
X313.463
X313.51 Y383.504
X314.991 Y383.738
X315.057 Y383.749 Z-9.492
X315.12 Y383.759 Z-9.47
X315.176 Y383.768 Z-9.435
X315.223 Y383.775 Z-9.387
X315.258 Y383.781 Z-9.33
X315.28 Y383.784 Z-9.267
X315.288 Y383.785 Z-9.2
G0 Z15

(2D Contour11)
X209.666 Y322.523
Z15
Z5
G1 Z-6.2 F333.3
G18 G2 X209.966 Z-6.5 I0.3 K0 F1000
G1 X210.266
G17 G3 X210.566 Y322.823 I0 J0.3
G1 Y371.739
G3 X206.484 Y381.412 I-13.5 J0.001
G1 X178.366 Y408.785
G2 X178.337 Y410.906 I1.046 J1.075
G1 X282.972 Y518.384
G2 X285.093 Y518.413 I1.075 J-1.046
G1 X308.576 Y495.552
G2 X313.566 Y483.73 I-11.51 J-11.822
G1 Y16
G2 X297.066 Y-0.5 I-16.5 J0
G1 X16
G2 X-0.5 Y16 I0 J16.5
G1 Y175.5
G2 X16 Y192 I16.5 J0
G1 X92.066
G2 X108.566 Y175.5 I0 J-16.5
G1 Y116
G3 X122.066 Y102.5 I13.5 J0
G1 X197.066
G3 X210.566 Y116 I0 J13.5
G1 Y322.823
G3 X210.266 Y323.123 I-0.3 J0
G1 X209.966
G18 G3 X209.666 Z-6.2 I0 K0.3
G1 Y322.523
Z-12.7 F333.3
G2 X209.966 Z-13 I0.3 K0 F1000
G1 X210.266
G17 G3 X210.566 Y322.823 I0 J0.3
G1 Y371.739
G3 X206.484 Y381.412 I-13.5 J0.001
G1 X178.366 Y408.785
G2 X178.337 Y410.906 I1.046 J1.075
G1 X282.972 Y518.384
G2 X285.093 Y518.413 I1.075 J-1.046
G1 X308.576 Y495.552
G2 X313.566 Y483.73 I-11.51 J-11.822
G1 Y16
G2 X297.066 Y-0.5 I-16.5 J0
G1 X16
G2 X-0.5 Y16 I0 J16.5
G1 Y175.5
G2 X16 Y192 I16.5 J0
G1 X92.066
G2 X108.566 Y175.5 I0 J-16.5
G1 Y116
G3 X122.066 Y102.5 I13.5 J0
G1 X197.066
G3 X210.566 Y116 I0 J13.5
G1 Y322.823
G3 X210.266 Y323.123 I-0.3 J0
G1 X209.966
G18 G3 X209.666 Z-12.7 I0 K0.3
G1 Y322.523
Z-18.7 F333.3
G2 X209.966 Z-19 I0.3 K0 F1000
G1 X210.266
G17 G3 X210.566 Y322.823 I0 J0.3
G1 Y371.739
G3 X206.484 Y381.412 I-13.5 J0.001
G1 X178.366 Y408.785
G2 X178.337 Y410.906 I1.046 J1.075
G1 X282.972 Y518.384
G2 X285.093 Y518.413 I1.075 J-1.046
G1 X308.576 Y495.552
G2 X313.566 Y483.73 I-11.51 J-11.822
G1 Y16
G2 X297.066 Y-0.5 I-16.5 J0
G1 X16
G2 X-0.5 Y16 I0 J16.5
G1 Y175.5
G2 X16 Y192 I16.5 J0
G1 X92.066
G2 X108.566 Y175.5 I0 J-16.5
G1 Y116
G3 X122.066 Y102.5 I13.5 J0
G1 X197.066
G3 X210.566 Y116 I0 J13.5
G1 Y322.823
G3 X210.266 Y323.123 I-0.3 J0
G1 X209.966
G18 G3 X209.666 Z-18.7 I0 K0.3
G0 Z15
G17
M9
M5
M30
