(TinyCNCBasisplatte)
(T3  D=3 CR=0 - ZMIN=-19 - flat end mill)
G90 G94
G17
G21

(2D Contour1)
T3
S5000 M3
G54
M8
G0 X11.035 Y83.265
Z15
Z5
G1 Z4 F333.3
Z-2.7
G18 G2 X11.335 Z-3 I0.3 K0 F1000
G1 X11.635
G17 G3 X11.935 Y83.565 I0 J0.3
G1 Y95.5
X-11.935
Y-51.5
X11.935
Y83.565
Y95.5
X-11.935
Y-51.5
X11.935
Y83.565
G3 X11.635 Y83.865 I-0.3 J0
G1 X11.335
G18 G3 X11.035 Z-2.7 I0 K0.3
G1 Y83.265
Z-5.7 F333.3
G2 X11.335 Z-6 I0.3 K0 F1000
G1 X11.635
G17 G3 X11.935 Y83.565 I0 J0.3
G1 Y95.5
X-11.935
Y-51.5
X11.935
Y83.565
Y95.5
X-11.935
Y-51.5
X11.935
Y83.565
G3 X11.635 Y83.865 I-0.3 J0
G1 X11.335
G18 G3 X11.035 Z-5.7 I0 K0.3
G1 Y83.265
Z-8.7 F333.3
G2 X11.335 Z-9 I0.3 K0 F1000
G1 X11.635
G17 G3 X11.935 Y83.565 I0 J0.3
G1 Y95.5
X-11.935
Y-51.5
X11.935
Y83.565
Y95.5
X-11.935
Y-51.5
X11.935
Y83.565
G3 X11.635 Y83.865 I-0.3 J0
G1 X11.335
G18 G3 X11.035 Z-8.7 I0 K0.3
G1 Y83.265
Z-11.7 F333.3
G2 X11.335 Z-12 I0.3 K0 F1000
G1 X11.635
G17 G3 X11.935 Y83.565 I0 J0.3
G1 Y95.5
X-11.935
Y-51.5
X11.935
Y83.565
Y95.5
X-11.935
Y-51.5
X11.935
Y83.565
G3 X11.635 Y83.865 I-0.3 J0
G1 X11.335
G18 G3 X11.035 Z-11.7 I0 K0.3
G1 Y83.265
Z-14.7 F333.3
G2 X11.335 Z-15 I0.3 K0 F1000
G1 X11.635
G17 G3 X11.935 Y83.565 I0 J0.3
G1 Y95.5
X-11.935
Y-51.5
X11.935
Y83.565
Y95.5
X-11.935
Y-51.5
X11.935
Y83.565
G3 X11.635 Y83.865 I-0.3 J0
G1 X11.335
G18 G3 X11.035 Z-14.7 I0 K0.3
G1 Y83.265
Z-17.7 F333.3
G2 X11.335 Z-18 I0.3 K0 F1000
G1 X11.635
G17 G3 X11.935 Y83.565 I0 J0.3
G1 Y95.5
X-11.935
Y-51.5
X11.935
Y83.565
Y95.5
X-11.935
Y-51.5
X11.935
Y83.565
G3 X11.635 Y83.865 I-0.3 J0
G1 X11.335
G18 G3 X11.035 Z-17.7 I0 K0.3
G1 Y83.265
Z-18.7 F333.3
G2 X11.335 Z-19 I0.3 K0 F1000
G1 X11.635
G17 G3 X11.935 Y83.565 I0 J0.3
G1 Y95.5
X-11.935
Y-51.5
X11.935
Y83.565
Y95.5
X-11.935
Y-51.5
X11.935
Y83.565
G3 X11.635 Y83.865 I-0.3 J0
G1 X11.335
G18 G3 X11.035 Z-18.7 I0 K0.3
G0 Z5
X19.1 Y-88.05
G1 Z4 F333.3
Z-2.7
G2 X19.4 Z-3 I0.3 K0 F1000
G1 X19.7
G17 G3 X20 Y-87.75 I0 J0.3
G1 Y-80.118
G2 X20.382 Y-79.118 I1.5 J0
X19.382 Y-79.5 I-1 J1.118
G1 X-19.382
G2 X-20.382 Y-79.118 I0 J1.5
X-20 Y-80.118 I-1.118 J-1
G1 Y-95.382
G2 X-20.382 Y-96.382 I-1.5 J0
X-19.382 Y-96 I1 J-1.118
G1 X19.382
G2 X20.382 Y-96.382 I0 J-1.5
X20 Y-95.382 I1.118 J1
G1 Y-80.118
G2 X20.382 Y-79.118 I1.5 J0
X19.382 Y-79.5 I-1 J1.118
G1 X-19.382
G2 X-20.382 Y-79.118 I0 J1.5
X-20 Y-80.118 I-1.118 J-1
G1 Y-95.382
G2 X-20.382 Y-96.382 I-1.5 J0
X-19.382 Y-96 I1 J-1.118
G1 X19.382
G2 X20.382 Y-96.382 I0 J-1.5
X20 Y-95.382 I1.118 J1
G1 Y-87.75
G3 X19.7 Y-87.45 I-0.3 J0
G1 X19.4
G18 G3 X19.1 Z-2.7 I0 K0.3
G1 Y-88.05
Z-5.7 F333.3
G2 X19.4 Z-6 I0.3 K0 F1000
G1 X19.7
G17 G3 X20 Y-87.75 I0 J0.3
G1 Y-80.118
G2 X20.382 Y-79.118 I1.5 J0
X19.382 Y-79.5 I-1 J1.118
G1 X-19.382
G2 X-20.382 Y-79.118 I0 J1.5
X-20 Y-80.118 I-1.118 J-1
G1 Y-95.382
G2 X-20.382 Y-96.382 I-1.5 J0
X-19.382 Y-96 I1 J-1.118
G1 X19.382
G2 X20.382 Y-96.382 I0 J-1.5
X20 Y-95.382 I1.118 J1
G1 Y-80.118
G2 X20.382 Y-79.118 I1.5 J0
X19.382 Y-79.5 I-1 J1.118
G1 X-19.382
G2 X-20.382 Y-79.118 I0 J1.5
X-20 Y-80.118 I-1.118 J-1
G1 Y-95.382
G2 X-20.382 Y-96.382 I-1.5 J0
X-19.382 Y-96 I1 J-1.118
G1 X19.382
G2 X20.382 Y-96.382 I0 J-1.5
X20 Y-95.382 I1.118 J1
G1 Y-87.75
G3 X19.7 Y-87.45 I-0.3 J0
G1 X19.4
G18 G3 X19.1 Z-5.7 I0 K0.3
G1 Y-88.05
Z-8.7 F333.3
G2 X19.4 Z-9 I0.3 K0 F1000
G1 X19.7
G17 G3 X20 Y-87.75 I0 J0.3
G1 Y-80.118
G2 X20.382 Y-79.118 I1.5 J0
X19.382 Y-79.5 I-1 J1.118
G1 X-19.382
G2 X-20.382 Y-79.118 I0 J1.5
X-20 Y-80.118 I-1.118 J-1
G1 Y-95.382
G2 X-20.382 Y-96.382 I-1.5 J0
X-19.382 Y-96 I1 J-1.118
G1 X19.382
G2 X20.382 Y-96.382 I0 J-1.5
X20 Y-95.382 I1.118 J1
G1 Y-80.118
G2 X20.382 Y-79.118 I1.5 J0
X19.382 Y-79.5 I-1 J1.118
G1 X-19.382
G2 X-20.382 Y-79.118 I0 J1.5
X-20 Y-80.118 I-1.118 J-1
G1 Y-95.382
G2 X-20.382 Y-96.382 I-1.5 J0
X-19.382 Y-96 I1 J-1.118
G1 X19.382
G2 X20.382 Y-96.382 I0 J-1.5
X20 Y-95.382 I1.118 J1
G1 Y-87.75
G3 X19.7 Y-87.45 I-0.3 J0
G1 X19.4
G18 G3 X19.1 Z-8.7 I0 K0.3
G1 Y-88.05
Z-11.7 F333.3
G2 X19.4 Z-12 I0.3 K0 F1000
G1 X19.7
G17 G3 X20 Y-87.75 I0 J0.3
G1 Y-80.118
G2 X20.382 Y-79.118 I1.5 J0
X19.382 Y-79.5 I-1 J1.118
G1 X-19.382
G2 X-20.382 Y-79.118 I0 J1.5
X-20 Y-80.118 I-1.118 J-1
G1 Y-95.382
G2 X-20.382 Y-96.382 I-1.5 J0
X-19.382 Y-96 I1 J-1.118
G1 X19.382
G2 X20.382 Y-96.382 I0 J-1.5
X20 Y-95.382 I1.118 J1
G1 Y-80.118
G2 X20.382 Y-79.118 I1.5 J0
X19.382 Y-79.5 I-1 J1.118
G1 X-19.382
G2 X-20.382 Y-79.118 I0 J1.5
X-20 Y-80.118 I-1.118 J-1
G1 Y-95.382
G2 X-20.382 Y-96.382 I-1.5 J0
X-19.382 Y-96 I1 J-1.118
G1 X19.382
G2 X20.382 Y-96.382 I0 J-1.5
X20 Y-95.382 I1.118 J1
G1 Y-87.75
G3 X19.7 Y-87.45 I-0.3 J0
G1 X19.4
G18 G3 X19.1 Z-11.7 I0 K0.3
G1 Y-88.05
Z-14.7 F333.3
G2 X19.4 Z-15 I0.3 K0 F1000
G1 X19.7
G17 G3 X20 Y-87.75 I0 J0.3
G1 Y-80.118
G2 X20.382 Y-79.118 I1.5 J0
X19.382 Y-79.5 I-1 J1.118
G1 X-19.382
G2 X-20.382 Y-79.118 I0 J1.5
X-20 Y-80.118 I-1.118 J-1
G1 Y-95.382
G2 X-20.382 Y-96.382 I-1.5 J0
X-19.382 Y-96 I1 J-1.118
G1 X19.382
G2 X20.382 Y-96.382 I0 J-1.5
X20 Y-95.382 I1.118 J1
G1 Y-80.118
G2 X20.382 Y-79.118 I1.5 J0
X19.382 Y-79.5 I-1 J1.118
G1 X-19.382
G2 X-20.382 Y-79.118 I0 J1.5
X-20 Y-80.118 I-1.118 J-1
G1 Y-95.382
G2 X-20.382 Y-96.382 I-1.5 J0
X-19.382 Y-96 I1 J-1.118
G1 X19.382
G2 X20.382 Y-96.382 I0 J-1.5
X20 Y-95.382 I1.118 J1
G1 Y-87.75
G3 X19.7 Y-87.45 I-0.3 J0
G1 X19.4
G18 G3 X19.1 Z-14.7 I0 K0.3
G1 Y-88.05
Z-17.7 F333.3
G2 X19.4 Z-18 I0.3 K0 F1000
G1 X19.7
G17 G3 X20 Y-87.75 I0 J0.3
G1 Y-80.118
G2 X20.382 Y-79.118 I1.5 J0
X19.382 Y-79.5 I-1 J1.118
G1 X-19.382
G2 X-20.382 Y-79.118 I0 J1.5
X-20 Y-80.118 I-1.118 J-1
G1 Y-95.382
G2 X-20.382 Y-96.382 I-1.5 J0
X-19.382 Y-96 I1 J-1.118
G1 X19.382
G2 X20.382 Y-96.382 I0 J-1.5
X20 Y-95.382 I1.118 J1
G1 Y-80.118
G2 X20.382 Y-79.118 I1.5 J0
X19.382 Y-79.5 I-1 J1.118
G1 X-19.382
G2 X-20.382 Y-79.118 I0 J1.5
X-20 Y-80.118 I-1.118 J-1
G1 Y-95.382
G2 X-20.382 Y-96.382 I-1.5 J0
X-19.382 Y-96 I1 J-1.118
G1 X19.382
G2 X20.382 Y-96.382 I0 J-1.5
X20 Y-95.382 I1.118 J1
G1 Y-87.75
G3 X19.7 Y-87.45 I-0.3 J0
G1 X19.4
G18 G3 X19.1 Z-17.7 I0 K0.3
G1 Y-88.05
Z-18.7 F333.3
G2 X19.4 Z-19 I0.3 K0 F1000
G1 X19.7
G17 G3 X20 Y-87.75 I0 J0.3
G1 Y-80.118
G2 X20.382 Y-79.118 I1.5 J0
X19.382 Y-79.5 I-1 J1.118
G1 X-19.382
G2 X-20.382 Y-79.118 I0 J1.5
X-20 Y-80.118 I-1.118 J-1
G1 Y-95.382
G2 X-20.382 Y-96.382 I-1.5 J0
X-19.382 Y-96 I1 J-1.118
G1 X19.382
G2 X20.382 Y-96.382 I0 J-1.5
X20 Y-95.382 I1.118 J1
G1 Y-80.118
G2 X20.382 Y-79.118 I1.5 J0
X19.382 Y-79.5 I-1 J1.118
G1 X-19.382
G2 X-20.382 Y-79.118 I0 J1.5
X-20 Y-80.118 I-1.118 J-1
G1 Y-95.382
G2 X-20.382 Y-96.382 I-1.5 J0
X-19.382 Y-96 I1 J-1.118
G1 X19.382
G2 X20.382 Y-96.382 I0 J-1.5
X20 Y-95.382 I1.118 J1
G1 Y-87.75
G3 X19.7 Y-87.45 I-0.3 J0
G1 X19.4
G18 G3 X19.1 Z-18.7 I0 K0.3
G0 Z15
G17

(Adaptive1)
G0 X-50.268 Y-123.584
Z15
Z5
Z2.5
G3 X-48.52 Y-121.658 Z2.392 I0.268 J1.513 F333.3
X-51.011 Y-120.917 Z2.283 I-1.478 J-0.413
X-50.6 Y-123.48 Z2.175 I1.011 J-1.152
X-48.471 Y-122.001 Z2.067 I0.6 J1.409
X-50.723 Y-120.724 Z1.958 I-1.528 J-0.07
X-50.898 Y-123.304 Z1.85 I0.724 J-1.345
X-48.5 Y-122.346 Z1.742 I0.898 J1.233
X-50.4 Y-120.602 Z1.633 I-1.499 J0.275
X-51.148 Y-123.067 Z1.525 I0.401 J-1.468
X-48.605 Y-122.674 Z1.417 I1.148 J0.996
X-50.059 Y-120.555 Z1.308 I-1.393 J0.602
X-51.338 Y-122.78 Z1.2 I0.06 J-1.515
X-48.781 Y-122.968 Z1.092 I1.337 J0.71
X-49.718 Y-120.586 Z0.983 I-1.217 J0.897
X-51.458 Y-122.459 Z0.875 I-0.281 J-1.484
X-49.018 Y-123.215 Z0.767 I1.457 J0.389
X-49.393 Y-120.692 Z0.658 I-0.981 J1.143
X-51.502 Y-122.121 Z0.55 I-0.605 J-1.378
X-49.303 Y-123.401 Z0.442 I1.502 J0.051
X-49.102 Y-120.868 Z0.333 I-0.696 J1.33
X-51.469 Y-121.783 Z0.225 I-0.896 J-1.202
X-49.622 Y-123.518 Z0.117 I1.469 J-0.287
X-48.859 Y-121.105 Z0.008 I-0.378 J1.447
X-51.362 Y-121.462 Z-0.1 I-1.139 J-0.966
X-49.957 Y-123.56 Z-0.208 I1.362 J-0.607
X-48.676 Y-121.388 Z-0.317 I-0.042 J1.489
X-51.186 Y-121.175 Z-0.425 I-1.322 J-0.682
X-50.292 Y-123.526 Z-0.533 I1.186 J-0.895
X-48.562 Y-121.705 Z-0.642 I0.292 J1.455
X-50.95 Y-120.935 Z-0.75 I-1.436 J-0.366
X-50.61 Y-123.418 Z-0.858 I0.951 J-1.134
X-48.522 Y-122.037 Z-0.967 I0.61 J1.346
X-50.668 Y-120.755 Z-1.075 I-1.476 J-0.034
X-50.894 Y-123.241 Z-1.183 I0.669 J-1.314
X-48.558 Y-122.369 Z-1.292 I0.893 J1.17
X-50.354 Y-120.644 Z-1.4 I-1.44 J0.298
X-51.13 Y-123.006 Z-1.508 I0.355 J-1.425
X-48.668 Y-122.683 Z-1.617 I1.129 J0.936
X-50.024 Y-120.607 Z-1.725 I-1.331 J0.612
X-51.306 Y-122.726 Z-1.833 I0.025 J-1.463
X-48.844 Y-122.964 Z-1.942 I1.306 J0.655
X-49.695 Y-120.644 Z-2.05 I-1.155 J0.892
X-51.415 Y-122.414 Z-2.158 I-0.303 J-1.425
X-49.078 Y-123.196 Z-2.267 I1.414 J0.343
X-49.384 Y-120.754 Z-2.375 I-0.921 J1.125
X-51.45 Y-122.086 Z-2.483 I-0.614 J-1.315
X-49.357 Y-123.369 Z-2.592 I1.45 J0.017
X-49.108 Y-120.931 Z-2.7 I-0.642 J1.298
X-51.411 Y-121.761 Z-2.808 I-0.89 J-1.139
X-49.667 Y-123.475 Z-2.917 I1.411 J-0.309
X-48.879 Y-121.164 Z-3.025 I-0.332 J1.403
X-51.3 Y-121.454 Z-3.133 I-1.119 J-0.906
X-49.992 Y-123.508 Z-3.242 I1.3 J-0.616
X-48.709 Y-121.442 Z-3.35 I-0.008 J1.436
X-51.123 Y-121.181 Z-3.458 I-1.289 J-0.629
X-50.314 Y-123.467 Z-3.567 I1.124 J-0.889
X-48.606 Y-121.749 Z-3.675 I0.314 J1.396
X-50.891 Y-120.955 Z-3.783 I-1.392 J-0.321
X-50.618 Y-123.356 Z-3.892 I0.892 J-1.114
X-48.575 Y-122.071 Z-4 I0.617 J1.285
X-51.425 Y-122.071 I-1.425 J0
X-48.575 Y-122.071 I1.425 J0
G1 X-48.545 Y-121.448 F1000
X-48.52 Y-121.374
X-48.492 Y-121.227
X-48.494 Y-121.077
X-48.522 Y-120.929
X-48.571 Y-120.787
X-48.638 Y-120.653
X-48.72 Y-120.528
X-48.816 Y-120.412
X-48.923 Y-120.307
X-49.039 Y-120.212
X-49.164 Y-120.129
X-49.296 Y-120.057
X-49.433 Y-119.997
X-49.575 Y-119.949
X-49.722 Y-119.911
X-49.876 Y-119.885
X-50.033 Y-119.871
X-50.194 Y-119.87
X-50.357 Y-119.882
X-50.521 Y-119.907
X-50.684 Y-119.946
X-50.845 Y-119.998
X-51.003 Y-120.064
X-51.156 Y-120.143
X-51.304 Y-120.234
X-51.445 Y-120.338
X-51.577 Y-120.453
X-51.701 Y-120.58
X-51.713 Y-120.594
X-51.801 Y-120.729
X-51.856 Y-120.881
X-51.875 Y-121.042
Y-122.355
X-51.852 Y-122.638
X-51.783 Y-122.922
X-51.716 Y-123.095
X-51.664 Y-123.205
X-51.484 Y-123.489
X-51.432 Y-123.558
X-51.221 Y-123.773
X-51.149 Y-123.828
X-50.865 Y-124.011
X-50.771 Y-124.056
X-50.582 Y-124.133
X-50.299 Y-124.204
X-50.015 Y-124.23
X-49.732 Y-124.209
X-49.449 Y-124.143
X-49.229 Y-124.056
X-49.165 Y-124.027
X-48.882 Y-123.854
X-48.774 Y-123.773
X-48.598 Y-123.599
X-48.512 Y-123.489
X-48.336 Y-123.205
X-48.315 Y-123.161
X-48.217 Y-122.922
X-48.148 Y-122.638
X-48.125 Y-122.355
Y-120.711
X-48.132 Y-120.561
X-48.157 Y-120.413
X-48.199 Y-120.269
X-48.255 Y-120.13
X-48.325 Y-119.998
X-48.408 Y-119.872
X-48.5 Y-119.754
X-48.605 Y-119.642
X-48.725 Y-119.533
X-48.856 Y-119.431
X-49 Y-119.337
X-49.158 Y-119.251
X-49.329 Y-119.174
X-49.513 Y-119.11
X-49.706 Y-119.059
X-49.907 Y-119.023
X-50.114 Y-119.003
X-50.327 Y-118.999
X-50.546 Y-119.013
X-50.767 Y-119.045
X-50.989 Y-119.096
X-51.21 Y-119.166
X-51.427 Y-119.254
X-51.489 Y-119.285
X-51.648 Y-119.394
X-51.771 Y-119.543
X-51.848 Y-119.719
X-51.875 Y-119.91
Y-121.042
G3 X-51.565 Y-121.331 Z-3.8 I0.3 J0.01
G1 X-51.544 Y-121.329
X-51.293 Y-121.303
X-48.707 Y-121.032
X-48.435 Y-121.003
X-48.393 Y-120.999 Z-3.818
G3 X-48.125 Y-120.711 Z-4 I-0.031 J0.298
G1 Y-119.756
X-48.132 Y-119.606
X-48.163 Y-119.459
X-48.213 Y-119.318
X-48.279 Y-119.183
X-48.357 Y-119.055
X-48.447 Y-118.935
X-48.552 Y-118.818
X-48.669 Y-118.707
X-48.803 Y-118.599
X-48.958 Y-118.493
X-49.129 Y-118.395
X-49.312 Y-118.309
X-49.515 Y-118.233
X-49.737 Y-118.17
X-49.973 Y-118.123
X-50.218 Y-118.094
X-50.472 Y-118.084
X-50.732 Y-118.096
X-50.953 Y-118.123
X-51.171 Y-118.168
X-51.344 Y-118.219
X-51.425 Y-118.25
X-51.608 Y-118.353
X-51.752 Y-118.507
X-51.843 Y-118.696
X-51.875 Y-118.904
Y-119.91
G3 X-51.565 Y-120.2 Z-3.8 I0.3 J0.01
G1 X-51.56
X-51.292 Y-120.186
X-48.708 Y-120.059
X-48.435 Y-120.046
X-48.41 Y-120.045 Z-3.811
G3 X-48.125 Y-119.756 Z-4 I-0.015 J0.3
G1 Y-118.866
X-48.132 Y-118.717
X-48.166 Y-118.57
X-48.218 Y-118.43
X-48.285 Y-118.296
X-48.366 Y-118.169
X-48.456 Y-118.049
X-48.566 Y-117.928
X-48.691 Y-117.811
X-48.835 Y-117.695
X-49.004 Y-117.581
X-49.187 Y-117.477
X-49.391 Y-117.382
X-49.62 Y-117.298
X-49.863 Y-117.229
X-50.118 Y-117.18
X-50.378 Y-117.15
X-50.622 Y-117.142
X-50.841 Y-117.153
X-51.055 Y-117.18
X-51.226 Y-117.216
X-51.401 Y-117.268
X-51.427 Y-117.278
X-51.609 Y-117.382
X-51.752 Y-117.535
X-51.844 Y-117.724
X-51.875 Y-117.931
Y-118.904
G3 X-51.572 Y-119.193 Z-3.803 I0.3 J0.01
G1 X-51.565 Z-3.8
X-51.291 Y-119.19
X-48.709 Y-119.159
X-48.435 Y-119.156
X-48.421 Z-3.806
G3 X-48.125 Y-118.866 Z-4 I-0.004 J0.3
G1 Y-118.016
X-48.132 Y-117.866
X-48.162 Y-117.719
X-48.209 Y-117.576
X-48.272 Y-117.44
X-48.348 Y-117.311
X-48.438 Y-117.186
X-48.541 Y-117.065
X-48.667 Y-116.938
X-48.812 Y-116.814
X-48.976 Y-116.695
X-49.166 Y-116.579
X-49.376 Y-116.473
X-49.6 Y-116.383
X-49.837 Y-116.308
X-50.088 Y-116.25
X-50.342 Y-116.213
X-50.589 Y-116.197
X-50.796 Y-116.2
X-51.011 Y-116.221
X-51.185 Y-116.252
X-51.349 Y-116.295
X-51.406 Y-116.315
X-51.596 Y-116.416
X-51.746 Y-116.571
X-51.842 Y-116.763
X-51.875 Y-116.976
Y-117.931
G3 X-51.583 Y-118.221 Z-3.808 I0.3 J0.01
G1 X-51.565 Z-3.8
X-51.291 Y-118.229
X-48.709 Y-118.298
X-48.435 Y-118.305
X-48.433 Z-3.801
G3 X-48.125 Y-118.016 Z-4 I0.008 J0.3
G1 Y-117.095
X-48.132 Y-116.945
X-48.164 Y-116.798
X-48.213 Y-116.657
X-48.277 Y-116.521
X-48.354 Y-116.392
X-48.445 Y-116.264
X-48.554 Y-116.135
X-48.68 Y-116.008
X-48.832 Y-115.877
X-49 Y-115.755
X-49.19 Y-115.639
X-49.403 Y-115.531
X-49.632 Y-115.438
X-49.873 Y-115.361
X-50.121 Y-115.304
X-50.371 Y-115.267
X-50.601 Y-115.252
X-50.813 Y-115.255
X-51.02 Y-115.274
X-51.186 Y-115.304
X-51.357 Y-115.348
X-51.405 Y-115.365
X-51.595 Y-115.466
X-51.746 Y-115.62
X-51.842 Y-115.813
X-51.875 Y-116.026
Y-116.976
G3 X-51.587 Y-117.265 Z-3.809 I0.3 J0.01
G1 X-51.565 Y-117.266 Z-3.8
X-51.291 Y-117.276
X-48.709 Y-117.374
X-48.436 Y-117.384
X-48.435
G3 X-48.125 Y-117.095 Z-4 I0.01 J0.3
G1 Y-116.174
X-48.132 Y-116.024
X-48.164 Y-115.877
X-48.212 Y-115.736
X-48.276 Y-115.6
X-48.351 Y-115.47
X-48.444 Y-115.338
X-48.55 Y-115.21
X-48.679 Y-115.079
X-48.831 Y-114.946
X-48.998 Y-114.823
X-49.189 Y-114.704
X-49.402 Y-114.595
X-49.629 Y-114.5
X-49.869 Y-114.422
X-50.114 Y-114.363
X-50.363 Y-114.325
X-50.593 Y-114.308
X-50.802 Y-114.309
X-51.009 Y-114.327
X-51.177 Y-114.355
X-51.345 Y-114.398
X-51.401 Y-114.417
X-51.592 Y-114.517
X-51.744 Y-114.672
X-51.841 Y-114.865
X-51.875 Y-115.079
Y-116.026
G3 X-51.589 Y-116.315 Z-3.81 I0.3 J0.01
G1 X-51.565 Y-116.316 Z-3.8
X-51.292 Y-116.329
X-48.708 Y-116.451
X-48.439 Y-116.463
X-48.435
G3 X-48.125 Y-116.174 Z-4 I0.01 J0.3
G1 Y-115.266
X-48.132 Y-115.116
X-48.16 Y-114.969
X-48.206 Y-114.826
X-48.266 Y-114.688
X-48.339 Y-114.557
X-48.428 Y-114.425
X-48.531 Y-114.298
X-48.657 Y-114.164
X-48.804 Y-114.031
X-48.967 Y-113.907
X-49.155 Y-113.785
X-49.365 Y-113.672
X-49.588 Y-113.574
X-49.823 Y-113.493
X-50.067 Y-113.43
X-50.315 Y-113.387
X-50.55 Y-113.366
X-50.757 Y-113.363
X-50.971 Y-113.378
X-51.143 Y-113.404
X-51.308 Y-113.442
X-51.389 Y-113.468
X-51.585 Y-113.567
X-51.74 Y-113.722
X-51.841 Y-113.918
X-51.875 Y-114.135
Y-115.079
G3 X-51.593 Y-115.368 Z-3.812 I0.3 J0.01
G1 X-51.565 Y-115.37 Z-3.8
X-51.292 Y-115.386
X-48.708 Y-115.539
X-48.443 Y-115.555
X-48.435
G3 X-48.125 Y-115.266 Z-4 I0.01 J0.3
G1 Y-114.329
X-48.132 Y-114.18
X-48.16 Y-114.032
X-48.205 Y-113.889
X-48.265 Y-113.752
X-48.338 Y-113.62
X-48.426 Y-113.49
X-48.531 Y-113.358
X-48.654 Y-113.227
X-48.802 Y-113.092
X-48.966 Y-112.966
X-49.151 Y-112.846
X-49.359 Y-112.733
X-49.582 Y-112.635
X-49.819 Y-112.552
X-50.063 Y-112.488
X-50.31 Y-112.445
X-50.542 Y-112.423
X-50.753 Y-112.42
X-50.966 Y-112.434
X-51.136 Y-112.459
X-51.304 Y-112.498
X-51.387 Y-112.524
X-51.584 Y-112.623
X-51.74 Y-112.778
X-51.84 Y-112.974
X-51.875 Y-113.191
Y-114.135
G3 X-51.594 Y-114.424 Z-3.812 I0.3 J0.01
G1 X-51.565 Y-114.426 Z-3.8
X-51.292 Y-114.443
X-48.708 Y-114.602
X-48.443 Y-114.618
X-48.435 Y-114.619
G3 X-48.125 Y-114.329 Z-4 I0.01 J0.3
G1 Y-113.409
X-48.132 Y-113.259
X-48.157 Y-113.111
X-48.2 Y-112.967
X-48.258 Y-112.829
X-48.329 Y-112.697
X-48.415 Y-112.565
X-48.516 Y-112.436
X-48.637 Y-112.303
X-48.782 Y-112.168
X-48.942 Y-112.042
X-49.125 Y-111.92
X-49.33 Y-111.805
X-49.552 Y-111.704
X-49.786 Y-111.62
X-50.028 Y-111.553
X-50.275 Y-111.507
X-50.511 Y-111.481
X-50.721 Y-111.476
X-50.938 Y-111.488
X-51.113 Y-111.511
X-51.278 Y-111.547
X-51.379 Y-111.578
X-51.578 Y-111.676
X-51.737 Y-111.831
X-51.84 Y-112.028
X-51.875 Y-112.248
Y-113.191
G3 X-51.596 Y-113.48 Z-3.813 I0.3 J0.01
G1 X-51.565 Y-113.482 Z-3.8
X-51.292 Y-113.501
X-48.708 Y-113.679
X-48.445 Y-113.697
X-48.435 Y-113.698
G3 X-48.125 Y-113.409 Z-4 I0.01 J0.3
G1 Y-112.43
X-48.132 Y-112.28
X-48.162 Y-112.133
X-48.209 Y-111.991
X-48.271 Y-111.854
X-48.345 Y-111.724
X-48.432 Y-111.596
X-48.542 Y-111.46
X-48.665 Y-111.33
X-48.813 Y-111.198
X-48.985 Y-111.067
X-49.171 Y-110.948
X-49.377 Y-110.838
X-49.6 Y-110.742
X-49.839 Y-110.66
X-50.083 Y-110.598
X-50.33 Y-110.556
X-50.559 Y-110.536
X-50.778 Y-110.535
X-50.982 Y-110.549
X-51.149 Y-110.575
X-51.322 Y-110.616
X-51.391 Y-110.639
X-51.586 Y-110.738
X-51.741 Y-110.893
X-51.841 Y-111.088
X-51.875 Y-111.305
Y-112.248
G3 X-51.593 Y-112.537 Z-3.812 I0.3 J0.01
G1 X-51.565 Y-112.538 Z-3.8
X-51.292 Y-112.554
X-48.708 Y-112.704
X-48.442 Y-112.719
X-48.435 Y-112.72
G3 X-48.125 Y-112.43 Z-4 I0.01 J0.3
G1 Y-111.494
X-48.132 Y-111.344
X-48.161 Y-111.197
X-48.207 Y-111.054
X-48.268 Y-110.917
X-48.341 Y-110.786
X-48.431 Y-110.655
X-48.536 Y-110.524
X-48.661 Y-110.392
X-48.811 Y-110.257
X-48.976 Y-110.131
X-49.163 Y-110.01
X-49.371 Y-109.899
X-49.596 Y-109.8
X-49.834 Y-109.719
X-50.077 Y-109.656
X-50.325 Y-109.614
X-50.556 Y-109.593
X-50.766 Y-109.591
X-50.977 Y-109.605
X-51.146 Y-109.631
X-51.314 Y-109.671
X-51.39 Y-109.695
X-51.585 Y-109.794
X-51.741 Y-109.949
X-51.841 Y-110.145
X-51.875 Y-110.361
Y-111.305
G3 X-51.593 Y-111.594 Z-3.812 I0.3 J0.01
G1 X-51.565 Y-111.595 Z-3.8
X-51.292 Y-111.612
X-48.708 Y-111.767
X-48.443 Y-111.783
X-48.435
G3 X-48.125 Y-111.494 Z-4 I0.01 J0.3
G1 Y-110.573
X-48.132 Y-110.423
X-48.158 Y-110.275
X-48.202 Y-110.132
X-48.26 Y-109.994
X-48.332 Y-109.862
X-48.419 Y-109.73
X-48.521 Y-109.601
X-48.643 Y-109.468
X-48.79 Y-109.333
X-48.95 Y-109.207
X-49.135 Y-109.084
X-49.342 Y-108.97
X-49.564 Y-108.87
X-49.799 Y-108.786
X-50.041 Y-108.721
X-50.288 Y-108.675
X-50.523 Y-108.651
X-50.732 Y-108.646
X-50.948 Y-108.659
X-51.122 Y-108.683
X-51.287 Y-108.72
X-51.381 Y-108.749
X-51.58 Y-108.847
X-51.738 Y-109.002
X-51.84 Y-109.199
X-51.875 Y-109.418
Y-110.361
G3 X-51.595 Y-110.65 Z-3.813 I0.3 J0.01
G1 X-51.565 Y-110.652 Z-3.8
X-51.292 Y-110.671
X-48.708 Y-110.844
X-48.445 Y-110.862
X-48.435
G3 X-48.125 Y-110.573 Z-4 I0.01 J0.3
G1 Y-109.595
X-48.132 Y-109.445
X-48.163 Y-109.298
X-48.211 Y-109.156
X-48.273 Y-109.019
X-48.348 Y-108.889
X-48.436 Y-108.761
X-48.547 Y-108.625
X-48.671 Y-108.495
X-48.821 Y-108.362
X-48.993 Y-108.232
X-49.18 Y-108.113
X-49.388 Y-108.004
X-49.611 Y-107.908
X-49.85 Y-107.827
X-50.095 Y-107.766
X-50.343 Y-107.725
X-50.57 Y-107.706
X-50.788 Y-107.705
X-50.991 Y-107.721
X-51.157 Y-107.747
X-51.33 Y-107.789
X-51.394 Y-107.81
X-51.588 Y-107.91
X-51.742 Y-108.064
X-51.841 Y-108.259
X-51.875 Y-108.475
Y-109.418
G3 X-51.592 Y-109.707 Z-3.811 I0.3 J0.01
G1 X-51.565 Y-109.709 Z-3.8
X-51.292 Y-109.724
X-48.708 Y-109.869
X-48.442 Y-109.884
X-48.435
G3 X-48.125 Y-109.595 Z-4 I0.01 J0.3
G1 Y-108.658
X-48.132 Y-108.508
X-48.162 Y-108.361
X-48.209 Y-108.219
X-48.27 Y-108.082
X-48.344 Y-107.952
X-48.435 Y-107.819
X-48.54 Y-107.689
X-48.666 Y-107.556
X-48.817 Y-107.422
X-48.983 Y-107.296
X-49.171 Y-107.176
X-49.38 Y-107.065
X-49.606 Y-106.967
X-49.844 Y-106.886
X-50.088 Y-106.824
X-50.336 Y-106.782
X-50.565 Y-106.762
X-50.776 Y-106.761
X-50.985 Y-106.777
X-51.153 Y-106.803
X-51.321 Y-106.843
X-51.392 Y-106.866
X-51.587 Y-106.965
X-51.741 Y-107.12
X-51.841 Y-107.315
X-51.875 Y-107.531
Y-108.475
G3 X-51.593 Y-108.764 Z-3.812 I0.3 J0.01
G1 X-51.565 Y-108.766 Z-3.8
X-51.292 Y-108.781
X-48.708 Y-108.932
X-48.442 Y-108.947
X-48.435 Y-108.948
G3 X-48.125 Y-108.658 Z-4 I0.01 J0.3
G1 Y-107.737
X-48.132 Y-107.588
X-48.159 Y-107.44
X-48.203 Y-107.297
X-48.262 Y-107.159
X-48.334 Y-107.027
X-48.423 Y-106.895
X-48.525 Y-106.766
X-48.648 Y-106.632
X-48.795 Y-106.498
X-48.957 Y-106.372
X-49.143 Y-106.25
X-49.35 Y-106.136
X-49.573 Y-106.037
X-49.808 Y-105.953
X-50.051 Y-105.889
X-50.298 Y-105.844
X-50.532 Y-105.821
X-50.741 Y-105.817
X-50.956 Y-105.83
X-51.129 Y-105.855
X-51.294 Y-105.892
X-51.384 Y-105.92
X-51.581 Y-106.018
X-51.739 Y-106.173
X-51.84 Y-106.37
X-51.875 Y-106.588
Y-107.531
G3 X-51.595 Y-107.82 Z-3.813 I0.3 J0.01
G1 X-51.565 Y-107.822 Z-3.8
X-51.292 Y-107.84
X-48.708 Y-108.009
X-48.444 Y-108.026
X-48.435 Y-108.027
G3 X-48.125 Y-107.737 Z-4 I0.01 J0.3
G1 Y-106.759
X-48.132 Y-106.609
X-48.164 Y-106.463
X-48.212 Y-106.321
X-48.275 Y-106.185
X-48.35 Y-106.055
X-48.44 Y-105.926
X-48.551 Y-105.79
X-48.676 Y-105.66
X-48.827 Y-105.527
X-49 Y-105.397
X-49.188 Y-105.279
X-49.396 Y-105.17
X-49.621 Y-105.074
X-49.86 Y-104.994
X-50.105 Y-104.934
X-50.353 Y-104.894
X-50.579 Y-104.876
X-50.797
X-50.999 Y-104.892
X-51.164 Y-104.919
X-51.337 Y-104.961
X-51.396 Y-104.981
X-51.589 Y-105.081
X-51.743 Y-105.235
X-51.841 Y-105.43
X-51.875 Y-105.645
Y-106.588
G3 X-51.591 Y-106.877 Z-3.811 I0.3 J0.01
G1 X-51.565 Y-106.879 Z-3.8
X-51.292 Y-106.894
X-48.708 Y-107.034
X-48.441 Y-107.048
X-48.435 Y-107.049
G3 X-48.125 Y-106.759 Z-4 I0.01 J0.3
G1 Y-105.823
X-48.132 Y-105.673
X-48.163 Y-105.526
X-48.21 Y-105.384
X-48.272 Y-105.247
X-48.347 Y-105.117
X-48.438 Y-104.984
X-48.544 Y-104.854
X-48.671 Y-104.721
X-48.823 Y-104.587
X-48.989 Y-104.461
X-49.178 Y-104.341
X-49.388 Y-104.23
X-49.615 Y-104.133
X-49.853 Y-104.053
X-50.097 Y-103.992
X-50.345 Y-103.951
X-50.574 Y-103.932
X-50.784 Y-103.931
X-50.992 Y-103.947
X-51.159 Y-103.974
X-51.328 Y-104.015
X-51.394 Y-104.036
X-51.588 Y-104.136
X-51.742 Y-104.291
X-51.841 Y-104.486
X-51.875 Y-104.701
Y-105.645
G3 X-51.592 Y-105.934 Z-3.812 I0.3 J0.01
G1 X-51.565 Y-105.935 Z-3.8
X-51.292 Y-105.951
X-48.708 Y-106.097
X-48.442 Y-106.112
X-48.435
G3 X-48.125 Y-105.823 Z-4 I0.01 J0.3
G1 Y-104.902
X-48.132 Y-104.752
X-48.159 Y-104.604
X-48.204 Y-104.461
X-48.264 Y-104.324
X-48.337 Y-104.193
X-48.426 Y-104.06
X-48.528 Y-103.931
X-48.653 Y-103.797
X-48.801 Y-103.663
X-48.963 Y-103.537
X-49.15 Y-103.415
X-49.358 Y-103.302
X-49.582 Y-103.203
X-49.817 Y-103.12
X-50.06 Y-103.057
X-50.307 Y-103.013
X-50.541 Y-102.99
X-50.749 Y-102.987
X-50.963 Y-103.001
X-51.135 Y-103.026
X-51.3 Y-103.064
X-51.386 Y-103.09
X-51.583 Y-103.189
X-51.74 Y-103.344
X-51.84 Y-103.54
X-51.875 Y-103.758
Y-104.701
G3 X-51.594 Y-104.99 Z-3.812 I0.3 J0.01
G1 X-51.565 Y-104.992 Z-3.8
X-51.292 Y-105.01
X-48.708 Y-105.174
X-48.444 Y-105.191
X-48.435
G3 X-48.125 Y-104.902 Z-4 I0.01 J0.3
G1 Y-103.924
X-48.132 Y-103.774
X-48.165 Y-103.627
X-48.214 Y-103.485
X-48.277 Y-103.35
X-48.352 Y-103.22
X-48.443 Y-103.09
X-48.555 Y-102.955
X-48.681 Y-102.825
X-48.832 Y-102.692
X-49.006 Y-102.562
X-49.195 Y-102.444
X-49.404 Y-102.335
X-49.63 Y-102.24
X-49.87 Y-102.161
X-50.115 Y-102.102
X-50.362 Y-102.063
X-50.587 Y-102.045
X-50.806 Y-102.046
X-51.006 Y-102.062
X-51.17 Y-102.09
X-51.344 Y-102.133
X-51.398 Y-102.151
X-51.591 Y-102.251
X-51.743 Y-102.406
X-51.841 Y-102.6
X-51.875 Y-102.815
Y-103.758
G3 X-51.591 Y-104.047 Z-3.811 I0.3 J0.01
G1 X-51.565 Y-104.049 Z-3.8
X-51.292 Y-104.063
X-48.708 Y-104.199
X-48.441 Y-104.213
X-48.435
G3 X-48.125 Y-103.924 Z-4 I0.01 J0.3
G1 Y-102.987
X-48.132 Y-102.837
X-48.163 Y-102.691
X-48.212 Y-102.549
X-48.274 Y-102.412
X-48.349 Y-102.282
X-48.441 Y-102.149
X-48.548 Y-102.019
X-48.676 Y-101.886
X-48.828 Y-101.752
X-48.995 Y-101.627
X-49.185 Y-101.507
X-49.396 Y-101.396
X-49.623 Y-101.3
X-49.862 Y-101.22
X-50.106 Y-101.16
X-50.354 Y-101.12
X-50.582 Y-101.101
X-50.792
X-50.999 Y-101.118
X-51.166 Y-101.145
X-51.334 Y-101.186
X-51.396 Y-101.207
X-51.589 Y-101.307
X-51.743 Y-101.461
X-51.841 Y-101.656
X-51.875 Y-101.871
Y-102.815
G3 X-51.592 Y-103.104 Z-3.811 I0.3 J0.01
G1 X-51.565 Y-103.105 Z-3.8
X-51.292 Y-103.12
X-48.708 Y-103.262
X-48.441 Y-103.276
X-48.435 Y-103.277
G3 X-48.125 Y-102.987 Z-4 I0.01 J0.3
G1 Y-102.066
X-48.132 Y-101.916
X-48.16 Y-101.769
X-48.206 Y-101.626
X-48.266 Y-101.489
X-48.339 Y-101.358
X-48.429 Y-101.225
X-48.532 Y-101.096
X-48.658 Y-100.962
X-48.806 Y-100.828
X-48.969 Y-100.703
X-49.157 Y-100.581
X-49.366 Y-100.468
X-49.59 Y-100.369
X-49.825 Y-100.287
X-50.069 Y-100.224
X-50.316 Y-100.181
X-50.549 Y-100.159
X-50.757 Y-100.156
X-50.969 Y-100.171
X-51.141 Y-100.196
X-51.306 Y-100.235
X-51.388 Y-100.261
X-51.584 Y-100.36
X-51.74 Y-100.515
X-51.84 Y-100.71
X-51.875 Y-100.928
Y-101.871
G3 X-51.594 Y-102.16 Z-3.812 I0.3 J0.01
G1 X-51.565 Y-102.162 Z-3.8
X-51.292 Y-102.179
X-48.708 Y-102.339
X-48.443 Y-102.355
X-48.435 Y-102.356
G3 X-48.125 Y-102.066 Z-4 I0.01 J0.3
G1 Y-101.088
X-48.132 Y-100.938
X-48.165 Y-100.792
X-48.215 Y-100.65
X-48.279 Y-100.515
X-48.354 Y-100.385
X-48.446 Y-100.255
X-48.559 Y-100.119
X-48.685 Y-99.989
X-48.838 Y-99.856
X-49.012 Y-99.727
X-49.202 Y-99.61
X-49.412 Y-99.501
X-49.638 Y-99.407
X-49.878 Y-99.328
X-50.123 Y-99.27
X-50.371 Y-99.231
X-50.595 Y-99.214
X-50.813 Y-99.216
X-51.012 Y-99.233
X-51.176 Y-99.26
X-51.35 Y-99.304
X-51.4 Y-99.321
X-51.592 Y-99.422
X-51.744 Y-99.576
X-51.841 Y-99.77
X-51.875 Y-99.984
Y-100.928
G3 X-51.59 Y-101.217 Z-3.811 I0.3 J0.01
G1 X-51.565 Y-101.218 Z-3.8
X-51.292 Y-101.232
X-48.708 Y-101.364
X-48.44 Y-101.377
X-48.435
G3 X-48.125 Y-101.088 Z-4 I0.01 J0.3
G1 Y-100.152
X-48.132 Y-100.002
X-48.164 Y-99.855
X-48.213 Y-99.713
X-48.276 Y-99.577
X-48.351 Y-99.447
X-48.444 Y-99.314
X-48.551 Y-99.184
X-48.68 Y-99.051
X-48.833 Y-98.917
X-49 Y-98.792
X-49.192 Y-98.672
X-49.403 Y-98.562
X-49.631 Y-98.466
X-49.87 Y-98.387
X-50.114 Y-98.328
X-50.363 Y-98.288
X-50.589 Y-98.27
X-50.799 Y-98.271
X-51.005 Y-98.288
X-51.171 Y-98.315
X-51.34 Y-98.357
X-51.398 Y-98.377
X-51.591 Y-98.477
X-51.743 Y-98.631
X-51.841 Y-98.825
X-51.875 Y-99.04
Y-99.984
G3 X-51.591 Y-100.273 Z-3.811 I0.3 J0.01
G1 X-51.565 Y-100.274 Z-3.8
X-51.292 Y-100.289
X-48.708 Y-100.426
X-48.441 Y-100.441
X-48.435
G3 X-48.125 Y-100.152 Z-4 I0.01 J0.3
G1 Y-99.231
X-48.132 Y-99.081
X-48.161 Y-98.934
X-48.207 Y-98.791
X-48.268 Y-98.654
X-48.341 Y-98.523
X-48.431 Y-98.39
X-48.535 Y-98.261
X-48.662 Y-98.127
X-48.81 Y-97.993
X-48.974 Y-97.868
X-49.163 Y-97.746
X-49.373 Y-97.634
X-49.597 Y-97.536
X-49.833 Y-97.454
X-50.077 Y-97.392
X-50.324 Y-97.349
X-50.556 Y-97.328
X-50.764 Y-97.326
X-50.976 Y-97.341
X-51.147 Y-97.367
X-51.312 Y-97.406
X-51.389 Y-97.43
X-51.585 Y-97.53
X-51.741 Y-97.684
X-51.841 Y-97.88
X-51.875 Y-98.097
Y-99.04
G3 X-51.593 Y-99.329 Z-3.812 I0.3 J0.01
G1 X-51.565 Y-99.331 Z-3.8
X-51.292 Y-99.347
X-48.708 Y-99.504
X-48.443 Y-99.52
X-48.435
G3 X-48.125 Y-99.231 Z-4 I0.01 J0.3
G1 Y-98.31
X-48.132 Y-98.16
X-48.158 Y-98.012
X-48.201 Y-97.869
X-48.26 Y-97.731
X-48.331 Y-97.599
X-48.419 Y-97.467
X-48.52 Y-97.337
X-48.642 Y-97.204
X-48.788 Y-97.069
X-48.949 Y-96.943
X-49.134 Y-96.821
X-49.34 Y-96.707
X-49.562 Y-96.607
X-49.796 Y-96.522
X-50.039 Y-96.457
X-50.286 Y-96.411
X-50.521 Y-96.387
X-50.73 Y-96.382
X-50.946 Y-96.394
X-51.12 Y-96.418
X-51.285 Y-96.455
X-51.381 Y-96.484
X-51.58 Y-96.582
X-51.738 Y-96.738
X-51.84 Y-96.935
X-51.875 Y-97.154
Y-98.097
G3 X-51.595 Y-98.386 Z-3.813 I0.3 J0.01
G1 X-51.565 Y-98.388 Z-3.8
X-51.292 Y-98.406
X-48.708 Y-98.581
X-48.445 Y-98.599
X-48.435
G3 X-48.125 Y-98.31 Z-4 I0.01 J0.3
G1 Y-97.316
X-48.132 Y-97.166
X-48.165 Y-97.02
X-48.214 Y-96.878
X-48.278 Y-96.742
X-48.354 Y-96.613
X-48.443 Y-96.485
X-48.556 Y-96.349
X-48.683 Y-96.218
X-48.833 Y-96.086
X-49.008 Y-95.956
X-49.199 Y-95.837
X-49.407 Y-95.729
X-49.632 Y-95.635
X-49.872 Y-95.556
X-50.117 Y-95.497
X-50.365 Y-95.458
X-50.588 Y-95.441
X-50.809
X-51.008 Y-95.458
X-51.171 Y-95.485
X-51.346 Y-95.529
X-51.399 Y-95.547
X-51.591 Y-95.647
X-51.744 Y-95.802
X-51.841 Y-95.996
X-51.875 Y-96.21
Y-97.154
G3 X-51.591 Y-97.443 Z-3.811 I0.3 J0.01
G1 X-51.565 Y-97.444 Z-3.8
X-51.292 Y-97.458
X-48.708 Y-97.591
X-48.44 Y-97.605
X-48.435
G3 X-48.125 Y-97.316 Z-4 I0.01 J0.3
G1 Y-96.395
X-48.132 Y-96.245
X-48.162 Y-96.098
X-48.208 Y-95.956
X-48.27 Y-95.819
X-48.343 Y-95.688
X-48.434 Y-95.555
X-48.538 Y-95.426
X-48.665 Y-95.293
X-48.815 Y-95.159
X-48.979 Y-95.034
X-49.168 Y-94.912
X-49.378 Y-94.801
X-49.604 Y-94.703
X-49.841 Y-94.622
X-50.084 Y-94.56
X-50.332 Y-94.518
X-50.563 Y-94.498
X-50.771 Y-94.496
X-50.982 Y-94.511
X-51.152 Y-94.538
X-51.318 Y-94.577
X-51.391 Y-94.601
X-51.586 Y-94.7
X-51.741 Y-94.855
X-51.841 Y-95.05
X-51.875 Y-95.267
Y-96.21
G3 X-51.593 Y-96.499 Z-3.812 I0.3 J0.01
G1 X-51.565 Y-96.501 Z-3.8
X-51.292 Y-96.517
X-48.708 Y-96.669
X-48.442 Y-96.684
X-48.435 Y-96.685
G3 X-48.125 Y-96.395 Z-4 I0.01 J0.3
G1 Y-95.474
X-48.132 Y-95.325
X-48.158 Y-95.177
X-48.203 Y-95.033
X-48.262 Y-94.896
X-48.334 Y-94.764
X-48.422 Y-94.632
X-48.524 Y-94.502
X-48.647 Y-94.369
X-48.794 Y-94.234
X-48.955 Y-94.109
X-49.141 Y-93.986
X-49.348 Y-93.873
X-49.57 Y-93.773
X-49.805 Y-93.689
X-50.048 Y-93.625
X-50.295 Y-93.58
X-50.529 Y-93.556
X-50.738 Y-93.552
X-50.953 Y-93.565
X-51.126 Y-93.589
X-51.292 Y-93.627
X-51.383 Y-93.655
X-51.581 Y-93.753
X-51.739 Y-93.908
X-51.84 Y-94.105
X-51.875 Y-94.323
Y-95.267
G3 X-51.595 Y-95.556 Z-3.813 I0.3 J0.01
G1 X-51.565 Y-95.558 Z-3.8
X-51.292 Y-95.576
X-48.708 Y-95.746
X-48.445 Y-95.763
X-48.435 Y-95.764
G3 X-48.125 Y-95.474 Z-4 I0.01 J0.3
G1 Y-94.519
X-48.132 Y-94.369
X-48.16 Y-94.222
X-48.206 Y-94.079
X-48.266 Y-93.942
X-48.339 Y-93.811
X-48.427 Y-93.681
X-48.534 Y-93.547
X-48.656 Y-93.417
X-48.804 Y-93.282
X-48.971 Y-93.153
X-49.155 Y-93.034
X-49.362 Y-92.922
X-49.585 Y-92.824
X-49.823 Y-92.741
X-50.066 Y-92.678
X-50.313 Y-92.634
X-50.545 Y-92.612
X-50.759 Y-92.609
X-50.968 Y-92.624
X-51.137 Y-92.649
X-51.307 Y-92.688
X-51.387 Y-92.713
X-51.584 Y-92.812
X-51.74 Y-92.967
X-51.84 Y-93.163
X-51.875 Y-93.38
Y-94.323
G3 X-51.594 Y-94.612 Z-3.812 I0.3 J0.01
G1 X-51.565 Y-94.614 Z-3.8
X-51.292 Y-94.631
X-48.708 Y-94.792
X-48.443 Y-94.808
X-48.435
G3 X-48.125 Y-94.519 Z-4 I0.01 J0.3
G1 Y-93.56
X-48.132 Y-93.41
X-48.163 Y-93.263
X-48.21 Y-93.12
X-48.272 Y-92.984
X-48.346 Y-92.854
X-48.436 Y-92.723
X-48.545 Y-92.589
X-48.669 Y-92.459
X-48.82 Y-92.325
X-48.99 Y-92.196
X-49.176 Y-92.078
X-49.385 Y-91.967
X-49.61 Y-91.871
X-49.849 Y-91.79
X-50.093 Y-91.729
X-50.341 Y-91.687
X-50.569 Y-91.668
X-50.784 Y-91.667
X-50.989 Y-91.683
X-51.156 Y-91.709
X-51.327 Y-91.75
X-51.393 Y-91.772
X-51.588 Y-91.872
X-51.742 Y-92.026
X-51.841 Y-92.221
X-51.875 Y-92.437
Y-93.38
G3 X-51.592 Y-93.669 Z-3.812 I0.3 J0.01
G1 X-51.565 Y-93.671 Z-3.8
X-51.292 Y-93.686
X-48.708 Y-93.833
X-48.442 Y-93.849
X-48.435
G3 X-48.125 Y-93.56 Z-4 I0.01 J0.3
G1 Y-92.639
X-48.132 Y-92.489
X-48.159 Y-92.341
X-48.204 Y-92.198
X-48.264 Y-92.061
X-48.336 Y-91.929
X-48.425 Y-91.797
X-48.527 Y-91.668
X-48.652 Y-91.534
X-48.799 Y-91.4
X-48.961 Y-91.274
X-49.148 Y-91.152
X-49.355 Y-91.039
X-49.579 Y-90.94
X-49.815 Y-90.857
X-50.058 Y-90.793
X-50.305 Y-90.749
X-50.539 Y-90.726
X-50.747 Y-90.722
X-50.961 Y-90.736
X-51.133 Y-90.761
X-51.299 Y-90.799
X-51.385 Y-90.826
X-51.582 Y-90.925
X-51.739 Y-91.08
X-51.84 Y-91.276
X-51.875 Y-91.494
Y-92.437
G3 X-51.594 Y-92.726 Z-3.812 I0.3 J0.01
G1 X-51.565 Y-92.728 Z-3.8
X-51.292 Y-92.745
X-48.708 Y-92.911
X-48.444 Y-92.928
X-48.435
G3 X-48.125 Y-92.639 Z-4 I0.01 J0.3
G1 Y-91.683
X-48.132 Y-91.534
X-48.161 Y-91.386
X-48.207 Y-91.244
X-48.268 Y-91.107
X-48.342 Y-90.976
X-48.43 Y-90.846
X-48.538 Y-90.712
X-48.661 Y-90.581
X-48.81 Y-90.447
X-48.978 Y-90.319
X-49.163 Y-90.199
X-49.371 Y-90.088
X-49.595 Y-89.99
X-49.833 Y-89.908
X-50.077 Y-89.846
X-50.324 Y-89.803
X-50.554 Y-89.782
X-50.768 Y-89.78
X-50.976 Y-89.795
X-51.144 Y-89.82
X-51.315 Y-89.86
X-51.389 Y-89.884
X-51.585 Y-89.983
X-51.741 Y-90.138
X-51.841 Y-90.334
X-51.875 Y-90.551
Y-91.494
G3 X-51.593 Y-91.783 Z-3.812 I0.3 J0.01
G1 X-51.565 Y-91.784 Z-3.8
X-51.292 Y-91.801
X-48.708 Y-91.956
X-48.443 Y-91.972
X-48.435 Y-91.973
G3 X-48.125 Y-91.683 Z-4 I0.01 J0.3
G1 Y-90.724
X-48.132 Y-90.574
X-48.163 Y-90.427
X-48.211 Y-90.285
X-48.274 Y-90.149
X-48.349 Y-90.019
X-48.439 Y-89.888
X-48.549 Y-89.754
X-48.675 Y-89.624
X-48.826 Y-89.49
X-48.997 Y-89.362
X-49.184 Y-89.243
X-49.394 Y-89.133
X-49.62 Y-89.037
X-49.859 Y-88.957
X-50.103 Y-88.897
X-50.351 Y-88.856
X-50.578 Y-88.838
X-50.793
X-50.997 Y-88.854
X-51.163 Y-88.881
X-51.335 Y-88.923
X-51.395 Y-88.943
X-51.589 Y-89.043
X-51.743 Y-89.198
X-51.841 Y-89.392
X-51.875 Y-89.607
Y-90.551
G3 X-51.592 Y-90.84 Z-3.811 I0.3 J0.01
G1 X-51.565 Y-90.841 Z-3.8
X-51.292 Y-90.856
X-48.708 Y-90.998
X-48.441 Y-91.013
X-48.435
G3 X-48.125 Y-90.724 Z-4 I0.01 J0.3
G1 Y-89.803
X-48.132 Y-89.653
X-48.16 Y-89.506
X-48.206 Y-89.363
X-48.266 Y-89.226
X-48.339 Y-89.094
X-48.428 Y-88.962
X-48.531 Y-88.833
X-48.657 Y-88.699
X-48.805 Y-88.565
X-48.967 Y-88.44
X-49.155 Y-88.318
X-49.364 Y-88.205
X-49.588 Y-88.106
X-49.824 Y-88.024
X-50.067 Y-87.961
X-50.315 Y-87.917
X-50.548 Y-87.896
X-50.756 Y-87.893
X-50.968 Y-87.907
X-51.14 Y-87.932
X-51.305 Y-87.971
X-51.387 Y-87.997
X-51.584 Y-88.096
X-51.74 Y-88.251
X-51.84 Y-88.447
X-51.875 Y-88.664
Y-89.607
G3 X-51.594 Y-89.896 Z-3.812 I0.3 J0.01
G1 X-51.565 Y-89.898 Z-3.8
X-51.292 Y-89.915
X-48.708 Y-90.076
X-48.443 Y-90.092
X-48.435 Y-90.093
G3 X-48.125 Y-89.803 Z-4 I0.01 J0.3
G1 Y-88.895
X-48.132 Y-88.745
X-48.155 Y-88.597
X-48.197 Y-88.453
X-48.254 Y-88.314
X-48.323 Y-88.181
X-48.408 Y-88.05
X-48.507 Y-87.921
X-48.627 Y-87.788
X-48.77 Y-87.653
X-48.928 Y-87.527
X-49.11 Y-87.403
X-49.315 Y-87.287
X-49.534 Y-87.185
X-49.766 Y-87.1
X-50.008 Y-87.031
X-50.254 Y-86.983
X-50.493 Y-86.956
X-50.702 Y-86.949
X-50.921 Y-86.959
X-51.099 Y-86.982
X-51.263 Y-87.016
X-51.374 Y-87.049
X-51.575 Y-87.146
X-51.736 Y-87.302
X-51.839 Y-87.5
X-51.875 Y-87.721
Y-88.664
G3 X-51.597 Y-88.953 Z-3.814 I0.3 J0.01
G1 X-51.565 Y-88.955 Z-3.8
X-51.292 Y-88.975
X-48.708 Y-89.165
X-48.447 Y-89.184
X-48.435
G3 X-48.125 Y-88.895 Z-4 I0.01 J0.3
G1 Y-87.888
X-48.132 Y-87.739
X-48.165 Y-87.592
X-48.213 Y-87.45
X-48.277 Y-87.314
X-48.352 Y-87.185
X-48.44 Y-87.058
X-48.551 Y-86.922
X-48.679 Y-86.79
X-48.827 Y-86.66
X-49 Y-86.53
X-49.192 Y-86.409
X-49.399 Y-86.301
X-49.622 Y-86.206
X-49.861 Y-86.127
X-50.106 Y-86.066
X-50.354 Y-86.026
X-50.578 Y-86.008
X-50.801
X-51 Y-86.024
X-51.164 Y-86.051
X-51.34 Y-86.094
X-51.396 Y-86.113
X-51.59 Y-86.213
X-51.743 Y-86.368
X-51.841 Y-86.562
X-51.875 Y-86.777
Y-87.721
G3 X-51.591 Y-88.01 Z-3.811 I0.3 J0.01
G1 X-51.565 Y-88.011 Z-3.8
X-51.292 Y-88.026
X-48.708 Y-88.163
X-48.441 Y-88.178
X-48.435
G3 X-48.125 Y-87.888 Z-4 I0.01 J0.3
G1 Y-86.968
X-48.132 Y-86.818
X-48.161 Y-86.671
X-48.207 Y-86.528
X-48.268 Y-86.391
X-48.341 Y-86.26
X-48.431 Y-86.127
X-48.535 Y-85.998
X-48.661 Y-85.865
X-48.81 Y-85.73
X-48.973 Y-85.605
X-49.162 Y-85.484
X-49.37 Y-85.372
X-49.596 Y-85.273
X-49.833 Y-85.192
X-50.076 Y-85.129
X-50.323 Y-85.087
X-50.556 Y-85.065
X-50.764 Y-85.063
X-50.975 Y-85.078
X-51.146 Y-85.104
X-51.312 Y-85.143
X-51.389 Y-85.168
X-51.585 Y-85.267
X-51.741 Y-85.422
X-51.841 Y-85.617
X-51.875 Y-85.834
Y-86.777
G3 X-51.593 Y-87.066 Z-3.812 I0.3 J0.01
G1 X-51.565 Y-87.068 Z-3.8
X-51.292 Y-87.085
X-48.708 Y-87.241
X-48.443 Y-87.257
X-48.435
G3 X-48.125 Y-86.968 Z-4 I0.01 J0.3
G1 Y-86.06
X-48.132 Y-85.91
X-48.156 Y-85.762
X-48.198 Y-85.618
X-48.256 Y-85.479
X-48.326 Y-85.347
X-48.412 Y-85.215
X-48.511 Y-85.086
X-48.632 Y-84.953
X-48.776 Y-84.818
X-48.934 Y-84.692
X-49.118 Y-84.568
X-49.323 Y-84.453
X-49.543 Y-84.352
X-49.775 Y-84.267
X-50.018 Y-84.199
X-50.264 Y-84.152
X-50.502 Y-84.125
X-50.711 Y-84.119
X-50.929 Y-84.13
X-51.106 Y-84.153
X-51.27 Y-84.188
X-51.376 Y-84.22
X-51.577 Y-84.318
X-51.737 Y-84.473
X-51.84 Y-84.671
X-51.875 Y-84.891
Y-85.834
G3 X-51.597 Y-86.123 Z-3.813 I0.3 J0.01
G1 X-51.565 Y-86.125 Z-3.8
X-51.292 Y-86.145
X-48.708 Y-86.33
X-48.446 Y-86.348
X-48.435 Y-86.349
G3 X-48.125 Y-86.06 Z-4 I0.01 J0.3
G1 Y-85.053
X-48.132 Y-84.903
X-48.165 Y-84.757
X-48.215 Y-84.615
X-48.279 Y-84.479
X-48.354 Y-84.35
X-48.443 Y-84.223
X-48.555 Y-84.087
X-48.684 Y-83.955
X-48.833 Y-83.824
X-49.007 Y-83.695
X-49.2 Y-83.574
X-49.408 Y-83.466
X-49.631 Y-83.372
X-49.871 Y-83.294
X-50.117 Y-83.234
X-50.364 Y-83.195
X-50.586 Y-83.178
X-50.81 Y-83.179
X-51.007 Y-83.195
X-51.171 Y-83.223
X-51.347 Y-83.267
X-51.399 Y-83.284
X-51.591 Y-83.385
X-51.744 Y-83.539
X-51.841 Y-83.733
X-51.875 Y-83.947
Y-84.891
G3 X-51.591 Y-85.18 Z-3.811 I0.3 J0.01
G1 X-51.565 Y-85.181 Z-3.8
X-51.292 Y-85.195
X-48.708 Y-85.328
X-48.44 Y-85.342
X-48.435
G3 X-48.125 Y-85.053 Z-4 I0.01 J0.3
G1 Y-84.132
X-48.132 Y-83.982
X-48.162 Y-83.835
X-48.209 Y-83.693
X-48.27 Y-83.556
X-48.344 Y-83.425
X-48.434 Y-83.292
X-48.539 Y-83.163
X-48.666 Y-83.03
X-48.815 Y-82.896
X-48.98 Y-82.771
X-49.169 Y-82.649
X-49.378 Y-82.538
X-49.604 Y-82.44
X-49.841 Y-82.359
X-50.085 Y-82.297
X-50.333 Y-82.255
X-50.564 Y-82.235
X-50.772 Y-82.233
X-50.982 Y-82.249
X-51.152 Y-82.275
X-51.319 Y-82.315
X-51.391 Y-82.338
X-51.586 Y-82.438
X-51.741 Y-82.593
X-51.841 Y-82.788
X-51.875 Y-83.004
Y-83.947
G3 X-51.593 Y-84.236 Z-3.812 I0.3 J0.01
G1 X-51.565 Y-84.238 Z-3.8
X-51.292 Y-84.254
X-48.708 Y-84.405
X-48.442 Y-84.421
X-48.435
G3 X-48.125 Y-84.132 Z-4 I0.01 J0.3
G1 Y-83.224
X-48.132 Y-83.074
X-48.157 Y-82.926
X-48.2 Y-82.782
X-48.258 Y-82.644
X-48.328 Y-82.512
X-48.415 Y-82.38
X-48.514 Y-82.251
X-48.637 Y-82.117
X-48.781 Y-81.983
X-48.94 Y-81.857
X-49.125 Y-81.734
X-49.331 Y-81.619
X-49.551 Y-81.518
X-49.784 Y-81.434
X-50.027 Y-81.367
X-50.273 Y-81.32
X-50.511 Y-81.295
X-50.719 Y-81.289
X-50.936 Y-81.301
X-51.113 Y-81.324
X-51.276 Y-81.36
X-51.378 Y-81.391
X-51.578 Y-81.488
X-51.737 Y-81.644
X-51.84 Y-81.841
X-51.875 Y-82.061
Y-83.004
G3 X-51.596 Y-83.293 Z-3.813 I0.3 J0.01
G1 X-51.565 Y-83.295 Z-3.8
X-51.292 Y-83.314
X-48.708 Y-83.494
X-48.446 Y-83.513
X-48.435
G3 X-48.125 Y-83.224 Z-4 I0.01 J0.3
G1 Y-82.287
X-48.132 Y-82.138
X-48.156 Y-81.99
X-48.198 Y-81.846
X-48.255 Y-81.707
X-48.326 Y-81.574
X-48.409 Y-81.445
X-48.512 Y-81.312
X-48.63 Y-81.182
X-48.774 Y-81.047
X-48.935 Y-80.919
X-49.115 Y-80.797
X-49.318 Y-80.682
X-49.538 Y-80.581
X-49.773 Y-80.494
X-50.015 Y-80.427
X-50.261 Y-80.379
X-50.498 Y-80.353
X-50.709 Y-80.346
X-50.927 Y-80.357
X-51.102 Y-80.38
X-51.268 Y-80.415
X-51.375 Y-80.447
X-51.576 Y-80.544
X-51.736 Y-80.7
X-51.839 Y-80.897
X-51.875 Y-81.118
Y-82.061
G3 X-51.597 Y-82.35 Z-3.813 I0.3 J0.01
G1 X-51.565 Y-82.352 Z-3.8
X-51.292 Y-82.371
X-48.708 Y-82.557
X-48.446 Y-82.576
X-48.435 Y-82.577
G3 X-48.125 Y-82.287 Z-4 I0.01 J0.3
G1 Y-81.296
X-48.132 Y-81.147
X-48.163 Y-81
X-48.21 Y-80.857
X-48.273 Y-80.721
X-48.347 Y-80.591
X-48.434 Y-80.464
X-48.544 Y-80.328
X-48.669 Y-80.197
X-48.817 Y-80.066
X-48.989 Y-79.935
X-49.177 Y-79.815
X-49.383 Y-79.706
X-49.606 Y-79.61
X-49.845 Y-79.529
X-50.089 Y-79.467
X-50.337 Y-79.426
X-50.564 Y-79.406
X-50.785 Y-79.405
X-50.987 Y-79.42
X-51.152 Y-79.446
X-51.327 Y-79.488
X-51.393 Y-79.509
X-51.587 Y-79.609
X-51.742 Y-79.764
X-51.841 Y-79.959
X-51.875 Y-80.175
Y-81.118
G3 X-51.592 Y-81.407 Z-3.812 I0.3 J0.01
G1 X-51.565 Y-81.408 Z-3.8
X-51.292 Y-81.424
X-48.708 Y-81.57
X-48.442 Y-81.586
X-48.435
G3 X-48.125 Y-81.296 Z-4 I0.01 J0.3
G1 Y-80.388
X-48.132 Y-80.239
X-48.158 Y-80.091
X-48.201 Y-79.947
X-48.26 Y-79.809
X-48.331 Y-79.677
X-48.418 Y-79.545
X-48.518 Y-79.417
X-48.641 Y-79.283
X-48.786 Y-79.149
X-48.946 Y-79.023
X-49.132 Y-78.9
X-49.338 Y-78.786
X-49.56 Y-78.685
X-49.794 Y-78.601
X-50.037 Y-78.536
X-50.283 Y-78.49
X-50.52 Y-78.465
X-50.728 Y-78.46
X-50.944 Y-78.472
X-51.12 Y-78.496
X-51.283 Y-78.533
X-51.38 Y-78.562
X-51.579 Y-78.66
X-51.738 Y-78.816
X-51.84 Y-79.013
X-51.875 Y-79.232
Y-80.175
G3 X-51.595 Y-80.464 Z-3.813 I0.3 J0.01
G1 X-51.565 Y-80.466 Z-3.8
X-51.292 Y-80.484
X-48.708 Y-80.659
X-48.445 Y-80.677
X-48.435 Y-80.678
G3 X-48.125 Y-80.388 Z-4 I0.01 J0.3
G1 Y-79.452
X-48.132 Y-79.302
X-48.157 Y-79.154
X-48.199 Y-79.01
X-48.258 Y-78.872
X-48.328 Y-78.74
X-48.413 Y-78.61
X-48.516 Y-78.478
X-48.635 Y-78.347
X-48.78 Y-78.212
X-48.942 Y-78.084
X-49.123 Y-77.962
X-49.328 Y-77.848
X-49.549 Y-77.747
X-49.784 Y-77.662
X-50.027 Y-77.595
X-50.273 Y-77.548
X-50.508 Y-77.523
X-50.72 Y-77.517
X-50.936 Y-77.529
X-51.11 Y-77.552
X-51.277 Y-77.588
X-51.378 Y-77.619
X-51.578 Y-77.716
X-51.737 Y-77.872
X-51.84 Y-78.069
X-51.875 Y-78.289
Y-79.232
G3 X-51.596 Y-79.52 Z-3.813 I0.3 J0.01
G1 X-51.565 Y-79.523 Z-3.8
X-51.292 Y-79.542
X-48.708 Y-79.722
X-48.446 Y-79.741
X-48.435
G3 X-48.125 Y-79.452 Z-4 I0.01 J0.3
G1 Y-78.461
X-48.132 Y-78.311
X-48.164 Y-78.164
X-48.212 Y-78.022
X-48.275 Y-77.886
X-48.35 Y-77.756
X-48.438 Y-77.629
X-48.549 Y-77.493
X-48.675 Y-77.362
X-48.823 Y-77.231
X-48.997 Y-77.1
X-49.186 Y-76.981
X-49.393 Y-76.872
X-49.617 Y-76.776
X-49.856 Y-76.696
X-50.1 Y-76.636
X-50.348 Y-76.595
X-50.574 Y-76.577
X-50.795 Y-76.576
X-50.995 Y-76.592
X-51.16 Y-76.618
X-51.335 Y-76.661
X-51.395 Y-76.681
X-51.589 Y-76.781
X-51.742 Y-76.936
X-51.841 Y-77.13
X-51.875 Y-77.345
Y-78.289
G3 X-51.592 Y-78.578 Z-3.811 I0.3 J0.01
G1 X-51.565 Y-78.579 Z-3.8
X-51.292 Y-78.594
X-48.708 Y-78.735
X-48.441 Y-78.75
X-48.435
G3 X-48.125 Y-78.461 Z-4 I0.01 J0.3
G1 Y-77.553
X-48.132 Y-77.403
X-48.159 Y-77.255
X-48.203 Y-77.112
X-48.262 Y-76.974
X-48.334 Y-76.842
X-48.422 Y-76.71
X-48.523 Y-76.582
X-48.647 Y-76.448
X-48.792 Y-76.314
X-48.953 Y-76.189
X-49.14 Y-76.066
X-49.347 Y-75.952
X-49.569 Y-75.852
X-49.804 Y-75.769
X-50.047 Y-75.704
X-50.294 Y-75.659
X-50.53 Y-75.635
X-50.737 Y-75.631
X-50.953 Y-75.644
X-51.127 Y-75.668
X-51.291 Y-75.705
X-51.383 Y-75.734
X-51.581 Y-75.832
X-51.739 Y-75.987
X-51.84 Y-76.184
X-51.875 Y-76.402
Y-77.345
G3 X-51.595 Y-77.634 Z-3.813 I0.3 J0.01
G1 X-51.565 Y-77.636 Z-3.8
X-51.292 Y-77.654
X-48.708 Y-77.824
X-48.445 Y-77.842
X-48.435
G3 X-48.125 Y-77.553 Z-4 I0.01 J0.3
G1 Y-76.616
X-48.132 Y-76.467
X-48.158 Y-76.319
X-48.201 Y-76.175
X-48.26 Y-76.037
X-48.331 Y-75.905
X-48.417 Y-75.775
X-48.52 Y-75.643
X-48.641 Y-75.512
X-48.787 Y-75.377
X-48.949 Y-75.249
X-49.132 Y-75.128
X-49.337 Y-75.014
X-49.558 Y-74.914
X-49.794 Y-74.829
X-50.037 Y-74.763
X-50.283 Y-74.717
X-50.518 Y-74.693
X-50.729 Y-74.688
X-50.945 Y-74.7
X-51.118 Y-74.724
X-51.284 Y-74.761
X-51.38 Y-74.79
X-51.579 Y-74.888
X-51.738 Y-75.043
X-51.84 Y-75.24
X-51.875 Y-75.459
Y-76.402
G3 X-51.596 Y-76.691 Z-3.813 I0.3 J0.01
G1 X-51.565 Y-76.693 Z-3.8
X-51.292 Y-76.712
X-48.708 Y-76.887
X-48.445 Y-76.905
X-48.435 Y-76.906
G3 X-48.125 Y-76.616 Z-4 I0.01 J0.3
G1 Y-75.625
X-48.132 Y-75.476
X-48.165 Y-75.329
X-48.214 Y-75.187
X-48.277 Y-75.051
X-48.352 Y-74.922
X-48.441 Y-74.794
X-48.554 Y-74.658
X-48.68 Y-74.527
X-48.83 Y-74.395
X-49.004 Y-74.265
X-49.194 Y-74.146
X-49.402 Y-74.038
X-49.626 Y-73.943
X-49.866 Y-73.864
X-50.111 Y-73.804
X-50.359 Y-73.764
X-50.583 Y-73.747
X-50.804
X-51.003 Y-73.763
X-51.167 Y-73.79
X-51.342 Y-73.834
X-51.397 Y-73.852
X-51.59 Y-73.952
X-51.743 Y-74.107
X-51.841 Y-74.301
X-51.875 Y-74.516
Y-75.459
G3 X-51.591 Y-75.748 Z-3.811 I0.3 J0.01
G1 X-51.565 Y-75.75 Z-3.8
X-51.292 Y-75.764
X-48.708 Y-75.9
X-48.441 Y-75.914
X-48.435 Y-75.915
G3 X-48.125 Y-75.625 Z-4 I0.01 J0.3
G1 Y-74.717
X-48.132 Y-74.567
X-48.159 Y-74.42
X-48.204 Y-74.277
X-48.264 Y-74.139
X-48.336 Y-74.008
X-48.425 Y-73.875
X-48.527 Y-73.747
X-48.652 Y-73.613
X-48.798 Y-73.48
X-48.96 Y-73.354
X-49.148 Y-73.231
X-49.355 Y-73.118
X-49.578 Y-73.019
X-49.813 Y-72.936
X-50.057 Y-72.872
X-50.304 Y-72.828
X-50.539 Y-72.805
X-50.746 Y-72.801
X-50.96 Y-72.815
X-51.134 Y-72.84
X-51.298 Y-72.877
X-51.385 Y-72.905
X-51.582 Y-73.003
X-51.739 Y-73.159
X-51.84 Y-73.355
X-51.875 Y-73.573
Y-74.516
G3 X-51.594 Y-74.805 Z-3.812 I0.3 J0.01
G1 X-51.565 Y-74.807 Z-3.8
X-51.292 Y-74.824
X-48.708 Y-74.989
X-48.444 Y-75.006
X-48.435 Y-75.007
G3 X-48.125 Y-74.717 Z-4 I0.01 J0.3
G1 Y-73.781
X-48.132 Y-73.631
X-48.158 Y-73.483
X-48.203 Y-73.34
X-48.262 Y-73.202
X-48.334 Y-73.07
X-48.42 Y-72.94
X-48.524 Y-72.808
X-48.646 Y-72.677
X-48.793 Y-72.541
X-48.955 Y-72.414
X-49.139 Y-72.293
X-49.346 Y-72.18
X-49.568 Y-72.08
X-49.804 Y-71.996
X-50.047 Y-71.931
X-50.294 Y-71.886
X-50.527 Y-71.862
X-50.738 Y-71.858
X-50.952 Y-71.871
X-51.125 Y-71.895
X-51.292 Y-71.933
X-51.383 Y-71.961
X-51.581 Y-72.059
X-51.739 Y-72.214
X-51.84 Y-72.411
X-51.875 Y-72.63
Y-73.573
G3 X-51.595 Y-73.862 Z-3.813 I0.3 J0.01
G1 X-51.565 Y-73.864 Z-3.8
X-51.292 Y-73.882
X-48.708 Y-74.052
X-48.445 Y-74.07
X-48.435
G3 X-48.125 Y-73.781 Z-4 I0.01 J0.3
G1 Y-72.86
X-48.132 Y-72.71
X-48.155 Y-72.562
X-48.197 Y-72.418
X-48.254 Y-72.279
X-48.324 Y-72.146
X-48.408 Y-72.016
X-48.508 Y-71.886
X-48.627 Y-71.753
X-48.771 Y-71.618
X-48.929 Y-71.491
X-49.111 Y-71.368
X-49.315 Y-71.253
X-49.535 Y-71.151
X-49.768 Y-71.065
X-50.01 Y-70.997
X-50.256 Y-70.949
X-50.493 Y-70.922
X-50.703 Y-70.915
X-50.923 Y-70.925
X-51.1 Y-70.948
X-51.264 Y-70.983
X-51.374 Y-71.015
X-51.576 Y-71.112
X-51.736 Y-71.268
X-51.839 Y-71.466
X-51.875 Y-71.686
Y-72.63
G3 X-51.597 Y-72.918 Z-3.814 I0.3 J0.01
G1 X-51.565 Y-72.921 Z-3.8
X-51.292 Y-72.941
X-48.708 Y-73.13
X-48.447 Y-73.149
X-48.435
G3 X-48.125 Y-72.86 Z-4 I0.01 J0.3
G1 Y-71.882
X-48.132 Y-71.732
X-48.161 Y-71.585
X-48.206 Y-71.442
X-48.267 Y-71.304
X-48.34 Y-71.173
X-48.425 Y-71.047
X-48.533 Y-70.911
X-48.655 Y-70.781
X-48.801 Y-70.648
X-48.971 Y-70.517
X-49.155 Y-70.397
X-49.36 Y-70.286
X-49.581 Y-70.188
X-49.819 Y-70.106
X-50.063 Y-70.042
X-50.31 Y-69.998
X-50.541 Y-69.976
X-50.76 Y-69.973
X-50.967 Y-69.987
X-51.134 Y-70.011
X-51.307 Y-70.051
X-51.386 Y-70.076
X-51.583 Y-70.175
X-51.74 Y-70.33
X-51.84 Y-70.526
X-51.875 Y-70.744
Y-71.686
G3 X-51.594 Y-71.975 Z-3.812 I0.3 J0.01
G1 X-51.565 Y-71.977 Z-3.8
X-51.292 Y-71.994
X-48.708 Y-72.154
X-48.443 Y-72.171
X-48.435
G3 X-48.125 Y-71.882 Z-4 I0.01 J0.3
G1 Y-70.945
X-48.132 Y-70.795
X-48.159 Y-70.648
X-48.204 Y-70.505
X-48.264 Y-70.367
X-48.336 Y-70.236
X-48.424 Y-70.105
X-48.528 Y-69.973
X-48.651 Y-69.842
X-48.799 Y-69.707
X-48.962 Y-69.58
X-49.147 Y-69.459
X-49.354 Y-69.347
X-49.578 Y-69.247
X-49.815 Y-69.164
X-50.057 Y-69.1
X-50.305 Y-69.056
X-50.537 Y-69.033
X-50.748 Y-69.029
X-50.961 Y-69.043
X-51.132 Y-69.068
X-51.299 Y-69.106
X-51.385 Y-69.133
X-51.582 Y-69.231
X-51.739 Y-69.386
X-51.84 Y-69.583
X-51.875 Y-69.801
Y-70.744
G3 X-51.594 Y-71.033 Z-3.812 I0.3 J0.01
G1 X-51.565 Y-71.034 Z-3.8
X-51.292 Y-71.052
X-48.708 Y-71.217
X-48.444 Y-71.234
X-48.435 Y-71.235
G3 X-48.125 Y-70.945 Z-4 I0.01 J0.3
G1 Y-70.024
X-48.132 Y-69.875
X-48.156 Y-69.726
X-48.199 Y-69.583
X-48.256 Y-69.444
X-48.327 Y-69.312
X-48.412 Y-69.181
X-48.513 Y-69.051
X-48.633 Y-68.918
X-48.778 Y-68.783
X-48.937 Y-68.656
X-49.12 Y-68.534
X-49.325 Y-68.419
X-49.546 Y-68.317
X-49.779 Y-68.232
X-50.021 Y-68.165
X-50.268 Y-68.118
X-50.504 Y-68.092
X-50.714 Y-68.086
X-50.932 Y-68.097
X-51.108 Y-68.12
X-51.272 Y-68.156
X-51.377 Y-68.187
X-51.577 Y-68.284
X-51.737 Y-68.44
X-51.84 Y-68.638
X-51.875 Y-68.857
Y-69.801
G3 X-51.596 Y-70.089 Z-3.813 I0.3 J0.01
G1 X-51.565 Y-70.092 Z-3.8
X-51.292 Y-70.111
X-48.708 Y-70.295
X-48.446 Y-70.313
X-48.435 Y-70.314
G3 X-48.125 Y-70.024 Z-4 I0.01 J0.3
G1 Y-69.046
X-48.132 Y-68.896
X-48.162 Y-68.749
X-48.208 Y-68.606
X-48.269 Y-68.47
X-48.343 Y-68.339
X-48.429 Y-68.211
X-48.538 Y-68.076
X-48.661 Y-67.945
X-48.808 Y-67.813
X-48.979 Y-67.682
X-49.164 Y-67.563
X-49.37 Y-67.452
X-49.592 Y-67.355
X-49.83 Y-67.273
X-50.074 Y-67.21
X-50.321 Y-67.168
X-50.551 Y-67.147
X-50.77 Y-67.144
X-50.976 Y-67.159
X-51.142 Y-67.184
X-51.315 Y-67.224
X-51.389 Y-67.248
X-51.585 Y-67.347
X-51.741 Y-67.502
X-51.841 Y-67.698
X-51.875 Y-67.915
Y-68.857
G3 X-51.593 Y-69.146 Z-3.812 I0.3 J0.01
G1 X-51.565 Y-69.148 Z-3.8
X-51.292 Y-69.164
X-48.708 Y-69.319
X-48.443 Y-69.335
X-48.435
G3 X-48.125 Y-69.046 Z-4 I0.01 J0.3
G1 Y-68.11
X-48.132 Y-67.96
X-48.16 Y-67.812
X-48.206 Y-67.67
X-48.266 Y-67.532
X-48.339 Y-67.401
X-48.428 Y-67.27
X-48.533 Y-67.139
X-48.656 Y-67.007
X-48.805 Y-66.872
X-48.97 Y-66.746
X-49.156 Y-66.625
X-49.363 Y-66.513
X-49.588 Y-66.414
X-49.825 Y-66.331
X-50.068 Y-66.268
X-50.316 Y-66.225
X-50.547 Y-66.203
X-50.758 Y-66.2
X-50.969 Y-66.215
X-51.139 Y-66.24
X-51.307 Y-66.279
X-51.387 Y-66.304
X-51.584 Y-66.403
X-51.74 Y-66.558
X-51.84 Y-66.754
X-51.875 Y-66.971
Y-67.915
G3 X-51.594 Y-68.204 Z-3.812 I0.3 J0.01
G1 X-51.565 Y-68.205 Z-3.8
X-51.292 Y-68.222
X-48.708 Y-68.382
X-48.443 Y-68.399
X-48.435
G3 X-48.125 Y-68.11 Z-4 I0.01 J0.3
G1 Y-67.189
X-48.132 Y-67.039
X-48.157 Y-66.891
X-48.2 Y-66.747
X-48.258 Y-66.609
X-48.329 Y-66.477
X-48.416 Y-66.346
X-48.517 Y-66.216
X-48.639 Y-66.083
X-48.784 Y-65.948
X-48.944 Y-65.822
X-49.128 Y-65.699
X-49.334 Y-65.585
X-49.555 Y-65.484
X-49.79 Y-65.399
X-50.032 Y-65.333
X-50.279 Y-65.287
X-50.514 Y-65.262
X-50.723 Y-65.257
X-50.94 Y-65.268
X-51.115 Y-65.292
X-51.28 Y-65.328
X-51.379 Y-65.359
X-51.579 Y-65.456
X-51.738 Y-65.612
X-51.84 Y-65.809
X-51.875 Y-66.028
Y-66.971
G3 X-51.596 Y-67.26 Z-3.813 I0.3 J0.01
G1 X-51.565 Y-67.262 Z-3.8
X-51.292 Y-67.281
X-48.708 Y-67.459
X-48.445 Y-67.478
X-48.435
G3 X-48.125 Y-67.189 Z-4 I0.01 J0.3
G1 Y-66.211
X-48.132 Y-66.061
X-48.162 Y-65.914
X-48.209 Y-65.771
X-48.271 Y-65.635
X-48.345 Y-65.504
X-48.433 Y-65.376
X-48.543 Y-65.24
X-48.667 Y-65.11
X-48.815 Y-64.978
X-48.986 Y-64.847
X-49.173 Y-64.728
X-49.379 Y-64.618
X-49.602 Y-64.522
X-49.841 Y-64.44
X-50.085 Y-64.378
X-50.333 Y-64.337
X-50.561 Y-64.317
X-50.78 Y-64.315
X-50.984 Y-64.33
X-51.15 Y-64.356
X-51.323 Y-64.397
X-51.392 Y-64.42
X-51.587 Y-64.519
X-51.741 Y-64.674
X-51.841 Y-64.869
X-51.875 Y-65.085
Y-66.028
G3 X-51.593 Y-66.317 Z-3.812 I0.3 J0.01
G1 X-51.565 Y-66.319 Z-3.8
X-51.292 Y-66.335
X-48.708 Y-66.484
X-48.442 Y-66.5
X-48.435
G3 X-48.125 Y-66.211 Z-4 I0.01 J0.3
G1 Y-65.274
X-48.132 Y-65.124
X-48.161 Y-64.977
X-48.207 Y-64.834
X-48.269 Y-64.697
X-48.342 Y-64.566
X-48.431 Y-64.435
X-48.537 Y-64.304
X-48.662 Y-64.172
X-48.812 Y-64.037
X-48.977 Y-63.911
X-49.164 Y-63.79
X-49.372 Y-63.679
X-49.598 Y-63.58
X-49.835 Y-63.499
X-50.079 Y-63.437
X-50.326 Y-63.394
X-50.557 Y-63.373
X-50.767 Y-63.371
X-50.977 Y-63.386
X-51.147 Y-63.412
X-51.315 Y-63.451
X-51.39 Y-63.476
X-51.585 Y-63.575
X-51.741 Y-63.73
X-51.841 Y-63.925
X-51.875 Y-64.142
Y-65.085
G3 X-51.593 Y-65.374 Z-3.812 I0.3 J0.01
G1 X-51.565 Y-65.376 Z-3.8
X-51.292 Y-65.392
X-48.708 Y-65.547
X-48.443 Y-65.563
X-48.435
G3 X-48.125 Y-65.274 Z-4 I0.01 J0.3
G1 Y-64.353
X-48.132 Y-64.203
X-48.158 Y-64.056
X-48.202 Y-63.912
X-48.261 Y-63.774
X-48.332 Y-63.642
X-48.419 Y-63.51
X-48.521 Y-63.381
X-48.644 Y-63.248
X-48.79 Y-63.113
X-48.951 Y-62.987
X-49.136 Y-62.865
X-49.343 Y-62.751
X-49.565 Y-62.65
X-49.799 Y-62.567
X-50.042 Y-62.501
X-50.289 Y-62.456
X-50.524 Y-62.432
X-50.733 Y-62.427
X-50.948 Y-62.44
X-51.122 Y-62.464
X-51.287 Y-62.501
X-51.382 Y-62.53
X-51.58 Y-62.628
X-51.738 Y-62.783
X-51.84 Y-62.98
X-51.875 Y-63.199
Y-64.142
G3 X-51.595 Y-64.431 Z-3.813 I0.3 J0.01
G1 X-51.565 Y-64.433 Z-3.8
X-51.292 Y-64.451
X-48.708 Y-64.624
X-48.445 Y-64.642
X-48.435 Y-64.643
G3 X-48.125 Y-64.353 Z-4 I0.01 J0.3
G1 Y-63.375
X-48.132 Y-63.225
X-48.163 Y-63.078
X-48.211 Y-62.936
X-48.273 Y-62.8
X-48.348 Y-62.67
X-48.436 Y-62.541
X-48.547 Y-62.405
X-48.672 Y-62.275
X-48.821 Y-62.142
X-48.994 Y-62.012
X-49.181 Y-61.894
X-49.388 Y-61.784
X-49.612 Y-61.688
X-49.851 Y-61.608
X-50.096 Y-61.547
X-50.343 Y-61.506
X-50.57 Y-61.487
X-50.789 Y-61.486
X-50.992 Y-61.501
X-51.157 Y-61.528
X-51.331 Y-61.57
X-51.394 Y-61.591
X-51.588 Y-61.69
X-51.742 Y-61.845
X-51.841 Y-62.04
X-51.875 Y-62.255
Y-63.199
G3 X-51.592 Y-63.488 Z-3.811 I0.3 J0.01
G1 X-51.565 Y-63.489 Z-3.8
X-51.292 Y-63.505
X-48.708 Y-63.649
X-48.442 Y-63.664
X-48.435
G3 X-48.125 Y-63.375 Z-4 I0.01 J0.3
G1 Y-62.439
X-48.132 Y-62.289
X-48.162 Y-62.142
X-48.209 Y-61.999
X-48.271 Y-61.862
X-48.344 Y-61.732
X-48.435 Y-61.6
X-48.541 Y-61.469
X-48.667 Y-61.337
X-48.817 Y-61.202
X-48.983 Y-61.076
X-49.171 Y-60.956
X-49.381 Y-60.845
X-49.607 Y-60.747
X-49.845 Y-60.666
X-50.088 Y-60.605
X-50.336 Y-60.563
X-50.566 Y-60.543
X-50.776 Y-60.542
X-50.985 Y-60.557
X-51.153 Y-60.583
X-51.322 Y-60.624
X-51.392 Y-60.647
X-51.587 Y-60.746
X-51.742 Y-60.901
X-51.841 Y-61.096
X-51.875 Y-61.312
Y-62.255
G3 X-51.593 Y-62.544 Z-3.812 I0.3 J0.01
G1 X-51.565 Y-62.546 Z-3.8
X-51.292 Y-62.562
X-48.708 Y-62.712
X-48.442 Y-62.728
X-48.435
G3 X-48.125 Y-62.439 Z-4 I0.01 J0.3
G1 Y-61.518
X-48.132 Y-61.368
X-48.159 Y-61.22
X-48.203 Y-61.077
X-48.263 Y-60.939
X-48.335 Y-60.808
X-48.423 Y-60.675
X-48.525 Y-60.546
X-48.649 Y-60.413
X-48.796 Y-60.278
X-48.957 Y-60.152
X-49.143 Y-60.03
X-49.351 Y-59.917
X-49.574 Y-59.817
X-49.809 Y-59.734
X-50.052 Y-59.669
X-50.299 Y-59.624
X-50.533 Y-59.601
X-50.741 Y-59.597
X-50.956 Y-59.611
X-51.129 Y-59.635
X-51.294 Y-59.673
X-51.384 Y-59.701
X-51.582 Y-59.799
X-51.739 Y-59.954
X-51.84 Y-60.151
X-51.875 Y-60.369
Y-61.312
G3 X-51.595 Y-61.601 Z-3.813 I0.3 J0.01
G1 X-51.565 Y-61.603 Z-3.8
X-51.292 Y-61.621
X-48.708 Y-61.789
X-48.444 Y-61.807
X-48.435
G3 X-48.125 Y-61.518 Z-4 I0.01 J0.3
G1 Y-60.539
X-48.132 Y-60.39
X-48.164 Y-60.243
X-48.212 Y-60.101
X-48.275 Y-59.965
X-48.35 Y-59.835
X-48.44 Y-59.706
X-48.551 Y-59.57
X-48.677 Y-59.44
X-48.827 Y-59.307
X-49 Y-59.177
X-49.188 Y-59.059
X-49.397 Y-58.95
X-49.621 Y-58.854
X-49.861 Y-58.775
X-50.106 Y-58.715
X-50.353 Y-58.674
X-50.579 Y-58.656
X-50.798
X-50.999 Y-58.672
X-51.164 Y-58.699
X-51.338 Y-58.742
X-51.396 Y-58.761
X-51.59 Y-58.861
X-51.743 Y-59.016
X-51.841 Y-59.21
X-51.875 Y-59.425
Y-60.369
G3 X-51.591 Y-60.658 Z-3.811 I0.3 J0.01
G1 X-51.565 Y-60.659 Z-3.8
X-51.292 Y-60.674
X-48.708 Y-60.814
X-48.441 Y-60.828
X-48.435 Y-60.829
G3 X-48.125 Y-60.539 Z-4 I0.01 J0.3
G1 Y-59.603
X-48.132 Y-59.453
X-48.163 Y-59.306
X-48.21 Y-59.164
X-48.272 Y-59.027
X-48.347 Y-58.897
X-48.438 Y-58.765
X-48.544 Y-58.634
X-48.671 Y-58.502
X-48.823 Y-58.367
X-48.989 Y-58.242
X-49.179 Y-58.121
X-49.389 Y-58.011
X-49.616 Y-57.914
X-49.854 Y-57.833
X-50.098 Y-57.773
X-50.346 Y-57.732
X-50.574 Y-57.713
X-50.785 Y-57.712
X-50.992 Y-57.728
X-51.16 Y-57.755
X-51.329 Y-57.795
X-51.394 Y-57.817
X-51.588 Y-57.917
X-51.742 Y-58.072
X-51.841 Y-58.266
X-51.875 Y-58.482
Y-59.425
G3 X-51.592 Y-59.714 Z-3.812 I0.3 J0.01
G1 X-51.565 Y-59.716 Z-3.8
X-51.292 Y-59.731
X-48.708 Y-59.877
X-48.442 Y-59.892
X-48.435
G3 X-48.125 Y-59.603 Z-4 I0.01 J0.3
G1 Y-58.682
X-48.132 Y-58.532
X-48.159 Y-58.385
X-48.205 Y-58.242
X-48.265 Y-58.104
X-48.337 Y-57.973
X-48.426 Y-57.84
X-48.528 Y-57.711
X-48.653 Y-57.578
X-48.801 Y-57.443
X-48.963 Y-57.318
X-49.15 Y-57.196
X-49.359 Y-57.082
X-49.582 Y-56.983
X-49.818 Y-56.901
X-50.061 Y-56.837
X-50.308 Y-56.793
X-50.541 Y-56.771
X-50.749 Y-56.767
X-50.963 Y-56.781
X-51.135 Y-56.806
X-51.301 Y-56.844
X-51.386 Y-56.871
X-51.583 Y-56.97
X-51.74 Y-57.125
X-51.84 Y-57.321
X-51.875 Y-57.539
Y-58.482
G3 X-51.594 Y-58.771 Z-3.812 I0.3 J0.01
G1 X-51.565 Y-58.773 Z-3.8
X-51.292 Y-58.79
X-48.708 Y-58.954
X-48.444 Y-58.971
X-48.435
G3 X-48.125 Y-58.682 Z-4 I0.01 J0.3
G1 Y-57.704
X-48.132 Y-57.554
X-48.165 Y-57.408
X-48.214 Y-57.266
X-48.277 Y-57.13
X-48.353 Y-57
X-48.443 Y-56.871
X-48.555 Y-56.735
X-48.681 Y-56.605
X-48.833 Y-56.472
X-49.007 Y-56.342
X-49.195 Y-56.224
X-49.405 Y-56.116
X-49.63 Y-56.021
X-49.87 Y-55.942
X-50.115 Y-55.882
X-50.363 Y-55.843
X-50.587 Y-55.826
X-50.806
X-51.006 Y-55.843
X-51.171 Y-55.87
X-51.344 Y-55.913
X-51.398 Y-55.932
X-51.591 Y-56.032
X-51.743 Y-56.187
X-51.841 Y-56.381
X-51.875 Y-56.595
Y-57.539
G3 X-51.591 Y-57.828 Z-3.811 I0.3 J0.01
G1 X-51.565 Y-57.829 Z-3.8
X-51.292 Y-57.843
X-48.708 Y-57.979
X-48.441 Y-57.993
X-48.435
G3 X-48.125 Y-57.704 Z-4 I0.01 J0.3
G1 Y-56.767
X-48.132 Y-56.618
X-48.163 Y-56.471
X-48.212 Y-56.329
X-48.274 Y-56.192
X-48.349 Y-56.062
X-48.441 Y-55.929
X-48.548 Y-55.799
X-48.676 Y-55.666
X-48.828 Y-55.532
X-48.995 Y-55.407
X-49.185 Y-55.287
X-49.396 Y-55.177
X-49.624 Y-55.08
X-49.863 Y-55
X-50.107 Y-54.94
X-50.355 Y-54.9
X-50.582 Y-54.882
X-50.793
X-50.999 Y-54.898
X-51.166 Y-54.925
X-51.335 Y-54.967
X-51.396 Y-54.987
X-51.589 Y-55.087
X-51.743 Y-55.242
X-51.841 Y-55.436
X-51.875 Y-55.651
Y-56.595
G3 X-51.592 Y-56.884 Z-3.811 I0.3 J0.01
G1 X-51.565 Y-56.886 Z-3.8
X-51.292 Y-56.901
X-48.708 Y-57.042
X-48.441 Y-57.056
X-48.435 Y-57.057
G3 X-48.125 Y-56.767 Z-4 I0.01 J0.3
G1 Y-55.847
X-48.132 Y-55.697
X-48.16 Y-55.549
X-48.206 Y-55.406
X-48.266 Y-55.269
X-48.339 Y-55.138
X-48.429 Y-55.005
X-48.532 Y-54.876
X-48.658 Y-54.742
X-48.806 Y-54.608
X-48.969 Y-54.483
X-49.157 Y-54.361
X-49.366 Y-54.248
X-49.59 Y-54.15
X-49.826 Y-54.068
X-50.069 Y-54.005
X-50.317 Y-53.961
X-50.549 Y-53.94
X-50.757 Y-53.937
X-50.97 Y-53.951
X-51.141 Y-53.977
X-51.307 Y-54.015
X-51.388 Y-54.041
X-51.584 Y-54.14
X-51.74 Y-54.295
X-51.84 Y-54.491
X-51.875 Y-54.708
Y-55.651
G3 X-51.594 Y-55.94 Z-3.812 I0.3 J0.01
G1 X-51.565 Y-55.942 Z-3.8
X-51.292 Y-55.959
X-48.708 Y-56.119
X-48.443 Y-56.135
X-48.435 Y-56.136
G3 X-48.125 Y-55.847 Z-4 I0.01 J0.3
G1 Y-54.868
X-48.132 Y-54.718
X-48.165 Y-54.572
X-48.215 Y-54.43
X-48.279 Y-54.295
X-48.355 Y-54.165
X-48.446 Y-54.035
X-48.559 Y-53.9
X-48.686 Y-53.77
X-48.838 Y-53.637
X-49.013 Y-53.508
X-49.202 Y-53.39
X-49.412 Y-53.281
X-49.638 Y-53.187
X-49.879 Y-53.109
X-50.124 Y-53.05
X-50.372 Y-53.011
X-50.595 Y-52.995
X-50.814 Y-52.996
X-51.013 Y-53.013
X-51.177 Y-53.041
X-51.35 Y-53.085
X-51.4 Y-53.102
X-51.592 Y-53.202
X-51.744 Y-53.357
X-51.841 Y-53.55
X-51.875 Y-53.764
Y-54.708
G3 X-51.59 Y-54.997 Z-3.811 I0.3 J0.01
G1 X-51.565 Y-54.999 Z-3.8
X-51.292 Y-55.012
X-48.708 Y-55.144
X-48.44 Y-55.157
X-48.435 Y-55.158
G3 X-48.125 Y-54.868 Z-4 I0.01 J0.3
G1 Y-53.932
X-48.132 Y-53.782
X-48.164 Y-53.635
X-48.213 Y-53.494
X-48.276 Y-53.357
X-48.351 Y-53.228
X-48.444 Y-53.094
X-48.551 Y-52.964
X-48.68 Y-52.831
X-48.833 Y-52.697
X-49.001 Y-52.572
X-49.192 Y-52.452
X-49.403 Y-52.342
X-49.631 Y-52.246
X-49.871 Y-52.167
X-50.115 Y-52.108
X-50.363 Y-52.068
X-50.59 Y-52.051
X-50.8
X-51.005 Y-52.068
X-51.172 Y-52.096
X-51.341 Y-52.138
X-51.398 Y-52.157
X-51.591 Y-52.257
X-51.743 Y-52.412
X-51.841 Y-52.606
X-51.875 Y-52.821
Y-53.764
G3 X-51.591 Y-54.054 Z-3.811 I0.3 J0.01
G1 X-51.565 Y-54.055 Z-3.8
X-51.292 Y-54.069
X-48.708 Y-54.207
X-48.441 Y-54.221
X-48.435
G3 X-48.125 Y-53.932 Z-4 I0.01 J0.3
G1 Y-53.011
X-48.132 Y-52.861
X-48.161 Y-52.714
X-48.207 Y-52.571
X-48.268 Y-52.434
X-48.341 Y-52.303
X-48.432 Y-52.17
X-48.535 Y-52.041
X-48.662 Y-51.907
X-48.811 Y-51.773
X-48.974 Y-51.648
X-49.163 Y-51.526
X-49.373 Y-51.414
X-49.598 Y-51.316
X-49.834 Y-51.235
X-50.077 Y-51.172
X-50.325 Y-51.13
X-50.557 Y-51.108
X-50.764 Y-51.106
X-50.976 Y-51.121
X-51.147 Y-51.147
X-51.313 Y-51.186
X-51.389 Y-51.211
X-51.585 Y-51.31
X-51.741 Y-51.465
X-51.841 Y-51.661
X-51.875 Y-51.877
Y-52.821
G3 X-51.593 Y-53.11 Z-3.812 I0.3 J0.01
G1 X-51.565 Y-53.111 Z-3.8
X-51.292 Y-53.128
X-48.708 Y-53.284
X-48.443 Y-53.3
X-48.435
G3 X-48.125 Y-53.011 Z-4 I0.01 J0.3
G1 Y-52.09
X-48.132 Y-51.94
X-48.158 Y-51.792
X-48.201 Y-51.649
X-48.26 Y-51.511
X-48.332 Y-51.379
X-48.419 Y-51.247
X-48.52 Y-51.118
X-48.643 Y-50.985
X-48.789 Y-50.85
X-48.949 Y-50.724
X-49.134 Y-50.601
X-49.341 Y-50.487
X-49.562 Y-50.387
X-49.797 Y-50.303
X-50.04 Y-50.237
X-50.286 Y-50.192
X-50.521 Y-50.167
X-50.73 Y-50.162
X-50.946 Y-50.175
X-51.12 Y-50.199
X-51.285 Y-50.236
X-51.381 Y-50.265
X-51.58 Y-50.363
X-51.738 Y-50.518
X-51.84 Y-50.715
X-51.875 Y-50.934
Y-51.877
G3 X-51.595 Y-52.166 Z-3.813 I0.3 J0.01
G1 X-51.565 Y-52.168 Z-3.8
X-51.292 Y-52.187
X-48.708 Y-52.361
X-48.445 Y-52.379
X-48.435
G3 X-48.125 Y-52.09 Z-4 I0.01 J0.3
G1 Y-51.096
X-48.132 Y-50.946
X-48.165 Y-50.8
X-48.215 Y-50.658
X-48.278 Y-50.523
X-48.354 Y-50.393
X-48.444 Y-50.265
X-48.556 Y-50.129
X-48.683 Y-49.998
X-48.834 Y-49.867
X-49.009 Y-49.737
X-49.199 Y-49.618
X-49.408 Y-49.51
X-49.632 Y-49.415
X-49.872 Y-49.337
X-50.117 Y-49.277
X-50.365 Y-49.238
X-50.588 Y-49.221
X-50.81 Y-49.222
X-51.008 Y-49.239
X-51.172 Y-49.266
X-51.347 Y-49.31
X-51.399 Y-49.327
X-51.591 Y-49.428
X-51.744 Y-49.582
X-51.841 Y-49.776
X-51.875 Y-49.991
Y-50.934
G3 X-51.591 Y-51.223 Z-3.811 I0.3 J0.01
G1 X-51.565 Y-51.225 Z-3.8
X-51.292 Y-51.239
X-48.708 Y-51.372
X-48.44 Y-51.385
X-48.435 Y-51.386
G3 X-48.125 Y-51.096 Z-4 I0.01 J0.3
G1 Y-50.175
X-48.132 Y-50.026
X-48.162 Y-49.878
X-48.208 Y-49.736
X-48.27 Y-49.599
X-48.343 Y-49.468
X-48.434 Y-49.336
X-48.538 Y-49.207
X-48.666 Y-49.073
X-48.815 Y-48.939
X-48.979 Y-48.814
X-49.169 Y-48.693
X-49.378 Y-48.581
X-49.604 Y-48.483
X-49.841 Y-48.402
X-50.085 Y-48.34
X-50.333 Y-48.298
X-50.564 Y-48.278
X-50.772 Y-48.277
X-50.982 Y-48.292
X-51.152 Y-48.318
X-51.318 Y-48.358
X-51.391 Y-48.381
X-51.586 Y-48.481
X-51.741 Y-48.636
X-51.841 Y-48.831
X-51.875 Y-49.047
Y-49.991
G3 X-51.593 Y-50.28 Z-3.812 I0.3 J0.01
G1 X-51.565 Y-50.281 Z-3.8
X-51.292 Y-50.297
X-48.708 Y-50.449
X-48.442 Y-50.464
X-48.435 Y-50.465
G3 X-48.125 Y-50.175 Z-4 I0.01 J0.3
G1 Y-49.255
X-48.132 Y-49.105
X-48.158 Y-48.957
X-48.203 Y-48.814
X-48.262 Y-48.676
X-48.334 Y-48.544
X-48.422 Y-48.412
X-48.524 Y-48.283
X-48.647 Y-48.149
X-48.794 Y-48.015
X-48.955 Y-47.889
X-49.141 Y-47.767
X-49.348 Y-47.653
X-49.571 Y-47.553
X-49.806 Y-47.47
X-50.049 Y-47.405
X-50.295 Y-47.36
X-50.53 Y-47.336
X-50.738 Y-47.332
X-50.954 Y-47.345
X-51.127 Y-47.37
X-51.292 Y-47.407
X-51.383 Y-47.436
X-51.581 Y-47.534
X-51.739 Y-47.689
X-51.84 Y-47.886
X-51.875 Y-48.104
Y-49.047
G3 X-51.595 Y-49.336 Z-3.813 I0.3 J0.01
G1 X-51.565 Y-49.338 Z-3.8
X-51.292 Y-49.356
X-48.708 Y-49.526
X-48.445 Y-49.543
X-48.435 Y-49.544
G3 X-48.125 Y-49.255 Z-4 I0.01 J0.3
G1 Y-48.299
X-48.132 Y-48.149
X-48.16 Y-48.002
X-48.206 Y-47.859
X-48.266 Y-47.722
X-48.339 Y-47.591
X-48.427 Y-47.461
X-48.534 Y-47.327
X-48.656 Y-47.197
X-48.804 Y-47.063
X-48.972 Y-46.934
X-49.156 Y-46.814
X-49.363 Y-46.702
X-49.585 Y-46.604
X-49.823 Y-46.521
X-50.067 Y-46.458
X-50.314 Y-46.415
X-50.545 Y-46.393
X-50.759 Y-46.39
X-50.969 Y-46.404
X-51.138 Y-46.429
X-51.308 Y-46.468
X-51.387 Y-46.494
X-51.584 Y-46.593
X-51.74 Y-46.748
X-51.84 Y-46.943
X-51.875 Y-47.161
Y-48.104
G3 X-51.594 Y-48.393 Z-3.812 I0.3 J0.01
G1 X-51.565 Y-48.395 Z-3.8
X-51.292 Y-48.412
X-48.708 Y-48.572
X-48.443 Y-48.588
X-48.435 Y-48.589
G3 X-48.125 Y-48.299 Z-4 I0.01 J0.3
G1 Y-47.34
X-48.132 Y-47.19
X-48.163 Y-47.043
X-48.21 Y-46.901
X-48.272 Y-46.764
X-48.346 Y-46.634
X-48.436 Y-46.504
X-48.545 Y-46.369
X-48.67 Y-46.239
X-48.82 Y-46.105
X-48.99 Y-45.977
X-49.177 Y-45.858
X-49.385 Y-45.748
X-49.611 Y-45.651
X-49.85 Y-45.57
X-50.094 Y-45.509
X-50.341 Y-45.468
X-50.57 Y-45.449
X-50.785 Y-45.448
X-50.99 Y-45.463
X-51.156 Y-45.49
X-51.328 Y-45.531
X-51.393 Y-45.552
X-51.588 Y-45.652
X-51.742 Y-45.807
X-51.841 Y-46.002
X-51.875 Y-46.218
Y-47.161
G3 X-51.592 Y-47.45 Z-3.812 I0.3 J0.01
G1 X-51.565 Y-47.451 Z-3.8
X-51.292 Y-47.467
X-48.708 Y-47.614
X-48.442 Y-47.629
X-48.435
G3 X-48.125 Y-47.34 Z-4 I0.01 J0.3
G1 Y-46.419
X-48.132 Y-46.269
X-48.159 Y-46.122
X-48.204 Y-45.978
X-48.264 Y-45.841
X-48.336 Y-45.709
X-48.425 Y-45.577
X-48.527 Y-45.448
X-48.652 Y-45.315
X-48.799 Y-45.18
X-48.961 Y-45.055
X-49.148 Y-44.933
X-49.356 Y-44.819
X-49.58 Y-44.72
X-49.815 Y-44.637
X-50.058 Y-44.573
X-50.305 Y-44.529
X-50.539 Y-44.506
X-50.747 Y-44.503
X-50.961 Y-44.517
X-51.134 Y-44.542
X-51.299 Y-44.579
X-51.385 Y-44.607
X-51.583 Y-44.705
X-51.739 Y-44.86
X-51.84 Y-45.056
X-51.875 Y-45.274
Y-46.218
G3 X-51.594 Y-46.506 Z-3.812 I0.3 J0.01
G1 X-51.565 Y-46.508 Z-3.8
X-51.292 Y-46.526
X-48.708 Y-46.691
X-48.444 Y-46.708
X-48.435
G3 X-48.125 Y-46.419 Z-4 I0.01 J0.3
G1 Y-45.464
X-48.132 Y-45.314
X-48.161 Y-45.167
X-48.207 Y-45.024
X-48.269 Y-44.887
X-48.342 Y-44.756
X-48.43 Y-44.626
X-48.538 Y-44.492
X-48.661 Y-44.362
X-48.81 Y-44.227
X-48.979 Y-44.099
X-49.164 Y-43.979
X-49.371 Y-43.868
X-49.595 Y-43.771
X-49.833 Y-43.689
X-50.077 Y-43.626
X-50.324 Y-43.584
X-50.555 Y-43.563
X-50.769 Y-43.561
X-50.977 Y-43.575
X-51.145 Y-43.601
X-51.315 Y-43.641
X-51.389 Y-43.665
X-51.585 Y-43.764
X-51.741 Y-43.919
X-51.841 Y-44.114
X-51.875 Y-44.331
Y-45.274
G3 X-51.593 Y-45.563 Z-3.812 I0.3 J0.01
G1 X-51.565 Y-45.565 Z-3.8
X-51.292 Y-45.581
X-48.708 Y-45.737
X-48.443 Y-45.753
X-48.435
G3 X-48.125 Y-45.464 Z-4 I0.01 J0.3
G1 Y-44.504
X-48.132 Y-44.354
X-48.163 Y-44.208
X-48.211 Y-44.066
X-48.274 Y-43.929
X-48.349 Y-43.799
X-48.439 Y-43.669
X-48.549 Y-43.535
X-48.675 Y-43.404
X-48.826 Y-43.27
X-48.997 Y-43.142
X-49.185 Y-43.023
X-49.394 Y-42.914
X-49.62 Y-42.817
X-49.86 Y-42.737
X-50.104 Y-42.677
X-50.352 Y-42.637
X-50.579 Y-42.618
X-50.794
X-50.997 Y-42.634
X-51.163 Y-42.661
X-51.335 Y-42.703
X-51.396 Y-42.723
X-51.589 Y-42.823
X-51.743 Y-42.978
X-51.841 Y-43.172
X-51.875 Y-43.388
Y-44.331
G3 X-51.592 Y-44.62 Z-3.811 I0.3 J0.01
G1 X-51.565 Y-44.622 Z-3.8
X-51.292 Y-44.637
X-48.708 Y-44.779
X-48.441 Y-44.793
X-48.435 Y-44.794
G3 X-48.125 Y-44.504 Z-4 I0.01 J0.3
G1 Y-43.583
X-48.132 Y-43.434
X-48.16 Y-43.286
X-48.206 Y-43.143
X-48.266 Y-43.006
X-48.339 Y-42.875
X-48.428 Y-42.742
X-48.531 Y-42.613
X-48.657 Y-42.48
X-48.805 Y-42.345
X-48.968 Y-42.22
X-49.156 Y-42.098
X-49.364 Y-41.985
X-49.588 Y-41.887
X-49.824 Y-41.805
X-50.068 Y-41.741
X-50.315 Y-41.698
X-50.548 Y-41.676
X-50.756 Y-41.673
X-50.969 Y-41.688
X-51.14 Y-41.713
X-51.306 Y-41.751
X-51.387 Y-41.777
X-51.584 Y-41.876
X-51.74 Y-42.031
X-51.84 Y-42.227
X-51.875 Y-42.444
Y-43.388
G3 X-51.594 Y-43.677 Z-3.812 I0.3 J0.01
G1 X-51.565 Y-43.678 Z-3.8
X-51.292 Y-43.695
X-48.708 Y-43.856
X-48.443 Y-43.872
X-48.435 Y-43.873
G3 X-48.125 Y-43.583 Z-4 I0.01 J0.3
G1 Y-42.675
X-48.132 Y-42.525
X-48.155 Y-42.377
X-48.197 Y-42.233
X-48.254 Y-42.094
X-48.324 Y-41.962
X-48.409 Y-41.83
X-48.507 Y-41.701
X-48.628 Y-41.568
X-48.77 Y-41.433
X-48.928 Y-41.307
X-49.111 Y-41.183
X-49.315 Y-41.067
X-49.534 Y-40.966
X-49.766 Y-40.88
X-50.008 Y-40.812
X-50.255 Y-40.763
X-50.493 Y-40.736
X-50.702 Y-40.729
X-50.922 Y-40.74
X-51.1 Y-40.763
X-51.263 Y-40.797
X-51.374 Y-40.83
X-51.575 Y-40.927
X-51.736 Y-41.082
X-51.839 Y-41.28
X-51.875 Y-41.501
Y-42.444
G3 X-51.597 Y-42.733 Z-3.814 I0.3 J0.01
G1 X-51.565 Y-42.735 Z-3.8
X-51.292 Y-42.755
X-48.708 Y-42.945
X-48.447 Y-42.964
X-48.435 Y-42.965
G3 X-48.125 Y-42.675 Z-4 I0.01 J0.3
G1 Y-41.669
X-48.132 Y-41.519
X-48.165 Y-41.372
X-48.213 Y-41.231
X-48.277 Y-41.094
X-48.352 Y-40.965
X-48.44 Y-40.838
X-48.551 Y-40.703
X-48.679 Y-40.57
X-48.827 Y-40.44
X-49 Y-40.31
X-49.193 Y-40.189
X-49.4 Y-40.081
X-49.623 Y-39.986
X-49.862 Y-39.907
X-50.107 Y-39.847
X-50.354 Y-39.807
X-50.578 Y-39.789
X-50.802
X-51 Y-39.805
X-51.164 Y-39.832
X-51.34 Y-39.875
X-51.396 Y-39.894
X-51.59 Y-39.994
X-51.743 Y-40.149
X-51.841 Y-40.343
X-51.875 Y-40.558
Y-41.501
G3 X-51.591 Y-41.79 Z-3.811 I0.3 J0.01
G1 X-51.565 Y-41.792 Z-3.8
X-51.292 Y-41.806
X-48.708 Y-41.944
X-48.441 Y-41.958
X-48.435
G3 X-48.125 Y-41.669 Z-4 I0.01 J0.3
G1 Y-40.748
X-48.132 Y-40.598
X-48.161 Y-40.451
X-48.207 Y-40.308
X-48.268 Y-40.171
X-48.341 Y-40.04
X-48.431 Y-39.907
X-48.535 Y-39.778
X-48.661 Y-39.645
X-48.81 Y-39.511
X-48.974 Y-39.386
X-49.162 Y-39.264
X-49.371 Y-39.152
X-49.596 Y-39.054
X-49.833 Y-38.972
X-50.076 Y-38.91
X-50.324 Y-38.867
X-50.556 Y-38.846
X-50.764 Y-38.844
X-50.976 Y-38.859
X-51.146 Y-38.884
X-51.312 Y-38.923
X-51.389 Y-38.948
X-51.585 Y-39.047
X-51.741 Y-39.202
X-51.841 Y-39.398
X-51.875 Y-39.615
Y-40.558
G3 X-51.593 Y-40.847 Z-3.812 I0.3 J0.01
G1 X-51.565 Y-40.849 Z-3.8
X-51.292 Y-40.865
X-48.708 Y-41.021
X-48.443 Y-41.037
X-48.435
G3 X-48.125 Y-40.748 Z-4 I0.01 J0.3
G1 Y-39.84
X-48.132 Y-39.69
X-48.156 Y-39.542
X-48.198 Y-39.398
X-48.256 Y-39.259
X-48.326 Y-39.127
X-48.412 Y-38.995
X-48.511 Y-38.867
X-48.632 Y-38.733
X-48.776 Y-38.598
X-48.934 Y-38.472
X-49.118 Y-38.349
X-49.324 Y-38.233
X-49.543 Y-38.132
X-49.776 Y-38.047
X-50.018 Y-37.98
X-50.265 Y-37.932
X-50.503 Y-37.906
X-50.711 Y-37.9
X-50.93 Y-37.911
X-51.107 Y-37.934
X-51.27 Y-37.969
X-51.376 Y-38.001
X-51.577 Y-38.098
X-51.737 Y-38.253
X-51.84 Y-38.451
X-51.875 Y-38.671
Y-39.615
G3 X-51.597 Y-39.903 Z-3.813 I0.3 J0.01
G1 X-51.565 Y-39.906 Z-3.8
X-51.292 Y-39.925
X-48.708 Y-40.11
X-48.446 Y-40.129
X-48.435
G3 X-48.125 Y-39.84 Z-4 I0.01 J0.3
G1 Y-38.833
X-48.132 Y-38.683
X-48.165 Y-38.537
X-48.215 Y-38.395
X-48.279 Y-38.26
X-48.355 Y-38.13
X-48.443 Y-38.003
X-48.556 Y-37.867
X-48.684 Y-37.735
X-48.833 Y-37.605
X-49.008 Y-37.475
X-49.2 Y-37.355
X-49.408 Y-37.247
X-49.632 Y-37.153
X-49.871 Y-37.074
X-50.117 Y-37.015
X-50.365 Y-36.976
X-50.587 Y-36.959
X-50.81
X-51.007 Y-36.976
X-51.171 Y-37.003
X-51.347 Y-37.047
X-51.399 Y-37.065
X-51.591 Y-37.165
X-51.744 Y-37.32
X-51.841 Y-37.513
X-51.875 Y-37.728
Y-38.671
G3 X-51.591 Y-38.96 Z-3.811 I0.3 J0.01
G1 X-51.565 Y-38.962 Z-3.8
X-51.292 Y-38.976
X-48.708 Y-39.108
X-48.44 Y-39.122
X-48.435
G3 X-48.125 Y-38.833 Z-4 I0.01 J0.3
G1 Y-37.912
X-48.132 Y-37.762
X-48.162 Y-37.615
X-48.209 Y-37.473
X-48.27 Y-37.336
X-48.344 Y-37.205
X-48.434 Y-37.073
X-48.539 Y-36.944
X-48.666 Y-36.81
X-48.815 Y-36.676
X-48.98 Y-36.551
X-49.169 Y-36.43
X-49.379 Y-36.318
X-49.605 Y-36.22
X-49.842 Y-36.139
X-50.085 Y-36.078
X-50.333 Y-36.036
X-50.564 Y-36.015
X-50.772 Y-36.014
X-50.983 Y-36.029
X-51.152 Y-36.056
X-51.319 Y-36.095
X-51.391 Y-36.119
X-51.586 Y-36.218
X-51.741 Y-36.373
X-51.841 Y-36.568
X-51.875 Y-36.784
Y-37.728
G3 X-51.593 Y-38.017 Z-3.812 I0.3 J0.01
G1 X-51.565 Y-38.019 Z-3.8
X-51.292 Y-38.035
X-48.708 Y-38.186
X-48.442 Y-38.201
X-48.435 Y-38.202
G3 X-48.125 Y-37.912 Z-4 I0.01 J0.3
G1 Y-37.004
X-48.132 Y-36.854
X-48.157 Y-36.706
X-48.2 Y-36.563
X-48.258 Y-36.424
X-48.328 Y-36.292
X-48.415 Y-36.16
X-48.515 Y-36.032
X-48.637 Y-35.898
X-48.781 Y-35.764
X-48.94 Y-35.638
X-49.125 Y-35.514
X-49.331 Y-35.399
X-49.552 Y-35.298
X-49.784 Y-35.214
X-50.027 Y-35.147
X-50.274 Y-35.101
X-50.511 Y-35.075
X-50.719 Y-35.069
X-50.937 Y-35.081
X-51.113 Y-35.105
X-51.276 Y-35.14
X-51.378 Y-35.171
X-51.578 Y-35.269
X-51.737 Y-35.424
X-51.84 Y-35.622
X-51.875 Y-35.841
Y-36.784
G3 X-51.596 Y-37.073 Z-3.813 I0.3 J0.01
G1 X-51.565 Y-37.075 Z-3.8
X-51.292 Y-37.094
X-48.708 Y-37.275
X-48.446 Y-37.293
X-48.435 Y-37.294
G3 X-48.125 Y-37.004 Z-4 I0.01 J0.3
G1 Y-36.068
X-48.132 Y-35.918
X-48.156 Y-35.77
X-48.198 Y-35.626
X-48.255 Y-35.487
X-48.326 Y-35.355
X-48.41 Y-35.226
X-48.512 Y-35.093
X-48.63 Y-34.962
X-48.774 Y-34.827
X-48.935 Y-34.699
X-49.115 Y-34.577
X-49.319 Y-34.463
X-49.539 Y-34.361
X-49.773 Y-34.275
X-50.016 Y-34.207
X-50.261 Y-34.16
X-50.498 Y-34.133
X-50.71 Y-34.127
X-50.928 Y-34.137
X-51.103 Y-34.16
X-51.269 Y-34.196
X-51.375 Y-34.228
X-51.576 Y-34.325
X-51.736 Y-34.48
X-51.839 Y-34.678
X-51.875 Y-34.898
Y-35.841
G3 X-51.597 Y-36.13 Z-3.813 I0.3 J0.01
G1 X-51.565 Y-36.132 Z-3.8
X-51.292 Y-36.152
X-48.708 Y-36.338
X-48.446 Y-36.356
X-48.435 Y-36.357
G3 X-48.125 Y-36.068 Z-4 I0.01 J0.3
G1 Y-35.077
X-48.132 Y-34.927
X-48.163 Y-34.78
X-48.211 Y-34.638
X-48.273 Y-34.501
X-48.347 Y-34.371
X-48.434 Y-34.244
X-48.544 Y-34.108
X-48.669 Y-33.977
X-48.817 Y-33.846
X-48.989 Y-33.715
X-49.178 Y-33.595
X-49.384 Y-33.486
X-49.606 Y-33.39
X-49.845 Y-33.309
X-50.09 Y-33.248
X-50.337 Y-33.206
X-50.564 Y-33.187
X-50.786 Y-33.186
X-50.987 Y-33.201
X-51.153 Y-33.227
X-51.327 Y-33.269
X-51.393 Y-33.29
X-51.587 Y-33.39
X-51.742 Y-33.544
X-51.841 Y-33.739
X-51.875 Y-33.955
Y-34.898
G3 X-51.592 Y-35.187 Z-3.812 I0.3 J0.01
G1 X-51.565 Y-35.189 Z-3.8
X-51.292 Y-35.204
X-48.708 Y-35.351
X-48.442 Y-35.366
X-48.435
G3 X-48.125 Y-35.077 Z-4 I0.01 J0.3
G1 Y-34.169
X-48.132 Y-34.019
X-48.158 Y-33.871
X-48.201 Y-33.727
X-48.26 Y-33.589
X-48.331 Y-33.457
X-48.418 Y-33.325
X-48.519 Y-33.197
X-48.642 Y-33.063
X-48.787 Y-32.929
X-48.946 Y-32.804
X-49.132 Y-32.68
X-49.338 Y-32.566
X-49.56 Y-32.466
X-49.794 Y-32.382
X-50.037 Y-32.316
X-50.284 Y-32.27
X-50.521 Y-32.245
X-50.728 Y-32.24
X-50.945 Y-32.253
X-51.12 Y-32.277
X-51.283 Y-32.313
X-51.38 Y-32.343
X-51.58 Y-32.441
X-51.738 Y-32.596
X-51.84 Y-32.793
X-51.875 Y-33.012
Y-33.955
G3 X-51.595 Y-34.244 Z-3.813 I0.3 J0.01
G1 X-51.565 Y-34.246 Z-3.8
X-51.292 Y-34.265
X-48.708 Y-34.44
X-48.445 Y-34.457
X-48.435 Y-34.458
G3 X-48.125 Y-34.169 Z-4 I0.01 J0.3
G1 Y-33.232
X-48.132 Y-33.082
X-48.157 Y-32.934
X-48.199 Y-32.791
X-48.258 Y-32.652
X-48.328 Y-32.52
X-48.413 Y-32.39
X-48.516 Y-32.258
X-48.636 Y-32.127
X-48.781 Y-31.992
X-48.942 Y-31.864
X-49.124 Y-31.743
X-49.328 Y-31.628
X-49.549 Y-31.528
X-49.784 Y-31.442
X-50.027 Y-31.375
X-50.273 Y-31.329
X-50.509 Y-31.303
X-50.72 Y-31.297
X-50.937 Y-31.309
X-51.111 Y-31.332
X-51.277 Y-31.369
X-51.378 Y-31.399
X-51.578 Y-31.497
X-51.737 Y-31.652
X-51.84 Y-31.849
X-51.875 Y-32.069
Y-33.012
G3 X-51.596 Y-33.301 Z-3.813 I0.3 J0.01
G1 X-51.565 Y-33.303 Z-3.8
X-51.292 Y-33.322
X-48.708 Y-33.503
X-48.446 Y-33.521
X-48.435 Y-33.522
G3 X-48.125 Y-33.232 Z-4 I0.01 J0.3
G1 Y-32.241
X-48.132 Y-32.091
X-48.164 Y-31.945
X-48.212 Y-31.803
X-48.275 Y-31.666
X-48.35 Y-31.536
X-48.438 Y-31.409
X-48.549 Y-31.273
X-48.675 Y-31.142
X-48.824 Y-31.011
X-48.997 Y-30.88
X-49.186 Y-30.761
X-49.393 Y-30.652
X-49.617 Y-30.557
X-49.856 Y-30.477
X-50.101 Y-30.416
X-50.348 Y-30.375
X-50.574 Y-30.357
X-50.795
X-50.996 Y-30.372
X-51.16 Y-30.399
X-51.335 Y-30.442
X-51.395 Y-30.461
X-51.589 Y-30.561
X-51.742 Y-30.716
X-51.841 Y-30.911
X-51.875 Y-31.126
Y-32.069
G3 X-51.592 Y-32.358 Z-3.811 I0.3 J0.01
G1 X-51.565 Y-32.36 Z-3.8
X-51.292 Y-32.375
X-48.708 Y-32.516
X-48.441 Y-32.53
X-48.435
G3 X-48.125 Y-32.241 Z-4 I0.01 J0.3
G1 Y-31.333
X-48.132 Y-31.183
X-48.159 Y-31.036
X-48.203 Y-30.892
X-48.262 Y-30.754
X-48.334 Y-30.623
X-48.422 Y-30.491
X-48.523 Y-30.362
X-48.647 Y-30.228
X-48.792 Y-30.095
X-48.953 Y-29.969
X-49.14 Y-29.846
X-49.347 Y-29.732
X-49.57 Y-29.632
X-49.804 Y-29.549
X-50.047 Y-29.484
X-50.294 Y-29.439
X-50.53 Y-29.415
X-50.737 Y-29.411
X-50.953 Y-29.424
X-51.127 Y-29.449
X-51.291 Y-29.486
X-51.383 Y-29.514
X-51.581 Y-29.613
X-51.739 Y-29.768
X-51.84 Y-29.964
X-51.875 Y-30.183
Y-31.126
G3 X-51.595 Y-31.415 Z-3.813 I0.3 J0.01
G1 X-51.565 Y-31.417 Z-3.8
X-51.292 Y-31.435
X-48.708 Y-31.605
X-48.444 Y-31.622
X-48.435
G3 X-48.125 Y-31.333 Z-4 I0.01 J0.3
G1 Y-30.397
X-48.132 Y-30.247
X-48.158 Y-30.099
X-48.201 Y-29.955
X-48.26 Y-29.817
X-48.331 Y-29.685
X-48.417 Y-29.555
X-48.52 Y-29.423
X-48.641 Y-29.292
X-48.787 Y-29.157
X-48.949 Y-29.029
X-49.132 Y-28.908
X-49.337 Y-28.794
X-49.559 Y-28.694
X-49.795 Y-28.609
X-50.037 Y-28.543
X-50.284 Y-28.498
X-50.518 Y-28.473
X-50.729 Y-28.468
X-50.945 Y-28.48
X-51.118 Y-28.504
X-51.285 Y-28.541
X-51.38 Y-28.57
X-51.579 Y-28.668
X-51.738 Y-28.824
X-51.84 Y-29.021
X-51.875 Y-29.24
Y-30.183
G3 X-51.596 Y-30.472 Z-3.813 I0.3 J0.01
G1 X-51.565 Y-30.474 Z-3.8
X-51.292 Y-30.492
X-48.708 Y-30.668
X-48.445 Y-30.685
X-48.435 Y-30.686
G3 X-48.125 Y-30.397 Z-4 I0.01 J0.3
G1 Y-29.406
X-48.132 Y-29.256
X-48.165 Y-29.109
X-48.214 Y-28.967
X-48.277 Y-28.831
X-48.352 Y-28.702
X-48.441 Y-28.574
X-48.554 Y-28.438
X-48.68 Y-28.307
X-48.83 Y-28.176
X-49.005 Y-28.045
X-49.194 Y-27.926
X-49.402 Y-27.818
X-49.627 Y-27.723
X-49.866 Y-27.644
X-50.111 Y-27.584
X-50.359 Y-27.545
X-50.583 Y-27.527
X-50.804
X-51.004 Y-27.544
X-51.168 Y-27.571
X-51.343 Y-27.614
X-51.397 Y-27.633
X-51.59 Y-27.733
X-51.743 Y-27.887
X-51.841 Y-28.082
X-51.875 Y-28.296
Y-29.24
G3 X-51.591 Y-29.529 Z-3.811 I0.3 J0.01
G1 X-51.565 Y-29.53 Z-3.8
X-51.292 Y-29.545
X-48.708 Y-29.681
X-48.441 Y-29.695
X-48.435
G3 X-48.125 Y-29.406 Z-4 I0.01 J0.3
G1 Y-28.497
X-48.132 Y-28.348
X-48.159 Y-28.2
X-48.204 Y-28.057
X-48.264 Y-27.919
X-48.336 Y-27.788
X-48.425 Y-27.656
X-48.527 Y-27.527
X-48.652 Y-27.393
X-48.798 Y-27.26
X-48.96 Y-27.134
X-49.148 Y-27.011
X-49.356 Y-26.898
X-49.579 Y-26.799
X-49.814 Y-26.717
X-50.057 Y-26.652
X-50.304 Y-26.608
X-50.54 Y-26.585
X-50.746 Y-26.582
X-50.961 Y-26.595
X-51.134 Y-26.621
X-51.298 Y-26.658
X-51.385 Y-26.685
X-51.582 Y-26.784
X-51.739 Y-26.939
X-51.84 Y-27.135
X-51.875 Y-27.353
Y-28.296
G3 X-51.594 Y-28.585 Z-3.812 I0.3 J0.01
G1 X-51.565 Y-28.587 Z-3.8
X-51.292 Y-28.605
X-48.708 Y-28.77
X-48.444 Y-28.786
X-48.435 Y-28.787
G3 X-48.125 Y-28.497 Z-4 I0.01 J0.3
G1 Y-27.561
X-48.132 Y-27.411
X-48.158 Y-27.263
X-48.203 Y-27.12
X-48.262 Y-26.982
X-48.334 Y-26.851
X-48.421 Y-26.72
X-48.524 Y-26.588
X-48.646 Y-26.457
X-48.793 Y-26.322
X-48.956 Y-26.195
X-49.14 Y-26.074
X-49.346 Y-25.96
X-49.568 Y-25.86
X-49.804 Y-25.776
X-50.047 Y-25.711
X-50.294 Y-25.666
X-50.528 Y-25.643
X-50.738 Y-25.639
X-50.953 Y-25.651
X-51.125 Y-25.676
X-51.292 Y-25.713
X-51.383 Y-25.741
X-51.581 Y-25.84
X-51.739 Y-25.995
X-51.84 Y-26.192
X-51.875 Y-26.41
Y-27.353
G3 X-51.595 Y-27.642 Z-3.813 I0.3 J0.01
G1 X-51.565 Y-27.644 Z-3.8
X-51.292 Y-27.662
X-48.708 Y-27.833
X-48.445 Y-27.85
X-48.435
G3 X-48.125 Y-27.561 Z-4 I0.01 J0.3
G1 Y-26.64
X-48.132 Y-26.49
X-48.155 Y-26.342
X-48.197 Y-26.198
X-48.254 Y-26.059
X-48.324 Y-25.927
X-48.408 Y-25.796
X-48.508 Y-25.666
X-48.628 Y-25.534
X-48.771 Y-25.398
X-48.93 Y-25.271
X-49.111 Y-25.149
X-49.315 Y-25.033
X-49.535 Y-24.931
X-49.768 Y-24.845
X-50.01 Y-24.777
X-50.256 Y-24.729
X-50.494 Y-24.702
X-50.704 Y-24.695
X-50.923 Y-24.706
X-51.1 Y-24.728
X-51.264 Y-24.763
X-51.374 Y-24.796
X-51.576 Y-24.893
X-51.736 Y-25.048
X-51.839 Y-25.246
X-51.875 Y-25.467
Y-26.41
G3 X-51.597 Y-26.699 Z-3.814 I0.3 J0.01
G1 X-51.565 Y-26.701 Z-3.8
X-51.292 Y-26.721
X-48.708 Y-26.91
X-48.447 Y-26.929
X-48.435 Y-26.93
G3 X-48.125 Y-26.64 Z-4 I0.01 J0.3
G1 Y-25.662
X-48.132 Y-25.512
X-48.161 Y-25.365
X-48.206 Y-25.222
X-48.267 Y-25.085
X-48.34 Y-24.954
X-48.425 Y-24.827
X-48.533 Y-24.691
X-48.656 Y-24.561
X-48.801 Y-24.429
X-48.971 Y-24.298
X-49.156 Y-24.177
X-49.36 Y-24.067
X-49.582 Y-23.969
X-49.819 Y-23.886
X-50.063 Y-23.822
X-50.31 Y-23.779
X-50.541 Y-23.757
X-50.76 Y-23.753
X-50.967 Y-23.767
X-51.135 Y-23.792
X-51.307 Y-23.832
X-51.387 Y-23.857
X-51.583 Y-23.956
X-51.74 Y-24.111
X-51.84 Y-24.307
X-51.875 Y-24.524
Y-25.467
G3 X-51.594 Y-25.756 Z-3.812 I0.3 J0.01
G1 X-51.565 Y-25.758 Z-3.8
X-51.292 Y-25.774
X-48.708 Y-25.934
X-48.443 Y-25.951
X-48.435
G3 X-48.125 Y-25.662 Z-4 I0.01 J0.3
G1 Y-24.725
X-48.132 Y-24.576
X-48.159 Y-24.428
X-48.204 Y-24.285
X-48.264 Y-24.147
X-48.336 Y-24.016
X-48.424 Y-23.886
X-48.528 Y-23.754
X-48.651 Y-23.622
X-48.799 Y-23.487
X-48.963 Y-23.36
X-49.147 Y-23.24
X-49.354 Y-23.127
X-49.578 Y-23.028
X-49.815 Y-22.944
X-50.058 Y-22.88
X-50.305 Y-22.836
X-50.538 Y-22.813
X-50.749 Y-22.81
X-50.961 Y-22.823
X-51.132 Y-22.848
X-51.3 Y-22.886
X-51.385 Y-22.913
X-51.582 Y-23.012
X-51.739 Y-23.167
X-51.84 Y-23.363
X-51.875 Y-23.581
Y-24.524
G3 X-51.594 Y-24.813 Z-3.812 I0.3 J0.01
G1 X-51.565 Y-24.815 Z-3.8
X-51.292 Y-24.832
X-48.708 Y-24.997
X-48.444 Y-25.014
X-48.435 Y-25.015
G3 X-48.125 Y-24.725 Z-4 I0.01 J0.3
G1 Y-23.805
X-48.132 Y-23.655
X-48.156 Y-23.507
X-48.199 Y-23.363
X-48.256 Y-23.224
X-48.327 Y-23.092
X-48.412 Y-22.961
X-48.513 Y-22.831
X-48.633 Y-22.698
X-48.778 Y-22.563
X-48.937 Y-22.437
X-49.12 Y-22.314
X-49.325 Y-22.199
X-49.546 Y-22.098
X-49.78 Y-22.012
X-50.022 Y-21.945
X-50.268 Y-21.898
X-50.505 Y-21.872
X-50.714 Y-21.866
X-50.932 Y-21.877
X-51.108 Y-21.901
X-51.272 Y-21.936
X-51.377 Y-21.968
X-51.577 Y-22.065
X-51.737 Y-22.22
X-51.84 Y-22.418
X-51.875 Y-22.638
Y-23.581
G3 X-51.596 Y-23.87 Z-3.813 I0.3 J0.01
G1 X-51.565 Y-23.872 Z-3.8
X-51.292 Y-23.891
X-48.708 Y-24.075
X-48.446 Y-24.093
X-48.435 Y-24.094
G3 X-48.125 Y-23.805 Z-4 I0.01 J0.3
G1 Y-22.826
X-48.132 Y-22.677
X-48.162 Y-22.529
X-48.208 Y-22.387
X-48.269 Y-22.25
X-48.343 Y-22.119
X-48.429 Y-21.992
X-48.538 Y-21.856
X-48.661 Y-21.726
X-48.808 Y-21.593
X-48.979 Y-21.463
X-49.164 Y-21.343
X-49.37 Y-21.232
X-49.593 Y-21.135
X-49.831 Y-21.053
X-50.075 Y-20.991
X-50.322 Y-20.948
X-50.552 Y-20.927
X-50.77 Y-20.925
X-50.976 Y-20.939
X-51.143 Y-20.964
X-51.316 Y-21.005
X-51.389 Y-21.029
X-51.585 Y-21.128
X-51.741 Y-21.283
X-51.841 Y-21.478
X-51.875 Y-21.695
Y-22.638
G3 X-51.593 Y-22.927 Z-3.812 I0.3 J0.01
G1 X-51.565 Y-22.929 Z-3.8
X-51.292 Y-22.945
X-48.708 Y-23.099
X-48.443 Y-23.115
X-48.435 Y-23.116
G3 X-48.125 Y-22.826 Z-4 I0.01 J0.3
G1 Y-21.89
X-48.132 Y-21.74
X-48.16 Y-21.593
X-48.206 Y-21.45
X-48.266 Y-21.313
X-48.339 Y-21.181
X-48.428 Y-21.05
X-48.533 Y-20.919
X-48.657 Y-20.787
X-48.806 Y-20.652
X-48.97 Y-20.526
X-49.156 Y-20.405
X-49.363 Y-20.293
X-49.588 Y-20.194
X-49.826 Y-20.112
X-50.069 Y-20.049
X-50.316 Y-20.005
X-50.548 Y-19.984
X-50.758 Y-19.981
X-50.97 Y-19.995
X-51.14 Y-20.02
X-51.308 Y-20.059
X-51.387 Y-20.085
X-51.584 Y-20.184
X-51.74 Y-20.339
X-51.84 Y-20.535
X-51.875 Y-20.752
Y-21.695
G3 X-51.594 Y-21.984 Z-3.812 I0.3 J0.01
G1 X-51.565 Y-21.986 Z-3.8
X-51.292 Y-22.003
X-48.708 Y-22.162
X-48.443 Y-22.179
X-48.435
G3 X-48.125 Y-21.89 Z-4 I0.01 J0.3
G1 Y-20.969
X-48.132 Y-20.819
X-48.157 Y-20.671
X-48.2 Y-20.528
X-48.259 Y-20.389
X-48.33 Y-20.257
X-48.416 Y-20.126
X-48.517 Y-19.996
X-48.639 Y-19.863
X-48.784 Y-19.728
X-48.944 Y-19.602
X-49.128 Y-19.479
X-49.334 Y-19.365
X-49.556 Y-19.264
X-49.79 Y-19.18
X-50.032 Y-19.114
X-50.279 Y-19.067
X-50.515 Y-19.042
X-50.724 Y-19.037
X-50.941 Y-19.049
X-51.115 Y-19.073
X-51.28 Y-19.109
X-51.379 Y-19.139
X-51.579 Y-19.237
X-51.738 Y-19.392
X-51.84 Y-19.589
X-51.875 Y-19.809
Y-20.752
G3 X-51.596 Y-21.041 Z-3.813 I0.3 J0.01
G1 X-51.565 Y-21.043 Z-3.8
X-51.292 Y-21.062
X-48.708 Y-21.24
X-48.445 Y-21.258
X-48.435
G3 X-48.125 Y-20.969 Z-4 I0.01 J0.3
G1 Y-19.991
X-48.132 Y-19.841
X-48.162 Y-19.694
X-48.209 Y-19.552
X-48.271 Y-19.415
X-48.345 Y-19.284
X-48.433 Y-19.156
X-48.543 Y-19.021
X-48.667 Y-18.891
X-48.815 Y-18.758
X-48.987 Y-18.628
X-49.173 Y-18.508
X-49.38 Y-18.398
X-49.603 Y-18.302
X-49.841 Y-18.221
X-50.086 Y-18.159
X-50.333 Y-18.117
X-50.561 Y-18.097
X-50.78 Y-18.096
X-50.984 Y-18.111
X-51.15 Y-18.136
X-51.323 Y-18.178
X-51.392 Y-18.2
X-51.587 Y-18.299
X-51.741 Y-18.454
X-51.841 Y-18.649
X-51.875 Y-18.866
Y-19.809
G3 X-51.593 Y-20.098 Z-3.812 I0.3 J0.01
G1 X-51.565 Y-20.099 Z-3.8
X-51.292 Y-20.115
X-48.708 Y-20.264
X-48.442 Y-20.28
X-48.435
G3 X-48.125 Y-19.991 Z-4 I0.01 J0.3
G1 Y-19.054
X-48.132 Y-18.904
X-48.161 Y-18.757
X-48.207 Y-18.615
X-48.269 Y-18.478
X-48.342 Y-18.347
X-48.431 Y-18.215
X-48.537 Y-18.084
X-48.662 Y-17.952
X-48.812 Y-17.817
X-48.977 Y-17.691
X-49.164 Y-17.571
X-49.372 Y-17.459
X-49.598 Y-17.361
X-49.836 Y-17.279
X-50.079 Y-17.217
X-50.327 Y-17.174
X-50.557 Y-17.154
X-50.768 Y-17.152
X-50.978 Y-17.166
X-51.147 Y-17.192
X-51.315 Y-17.232
X-51.39 Y-17.256
X-51.585 Y-17.355
X-51.741 Y-17.51
X-51.841 Y-17.706
X-51.875 Y-17.922
Y-18.866
G3 X-51.593 Y-19.155 Z-3.812 I0.3 J0.01
G1 X-51.565 Y-19.156 Z-3.8
X-51.292 Y-19.173
X-48.708 Y-19.327
X-48.443 Y-19.343
X-48.435 Y-19.344
G3 X-48.125 Y-19.054 Z-4 I0.01 J0.3
G1 Y-18.133
X-48.132 Y-17.984
X-48.158 Y-17.836
X-48.202 Y-17.692
X-48.261 Y-17.554
X-48.332 Y-17.423
X-48.42 Y-17.291
X-48.521 Y-17.161
X-48.644 Y-17.028
X-48.79 Y-16.893
X-48.951 Y-16.767
X-49.136 Y-16.645
X-49.343 Y-16.531
X-49.565 Y-16.431
X-49.8 Y-16.347
X-50.042 Y-16.282
X-50.289 Y-16.236
X-50.524 Y-16.212
X-50.733 Y-16.207
X-50.949 Y-16.22
X-51.122 Y-16.244
X-51.287 Y-16.281
X-51.382 Y-16.31
X-51.58 Y-16.408
X-51.738 Y-16.563
X-51.84 Y-16.76
X-51.875 Y-16.979
Y-17.922
G3 X-51.595 Y-18.211 Z-3.813 I0.3 J0.01
G1 X-51.565 Y-18.213 Z-3.8
X-51.292 Y-18.231
X-48.708 Y-18.405
X-48.445 Y-18.422
X-48.435 Y-18.423
G3 X-48.125 Y-18.133 Z-4 I0.01 J0.3
G1 Y-17.155
X-48.132 Y-17.005
X-48.163 Y-16.859
X-48.211 Y-16.716
X-48.273 Y-16.58
X-48.348 Y-16.45
X-48.437 Y-16.321
X-48.547 Y-16.185
X-48.672 Y-16.055
X-48.821 Y-15.923
X-48.994 Y-15.793
X-49.181 Y-15.674
X-49.389 Y-15.564
X-49.612 Y-15.468
X-49.852 Y-15.388
X-50.096 Y-15.327
X-50.344 Y-15.286
X-50.571 Y-15.267
X-50.789 Y-15.266
X-50.992 Y-15.282
X-51.157 Y-15.308
X-51.331 Y-15.35
X-51.394 Y-15.371
X-51.588 Y-15.471
X-51.742 Y-15.626
X-51.841 Y-15.82
X-51.875 Y-16.036
Y-16.979
G3 X-51.592 Y-17.268 Z-3.811 I0.3 J0.01
G1 X-51.565 Y-17.27 Z-3.8
X-51.292 Y-17.285
X-48.708 Y-17.429
X-48.442 Y-17.444
X-48.435 Y-17.445
G3 X-48.125 Y-17.155 Z-4 I0.01 J0.3
G1 Y-16.219
X-48.132 Y-16.069
X-48.162 Y-15.922
X-48.209 Y-15.779
X-48.271 Y-15.643
X-48.344 Y-15.512
X-48.435 Y-15.38
X-48.541 Y-15.249
X-48.667 Y-15.117
X-48.818 Y-14.982
X-48.983 Y-14.857
X-49.172 Y-14.736
X-49.381 Y-14.625
X-49.607 Y-14.527
X-49.845 Y-14.446
X-50.089 Y-14.385
X-50.337 Y-14.343
X-50.566 Y-14.323
X-50.777 Y-14.322
X-50.985 Y-14.338
X-51.154 Y-14.364
X-51.322 Y-14.404
X-51.392 Y-14.427
X-51.587 Y-14.526
X-51.742 Y-14.681
X-51.841 Y-14.876
X-51.875 Y-15.092
Y-16.036
G3 X-51.593 Y-16.325 Z-3.812 I0.3 J0.01
G1 X-51.565 Y-16.326 Z-3.8
X-51.292 Y-16.342
X-48.708 Y-16.492
X-48.442 Y-16.508
X-48.435
G3 X-48.125 Y-16.219 Z-4 I0.01 J0.3
G1 Y-15.298
X-48.132 Y-15.148
X-48.159 Y-15
X-48.203 Y-14.857
X-48.263 Y-14.719
X-48.335 Y-14.588
X-48.423 Y-14.456
X-48.525 Y-14.326
X-48.649 Y-14.193
X-48.796 Y-14.058
X-48.957 Y-13.933
X-49.144 Y-13.81
X-49.351 Y-13.697
X-49.574 Y-13.597
X-49.809 Y-13.514
X-50.052 Y-13.45
X-50.299 Y-13.405
X-50.533 Y-13.382
X-50.742 Y-13.378
X-50.956 Y-13.391
X-51.129 Y-13.416
X-51.294 Y-13.453
X-51.384 Y-13.481
X-51.582 Y-13.579
X-51.739 Y-13.735
X-51.84 Y-13.931
X-51.875 Y-14.149
Y-15.092
G3 X-51.595 Y-15.381 Z-3.813 I0.3 J0.01
G1 X-51.565 Y-15.383 Z-3.8
X-51.292 Y-15.401
X-48.708 Y-15.57
X-48.444 Y-15.587
X-48.435
G3 X-48.125 Y-15.298 Z-4 I0.01 J0.3
G1 Y-14.32
X-48.132 Y-14.17
X-48.164 Y-14.023
X-48.212 Y-13.881
X-48.275 Y-13.745
X-48.35 Y-13.615
X-48.44 Y-13.486
X-48.551 Y-13.35
X-48.677 Y-13.22
X-48.827 Y-13.087
X-49.001 Y-12.958
X-49.188 Y-12.839
X-49.397 Y-12.73
X-49.622 Y-12.635
X-49.861 Y-12.555
X-50.106 Y-12.495
X-50.354 Y-12.455
X-50.579 Y-12.437
X-50.798
X-50.999 Y-12.453
X-51.164 Y-12.48
X-51.338 Y-12.522
X-51.396 Y-12.542
X-51.59 Y-12.642
X-51.743 Y-12.796
X-51.841 Y-12.991
X-51.875 Y-13.206
Y-14.149
G3 X-51.591 Y-14.438 Z-3.811 I0.3 J0.01
G1 X-51.565 Y-14.44 Z-3.8
X-51.292 Y-14.454
X-48.708 Y-14.594
X-48.441 Y-14.609
X-48.435
G3 X-48.125 Y-14.32 Z-4 I0.01 J0.3
G1 Y-13.383
X-48.132 Y-13.233
X-48.163 Y-13.086
X-48.21 Y-12.944
X-48.272 Y-12.808
X-48.347 Y-12.677
X-48.438 Y-12.545
X-48.544 Y-12.414
X-48.672 Y-12.282
X-48.823 Y-12.147
X-48.989 Y-12.022
X-49.179 Y-11.902
X-49.389 Y-11.791
X-49.616 Y-11.694
X-49.854 Y-11.614
X-50.098 Y-11.553
X-50.346 Y-11.512
X-50.575 Y-11.493
X-50.785 Y-11.492
X-50.992 Y-11.508
X-51.16 Y-11.535
X-51.329 Y-11.576
X-51.394 Y-11.597
X-51.588 Y-11.697
X-51.742 Y-11.852
X-51.841 Y-12.047
X-51.875 Y-12.262
Y-13.206
G3 X-51.592 Y-13.495 Z-3.812 I0.3 J0.01
G1 X-51.565 Y-13.496 Z-3.8
X-51.292 Y-13.512
X-48.708 Y-13.657
X-48.442 Y-13.672
X-48.435 Y-13.673
G3 X-48.125 Y-13.383 Z-4 I0.01 J0.3
G1 Y-12.462
X-48.132 Y-12.313
X-48.159 Y-12.165
X-48.205 Y-12.022
X-48.265 Y-11.884
X-48.337 Y-11.753
X-48.426 Y-11.621
X-48.529 Y-11.491
X-48.654 Y-11.358
X-48.801 Y-11.223
X-48.963 Y-11.098
X-49.151 Y-10.976
X-49.359 Y-10.863
X-49.582 Y-10.764
X-49.818 Y-10.681
X-50.061 Y-10.617
X-50.308 Y-10.573
X-50.542 Y-10.551
X-50.75 Y-10.548
X-50.963 Y-10.562
X-51.136 Y-10.587
X-51.301 Y-10.625
X-51.386 Y-10.651
X-51.583 Y-10.75
X-51.74 Y-10.905
X-51.84 Y-11.101
X-51.875 Y-11.319
Y-12.262
G3 X-51.594 Y-12.551 Z-3.812 I0.3 J0.01
G1 X-51.565 Y-12.553 Z-3.8
X-51.292 Y-12.57
X-48.708 Y-12.734
X-48.444 Y-12.751
X-48.435 Y-12.752
G3 X-48.125 Y-12.462 Z-4 I0.01 J0.3
G1 Y-11.484
X-48.132 Y-11.334
X-48.165 Y-11.188
X-48.214 Y-11.046
X-48.277 Y-10.91
X-48.353 Y-10.78
X-48.443 Y-10.651
X-48.555 Y-10.515
X-48.681 Y-10.385
X-48.833 Y-10.252
X-49.007 Y-10.123
X-49.196 Y-10.005
X-49.405 Y-9.896
X-49.63 Y-9.801
X-49.87 Y-9.722
X-50.115 Y-9.663
X-50.363 Y-9.623
X-50.588 Y-9.606
X-50.806 Y-9.607
X-51.006 Y-9.623
X-51.171 Y-9.651
X-51.344 Y-9.694
X-51.398 Y-9.712
X-51.591 Y-9.812
X-51.743 Y-9.967
X-51.841 Y-10.161
X-51.875 Y-10.375
Y-11.319
G3 X-51.591 Y-11.608 Z-3.811 I0.3 J0.01
G1 X-51.565 Y-11.609 Z-3.8
X-51.292 Y-11.624
X-48.708 Y-11.759
X-48.441 Y-11.773
X-48.435
G3 X-48.125 Y-11.484 Z-4 I0.01 J0.3
G1 Y-10.548
X-48.132 Y-10.398
X-48.163 Y-10.251
X-48.212 Y-10.109
X-48.274 Y-9.973
X-48.349 Y-9.843
X-48.441 Y-9.71
X-48.548 Y-9.58
X-48.676 Y-9.447
X-48.828 Y-9.312
X-48.995 Y-9.187
X-49.186 Y-9.067
X-49.396 Y-8.957
X-49.624 Y-8.86
X-49.863 Y-8.781
X-50.107 Y-8.721
X-50.355 Y-8.68
X-50.582 Y-8.662
X-50.793
X-50.999 Y-8.679
X-51.166 Y-8.706
X-51.335 Y-8.747
X-51.396 Y-8.768
X-51.589 Y-8.868
X-51.743 Y-9.022
X-51.841 Y-9.217
X-51.875 Y-9.432
Y-10.375
G3 X-51.592 Y-10.665 Z-3.811 I0.3 J0.01
G1 X-51.565 Y-10.666 Z-3.8
X-51.292 Y-10.681
X-48.708 Y-10.822
X-48.441 Y-10.837
X-48.435
G3 X-48.125 Y-10.548 Z-4 I0.01 J0.3
G1 Y-9.627
X-48.132 Y-9.477
X-48.16 Y-9.33
X-48.206 Y-9.187
X-48.266 Y-9.049
X-48.339 Y-8.918
X-48.429 Y-8.785
X-48.532 Y-8.656
X-48.658 Y-8.523
X-48.806 Y-8.388
X-48.969 Y-8.263
X-49.157 Y-8.141
X-49.366 Y-8.028
X-49.59 Y-7.93
X-49.826 Y-7.848
X-50.07 Y-7.785
X-50.317 Y-7.742
X-50.55 Y-7.72
X-50.757 Y-7.717
X-50.97 Y-7.732
X-51.141 Y-7.757
X-51.307 Y-7.796
X-51.388 Y-7.822
X-51.584 Y-7.92
X-51.74 Y-8.075
X-51.84 Y-8.271
X-51.875 Y-8.488
Y-9.432
G3 X-51.594 Y-9.721 Z-3.812 I0.3 J0.01
G1 X-51.565 Y-9.723 Z-3.8
X-51.292 Y-9.739
X-48.708 Y-9.899
X-48.443 Y-9.916
X-48.435
G3 X-48.125 Y-9.627 Z-4 I0.01 J0.3
G1 Y-8.648
X-48.132 Y-8.499
X-48.165 Y-8.352
X-48.215 Y-8.211
X-48.279 Y-8.075
X-48.355 Y-7.946
X-48.446 Y-7.816
X-48.559 Y-7.68
X-48.686 Y-7.55
X-48.838 Y-7.417
X-49.013 Y-7.288
X-49.202 Y-7.17
X-49.413 Y-7.062
X-49.639 Y-6.967
X-49.879 Y-6.889
X-50.124 Y-6.83
X-50.372 Y-6.792
X-50.595 Y-6.775
X-50.814 Y-6.776
X-51.013 Y-6.794
X-51.177 Y-6.821
X-51.35 Y-6.865
X-51.4 Y-6.882
X-51.592 Y-6.983
X-51.744 Y-7.137
X-51.841 Y-7.331
X-51.875 Y-7.545
Y-8.488
G3 X-51.59 Y-8.778 Z-3.811 I0.3 J0.01
G1 X-51.565 Y-8.779 Z-3.8
X-51.292 Y-8.793
X-48.708 Y-8.924
X-48.44 Y-8.938
X-48.435
G3 X-48.125 Y-8.648 Z-4 I0.01 J0.3
G1 Y-7.712
X-48.132 Y-7.562
X-48.164 Y-7.416
X-48.213 Y-7.274
X-48.276 Y-7.138
X-48.351 Y-7.008
X-48.444 Y-6.875
X-48.551 Y-6.745
X-48.68 Y-6.611
X-48.833 Y-6.477
X-49.001 Y-6.353
X-49.192 Y-6.233
X-49.404 Y-6.123
X-49.632 Y-6.027
X-49.871 Y-5.948
X-50.115 Y-5.888
X-50.363 Y-5.849
X-50.59 Y-5.831
X-50.8 Y-5.832
X-51.005 Y-5.849
X-51.172 Y-5.876
X-51.341 Y-5.918
X-51.398 Y-5.937
X-51.591 Y-6.038
X-51.743 Y-6.192
X-51.841 Y-6.386
X-51.875 Y-6.601
Y-7.545
G3 X-51.591 Y-7.834 Z-3.811 I0.3 J0.01
G1 X-51.565 Y-7.835 Z-3.8
X-51.292 Y-7.85
X-48.708 Y-7.987
X-48.441 Y-8.001
X-48.435
G3 X-48.125 Y-7.712 Z-4 I0.01 J0.3
G1 Y-6.791
X-48.132 Y-6.641
X-48.161 Y-6.494
X-48.207 Y-6.351
X-48.268 Y-6.214
X-48.341 Y-6.083
X-48.432 Y-5.95
X-48.535 Y-5.822
X-48.662 Y-5.687
X-48.811 Y-5.554
X-48.975 Y-5.428
X-49.164 Y-5.307
X-49.373 Y-5.194
X-49.598 Y-5.096
X-49.834 Y-5.015
X-50.078 Y-4.952
X-50.325 Y-4.91
X-50.557 Y-4.889
X-50.765 Y-4.887
X-50.976 Y-4.902
X-51.147 Y-4.928
X-51.313 Y-4.967
X-51.389 Y-4.991
X-51.585 Y-5.09
X-51.741 Y-5.245
X-51.841 Y-5.441
X-51.875 Y-5.658
Y-6.601
G3 X-51.593 Y-6.89 Z-3.812 I0.3 J0.01
G1 X-51.565 Y-6.892 Z-3.8
X-51.292 Y-6.908
X-48.708 Y-7.064
X-48.443 Y-7.08
X-48.435 Y-7.081
G3 X-48.125 Y-6.791 Z-4 I0.01 J0.3
G1 Y-5.87
X-48.132 Y-5.721
X-48.158 Y-5.573
X-48.201 Y-5.429
X-48.26 Y-5.291
X-48.332 Y-5.159
X-48.419 Y-5.027
X-48.52 Y-4.898
X-48.643 Y-4.765
X-48.789 Y-4.63
X-48.949 Y-4.504
X-49.134 Y-4.382
X-49.341 Y-4.267
X-49.563 Y-4.167
X-49.797 Y-4.083
X-50.04 Y-4.018
X-50.286 Y-3.972
X-50.522 Y-3.948
X-50.73 Y-3.943
X-50.946 Y-3.955
X-51.121 Y-3.979
X-51.285 Y-4.016
X-51.381 Y-4.045
X-51.58 Y-4.143
X-51.738 Y-4.299
X-51.84 Y-4.496
X-51.875 Y-4.714
Y-5.658
G3 X-51.595 Y-5.946 Z-3.813 I0.3 J0.01
G1 X-51.565 Y-5.949 Z-3.8
X-51.292 Y-5.967
X-48.708 Y-6.141
X-48.445 Y-6.159
X-48.435 Y-6.16
G3 X-48.125 Y-5.87 Z-4 I0.01 J0.3
G1 Y-4.876
X-48.132 Y-4.727
X-48.165 Y-4.58
X-48.215 Y-4.439
X-48.278 Y-4.303
X-48.354 Y-4.173
X-48.444 Y-4.045
X-48.556 Y-3.909
X-48.683 Y-3.779
X-48.834 Y-3.647
X-49.009 Y-3.517
X-49.199 Y-3.398
X-49.408 Y-3.29
X-49.632 Y-3.196
X-49.872 Y-3.117
X-50.118 Y-3.058
X-50.366 Y-3.019
X-50.589 Y-3.001
X-50.81 Y-3.002
X-51.008 Y-3.019
X-51.172 Y-3.046
X-51.347 Y-3.09
X-51.399 Y-3.108
X-51.591 Y-3.208
X-51.744 Y-3.363
X-51.841 Y-3.557
X-51.875 Y-3.771
Y-4.714
G3 X-51.591 Y-5.004 Z-3.811 I0.3 J0.01
G1 X-51.565 Y-5.005 Z-3.8
X-51.292 Y-5.019
X-48.708 Y-5.152
X-48.44 Y-5.166
X-48.435
G3 X-48.125 Y-4.876 Z-4 I0.01 J0.3
G1 Y-3.956
X-48.132 Y-3.806
X-48.162 Y-3.659
X-48.209 Y-3.516
X-48.27 Y-3.379
X-48.344 Y-3.249
X-48.434 Y-3.116
X-48.538 Y-2.987
X-48.666 Y-2.853
X-48.815 Y-2.719
X-48.979 Y-2.594
X-49.169 Y-2.473
X-49.378 Y-2.361
X-49.604 Y-2.263
X-49.841 Y-2.183
X-50.085 Y-2.121
X-50.333 Y-2.079
X-50.564 Y-2.058
X-50.772 Y-2.057
X-50.982 Y-2.072
X-51.152 Y-2.099
X-51.319 Y-2.138
X-51.391 Y-2.162
X-51.586 Y-2.261
X-51.741 Y-2.416
X-51.841 Y-2.611
X-51.875 Y-2.827
Y-3.771
G3 X-51.593 Y-4.06 Z-3.812 I0.3 J0.01
G1 X-51.565 Y-4.062 Z-3.8
X-51.292 Y-4.078
X-48.708 Y-4.229
X-48.442 Y-4.245
X-48.435
G3 X-48.125 Y-3.956 Z-4 I0.01 J0.3
G1 Y-3.035
X-48.132 Y-2.885
X-48.158 Y-2.737
X-48.203 Y-2.594
X-48.262 Y-2.456
X-48.334 Y-2.324
X-48.422 Y-2.192
X-48.524 Y-2.063
X-48.647 Y-1.93
X-48.794 Y-1.795
X-48.955 Y-1.669
X-49.141 Y-1.547
X-49.348 Y-1.433
X-49.571 Y-1.333
X-49.806 Y-1.25
X-50.049 Y-1.185
X-50.296 Y-1.14
X-50.53 Y-1.117
X-50.739 Y-1.113
X-50.954 Y-1.126
X-51.127 Y-1.15
X-51.292 Y-1.188
X-51.383 Y-1.216
X-51.581 Y-1.314
X-51.739 Y-1.469
X-51.84 Y-1.666
X-51.875 Y-1.884
Y-2.827
G3 X-51.595 Y-3.116 Z-3.813 I0.3 J0.01
G1 X-51.565 Y-3.118 Z-3.8
X-51.292 Y-3.136
X-48.708 Y-3.306
X-48.445 Y-3.324
X-48.435
G3 X-48.125 Y-3.035 Z-4 I0.01 J0.3
G1 Y-2.079
X-48.132 Y-1.93
X-48.16 Y-1.782
X-48.206 Y-1.639
X-48.267 Y-1.502
X-48.339 Y-1.371
X-48.427 Y-1.241
X-48.534 Y-1.107
X-48.656 Y-0.977
X-48.804 Y-0.843
X-48.972 Y-0.714
X-49.156 Y-0.594
X-49.363 Y-0.483
X-49.586 Y-0.384
X-49.823 Y-0.302
X-50.067 Y-0.238
X-50.314 Y-0.195
X-50.545 Y-0.173
X-50.759 Y-0.17
X-50.969 Y-0.184
X-51.138 Y-0.209
X-51.308 Y-0.249
X-51.387 Y-0.274
X-51.584 Y-0.373
X-51.74 Y-0.528
X-51.84 Y-0.724
X-51.875 Y-0.941
Y-1.884
G3 X-51.594 Y-2.173 Z-3.812 I0.3 J0.01
G1 X-51.565 Y-2.175 Z-3.8
X-51.292 Y-2.192
X-48.708 Y-2.352
X-48.443 Y-2.368
X-48.435 Y-2.369
G3 X-48.125 Y-2.079 Z-4 I0.01 J0.3
G1 Y-1.12
X-48.132 Y-0.97
X-48.163 Y-0.823
X-48.21 Y-0.681
X-48.272 Y-0.544
X-48.346 Y-0.414
X-48.436 Y-0.284
X-48.545 Y-0.15
X-48.67 Y-0.019
X-48.82 Y0.115
X-48.99 Y0.243
X-49.177 Y0.362
X-49.386 Y0.472
X-49.611 Y0.569
X-49.85 Y0.65
X-50.094 Y0.711
X-50.342 Y0.752
X-50.57 Y0.771
X-50.785 Y0.772
X-50.99 Y0.756
X-51.156 Y0.73
X-51.328 Y0.689
X-51.393 Y0.667
X-51.588 Y0.567
X-51.742 Y0.413
X-51.841 Y0.218
X-51.875 Y0.002
Y-0.941
G3 X-51.592 Y-1.23 Z-3.812 I0.3 J0.01
G1 X-51.565 Y-1.232 Z-3.8
X-51.292 Y-1.247
X-48.708 Y-1.394
X-48.442 Y-1.409
X-48.435
G3 X-48.125 Y-1.12 Z-4 I0.01 J0.3
G1 Y-0.199
X-48.132 Y-0.049
X-48.159 Y0.098
X-48.204 Y0.241
X-48.264 Y0.379
X-48.336 Y0.51
X-48.425 Y0.643
X-48.527 Y0.772
X-48.652 Y0.905
X-48.799 Y1.04
X-48.961 Y1.165
X-49.148 Y1.287
X-49.356 Y1.4
X-49.58 Y1.5
X-49.815 Y1.582
X-50.058 Y1.646
X-50.305 Y1.691
X-50.539 Y1.713
X-50.747 Y1.717
X-50.961 Y1.703
X-51.134 Y1.678
X-51.299 Y1.64
X-51.385 Y1.613
X-51.583 Y1.515
X-51.739 Y1.359
X-51.84 Y1.163
X-51.875 Y0.945
Y0.002
G3 X-51.594 Y-0.287 Z-3.812 I0.3 J0.01
G1 X-51.565 Y-0.289 Z-3.8
X-51.292 Y-0.306
X-48.708 Y-0.471
X-48.444 Y-0.488
X-48.435 Y-0.489
G3 X-48.125 Y-0.199 Z-4 I0.01 J0.3
G1 Y0.756
X-48.132 Y0.906
X-48.161 Y1.053
X-48.207 Y1.196
X-48.269 Y1.333
X-48.342 Y1.464
X-48.43 Y1.594
X-48.538 Y1.728
X-48.661 Y1.858
X-48.811 Y1.992
X-48.979 Y2.121
X-49.164 Y2.24
X-49.372 Y2.352
X-49.595 Y2.449
X-49.834 Y2.531
X-50.077 Y2.594
X-50.324 Y2.636
X-50.555 Y2.657
X-50.769 Y2.659
X-50.977 Y2.644
X-51.145 Y2.619
X-51.315 Y2.579
X-51.39 Y2.555
X-51.585 Y2.456
X-51.741 Y2.301
X-51.841 Y2.105
X-51.875 Y1.889
Y0.945
G3 X-51.593 Y0.656 Z-3.812 I0.3 J0.01
G1 X-51.565 Y0.655 Z-3.8
X-51.292 Y0.638
X-48.708 Y0.483
X-48.443 Y0.467
X-48.435
G3 X-48.125 Y0.756 Z-4 I0.01 J0.3
G1 Y1.716
X-48.132 Y1.865
X-48.163 Y2.012
X-48.211 Y2.154
X-48.274 Y2.29
X-48.349 Y2.421
X-48.439 Y2.551
X-48.549 Y2.685
X-48.675 Y2.816
X-48.827 Y2.95
X-48.997 Y3.078
X-49.185 Y3.196
X-49.394 Y3.306
X-49.62 Y3.402
X-49.86 Y3.482
X-50.104 Y3.542
X-50.352 Y3.583
X-50.579 Y3.601
X-50.794
X-50.998 Y3.585
X-51.163 Y3.558
X-51.335 Y3.516
X-51.396 Y3.496
X-51.589 Y3.396
X-51.743 Y3.242
X-51.841 Y3.047
X-51.875 Y2.832
Y1.889
G3 X-51.592 Y1.599 Z-3.811 I0.3 J0.01
G1 X-51.565 Y1.598 Z-3.8
X-51.292 Y1.583
X-48.708 Y1.441
X-48.441 Y1.426
X-48.435
G3 X-48.125 Y1.716 Z-4 I0.01 J0.3
G1 Y2.636
X-48.132 Y2.786
X-48.16 Y2.934
X-48.206 Y3.077
X-48.266 Y3.214
X-48.339 Y3.345
X-48.428 Y3.478
X-48.531 Y3.607
X-48.657 Y3.74
X-48.805 Y3.874
X-48.968 Y4
X-49.156 Y4.122
X-49.364 Y4.234
X-49.589 Y4.333
X-49.825 Y4.415
X-50.068 Y4.478
X-50.315 Y4.522
X-50.548 Y4.544
X-50.756 Y4.546
X-50.969 Y4.532
X-51.14 Y4.507
X-51.306 Y4.468
X-51.387 Y4.442
X-51.584 Y4.343
X-51.74 Y4.188
X-51.84 Y3.993
X-51.875 Y3.775
Y2.832
G3 X-51.594 Y2.543 Z-3.812 I0.3 J0.01
G1 X-51.565 Y2.541 Z-3.8
X-51.292 Y2.524
X-48.708 Y2.364
X-48.443 Y2.347
X-48.435
G3 X-48.125 Y2.636 Z-4 I0.01 J0.3
G1 Y3.544
X-48.132 Y3.694
X-48.155 Y3.843
X-48.197 Y3.987
X-48.254 Y4.125
X-48.324 Y4.258
X-48.409 Y4.39
X-48.507 Y4.518
X-48.628 Y4.652
X-48.77 Y4.786
X-48.928 Y4.913
X-49.111 Y5.037
X-49.316 Y5.152
X-49.535 Y5.254
X-49.766 Y5.34
X-50.008 Y5.408
X-50.255 Y5.456
X-50.494 Y5.483
X-50.702 Y5.49
X-50.922 Y5.48
X-51.1 Y5.457
X-51.263 Y5.423
X-51.374 Y5.39
X-51.575 Y5.293
X-51.736 Y5.137
X-51.839 Y4.939
X-51.875 Y4.719
Y3.775
G3 X-51.597 Y3.487 Z-3.814 I0.3 J0.01
G1 X-51.565 Y3.484 Z-3.8
X-51.292 Y3.464
X-48.708 Y3.275
X-48.447 Y3.256
X-48.435 Y3.255
G3 X-48.125 Y3.544 Z-4 I0.01 J0.3
G1 Y4.551
X-48.132 Y4.701
X-48.165 Y4.847
X-48.214 Y4.989
X-48.277 Y5.125
X-48.352 Y5.255
X-48.44 Y5.382
X-48.551 Y5.517
X-48.679 Y5.65
X-48.827 Y5.78
X-49.001 Y5.91
X-49.193 Y6.031
X-49.4 Y6.139
X-49.623 Y6.233
X-49.862 Y6.313
X-50.107 Y6.373
X-50.355 Y6.413
X-50.578 Y6.431
X-50.802
X-51 Y6.415
X-51.164 Y6.388
X-51.34 Y6.345
X-51.396 Y6.326
X-51.59 Y6.226
X-51.743 Y6.071
X-51.841 Y5.877
X-51.875 Y5.662
Y4.719
G3 X-51.591 Y4.429 Z-3.811 I0.3 J0.01
G1 X-51.565 Y4.428 Z-3.8
X-51.292 Y4.414
X-48.708 Y4.276
X-48.441 Y4.262
X-48.435
G3 X-48.125 Y4.551 Z-4 I0.01 J0.3
G1 Y5.472
X-48.132 Y5.622
X-48.161 Y5.769
X-48.207 Y5.912
X-48.268 Y6.049
X-48.341 Y6.18
X-48.431 Y6.312
X-48.535 Y6.441
X-48.661 Y6.575
X-48.81 Y6.709
X-48.974 Y6.834
X-49.162 Y6.956
X-49.371 Y7.067
X-49.596 Y7.166
X-49.833 Y7.248
X-50.077 Y7.31
X-50.324 Y7.353
X-50.556 Y7.374
X-50.764 Y7.376
X-50.976 Y7.361
X-51.146 Y7.335
X-51.312 Y7.296
X-51.389 Y7.272
X-51.585 Y7.172
X-51.741 Y7.017
X-51.841 Y6.822
X-51.875 Y6.605
Y5.662
G3 X-51.593 Y5.373 Z-3.812 I0.3 J0.01
G1 X-51.565 Y5.371 Z-3.8
X-51.292 Y5.355
X-48.708 Y5.199
X-48.443 Y5.183
X-48.435
G3 X-48.125 Y5.472 Z-4 I0.01 J0.3
G1 Y6.38
X-48.132 Y6.53
X-48.156 Y6.678
X-48.198 Y6.822
X-48.256 Y6.96
X-48.326 Y7.093
X-48.412 Y7.225
X-48.511 Y7.353
X-48.633 Y7.487
X-48.776 Y7.621
X-48.934 Y7.747
X-49.118 Y7.871
X-49.324 Y7.987
X-49.544 Y8.088
X-49.776 Y8.173
X-50.018 Y8.24
X-50.265 Y8.288
X-50.503 Y8.314
X-50.711 Y8.32
X-50.93 Y8.309
X-51.107 Y8.286
X-51.27 Y8.251
X-51.376 Y8.219
X-51.577 Y8.122
X-51.737 Y7.966
X-51.84 Y7.768
X-51.875 Y7.548
Y6.605
G3 X-51.597 Y6.316 Z-3.813 I0.3 J0.01
G1 X-51.565 Y6.314 Z-3.8
X-51.292 Y6.295
X-48.708 Y6.11
X-48.446 Y6.091
X-48.435
G3 X-48.125 Y6.38 Z-4 I0.01 J0.3
G1 Y7.387
X-48.132 Y7.536
X-48.165 Y7.683
X-48.215 Y7.824
X-48.279 Y7.96
X-48.355 Y8.09
X-48.444 Y8.217
X-48.556 Y8.353
X-48.684 Y8.485
X-48.833 Y8.615
X-49.008 Y8.745
X-49.2 Y8.865
X-49.408 Y8.973
X-49.632 Y9.067
X-49.872 Y9.146
X-50.117 Y9.205
X-50.365 Y9.244
X-50.587 Y9.261
X-50.811 Y9.26
X-51.007 Y9.244
X-51.171 Y9.216
X-51.347 Y9.172
X-51.399 Y9.155
X-51.591 Y9.055
X-51.744 Y8.9
X-51.841 Y8.706
X-51.875 Y8.492
Y7.548
G3 X-51.591 Y7.259 Z-3.811 I0.3 J0.01
G1 X-51.565 Y7.258 Z-3.8
X-51.292 Y7.244
X-48.708 Y7.111
X-48.44 Y7.098
X-48.435 Y7.097
G3 X-48.125 Y7.387 Z-4 I0.01 J0.3
G1 Y8.308
X-48.132 Y8.457
X-48.162 Y8.604
X-48.209 Y8.747
X-48.27 Y8.884
X-48.344 Y9.014
X-48.435 Y9.147
X-48.539 Y9.276
X-48.666 Y9.41
X-48.816 Y9.544
X-48.98 Y9.669
X-49.169 Y9.79
X-49.379 Y9.902
X-49.605 Y10
X-49.842 Y10.08
X-50.086 Y10.142
X-50.333 Y10.184
X-50.565 Y10.204
X-50.772 Y10.206
X-50.983 Y10.19
X-51.153 Y10.164
X-51.319 Y10.124
X-51.391 Y10.101
X-51.586 Y10.002
X-51.741 Y9.847
X-51.841 Y9.652
X-51.875 Y9.435
Y8.492
G3 X-51.593 Y8.203 Z-3.812 I0.3 J0.01
G1 X-51.565 Y8.201 Z-3.8
X-51.292 Y8.185
X-48.708 Y8.034
X-48.442 Y8.018
X-48.435
G3 X-48.125 Y8.308 Z-4 I0.01 J0.3
G1 Y9.216
X-48.132 Y9.365
X-48.157 Y9.513
X-48.2 Y9.657
X-48.258 Y9.796
X-48.328 Y9.928
X-48.415 Y10.06
X-48.515 Y10.188
