(TinyCNCBottomBarBack)
(T3  D=3 CR=0 - ZMIN=-19 - flat end mill)
G90 G94
G17
G21

(2D Pocket19)
T3
S5000 M3
G54
M8
G0 X54.827 Y271.394
Z15
Z5
G1 Z-9.2 F333.3
Y271.386 Z-9.267 F1000
Y271.364 Z-9.33
Y271.328 Z-9.387
Y271.281 Z-9.435
Y271.224 Z-9.47
Y271.16 Z-9.492
Y271.094 Z-9.5
Y270.4
X54.85 Y0
Y-1.397
Y-1.408
Y-1.475 Z-9.492
Y-1.539 Z-9.47
Y-1.596 Z-9.435
Y-1.643 Z-9.387
Y-1.679 Z-9.33
Y-1.701 Z-9.267
Y-1.708 Z-9.2
G0 Z5
X53.105 Y271.394
G1 Z-9.2 F333.3
G19 G2 Y271.094 Z-9.5 J-0.3 K0 F1000
G1 Y270.4
Y-1.399
Y-1.411
G2 Y-1.711 Z-9.2 J0 K0.3
G0 Z5
X51.405 Y271.393
G1 Z-9.2 F333.3
G2 Y271.093 Z-9.5 J-0.3 K0 F1000
G1 Y270.383
Y-1.399
Y-1.411
G2 Y-1.711 Z-9.2 J0 K0.3
G0 Z5
X49.705 Y271.393
G1 Z-9.2 F333.3
G2 Y271.093 Z-9.5 J-0.3 K0 F1000
G1 Y270.384
Y-1.399
Y-1.411
G2 Y-1.711 Z-9.2 J0 K0.3
G0 Z5
X48.156 Y271.397
G1 Z-9.23 F333.3
X48.155 Y271.39 Z-9.29 F1000
X48.152 Y271.37 Z-9.347
X48.147 Y271.339 Z-9.398
X48.14 Y271.296 Z-9.441
X48.132 Y271.246 Z-9.473
X48.123 Y271.189 Z-9.493
X48.114 Y271.13 Z-9.5
X48.004 Y270.436
X48 Y270.389
Y-1.397
X48.004 Y-1.444
X48.106 Y-2.092
X48.117 Y-2.158 Z-9.492
X48.127 Y-2.22 Z-9.47
X48.136 Y-2.277 Z-9.435
X48.143 Y-2.324 Z-9.387
X48.149 Y-2.359 Z-9.33
X48.152 Y-2.381 Z-9.267
X48.153 Y-2.388 Z-9.2
G0 Z5
X57.195 Y-2.401
G1 Z-9.2 F333.3
G3 Y-2.101 Z-9.5 J0.3 K0 F1000
G1 Y-1.4
Y270.4
Y270.411
G3 Y270.711 Z-9.2 J0 K0.3
G0 Z5
X58.895 Y-2.402
G1 Z-9.2 F333.3
G3 Y-2.102 Z-9.5 J0.3 K0 F1000
G1 Y-1.4
Y270.399
Y270.411
G3 Y270.711 Z-9.2 J0 K0.3
G0 Z5
X60.595 Y-2.401
G1 Z-9.2 F333.3
G3 Y-2.101 Z-9.5 J0.3 K0 F1000
G1 Y-1.383
Y270.399
Y270.411
G3 Y270.711 Z-9.2 J0 K0.3
G0 Z5
X62.273 Y-2.401
G1 Z-9.2 F333.3
Y-2.394 Z-9.267 F1000
Y-2.371 Z-9.33
Y-2.336 Z-9.387
Y-2.288 Z-9.435
Y-2.231 Z-9.47
Y-2.168 Z-9.492
Y-2.101 Z-9.5
Y-1.384
X62.25 Y269
Y270.397
Y270.409
Y270.475 Z-9.492
Y270.539 Z-9.47
Y270.596 Z-9.435
Y270.643 Z-9.387
Y270.679 Z-9.33
Y270.701 Z-9.267
Y270.708 Z-9.2
G0 Z5
X63.843 Y-2.404
G1 Z-9.23 F333.3
X63.844 Y-2.398 Z-9.29 F1000
X63.847 Y-2.378 Z-9.347
X63.852 Y-2.346 Z-9.398
X63.859 Y-2.304 Z-9.441
X63.867 Y-2.253 Z-9.473
X63.876 Y-2.197 Z-9.493
X63.885 Y-2.138 Z-9.5
X63.996 Y-1.436
X64 Y-1.389
Y270.397
X63.996 Y270.444
X63.894 Y271.092
X63.883 Y271.158 Z-9.492
X63.873 Y271.22 Z-9.47
X63.864 Y271.277 Z-9.435
X63.857 Y271.324 Z-9.387
X63.851 Y271.359 Z-9.33
X63.848 Y271.381 Z-9.267
X63.847 Y271.388 Z-9.2
G0 Z15
G17

(Circular5)
G0 X8.05 Y119.25
Z15
Z-2
G1 Z-3.7 F1000
G19 G3 Y119.55 Z-4 J0.3 K0
G1 Y119.7
G17 G3 X7.75 Y120 I-0.3 J0
X7.75 Y118 I0 J-1
X7.75 Y120 I0 J1
X7.45 Y119.7 I0 J-0.3
G1 Y119.55
G19 G2 Y119.25 Z-3.7 J0 K0.3
G0 Z5
X8.05
Z-6
G1 Z-7.7 F1000
G3 Y119.55 Z-8 J0.3 K0
G1 Y119.7
G17 G3 X7.75 Y120 I-0.3 J0
X7.75 Y118 I0 J-1
X7.75 Y120 I0 J1
X7.45 Y119.7 I0 J-0.3
G1 Y119.55
G19 G2 Y119.25 Z-7.7 J0 K0.3
G0 Z5
X8.05
Z-10
G1 Z-11.7 F1000
G3 Y119.55 Z-12 J0.3 K0
G1 Y119.7
G17 G3 X7.75 Y120 I-0.3 J0
X7.75 Y118 I0 J-1
X7.75 Y120 I0 J1
X7.45 Y119.7 I0 J-0.3
G1 Y119.55
G19 G2 Y119.25 Z-11.7 J0 K0.3
G0 Z5
X8.05
Z-13.5
G1 Z-15.2 F1000
G3 Y119.55 Z-15.5 J0.3 K0
G1 Y119.7
G17 G3 X7.75 Y120 I-0.3 J0
X7.75 Y118 I0 J-1
X7.75 Y120 I0 J1
X7.45 Y119.7 I0 J-0.3
G1 Y119.55
G19 G2 Y119.25 Z-15.2 J0 K0.3
G0 Z5
X8.05
Z-17
G1 Z-18.7 F1000
G3 Y119.55 Z-19 J0.3 K0
G1 Y119.7
G17 G3 X7.75 Y120 I-0.3 J0
X7.75 Y118 I0 J-1
X7.75 Y120 I0 J1
X7.45 Y119.7 I0 J-0.3
G1 Y119.55
G19 G2 Y119.25 Z-18.7 J0 K0.3
G0 Z5
X39.05
Z-2
G1 Z-3.7 F1000
G3 Y119.55 Z-4 J0.3 K0
G1 Y119.7
G17 G3 X38.75 Y120 I-0.3 J0
X38.75 Y118 I0 J-1
X38.75 Y120 I0 J1
X38.45 Y119.7 I0 J-0.3
G1 Y119.55
G19 G2 Y119.25 Z-3.7 J0 K0.3
G0 Z5
X39.05
Z-6
G1 Z-7.7 F1000
G3 Y119.55 Z-8 J0.3 K0
G1 Y119.7
G17 G3 X38.75 Y120 I-0.3 J0
X38.75 Y118 I0 J-1
X38.75 Y120 I0 J1
X38.45 Y119.7 I0 J-0.3
G1 Y119.55
G19 G2 Y119.25 Z-7.7 J0 K0.3
G0 Z5
X39.05
Z-10
G1 Z-11.7 F1000
G3 Y119.55 Z-12 J0.3 K0
G1 Y119.7
G17 G3 X38.75 Y120 I-0.3 J0
X38.75 Y118 I0 J-1
X38.75 Y120 I0 J1
X38.45 Y119.7 I0 J-0.3
G1 Y119.55
G19 G2 Y119.25 Z-11.7 J0 K0.3
G0 Z5
X39.05
Z-13.5
G1 Z-15.2 F1000
G3 Y119.55 Z-15.5 J0.3 K0
G1 Y119.7
G17 G3 X38.75 Y120 I-0.3 J0
X38.75 Y118 I0 J-1
X38.75 Y120 I0 J1
X38.45 Y119.7 I0 J-0.3
G1 Y119.55
G19 G2 Y119.25 Z-15.2 J0 K0.3
G0 Z5
X39.05
Z-17
G1 Z-18.7 F1000
G3 Y119.55 Z-19 J0.3 K0
G1 Y119.7
G17 G3 X38.75 Y120 I-0.3 J0
X38.75 Y118 I0 J-1
X38.75 Y120 I0 J1
X38.45 Y119.7 I0 J-0.3
G1 Y119.55
G19 G2 Y119.25 Z-18.7 J0 K0.3
G0 Z5
X39.05 Y150.25
Z-2
G1 Z-3.7 F1000
G3 Y150.55 Z-4 J0.3 K0
G1 Y150.7
G17 G3 X38.75 Y151 I-0.3 J0
X38.75 Y149 I0 J-1
X38.75 Y151 I0 J1
X38.45 Y150.7 I0 J-0.3
G1 Y150.55
G19 G2 Y150.25 Z-3.7 J0 K0.3
G0 Z5
X39.05
Z-6
G1 Z-7.7 F1000
G3 Y150.55 Z-8 J0.3 K0
G1 Y150.7
G17 G3 X38.75 Y151 I-0.3 J0
X38.75 Y149 I0 J-1
X38.75 Y151 I0 J1
X38.45 Y150.7 I0 J-0.3
G1 Y150.55
G19 G2 Y150.25 Z-7.7 J0 K0.3
G0 Z5
X39.05
Z-10
G1 Z-11.7 F1000
G3 Y150.55 Z-12 J0.3 K0
G1 Y150.7
G17 G3 X38.75 Y151 I-0.3 J0
X38.75 Y149 I0 J-1
X38.75 Y151 I0 J1
X38.45 Y150.7 I0 J-0.3
G1 Y150.55
G19 G2 Y150.25 Z-11.7 J0 K0.3
G0 Z5
X39.05
Z-13.5
G1 Z-15.2 F1000
G3 Y150.55 Z-15.5 J0.3 K0
G1 Y150.7
G17 G3 X38.75 Y151 I-0.3 J0
X38.75 Y149 I0 J-1
X38.75 Y151 I0 J1
X38.45 Y150.7 I0 J-0.3
G1 Y150.55
G19 G2 Y150.25 Z-15.2 J0 K0.3
G0 Z5
X39.05
Z-17
G1 Z-18.7 F1000
G3 Y150.55 Z-19 J0.3 K0
G1 Y150.7
G17 G3 X38.75 Y151 I-0.3 J0
X38.75 Y149 I0 J-1
X38.75 Y151 I0 J1
X38.45 Y150.7 I0 J-0.3
G1 Y150.55
G19 G2 Y150.25 Z-18.7 J0 K0.3
G0 Z5
X23.55 Y143.75
Z-2
G1 Z-3.7 F1000
G3 Y144.05 Z-4 J0.3 K0
G1 Y144.2
G17 G3 X23.25 Y144.5 I-0.3 J0
X23.25 Y124.5 I0 J-10
X23.25 Y144.5 I0 J10
X22.95 Y144.2 I0 J-0.3
G1 Y144.05
G19 G2 Y143.75 Z-3.7 J0 K0.3
G0 Z5
X23.55
Z-6
G1 Z-7.7 F1000
G3 Y144.05 Z-8 J0.3 K0
G1 Y144.2
G17 G3 X23.25 Y144.5 I-0.3 J0
X23.25 Y124.5 I0 J-10
X23.25 Y144.5 I0 J10
X22.95 Y144.2 I0 J-0.3
G1 Y144.05
G19 G2 Y143.75 Z-7.7 J0 K0.3
G0 Z5
X23.55
Z-10
G1 Z-11.7 F1000
G3 Y144.05 Z-12 J0.3 K0
G1 Y144.2
G17 G3 X23.25 Y144.5 I-0.3 J0
X23.25 Y124.5 I0 J-10
X23.25 Y144.5 I0 J10
X22.95 Y144.2 I0 J-0.3
G1 Y144.05
G19 G2 Y143.75 Z-11.7 J0 K0.3
G0 Z5
X23.55
Z-13.5
G1 Z-15.2 F1000
G3 Y144.05 Z-15.5 J0.3 K0
G1 Y144.2
G17 G3 X23.25 Y144.5 I-0.3 J0
X23.25 Y124.5 I0 J-10
X23.25 Y144.5 I0 J10
X22.95 Y144.2 I0 J-0.3
G1 Y144.05
G19 G2 Y143.75 Z-15.2 J0 K0.3
G0 Z5
X23.55
Z-17
G1 Z-18.7 F1000
G3 Y144.05 Z-19 J0.3 K0
G1 Y144.2
G17 G3 X23.25 Y144.5 I-0.3 J0
X23.25 Y124.5 I0 J-10
X23.25 Y144.5 I0 J10
X22.95 Y144.2 I0 J-0.3
G1 Y144.05
G19 G2 Y143.75 Z-18.7 J0 K0.3
G0 Z5
X8.05 Y150.25
Z-2
G1 Z-3.7 F1000
G3 Y150.55 Z-4 J0.3 K0
G1 Y150.7
G17 G3 X7.75 Y151 I-0.3 J0
X7.75 Y149 I0 J-1
X7.75 Y151 I0 J1
X7.45 Y150.7 I0 J-0.3
G1 Y150.55
G19 G2 Y150.25 Z-3.7 J0 K0.3
G0 Z5
X8.05
Z-6
G1 Z-7.7 F1000
G3 Y150.55 Z-8 J0.3 K0
G1 Y150.7
G17 G3 X7.75 Y151 I-0.3 J0
X7.75 Y149 I0 J-1
X7.75 Y151 I0 J1
X7.45 Y150.7 I0 J-0.3
G1 Y150.55
G19 G2 Y150.25 Z-7.7 J0 K0.3
G0 Z5
X8.05
Z-10
G1 Z-11.7 F1000
G3 Y150.55 Z-12 J0.3 K0
G1 Y150.7
G17 G3 X7.75 Y151 I-0.3 J0
X7.75 Y149 I0 J-1
X7.75 Y151 I0 J1
X7.45 Y150.7 I0 J-0.3
G1 Y150.55
G19 G2 Y150.25 Z-11.7 J0 K0.3
G0 Z5
X8.05
Z-13.5
G1 Z-15.2 F1000
G3 Y150.55 Z-15.5 J0.3 K0
G1 Y150.7
G17 G3 X7.75 Y151 I-0.3 J0
X7.75 Y149 I0 J-1
X7.75 Y151 I0 J1
X7.45 Y150.7 I0 J-0.3
G1 Y150.55
G19 G2 Y150.25 Z-15.2 J0 K0.3
G0 Z5
X8.05
Z-17
G1 Z-18.7 F1000
G3 Y150.55 Z-19 J0.3 K0
G1 Y150.7
G17 G3 X7.75 Y151 I-0.3 J0
X7.75 Y149 I0 J-1
X7.75 Y151 I0 J1
X7.45 Y150.7 I0 J-0.3
G1 Y150.55
G19 G2 Y150.25 Z-18.7 J0 K0.3
G0 Z15
G17

(2D Contour13)
G0 X113.4 Y269.3
Z15
Z5
G1 Z-6.2 F333.3
G18 G3 X113.1 Z-6.5 I-0.3 K0 F1000
G1 X112.8
G17 G3 X112.5 Y269 I0 J-0.3
G1 Y207.807
G2 X111.218 Y206.323 I-1.5 J0
G3 X86.864 Y178.126 I4.145 J-28.197
G1 Y90.874
G3 X111.218 Y62.677 I28.5 J0
G2 X112.5 Y61.193 I-0.218 J-1.484
G1 Y0
G2 X111 Y-1.5 I-1.5 J0
G1 X0
G2 X-1.5 Y0 I0 J1.5
G1 Y269
G2 X0 Y270.5 I1.5 J0
G1 X111
G2 X112.5 Y269 I0 J-1.5
G3 X112.8 Y268.7 I0.3 J0
G1 X113.1
G18 G2 X113.4 Z-6.2 I0 K0.3
G0 Z5
Y269.3
G1 Z-1.5 F333.3
Z-12.7
G3 X113.1 Z-13 I-0.3 K0 F1000
G1 X112.8
G17 G3 X112.5 Y269 I0 J-0.3
G1 Y207.807
G2 X111.218 Y206.323 I-1.5 J0
G3 X86.864 Y178.126 I4.145 J-28.197
G1 Y90.874
G3 X111.218 Y62.677 I28.5 J0
G2 X112.5 Y61.193 I-0.218 J-1.484
G1 Y0
G2 X111 Y-1.5 I-1.5 J0
G1 X0
G2 X-1.5 Y0 I0 J1.5
G1 Y269
G2 X0 Y270.5 I1.5 J0
G1 X111
G2 X112.5 Y269 I0 J-1.5
G3 X112.8 Y268.7 I0.3 J0
G1 X113.1
G18 G2 X113.4 Z-12.7 I0 K0.3
G0 Z5
Y269.3
G1 Z-8 F333.3
Z-18.7
G3 X113.1 Z-19 I-0.3 K0 F1000
G1 X112.8
G17 G3 X112.5 Y269 I0 J-0.3
G1 Y207.807
G2 X111.218 Y206.323 I-1.5 J0
G3 X86.864 Y178.126 I4.145 J-28.197
G1 Y90.874
G3 X111.218 Y62.677 I28.5 J0
G2 X112.5 Y61.193 I-0.218 J-1.484
G1 Y0
G2 X111 Y-1.5 I-1.5 J0
G1 X0
G2 X-1.5 Y0 I0 J1.5
G1 Y269
G2 X0 Y270.5 I1.5 J0
G1 X111
G2 X112.5 Y269 I0 J-1.5
G3 X112.8 Y268.7 I0.3 J0
G1 X113.1
G18 G2 X113.4 Z-18.7 I0 K0.3
G0 Z15
G17
M9
M5
M30
