(TinyCNCSeitenwandLinks)
(T3  D=3 CR=0 - ZMIN=-19 - flat end mill)
G90 G94
G17
G21

(2D Pocket22)
T3
S5000 M3
G54
M8
G0 X61.844 Y79.855
Z15
Z5
G1 Z-3.2 F333.3
G18 G2 X62.144 Z-3.5 I0.3 K0 F1000
G1 X66.862
X290.142
G17 G3 X290.461 Y80.174 I0 J0.319
G1 Y81.826
G3 X290.142 Y82.145 I-0.319 J0
G1 X66.859
G3 X66.659 Y81.945 I0 J-0.2
G1 X66.661 Y78.355
G3 X66.861 Y78.155 I0.2 J0
G1 X291.842
G3 X292.161 Y78.474 I0 J0.319
G1 Y83.526
G3 X291.842 Y83.845 I-0.319 J0
G1 X66.86
G3 X66.66 Y83.645 I0 J-0.2
G1 X66.661 Y76.655
G3 X66.861 Y76.455 I0.2 J0
G1 X293.542
G3 X293.861 Y76.774 I0 J0.319
G1 Y85.226
G3 X293.542 Y85.545 I-0.319 J0
G1 X66.86
G3 X66.66 Y85.345 I0 J-0.2
G1 X66.656 Y74.95
G3 X66.856 Y74.75 I0.2 J0
G1 X295.566
Y87.25
X68.25
X66.853
G3 X66.654 Y87.067 I0 J-0.2
G1 X66.051 Y80.072
G3 X66.25 Y79.855 I0.199 J-0.017
G18 G3 X66.55 Z-3.8 I0 K-0.3
G1 Z-6.7
G2 X66.85 Z-7 I0.3 K0
G1 X66.862
X290.142
G17 G3 X290.461 Y80.174 I0 J0.319
G1 Y81.826
G3 X290.142 Y82.145 I-0.319 J0
G1 X66.859
G3 X66.659 Y81.945 I0 J-0.2
G1 X66.661 Y78.355
G3 X66.861 Y78.155 I0.2 J0
G1 X291.842
G3 X292.161 Y78.474 I0 J0.319
G1 Y83.526
G3 X291.842 Y83.845 I-0.319 J0
G1 X66.86
G3 X66.66 Y83.645 I0 J-0.2
G1 X66.661 Y76.655
G3 X66.861 Y76.455 I0.2 J0
G1 X293.542
G3 X293.861 Y76.774 I0 J0.319
G1 Y85.226
G3 X293.542 Y85.545 I-0.319 J0
G1 X66.86
G3 X66.66 Y85.345 I0 J-0.2
G1 X66.656 Y74.95
G3 X66.856 Y74.75 I0.2 J0
G1 X295.566
Y87.25
X68.25
X66.853
X66.806 Y87.246
X65.325 Y87.012
X65.259 Y87.001 Z-6.992
X65.196 Y86.991 Z-6.97
X65.14 Y86.982 Z-6.935
X65.093 Y86.975 Z-6.887
X65.058 Y86.969 Z-6.83
X65.036 Y86.966 Z-6.767
X65.028 Y86.965 Z-6.7
G0 Z15
X61.844 Y19.855
Z5
G1 Z-3.2 F333.3
G18 G2 X62.144 Z-3.5 I0.3 K0 F1000
G1 X66.862
X290.142
G17 G3 X290.461 Y20.174 I0 J0.319
G1 Y21.826
G3 X290.142 Y22.145 I-0.319 J0
G1 X66.859
G3 X66.659 Y21.945 I0 J-0.2
G1 X66.661 Y18.355
G3 X66.861 Y18.155 I0.2 J0
G1 X291.842
G3 X292.161 Y18.474 I0 J0.319
G1 Y23.526
G3 X291.842 Y23.845 I-0.319 J0
G1 X66.86
G3 X66.66 Y23.645 I0 J-0.2
G1 X66.661 Y16.655
G3 X66.861 Y16.455 I0.2 J0
G1 X293.542
G3 X293.861 Y16.774 I0 J0.319
G1 Y25.226
G3 X293.542 Y25.545 I-0.319 J0
G1 X66.86
G3 X66.66 Y25.345 I0 J-0.2
G1 X66.656 Y14.95
G3 X66.856 Y14.75 I0.2 J0
G1 X295.566
Y27.25
X68.25
X66.853
G3 X66.654 Y27.067 I0 J-0.2
G1 X66.051 Y20.072
G3 X66.25 Y19.855 I0.199 J-0.017
G18 G3 X66.55 Z-3.8 I0 K-0.3
G1 Z-6.7
G2 X66.85 Z-7 I0.3 K0
G1 X66.862
X290.142
G17 G3 X290.461 Y20.174 I0 J0.319
G1 Y21.826
G3 X290.142 Y22.145 I-0.319 J0
G1 X66.859
G3 X66.659 Y21.945 I0 J-0.2
G1 X66.661 Y18.355
G3 X66.861 Y18.155 I0.2 J0
G1 X291.842
G3 X292.161 Y18.474 I0 J0.319
G1 Y23.526
G3 X291.842 Y23.845 I-0.319 J0
G1 X66.86
G3 X66.66 Y23.645 I0 J-0.2
G1 X66.661 Y16.655
G3 X66.861 Y16.455 I0.2 J0
G1 X293.542
G3 X293.861 Y16.774 I0 J0.319
G1 Y25.226
G3 X293.542 Y25.545 I-0.319 J0
G1 X66.86
G3 X66.66 Y25.345 I0 J-0.2
G1 X66.656 Y14.95
G3 X66.856 Y14.75 I0.2 J0
G1 X295.566
Y27.25
X68.25
X66.853
X66.806 Y27.246
X65.325 Y27.012
X65.259 Y27.001 Z-6.992
X65.196 Y26.991 Z-6.97
X65.14 Y26.982 Z-6.935
X65.093 Y26.975 Z-6.887
X65.058 Y26.969 Z-6.83
X65.036 Y26.966 Z-6.767
X65.028 Y26.965 Z-6.7
G0 Z15

(2D Pocket21)
X295.409 Y86.344
Z15
Z5
G1 Z-3.23 F333.3
X295.41 Y86.351 Z-3.29 F1000
X295.413 Y86.37 Z-3.347
X295.418 Y86.402 Z-3.398
X295.425 Y86.444 Z-3.441
X295.433 Y86.495 Z-3.473
X295.442 Y86.551 Z-3.493
X295.451 Y86.611 Z-3.5
X295.562 Y87.313
X295.566 Y87.36
Y88.25
X68.25
X66.988
X66.941 Y88.246
X66.293 Y88.144
X66.227 Y88.133 Z-3.492
X66.164 Y88.123 Z-3.47
X66.108 Y88.114 Z-3.435
X66.061 Y88.107 Z-3.387
X66.026 Y88.101 Z-3.33
X66.004 Y88.098 Z-3.267
X65.996 Y88.097 Z-3.2
G0 Z15
X66.017 Y73.901
Z5
G1 Z-3.23 F333.3
X66.024 Y73.9 Z-3.29 F1000
X66.043 Y73.897 Z-3.347
X66.075 Y73.892 Z-3.398
X66.117 Y73.885 Z-3.441
X66.168 Y73.877 Z-3.473
X66.224 Y73.868 Z-3.493
X66.284 Y73.859 Z-3.5
X66.947 Y73.754
X66.994 Y73.75
X295.566
Y74.642
X295.562 Y74.689
X295.46 Y75.337
X295.449 Y75.403 Z-3.492
X295.439 Y75.466 Z-3.47
X295.43 Y75.522 Z-3.435
X295.423 Y75.569 Z-3.387
X295.417 Y75.604 Z-3.33
X295.414 Y75.626 Z-3.267
X295.413 Y75.633 Z-3.2
G0 Z15
X66.017 Y13.901
Z5
G1 Z-3.23 F333.3
X66.024 Y13.9 Z-3.29 F1000
X66.043 Y13.897 Z-3.347
X66.075 Y13.892 Z-3.398
X66.117 Y13.885 Z-3.441
X66.168 Y13.877 Z-3.473
X66.224 Y13.868 Z-3.493
X66.284 Y13.859 Z-3.5
X66.947 Y13.754
X66.994 Y13.75
X295.566
Y14.642
X295.562 Y14.689
X295.46 Y15.337
X295.449 Y15.403 Z-3.492
X295.439 Y15.466 Z-3.47
X295.43 Y15.522 Z-3.435
X295.423 Y15.569 Z-3.387
X295.417 Y15.604 Z-3.33
X295.414 Y15.626 Z-3.267
X295.413 Y15.633 Z-3.2
G0 Z15
X295.409 Y26.344
Z5
G1 Z-3.23 F333.3
X295.41 Y26.351 Z-3.29 F1000
X295.413 Y26.37 Z-3.347
X295.418 Y26.402 Z-3.398
X295.425 Y26.444 Z-3.441
X295.433 Y26.495 Z-3.473
X295.442 Y26.551 Z-3.493
X295.451 Y26.611 Z-3.5
X295.562 Y27.313
X295.566 Y27.36
Y28.25
X68.25
X66.988
X66.941 Y28.246
X66.293 Y28.144
X66.227 Y28.133 Z-3.492
X66.164 Y28.123 Z-3.47
X66.108 Y28.114 Z-3.435
X66.061 Y28.107 Z-3.387
X66.026 Y28.101 Z-3.33
X66.004 Y28.098 Z-3.267
X65.996 Y28.097 Z-3.2
G0 Z15

(2D Pocket23)
X59.918 Y-0.704
Z15
Z5
G1 Z-4.45 F1000
Y-0.697 Z-4.517
Y-0.675 Z-4.58
Y-0.639 Z-4.637
Y-0.591 Z-4.685
Y-0.534 Z-4.72
Y-0.471 Z-4.742
Y-0.404 Z-4.75
Y-0.393
X59.899 Y101
G2 X61.487 Y105.899 I8.351 J0
G3 X60.036 Y106.741 I-0.97 J0
G2 X58.927 Y107.999 I-0.424 J0.744
G1 X58.986 Y108.077
G3 X58.856 Y108.342 I-0.131 J0.1
G1 X58.644
G3 X58.514 Y108.077 I0 J-0.165
G1 X58.609 Y107.95
G3 X58.891 Y107.95 I0.141 J0.104
G1 X58.927 Y107.999
G2 X60.468 Y108.5 I1.127 J-0.846
G3 X62.061 Y108.801 I0.511 J1.664
G2 X63.631 Y109.822 I6.189 J-7.801
G1 X63.662 Y109.845
X63.684 Y109.877
X63.693 Y109.915
X63.691 Y109.953
X63.675 Y109.989
X63.649 Y110.017
X63.615 Y110.036
X63.577 Y110.042
X53.923
X53.885 Y110.036
X53.851 Y110.017
X53.825 Y109.989
X53.809 Y109.953
X53.807 Y109.915
X53.816 Y109.877
X53.838 Y109.845
X53.869 Y109.822
G2 X58.624 Y104.36 I-4.619 J-8.822
G3 X58.876 Y104.36 I0.126 J0.045
G2 X62.061 Y108.801 I9.374 J-3.36
G1 X62.102 Y108.84 Z-4.739
X62.135 Y108.887 Z-4.727
X62.156 Y108.931 Z-4.695
X62.169 Y108.978 Z-4.662
X62.174 Y109.043 Z-4.565
X62.173 Y109.066 Z-4.45
G0 Z5
X80.672 Y101.552
G1 Z2.8 F333.3
X80.656 Y101.517 Z2.653
X80.618 Y101.419 Z2.544
X80.576 Y101.279 Z2.5
G3 X83.348 Y100.616 Z2.344 I1.386 J-0.332
X80.576 Y101.279 Z2.187 I-1.386 J0.332
X83.348 Y100.616 Z2.031 I1.386 J-0.332
X80.576 Y101.279 Z1.875 I-1.386 J0.332
X83.348 Y100.616 Z1.718 I1.386 J-0.332
X80.576 Y101.279 Z1.562 I-1.386 J0.332
X83.348 Y100.616 Z1.406 I1.386 J-0.332
X80.576 Y101.279 Z1.249 I-1.386 J0.332
X83.348 Y100.616 Z1.093 I1.386 J-0.332
X80.576 Y101.279 Z0.937 I-1.386 J0.332
X83.348 Y100.616 Z0.78 I1.386 J-0.332
X80.576 Y101.279 Z0.624 I-1.386 J0.332
X83.348 Y100.616 Z0.468 I1.386 J-0.332
X80.576 Y101.279 Z0.311 I-1.386 J0.332
X83.348 Y100.616 Z0.155 I1.386 J-0.332
X80.576 Y101.279 Z-0.001 I-1.386 J0.332
X83.348 Y100.616 Z-0.158 I1.386 J-0.332
X80.576 Y101.279 Z-0.314 I-1.386 J0.332
X83.348 Y100.616 Z-0.47 I1.386 J-0.332
X80.576 Y101.279 Z-0.627 I-1.386 J0.332
X83.348 Y100.616 Z-0.783 I1.386 J-0.332
X80.576 Y101.279 Z-0.939 I-1.386 J0.332
X83.348 Y100.616 Z-1.096 I1.386 J-0.332
X80.576 Y101.279 Z-1.252 I-1.386 J0.332
X83.348 Y100.616 Z-1.408 I1.386 J-0.332
X80.576 Y101.279 Z-1.565 I-1.386 J0.332
X83.348 Y100.616 Z-1.721 I1.386 J-0.332
X80.576 Y101.279 Z-1.877 I-1.386 J0.332
X83.348 Y100.616 Z-2.034 I1.386 J-0.332
X80.576 Y101.279 Z-2.19 I-1.386 J0.332
X83.348 Y100.616 Z-2.346 I1.386 J-0.332
X80.576 Y101.279 Z-2.503 I-1.386 J0.332
X83.348 Y100.616 Z-2.659 I1.386 J-0.332
X80.576 Y101.279 Z-2.815 I-1.386 J0.332
X83.348 Y100.616 Z-2.972 I1.386 J-0.332
X80.576 Y101.279 Z-3.128 I-1.386 J0.332
X83.348 Y100.616 Z-3.284 I1.386 J-0.332
X80.576 Y101.279 Z-3.441 I-1.386 J0.332
X83.348 Y100.616 Z-3.597 I1.386 J-0.332
X80.576 Y101.279 Z-3.753 I-1.386 J0.332
X83.348 Y100.616 Z-3.91 I1.386 J-0.332
X80.576 Y101.279 Z-4.066 I-1.386 J0.332
X83.348 Y100.616 Z-4.222 I1.386 J-0.332
X80.576 Y101.279 Z-4.379 I-1.386 J0.332
X83.348 Y100.616 Z-4.535 I1.386 J-0.332
X80.576 Y101.279 Z-4.691 I-1.386 J0.332
X81.128 Y99.793 Z-4.75 I1.386 J-0.332
X82.445 Y100.005 I0.552 J0.765
X82.233 Y101.322 I-0.765 J0.552
X81.757 Y101.502 I-0.57 J-0.789 F1000
X81.498 Y101.243 I-0.023 J-0.236
X81.731 Y100.7 I0.968 J0.094
X82.321 Y100.679 I0.305 J0.264
X82.3 Y101.269 I-0.285 J0.285
G1 X82.233 Y101.322
X82.183 Y101.351 Z-4.739
X82.129 Y101.37 Z-4.727
X82.081 Y101.378 Z-4.695
X82.033 Z-4.662
X81.969 Y101.366 Z-4.565
X81.947 Y101.358 Z-4.45
G0 Z5
X66.702 Y-0.707
G1 Z-4.45 F1000
X66.703 Y-0.7 Z-4.517
X66.707 Y-0.678 Z-4.58
X66.712 Y-0.643 Z-4.637
X66.72 Y-0.596 Z-4.685
X66.729 Y-0.54 Z-4.72
X66.739 Y-0.477 Z-4.742
X66.749 Y-0.411 Z-4.75
X66.75 Y-0.399
Y101
G2 X68.25 Y102.5 I1.5 J0
G1 X79
G2 X80.5 Y101 I0 J-1.5
G3 X83.5 Y101 I1.5 J0
X82 Y102.5 I-1.5 J0
G2 X80.5 Y104 I0 J1.5
G1 Y117
G2 X81.824 Y118.49 I1.5 J0
X81.916 Y119.154 I2.458 J0
X82.282 Y119.716 I1.079 J-0.303
G1 X82.3 Y119.731
G3 X82.321 Y120.321 I-0.264 J0.305
X81.731 Y120.3 I-0.285 J-0.285
X81.498 Y119.757 I0.736 J-0.637
X81.757 Y119.498 I0.236 J-0.023
X82.282 Y119.716 I-0.094 J0.968
G1 X82.318 Y119.76 Z-4.739
X82.346 Y119.81 Z-4.727
X82.362 Y119.856 Z-4.695
X82.369 Y119.904 Z-4.662
X82.368 Y119.969 Z-4.565
X82.364 Y119.991 Z-4.45
G0 Z5
X-5.4 Y109.338
G1 Z-4.45 F333.3
X-5.393 Z-4.517 F1000
X-5.371 Z-4.58
X-5.335 Z-4.637
X-5.287 Z-4.685
X-5.23 Z-4.72
X-5.167 Z-4.742
X-5.1 Z-4.75
X-0.393 Y109.339
X49.25 Y109.351
G2 X57.601 Y101 I0 J-8.351
G1 X57.582 Y-0.393
G3 X57.782 Y-0.593 I0.2 J0
G1 X59.718
G3 X59.918 Y-0.393 I0 J0.2
G1 X59.899 Y101
G2 X68.25 Y109.351 I8.351 J0
X70.812 Y109.328 I0 J-145.911
G3 X73.375 Y109.306 I2.562 J145.889
X73.694 Y109.625 I0 J0.319
G1 Y111.375
G3 X73.375 Y111.694 I-0.319 J0
G1 X-0.385
G3 X-0.585 Y111.494 I0 J-0.2
G1 X-0.593 Y107.84
G3 X-0.393 Y107.639 I0.2 J0
G1 X49.25 Y107.651
G2 X55.901 Y101 I0 J-6.651
G1 X55.882 Y-0.393
G3 X56.082 Y-0.593 I0.2 J0
G1 X61.418
G3 X61.618 Y-0.393 I0 J0.2
G1 X61.599 Y101
G2 X68.25 Y107.651 I6.651 J0
G1 X75.075 Y107.606
G3 X75.394 Y107.925 I0 J0.319
G1 Y113.075
G3 X75.075 Y113.394 I-0.319 J0
G1 X-0.385
G3 X-0.585 Y113.194 I0 J-0.2
G1 X-0.593 Y106.14
G3 X-0.393 Y105.94 I0.2 J0
G1 X49.25 Y105.951
G2 X54.201 Y101 I0 J-4.951
G1 X54.183 Y-0.393
G3 X54.382 Y-0.593 I0.2 J0
G1 X63.117
G3 X63.317 Y-0.393 I0 J0.2
G1 X63.299 Y101
G2 X68.25 Y105.951 I4.951 J0
G1 X76.775 Y105.906
G3 X77.094 Y106.225 I0 J0.319
G1 Y114.775
G3 X76.775 Y115.094 I-0.319 J0
G1 X-0.385
G3 X-0.585 Y114.894 I0 J-0.2
G1 X-0.6 Y104.439
G3 X-0.4 Y104.239 I0.2 J0
G1 X49.25 Y104.25
G2 X52.5 Y101 I0 J-3.25
G1 X52.482 Y-0.393
G3 X52.682 Y-0.593 I0.2 J0
G1 X64.818 Y-0.6
G3 X65.018 Y-0.4 I0 J0.2
G1 X65 Y101
G2 X68.25 Y104.25 I3.25 J0
G1 X78.481 Y104.206
G3 X78.794 Y104.519 I0 J0.313
G1 Y116.481
G3 X78.481 Y116.794 I-0.313 J0
G1 X-0.395
G3 X-0.595 Y116.594 I0 J-0.2
G1 X-0.599 Y102.7
G3 X-0.399 Y102.5 I0.2 J0
G1 X49.25
G2 X50.75 Y101 I0 J-1.5
G1 Y1
Y-0.397
G3 X50.95 Y-0.597 I0.2 J0
G1 X66.55 Y-0.599
G3 X66.75 Y-0.399 I0 J0.2
G1 Y101
G2 X68.25 Y102.5 I1.5 J0
G1 X79
G2 X80.5 Y101 I0 J-1.5
G3 X83.5 Y101 I1.5 J0
X82 Y102.5 I-1.5 J0
G2 X80.5 Y104 I0 J1.5
G1 Y117
G2 X82 Y118.5 I1.5 J0
G3 X82 Y121.5 I0 J1.5
X80.5 Y120 I0 J-1.5
G2 X79 Y118.5 I-1.5 J0
G1 X1
X-0.397
X-0.444 Y118.496
X-1.925 Y118.262
X-1.991 Y118.251 Z-4.742
X-2.054 Y118.241 Z-4.72
X-2.11 Y118.232 Z-4.685
X-2.157 Y118.225 Z-4.637
X-2.192 Y118.219 Z-4.58
X-2.214 Y118.216 Z-4.517
X-2.222 Y118.215 Z-4.45
G0 Z5
X59.918 Y-0.704
G1 Z0.25 F333.3
Z-9.2 F1000
Y-0.697 Z-9.267
Y-0.675 Z-9.33
Y-0.639 Z-9.387
Y-0.591 Z-9.435
Y-0.534 Z-9.47
Y-0.471 Z-9.492
Y-0.404 Z-9.5
Y-0.393
X59.899 Y101
G2 X61.487 Y105.899 I8.351 J0
G3 X60.036 Y106.741 I-0.97 J0
G2 X58.927 Y107.999 I-0.424 J0.744
G1 X58.986 Y108.077
G3 X58.856 Y108.342 I-0.131 J0.1
G1 X58.644
G3 X58.514 Y108.077 I0 J-0.165
G1 X58.609 Y107.95
G3 X58.891 Y107.95 I0.141 J0.104
G1 X58.927 Y107.999
G2 X60.468 Y108.5 I1.127 J-0.846
G3 X62.061 Y108.801 I0.511 J1.664
G2 X63.631 Y109.822 I6.189 J-7.801
G1 X63.662 Y109.845
X63.684 Y109.877
X63.693 Y109.915
X63.691 Y109.953
X63.675 Y109.989
X63.649 Y110.017
X63.615 Y110.036
X63.577 Y110.042
X53.923
X53.885 Y110.036
X53.851 Y110.017
X53.825 Y109.989
X53.809 Y109.953
X53.807 Y109.915
X53.816 Y109.877
X53.838 Y109.845
X53.869 Y109.822
G2 X58.624 Y104.36 I-4.619 J-8.822
G3 X58.876 Y104.36 I0.126 J0.045
G2 X62.061 Y108.801 I9.374 J-3.36
G1 X62.102 Y108.84 Z-9.489
X62.135 Y108.887 Z-9.477
X62.156 Y108.931 Z-9.445
X62.169 Y108.978 Z-9.412
X62.174 Y109.043 Z-9.315
X62.173 Y109.066 Z-9.2
G0 Z5
X80.672 Y101.552
G1 Z0.075 F333.3
Z-1.95 F1000
X80.656 Y101.517 Z-2.097 F333.3
X80.618 Y101.419 Z-2.206
X80.576 Y101.279 Z-2.25
G3 X83.348 Y100.616 Z-2.406 I1.386 J-0.332
X80.576 Y101.279 Z-2.563 I-1.386 J0.332
X83.348 Y100.616 Z-2.719 I1.386 J-0.332
X80.576 Y101.279 Z-2.875 I-1.386 J0.332
X83.348 Y100.616 Z-3.032 I1.386 J-0.332
X80.576 Y101.279 Z-3.188 I-1.386 J0.332
X83.348 Y100.616 Z-3.344 I1.386 J-0.332
X80.576 Y101.279 Z-3.501 I-1.386 J0.332
X83.348 Y100.616 Z-3.657 I1.386 J-0.332
X80.576 Y101.279 Z-3.813 I-1.386 J0.332
X83.348 Y100.616 Z-3.97 I1.386 J-0.332
X80.576 Y101.279 Z-4.126 I-1.386 J0.332
X83.348 Y100.616 Z-4.282 I1.386 J-0.332
X80.576 Y101.279 Z-4.439 I-1.386 J0.332
X83.348 Y100.616 Z-4.595 I1.386 J-0.332
X80.576 Y101.279 Z-4.751 I-1.386 J0.332
X83.348 Y100.616 Z-4.908 I1.386 J-0.332
X80.576 Y101.279 Z-5.064 I-1.386 J0.332
X83.348 Y100.616 Z-5.22 I1.386 J-0.332
X80.576 Y101.279 Z-5.377 I-1.386 J0.332
X83.348 Y100.616 Z-5.533 I1.386 J-0.332
X80.576 Y101.279 Z-5.689 I-1.386 J0.332
X83.348 Y100.616 Z-5.846 I1.386 J-0.332
X80.576 Y101.279 Z-6.002 I-1.386 J0.332
X83.348 Y100.616 Z-6.158 I1.386 J-0.332
X80.576 Y101.279 Z-6.315 I-1.386 J0.332
X83.348 Y100.616 Z-6.471 I1.386 J-0.332
X80.576 Y101.279 Z-6.627 I-1.386 J0.332
X83.348 Y100.616 Z-6.784 I1.386 J-0.332
X80.576 Y101.279 Z-6.94 I-1.386 J0.332
X83.348 Y100.616 Z-7.096 I1.386 J-0.332
X80.576 Y101.279 Z-7.253 I-1.386 J0.332
X83.348 Y100.616 Z-7.409 I1.386 J-0.332
X80.576 Y101.279 Z-7.565 I-1.386 J0.332
X83.348 Y100.616 Z-7.722 I1.386 J-0.332
X80.576 Y101.279 Z-7.878 I-1.386 J0.332
X83.348 Y100.616 Z-8.034 I1.386 J-0.332
X80.576 Y101.279 Z-8.191 I-1.386 J0.332
X83.348 Y100.616 Z-8.347 I1.386 J-0.332
X80.576 Y101.279 Z-8.503 I-1.386 J0.332
X83.348 Y100.616 Z-8.66 I1.386 J-0.332
X80.576 Y101.279 Z-8.816 I-1.386 J0.332
X83.348 Y100.616 Z-8.972 I1.386 J-0.332
X80.576 Y101.279 Z-9.129 I-1.386 J0.332
X83.348 Y100.616 Z-9.285 I1.386 J-0.332
X80.576 Y101.279 Z-9.441 I-1.386 J0.332
X81.128 Y99.793 Z-9.5 I1.386 J-0.332
X82.445 Y100.005 I0.552 J0.765
X82.233 Y101.322 I-0.765 J0.552
X81.757 Y101.502 I-0.57 J-0.789 F1000
X81.498 Y101.243 I-0.023 J-0.236
X81.731 Y100.7 I0.968 J0.094
X82.321 Y100.679 I0.305 J0.264
X82.3 Y101.269 I-0.285 J0.285
G1 X82.233 Y101.322
X82.183 Y101.351 Z-9.489
X82.129 Y101.37 Z-9.477
X82.081 Y101.378 Z-9.445
X82.033 Z-9.412
X81.969 Y101.366 Z-9.315
X81.947 Y101.358 Z-9.2
G0 Z5
X66.702 Y-0.707
G1 Z0.25 F333.3
Z-9.2 F1000
X66.703 Y-0.7 Z-9.267
X66.707 Y-0.678 Z-9.33
X66.712 Y-0.643 Z-9.387
X66.72 Y-0.596 Z-9.435
X66.729 Y-0.54 Z-9.47
X66.739 Y-0.477 Z-9.492
X66.749 Y-0.411 Z-9.5
X66.75 Y-0.399
Y101
G2 X68.25 Y102.5 I1.5 J0
G1 X79
G2 X80.5 Y101 I0 J-1.5
G3 X83.5 Y101 I1.5 J0
X82 Y102.5 I-1.5 J0
G2 X80.5 Y104 I0 J1.5
G1 Y117
G2 X81.824 Y118.49 I1.5 J0
X81.916 Y119.154 I2.458 J0
X82.282 Y119.716 I1.079 J-0.303
G1 X82.3 Y119.731
G3 X82.321 Y120.321 I-0.264 J0.305
X81.731 Y120.3 I-0.285 J-0.285
X81.498 Y119.757 I0.736 J-0.637
X81.757 Y119.498 I0.236 J-0.023
X82.282 Y119.716 I-0.094 J0.968
G1 X82.318 Y119.76 Z-9.489
X82.346 Y119.81 Z-9.477
X82.362 Y119.856 Z-9.445
X82.369 Y119.904 Z-9.412
X82.368 Y119.969 Z-9.315
X82.364 Y119.991 Z-9.2
G0 Z5
X-5.4 Y109.338
G1 Z-9.2 F333.3
X-5.393 Z-9.267 F1000
X-5.371 Z-9.33
X-5.335 Z-9.387
X-5.287 Z-9.435
X-5.23 Z-9.47
X-5.167 Z-9.492
X-5.1 Z-9.5
X-0.393 Y109.339
X49.25 Y109.351
G2 X57.601 Y101 I0 J-8.351
G1 X57.582 Y-0.393
G3 X57.782 Y-0.593 I0.2 J0
G1 X59.718
G3 X59.918 Y-0.393 I0 J0.2
G1 X59.899 Y101
G2 X68.25 Y109.351 I8.351 J0
X70.812 Y109.328 I0 J-145.911
G3 X73.375 Y109.306 I2.562 J145.889
X73.694 Y109.625 I0 J0.319
G1 Y111.375
G3 X73.375 Y111.694 I-0.319 J0
G1 X-0.385
G3 X-0.585 Y111.494 I0 J-0.2
G1 X-0.593 Y107.84
G3 X-0.393 Y107.639 I0.2 J0
G1 X49.25 Y107.651
G2 X55.901 Y101 I0 J-6.651
G1 X55.882 Y-0.393
G3 X56.082 Y-0.593 I0.2 J0
G1 X61.418
G3 X61.618 Y-0.393 I0 J0.2
G1 X61.599 Y101
G2 X68.25 Y107.651 I6.651 J0
G1 X75.075 Y107.606
G3 X75.394 Y107.925 I0 J0.319
G1 Y113.075
G3 X75.075 Y113.394 I-0.319 J0
G1 X-0.385
G3 X-0.585 Y113.194 I0 J-0.2
G1 X-0.593 Y106.14
G3 X-0.393 Y105.94 I0.2 J0
G1 X49.25 Y105.951
G2 X54.201 Y101 I0 J-4.951
G1 X54.183 Y-0.393
G3 X54.382 Y-0.593 I0.2 J0
G1 X63.117
G3 X63.317 Y-0.393 I0 J0.2
G1 X63.299 Y101
G2 X68.25 Y105.951 I4.951 J0
G1 X76.775 Y105.906
G3 X77.094 Y106.225 I0 J0.319
G1 Y114.775
G3 X76.775 Y115.094 I-0.319 J0
G1 X-0.385
G3 X-0.585 Y114.894 I0 J-0.2
G1 X-0.6 Y104.439
G3 X-0.4 Y104.239 I0.2 J0
G1 X49.25 Y104.25
G2 X52.5 Y101 I0 J-3.25
G1 X52.482 Y-0.393
G3 X52.682 Y-0.593 I0.2 J0
G1 X64.818 Y-0.6
G3 X65.018 Y-0.4 I0 J0.2
G1 X65 Y101
G2 X68.25 Y104.25 I3.25 J0
G1 X78.481 Y104.206
G3 X78.794 Y104.519 I0 J0.313
G1 Y116.481
G3 X78.481 Y116.794 I-0.313 J0
G1 X-0.395
G3 X-0.595 Y116.594 I0 J-0.2
G1 X-0.599 Y102.7
G3 X-0.399 Y102.5 I0.2 J0
G1 X49.25
G2 X50.75 Y101 I0 J-1.5
G1 Y1
Y-0.397
G3 X50.95 Y-0.597 I0.2 J0
G1 X66.55 Y-0.599
G3 X66.75 Y-0.399 I0 J0.2
G1 Y101
G2 X68.25 Y102.5 I1.5 J0
G1 X79
G2 X80.5 Y101 I0 J-1.5
G3 X83.5 Y101 I1.5 J0
X82 Y102.5 I-1.5 J0
G2 X80.5 Y104 I0 J1.5
G1 Y117
G2 X82 Y118.5 I1.5 J0
G3 X82 Y121.5 I0 J1.5
X80.5 Y120 I0 J-1.5
G2 X79 Y118.5 I-1.5 J0
G1 X1
X-0.397
X-0.444 Y118.496
X-1.925 Y118.262
X-1.991 Y118.251 Z-9.492
X-2.054 Y118.241 Z-9.47
X-2.11 Y118.232 Z-9.435
X-2.157 Y118.225 Z-9.387
X-2.192 Y118.219 Z-9.33
X-2.214 Y118.216 Z-9.267
X-2.222 Y118.215 Z-9.2
G0 Z15
X-5.405 Y390.306
Z5
G1 Z-4.45 F333.3
G18 G2 X-5.105 Z-4.75 I0.3 K0 F1000
G1 X-0.388
X73.375
G17 G3 X73.694 Y390.625 I0 J0.319
G1 Y392.375
G3 X73.375 Y392.694 I-0.319 J0
G1 X-0.385
G3 X-0.585 Y392.494 I0 J-0.2
G1 X-0.588 Y388.806
G3 X-0.388 Y388.606 I0.2 J0
G1 X75.075
G3 X75.394 Y388.925 I0 J0.319
G1 Y394.075
G3 X75.075 Y394.394 I-0.319 J0
G1 X-0.385
G3 X-0.585 Y394.194 I0 J-0.2
G1 X-0.589 Y387.106
G3 X-0.389 Y386.906 I0.2 J0
G1 X76.775
G3 X77.094 Y387.225 I0 J0.319
G1 Y395.775
G3 X76.775 Y396.094 I-0.319 J0
G1 X-0.385
G3 X-0.585 Y395.894 I0 J-0.2
G1 X-0.595 Y385.406
G3 X-0.395 Y385.206 I0.2 J0
G1 X78.481
G3 X78.794 Y385.519 I0 J0.313
G1 Y397.481
G3 X78.481 Y397.794 I-0.313 J0
G1 X-0.395
X-1.895
G18 G3 X-2.195 Z-4.45 I0 K0.3
G1 Z5
X-0.703 Y383.548
Z-4.45
X-0.695 Y383.547 Z-4.517
X-0.673 Y383.543 Z-4.58
X-0.638 Y383.538 Z-4.637
X-0.591 Y383.53 Z-4.685
X-0.535 Y383.521 Z-4.72
X-0.472 Y383.511 Z-4.742
X-0.406 Y383.501 Z-4.75
X-0.395 Y383.5
X79
G17 G2 X80.5 Y382 I0 J-1.5
G3 X83.5 Y382 I1.5 J0
X82 Y383.5 I-1.5 J0
G2 X80.5 Y385 I0 J1.5
G1 Y398
G2 X82 Y399.5 I1.5 J0
G3 X82 Y402.5 I0 J1.5
X80.5 Y401 I0 J-1.5
G1 X80.497 Y400.906
X80.488 Y400.813
G3 X80.993 Y400.695 I0.266 J0
G2 X81.509 Y400.659 I0.251 J-0.124
G3 X81.757 Y400.498 I0.225 J0.075
X82.3 Y400.731 I-0.094 J0.968
X82.321 Y401.321 I-0.264 J0.305
X81.731 Y401.3 I-0.285 J-0.285
X81.498 Y400.757 I0.736 J-0.637
G1 X81.499 Y400.708
X81.509 Y400.659
X81.534 Y400.607 Z-4.739
X81.57 Y400.563 Z-4.727
X81.608 Y400.533 Z-4.695
X81.652 Y400.512 Z-4.662
X81.683 Y400.503 Z-4.613
X81.715 Y400.498 Z-4.565
X81.738 Y400.497 Z-4.45
G0 Z5
X-0.703 Y383.548
G1 Z-4.45 F1000
X-0.695 Y383.547 Z-4.517
X-0.673 Y383.543 Z-4.58
X-0.638 Y383.538 Z-4.637
X-0.591 Y383.53 Z-4.685
X-0.535 Y383.521 Z-4.72
X-0.472 Y383.511 Z-4.742
X-0.406 Y383.501 Z-4.75
X-0.395 Y383.5
X79
G2 X80.491 Y382.161 I0 J-1.5
X81.159 Y382.069 I0 J-2.474
X81.726 Y381.706 I-0.311 J-1.111
G1 X81.731 Y381.7
G3 X82.321 Y381.679 I0.305 J0.264
X82.3 Y382.269 I-0.285 J0.285
X81.757 Y382.502 I-0.637 J-0.736
X81.498 Y382.243 I-0.023 J-0.236
X81.726 Y381.706 I0.968 J0.094
G1 X81.771 Y381.671 Z-4.739
X81.823 Y381.646 Z-4.727
X81.869 Y381.632 Z-4.695
X81.917 Y381.626 Z-4.662
X81.982 Y381.63 Z-4.565
X82.005 Y381.635 Z-4.45
G0 Z5
X-5.406 Y384.29
G1 Z-4.48 F333.3
X-5.399 Y384.289 Z-4.54 F1000
X-5.379 Y384.286 Z-4.597
X-5.348 Y384.281 Z-4.648
X-5.305 Y384.274 Z-4.691
X-5.255 Y384.266 Z-4.723
X-5.198 Y384.257 Z-4.743
X-5.139 Y384.248 Z-4.75
X-0.442 Y383.504
X-0.395 Y383.5
X79
G2 X80.5 Y382 I0 J-1.5
G3 X83.5 Y382 I1.5 J0
X82 Y383.5 I-1.5 J0
G2 X80.5 Y385 I0 J1.5
G1 Y398
G2 X82 Y399.5 I1.5 J0
G3 X82 Y402.5 I0 J1.5
X80.5 Y401 I0 J-1.5
G2 X79 Y399.5 I-1.5 J0
G1 X1
X-0.397
G3 X-0.596 Y399.314 I0 J-0.2
G1 X-1.211 Y390.52
G3 X-1.011 Y390.306 I0.2 J-0.014
G18 G3 X-0.711 Z-5.05 I0 K-0.3
G1 Z-9.2
G2 X-0.411 Z-9.5 I0.3 K0
G1 X-0.388
X73.375
G17 G3 X73.694 Y390.625 I0 J0.319
G1 Y392.375
G3 X73.375 Y392.694 I-0.319 J0
G1 X-0.385
G3 X-0.585 Y392.494 I0 J-0.2
G1 X-0.588 Y388.806
G3 X-0.388 Y388.606 I0.2 J0
G1 X75.075
G3 X75.394 Y388.925 I0 J0.319
G1 Y394.075
G3 X75.075 Y394.394 I-0.319 J0
G1 X-0.385
G3 X-0.585 Y394.194 I0 J-0.2
G1 X-0.589 Y387.106
G3 X-0.389 Y386.906 I0.2 J0
G1 X76.775
G3 X77.094 Y387.225 I0 J0.319
G1 Y395.775
G3 X76.775 Y396.094 I-0.319 J0
G1 X-0.385
G3 X-0.585 Y395.894 I0 J-0.2
G1 X-0.595 Y385.406
G3 X-0.395 Y385.206 I0.2 J0
G1 X78.481
G3 X78.794 Y385.519 I0 J0.313
G1 Y397.481
G3 X78.481 Y397.794 I-0.313 J0
G1 X-0.395
X-1.895
G18 G3 X-2.195 Z-9.2 I0 K0.3
G1 Z0.25
X-0.703 Y383.548
Z-9.2
X-0.695 Y383.547 Z-9.267
X-0.673 Y383.543 Z-9.33
X-0.638 Y383.538 Z-9.387
X-0.591 Y383.53 Z-9.435
X-0.535 Y383.521 Z-9.47
X-0.472 Y383.511 Z-9.492
X-0.406 Y383.501 Z-9.5
X-0.395 Y383.5
X79
G17 G2 X80.5 Y382 I0 J-1.5
G3 X83.5 Y382 I1.5 J0
X82 Y383.5 I-1.5 J0
G2 X80.5 Y385 I0 J1.5
G1 Y398
G2 X82 Y399.5 I1.5 J0
G3 X82 Y402.5 I0 J1.5
X80.5 Y401 I0 J-1.5
G1 X80.497 Y400.906
X80.488 Y400.813
G3 X80.993 Y400.695 I0.266 J0
G2 X81.509 Y400.659 I0.251 J-0.124
G3 X81.757 Y400.498 I0.225 J0.075
X82.3 Y400.731 I-0.094 J0.968
X82.321 Y401.321 I-0.264 J0.305
X81.731 Y401.3 I-0.285 J-0.285
X81.498 Y400.757 I0.736 J-0.637
G1 X81.499 Y400.708
X81.509 Y400.659
X81.534 Y400.607 Z-9.489
X81.57 Y400.563 Z-9.477
X81.608 Y400.533 Z-9.445
X81.652 Y400.512 Z-9.412
X81.683 Y400.503 Z-9.363
X81.715 Y400.498 Z-9.315
X81.738 Y400.497 Z-9.2
G0 Z5
X-0.703 Y383.548
G1 Z0.25 F333.3
Z-9.2 F1000
X-0.695 Y383.547 Z-9.267
X-0.673 Y383.543 Z-9.33
X-0.638 Y383.538 Z-9.387
X-0.591 Y383.53 Z-9.435
X-0.535 Y383.521 Z-9.47
X-0.472 Y383.511 Z-9.492
X-0.406 Y383.501 Z-9.5
X-0.395 Y383.5
X79
G2 X80.491 Y382.161 I0 J-1.5
X81.159 Y382.069 I0 J-2.474
X81.726 Y381.706 I-0.311 J-1.111
G1 X81.731 Y381.7
G3 X82.321 Y381.679 I0.305 J0.264
X82.3 Y382.269 I-0.285 J0.285
X81.757 Y382.502 I-0.637 J-0.736
X81.498 Y382.243 I-0.023 J-0.236
X81.726 Y381.706 I0.968 J0.094
G1 X81.771 Y381.671 Z-9.489
X81.823 Y381.646 Z-9.477
X81.869 Y381.632 Z-9.445
X81.917 Y381.626 Z-9.412
X81.982 Y381.63 Z-9.315
X82.005 Y381.635 Z-9.2
G0 Z5
X-5.406 Y384.29
G1 Z-9.23 F333.3
X-5.399 Y384.289 Z-9.29 F1000
X-5.379 Y384.286 Z-9.347
X-5.348 Y384.281 Z-9.398
X-5.305 Y384.274 Z-9.441
X-5.255 Y384.266 Z-9.473
X-5.198 Y384.257 Z-9.493
X-5.139 Y384.248 Z-9.5
X-0.442 Y383.504
X-0.395 Y383.5
X79
G2 X80.5 Y382 I0 J-1.5
G3 X83.5 Y382 I1.5 J0
X82 Y383.5 I-1.5 J0
G2 X80.5 Y385 I0 J1.5
G1 Y398
G2 X82 Y399.5 I1.5 J0
G3 X82 Y402.5 I0 J1.5
X80.5 Y401 I0 J-1.5
G2 X79 Y399.5 I-1.5 J0
G1 X1
X-0.397
X-0.444 Y399.496
X-1.925 Y399.262
X-1.991 Y399.251 Z-9.492
X-2.054 Y399.241 Z-9.47
X-2.11 Y399.232 Z-9.435
X-2.157 Y399.225 Z-9.387
X-2.192 Y399.219 Z-9.33
X-2.214 Y399.216 Z-9.267
X-2.222 Y399.215 Z-9.2
G0 Z15

(2D Contour12)
X220.7 Y192.9
Z15
Z5
G1 Z-6.2 F333.3
G19 G2 Y192.6 Z-6.5 J-0.3 K0 F1000
G1 Y192.3
G17 G3 X221 Y192 I0.3 J0
G1 X297.066
G2 X313.566 Y175.5 I0 J-16.5
G1 Y16
G2 X297.066 Y-0.5 I-16.5 J0
G1 X16
G2 X-0.5 Y16 I0 J16.5
G1 Y483.73
G2 X4.49 Y495.552 I16.5 J-0.001
G1 X27.972 Y518.413
G2 X30.093 Y518.384 I1.046 J-1.075
G1 X134.729 Y410.906
G2 X134.7 Y408.785 I-1.075 J-1.046
G1 X106.583 Y381.412
G3 X102.5 Y371.739 I9.417 J-9.673
G1 Y116
G3 X116 Y102.5 I13.5 J0
G1 X191
G3 X204.5 Y116 I0 J13.5
G1 Y175.5
G2 X221 Y192 I16.5 J0
G3 X221.3 Y192.3 I0 J0.3
G1 Y192.6
G19 G3 Y192.9 Z-6.2 J0 K0.3
G0 Z5
X220.7
G1 Z-1.5 F333.3
Z-12.7
G2 Y192.6 Z-13 J-0.3 K0 F1000
G1 Y192.3
G17 G3 X221 Y192 I0.3 J0
G1 X297.066
G2 X313.566 Y175.5 I0 J-16.5
G1 Y16
G2 X297.066 Y-0.5 I-16.5 J0
G1 X16
G2 X-0.5 Y16 I0 J16.5
G1 Y483.73
G2 X4.49 Y495.552 I16.5 J-0.001
G1 X27.972 Y518.413
G2 X30.093 Y518.384 I1.046 J-1.075
G1 X134.729 Y410.906
G2 X134.7 Y408.785 I-1.075 J-1.046
G1 X106.583 Y381.412
G3 X102.5 Y371.739 I9.417 J-9.673
G1 Y116
G3 X116 Y102.5 I13.5 J0
G1 X191
G3 X204.5 Y116 I0 J13.5
G1 Y175.5
G2 X221 Y192 I16.5 J0
G3 X221.3 Y192.3 I0 J0.3
G1 Y192.6
G19 G3 Y192.9 Z-12.7 J0 K0.3
G0 Z5
X220.7
G1 Z-8 F333.3
Z-18.7
G2 Y192.6 Z-19 J-0.3 K0 F1000
G1 Y192.3
G17 G3 X221 Y192 I0.3 J0
G1 X297.066
G2 X313.566 Y175.5 I0 J-16.5
G1 Y16
G2 X297.066 Y-0.5 I-16.5 J0
G1 X16
G2 X-0.5 Y16 I0 J16.5
G1 Y483.73
G2 X4.49 Y495.552 I16.5 J-0.001
G1 X27.972 Y518.413
G2 X30.093 Y518.384 I1.046 J-1.075
G1 X134.729 Y410.906
G2 X134.7 Y408.785 I-1.075 J-1.046
G1 X106.583 Y381.412
G3 X102.5 Y371.739 I9.417 J-9.673
G1 Y116
G3 X116 Y102.5 I13.5 J0
G1 X191
G3 X204.5 Y116 I0 J13.5
G1 Y175.5
G2 X221 Y192 I16.5 J0
G3 X221.3 Y192.3 I0 J0.3
G1 Y192.6
G19 G3 Y192.9 Z-18.7 J0 K0.3
G0 Z15
G17
M9
M5
M30
