(TinyCNCSeitenwandLinks)
(T3  D=3 CR=0 - ZMIN=-19 - flat end mill)
G90 G94
G17
G21

(2D Pocket18)
T3
S5000 M3
G54
M8
G0 X67.347 Y32.783
Z15
Z5
G1 Z2.8 F333.3
X67.354 Y32.745 Z2.653
X67.379 Y32.642 Z2.544
X67.425 Y32.505 Z2.5
G3 X70.075 Y33.555 Z2.344 I1.325 J0.525
X67.425 Y32.505 Z2.187 I-1.325 J-0.525
X70.075 Y33.555 Z2.031 I1.325 J0.525
X67.425 Y32.505 Z1.875 I-1.325 J-0.525
X70.075 Y33.555 Z1.718 I1.325 J0.525
X67.425 Y32.505 Z1.562 I-1.325 J-0.525
X70.075 Y33.555 Z1.406 I1.325 J0.525
X67.425 Y32.505 Z1.249 I-1.325 J-0.525
X70.075 Y33.555 Z1.093 I1.325 J0.525
X67.425 Y32.505 Z0.937 I-1.325 J-0.525
X70.075 Y33.555 Z0.78 I1.325 J0.525
X67.425 Y32.505 Z0.624 I-1.325 J-0.525
X70.075 Y33.555 Z0.468 I1.325 J0.525
X67.425 Y32.505 Z0.311 I-1.325 J-0.525
X70.075 Y33.555 Z0.155 I1.325 J0.525
X67.425 Y32.505 Z-0.001 I-1.325 J-0.525
X70.075 Y33.555 Z-0.158 I1.325 J0.525
X67.425 Y32.505 Z-0.314 I-1.325 J-0.525
X70.075 Y33.555 Z-0.47 I1.325 J0.525
X67.425 Y32.505 Z-0.627 I-1.325 J-0.525
X70.075 Y33.555 Z-0.783 I1.325 J0.525
X67.425 Y32.505 Z-0.939 I-1.325 J-0.525
X70.075 Y33.555 Z-1.096 I1.325 J0.525
X67.425 Y32.505 Z-1.252 I-1.325 J-0.525
X70.075 Y33.555 Z-1.408 I1.325 J0.525
X67.425 Y32.505 Z-1.565 I-1.325 J-0.525
X70.075 Y33.555 Z-1.721 I1.325 J0.525
X67.425 Y32.505 Z-1.877 I-1.325 J-0.525
X70.075 Y33.555 Z-2.034 I1.325 J0.525
X67.425 Y32.505 Z-2.19 I-1.325 J-0.525
X70.075 Y33.555 Z-2.346 I1.325 J0.525
X67.425 Y32.505 Z-2.503 I-1.325 J-0.525
X70.075 Y33.555 Z-2.659 I1.325 J0.525
X67.425 Y32.505 Z-2.815 I-1.325 J-0.525
X70.075 Y33.555 Z-2.972 I1.325 J0.525
X67.425 Y32.505 Z-3.128 I-1.325 J-0.525
X70.075 Y33.555 Z-3.284 I1.325 J0.525
X67.425 Y32.505 Z-3.441 I-1.325 J-0.525
X68.75 Y31.605 Z-3.5 I1.325 J0.525
G1 X364.076 F1000
G3 X364.395 Y31.924 I0 J0.319
G1 Y33.576
G3 X364.076 Y33.895 I-0.319 J0
G1 X67.924
G3 X67.605 Y33.576 I0 J-0.319
G1 Y31.924
G3 X67.924 Y31.605 I0.319 J0
G1 X68.75
G2 X70.025 Y30.755 I0 J-1.381
G3 X71.3 Y29.905 I1.275 J0.531
G1 X365.776
G3 X366.095 Y30.224 I0 J0.319
G1 Y35.276
G3 X365.776 Y35.595 I-0.319 J0
G1 X66.224
G3 X65.905 Y35.276 I0 J-0.319
G1 Y30.224
G3 X66.224 Y29.905 I0.319 J0
G1 X71.3
G2 X72.575 Y29.055 I0 J-1.381
G3 X73.85 Y28.205 I1.275 J0.531
G1 X367.476
G3 X367.795 Y28.524 I0 J0.319
G1 Y36.976
G3 X367.476 Y37.295 I-0.319 J0
G1 X64.524
G3 X64.205 Y36.976 I0 J-0.319
G1 Y28.524
G3 X64.524 Y28.205 I0.319 J0
G1 X73.85
G2 X75.129 Y27.353 I0 J-1.385
G3 X76.408 Y26.5 I1.279 J0.533
G1 X369.5
Y39
X62.5
Y26.5
X76.408
G3 X76.525 Y26.744 I0 J0.15
G1 X75.71 Y27.765
X75.692 Y27.784
X75.67 Y27.8
X67.798 Y32.504
X67.508 Y32.63
X67.475 Y32.636
X67.443 Y32.626
X67.419 Y32.604
X67.408 Y32.573
X67.412 Y32.54
G3 X70.088 Y33.52 Z-3.656 I1.338 J0.49 F333.3
X67.412 Y32.54 Z-3.813 I-1.338 J-0.49
X70.088 Y33.52 Z-3.969 I1.338 J0.49
X67.412 Y32.54 Z-4.125 I-1.338 J-0.49
X70.088 Y33.52 Z-4.282 I1.338 J0.49
X67.412 Y32.54 Z-4.438 I-1.338 J-0.49
X70.088 Y33.52 Z-4.594 I1.338 J0.49
X67.412 Y32.54 Z-4.751 I-1.338 J-0.49
X70.088 Y33.52 Z-4.907 I1.338 J0.49
X67.412 Y32.54 Z-5.063 I-1.338 J-0.49
X70.088 Y33.52 Z-5.22 I1.338 J0.49
X67.412 Y32.54 Z-5.376 I-1.338 J-0.49
X70.088 Y33.52 Z-5.532 I1.338 J0.49
X67.412 Y32.54 Z-5.689 I-1.338 J-0.49
X70.088 Y33.52 Z-5.845 I1.338 J0.49
X67.412 Y32.54 Z-6.001 I-1.338 J-0.49
X70.088 Y33.52 Z-6.158 I1.338 J0.49
X67.412 Y32.54 Z-6.314 I-1.338 J-0.49
X70.088 Y33.52 Z-6.47 I1.338 J0.49
X67.412 Y32.54 Z-6.627 I-1.338 J-0.49
X70.088 Y33.52 Z-6.783 I1.338 J0.49
X67.412 Y32.54 Z-6.939 I-1.338 J-0.49
X68.75 Y31.605 Z-7 I1.338 J0.49
G1 X364.076 F1000
G3 X364.395 Y31.924 I0 J0.319
G1 Y33.576
G3 X364.076 Y33.895 I-0.319 J0
G1 X67.924
G3 X67.605 Y33.576 I0 J-0.319
G1 Y31.924
G3 X67.924 Y31.605 I0.319 J0
G1 X68.75
G2 X70.025 Y30.755 I0 J-1.381
G3 X71.3 Y29.905 I1.275 J0.531
G1 X365.776
G3 X366.095 Y30.224 I0 J0.319
G1 Y35.276
G3 X365.776 Y35.595 I-0.319 J0
G1 X66.224
G3 X65.905 Y35.276 I0 J-0.319
G1 Y30.224
G3 X66.224 Y29.905 I0.319 J0
G1 X71.3
G2 X72.575 Y29.055 I0 J-1.381
G3 X73.85 Y28.205 I1.275 J0.531
G1 X367.476
G3 X367.795 Y28.524 I0 J0.319
G1 Y36.976
G3 X367.476 Y37.295 I-0.319 J0
G1 X64.524
G3 X64.205 Y36.976 I0 J-0.319
G1 Y28.524
G3 X64.524 Y28.205 I0.319 J0
G1 X73.85
G2 X75.129 Y27.353 I0 J-1.385
G3 X76.408 Y26.5 I1.279 J0.533
G1 X369.5
Y39
X62.5
Y26.5
X76.408
X76.465 Y26.505 Z-6.989
X76.52 Y26.522 Z-6.977
X76.563 Y26.543 Z-6.945
X76.602 Y26.572 Z-6.912
X76.647 Y26.619 Z-6.815
X76.66 Y26.638 Z-6.7
G0 Z15
X68.783 Y94.153
Z5
G1 Z2.8 F333.3
X68.745 Y94.146 Z2.653
X68.642 Y94.121 Z2.544
X68.505 Y94.075 Z2.5
G3 X69.555 Y91.425 Z2.344 I0.525 J-1.325
X68.505 Y94.075 Z2.187 I-0.525 J1.325
X69.555 Y91.425 Z2.031 I0.525 J-1.325
X68.505 Y94.075 Z1.875 I-0.525 J1.325
X69.555 Y91.425 Z1.718 I0.525 J-1.325
X68.505 Y94.075 Z1.562 I-0.525 J1.325
X69.555 Y91.425 Z1.406 I0.525 J-1.325
X68.505 Y94.075 Z1.249 I-0.525 J1.325
X69.555 Y91.425 Z1.093 I0.525 J-1.325
X68.505 Y94.075 Z0.937 I-0.525 J1.325
X69.555 Y91.425 Z0.78 I0.525 J-1.325
X68.505 Y94.075 Z0.624 I-0.525 J1.325
X69.555 Y91.425 Z0.468 I0.525 J-1.325
X68.505 Y94.075 Z0.311 I-0.525 J1.325
X69.555 Y91.425 Z0.155 I0.525 J-1.325
X68.505 Y94.075 Z-0.001 I-0.525 J1.325
X69.555 Y91.425 Z-0.158 I0.525 J-1.325
X68.505 Y94.075 Z-0.314 I-0.525 J1.325
X69.555 Y91.425 Z-0.47 I0.525 J-1.325
X68.505 Y94.075 Z-0.627 I-0.525 J1.325
X69.555 Y91.425 Z-0.783 I0.525 J-1.325
X68.505 Y94.075 Z-0.939 I-0.525 J1.325
X69.555 Y91.425 Z-1.096 I0.525 J-1.325
X68.505 Y94.075 Z-1.252 I-0.525 J1.325
X69.555 Y91.425 Z-1.408 I0.525 J-1.325
X68.505 Y94.075 Z-1.565 I-0.525 J1.325
X69.555 Y91.425 Z-1.721 I0.525 J-1.325
X68.505 Y94.075 Z-1.877 I-0.525 J1.325
X69.555 Y91.425 Z-2.034 I0.525 J-1.325
X68.505 Y94.075 Z-2.19 I-0.525 J1.325
X69.555 Y91.425 Z-2.346 I0.525 J-1.325
X68.505 Y94.075 Z-2.503 I-0.525 J1.325
X69.555 Y91.425 Z-2.659 I0.525 J-1.325
X68.505 Y94.075 Z-2.815 I-0.525 J1.325
X69.555 Y91.425 Z-2.972 I0.525 J-1.325
X68.505 Y94.075 Z-3.128 I-0.525 J1.325
X69.555 Y91.425 Z-3.284 I0.525 J-1.325
X68.505 Y94.075 Z-3.441 I-0.525 J1.325
X67.605 Y92.75 Z-3.5 I0.525 J-1.325
G1 Y91.924 F1000
G3 X67.924 Y91.605 I0.319 J0
G1 X364.076
G3 X364.395 Y91.924 I0 J0.319
G1 Y93.576
G3 X364.076 Y93.895 I-0.319 J0
G1 X67.924
G3 X67.605 Y93.576 I0 J-0.319
G1 Y92.75
G2 X66.724 Y91.448 I-1.402 J0
G3 X67.022 Y89.905 I0.298 J-0.743
G1 X365.776
G3 X366.095 Y90.224 I0 J0.319
G1 Y95.276
G3 X365.776 Y95.595 I-0.319 J0
G1 X66.224
G3 X65.905 Y95.276 I0 J-0.319
G1 Y90.224
G3 X66.224 Y89.905 I0.319 J0
G1 X67.022
G2 X68.297 Y89.055 I0 J-1.381
G3 X69.572 Y88.205 I1.275 J0.531
G1 X367.476
G3 X367.795 Y88.524 I0 J0.319
G1 Y96.976
G3 X367.476 Y97.295 I-0.319 J0
G1 X64.524
G3 X64.205 Y96.976 I0 J-0.319
G1 Y88.524
G3 X64.524 Y88.205 I0.319 J0
G1 X69.572
G2 X70.851 Y87.353 I0 J-1.385
G3 X72.13 Y86.5 I1.279 J0.533
G1 X369.5
Y99
X62.5
Y86.5
X72.13
G3 X72.268 Y86.709 I0 J0.15
G1 X70.712 Y90.361
X68.723 Y94.019
X68.698 Y94.053
X68.664 Y94.079
X68.624 Y94.094
X68.581 Y94.097
X68.54 Y94.088
G3 X69.52 Y91.412 Z-3.656 I0.49 J-1.338 F333.3
X68.54 Y94.088 Z-3.813 I-0.49 J1.338
X69.52 Y91.412 Z-3.969 I0.49 J-1.338
X68.54 Y94.088 Z-4.125 I-0.49 J1.338
X69.52 Y91.412 Z-4.282 I0.49 J-1.338
X68.54 Y94.088 Z-4.438 I-0.49 J1.338
X69.52 Y91.412 Z-4.594 I0.49 J-1.338
X68.54 Y94.088 Z-4.751 I-0.49 J1.338
X69.52 Y91.412 Z-4.907 I0.49 J-1.338
X68.54 Y94.088 Z-5.063 I-0.49 J1.338
X69.52 Y91.412 Z-5.22 I0.49 J-1.338
X68.54 Y94.088 Z-5.376 I-0.49 J1.338
X69.52 Y91.412 Z-5.532 I0.49 J-1.338
X68.54 Y94.088 Z-5.689 I-0.49 J1.338
X69.52 Y91.412 Z-5.845 I0.49 J-1.338
X68.54 Y94.088 Z-6.001 I-0.49 J1.338
X69.52 Y91.412 Z-6.158 I0.49 J-1.338
X68.54 Y94.088 Z-6.314 I-0.49 J1.338
X69.52 Y91.412 Z-6.47 I0.49 J-1.338
X68.54 Y94.088 Z-6.627 I-0.49 J1.338
X69.52 Y91.412 Z-6.783 I0.49 J-1.338
X68.54 Y94.088 Z-6.939 I-0.49 J1.338
X67.605 Y92.75 Z-7 I0.49 J-1.338
G1 Y91.924 F1000
G3 X67.924 Y91.605 I0.319 J0
G1 X364.076
G3 X364.395 Y91.924 I0 J0.319
G1 Y93.576
G3 X364.076 Y93.895 I-0.319 J0
G1 X67.924
G3 X67.605 Y93.576 I0 J-0.319
G1 Y92.75
G2 X66.724 Y91.448 I-1.402 J0
G3 X67.022 Y89.905 I0.298 J-0.743
G1 X365.776
G3 X366.095 Y90.224 I0 J0.319
G1 Y95.276
G3 X365.776 Y95.595 I-0.319 J0
G1 X66.224
G3 X65.905 Y95.276 I0 J-0.319
G1 Y90.224
G3 X66.224 Y89.905 I0.319 J0
G1 X67.022
G2 X68.297 Y89.055 I0 J-1.381
G3 X69.572 Y88.205 I1.275 J0.531
G1 X367.476
G3 X367.795 Y88.524 I0 J0.319
G1 Y96.976
G3 X367.476 Y97.295 I-0.319 J0
G1 X64.524
G3 X64.205 Y96.976 I0 J-0.319
G1 Y88.524
G3 X64.524 Y88.205 I0.319 J0
G1 X69.572
G2 X70.851 Y87.353 I0 J-1.385
G3 X72.13 Y86.5 I1.279 J0.533
G1 X369.5
Y99
X62.5
Y86.5
X72.13
X72.187 Y86.505 Z-6.989
X72.242 Y86.522 Z-6.977
X72.285 Y86.543 Z-6.945
X72.324 Y86.572 Z-6.912
X72.369 Y86.619 Z-6.815
X72.382 Y86.638 Z-6.7
G0 Z15
X-5.407 Y159.306
Z5
G1 Z-4.45 F333.3
G18 G2 X-5.107 Z-4.75 I0.3 K0 F1000
G1 X-0.4
X103.375
G17 G3 X103.694 Y159.625 I0 J0.319
G1 Y161.375
G3 X103.375 Y161.694 I-0.319 J0
G1 X-0.391
G3 X-0.591 Y161.495 I0 J-0.2
G1 X-0.6 Y157.807
G3 X-0.4 Y157.606 I0.2 J-0.001
G1 X105.075
G3 X105.394 Y157.925 I0 J0.319
G1 Y163.075
G3 X105.075 Y163.394 I-0.319 J0
G1 X-0.39
G3 X-0.59 Y163.194 I0 J-0.2
G1 X-0.583 Y156.106
G3 X-0.383 Y155.906 I0.2 J0
G1 X106.775
G3 X107.094 Y156.225 I0 J0.319
G1 Y164.775
G3 X106.775 Y165.094 I-0.319 J0
G1 X-0.39
G3 X-0.59 Y164.894 I0 J-0.2
G1 Y154.406
G3 X-0.39 Y154.206 I0.2 J0
G1 X108.481
G3 X108.794 Y154.519 I0 J0.313
G1 Y166.481
G3 X108.481 Y166.794 I-0.313 J0
G1 X-0.383
X-1.883
G18 G3 X-2.183 Z-4.45 I0 K0.3
G1 Z5
X-0.698 Y152.548
Z-4.45
X-0.69 Y152.547 Z-4.517
X-0.668 Y152.543 Z-4.58
X-0.633 Y152.538 Z-4.637
X-0.586 Y152.53 Z-4.685
X-0.53 Y152.521 Z-4.72
X-0.467 Y152.511 Z-4.742
X-0.401 Y152.501 Z-4.75
X-0.39 Y152.5
X109
G17 G2 X110.5 Y151 I0 J-1.5
G3 X113.5 Y151 I1.5 J0
X112 Y152.5 I-1.5 J0
G2 X110.5 Y154 I0 J1.5
G1 Y167
G2 X112 Y168.5 I1.5 J0
G3 X112 Y171.5 I0 J1.5
X110.5 Y170 I0 J-1.5
G1 X110.497 Y169.91
X110.489 Y169.82
G3 X110.993 Y169.701 I0.266 J0
G2 X111.508 Y169.662 I0.25 J-0.125
G3 X111.757 Y169.498 I0.226 J0.072
X112.3 Y169.731 I-0.094 J0.968
X112.321 Y170.321 I-0.264 J0.305
X111.731 Y170.3 I-0.285 J-0.285
X111.498 Y169.757 I0.736 J-0.637
G1 Y169.709
X111.508 Y169.662
X111.532 Y169.61 Z-4.739
X111.568 Y169.565 Z-4.727
X111.606 Y169.535 Z-4.695
X111.649 Y169.513 Z-4.662
X111.681 Y169.503 Z-4.613
X111.713 Y169.498 Z-4.565
X111.735 Y169.497 Z-4.45
G0 Z5
X-0.698 Y152.548
G1 Z-4.45 F1000
X-0.69 Y152.547 Z-4.517
X-0.668 Y152.543 Z-4.58
X-0.633 Y152.538 Z-4.637
X-0.586 Y152.53 Z-4.685
X-0.53 Y152.521 Z-4.72
X-0.467 Y152.511 Z-4.742
X-0.401 Y152.501 Z-4.75
X-0.39 Y152.5
X109
G2 X110.491 Y151.16 I0 J-1.5
X111.116 Y151.042 I0 J-1.705
X111.642 Y150.685 I-0.532 J-1.352
G1 X111.693 Y150.639
X111.75 Y150.601
X111.812 Y150.571
G3 X112.321 Y150.679 I0.171 J0.445
X112.3 Y151.269 I-0.285 J0.285
X111.757 Y151.502 I-0.637 J-0.736
X111.498 Y151.243 I-0.023 J-0.236
G1 X111.511 Y151.122
X111.518 Y151
G3 X111.642 Y150.685 I0.459 J0
G1 X111.684 Y150.646 Z-4.739
X111.733 Y150.615 Z-4.727
X111.778 Y150.597 Z-4.695
X111.825 Y150.586 Z-4.662
X111.89 Y150.584 Z-4.565
X111.913 Y150.587 Z-4.45
G0 Z5
X-5.401 Y153.29
G1 Z-4.48 F333.3
X-5.394 Y153.289 Z-4.54 F1000
X-5.374 Y153.286 Z-4.597
X-5.342 Y153.281 Z-4.648
X-5.3 Y153.274 Z-4.691
X-5.25 Y153.266 Z-4.723
X-5.193 Y153.257 Z-4.743
X-5.134 Y153.248 Z-4.75
X-0.437 Y152.504
X-0.39 Y152.5
X109
G2 X110.5 Y151 I0 J-1.5
G3 X113.5 Y151 I1.5 J0
X112 Y152.5 I-1.5 J0
G2 X110.5 Y154 I0 J1.5
G1 Y167
G2 X112 Y168.5 I1.5 J0
G3 X112 Y171.5 I0 J1.5
X110.5 Y170 I0 J-1.5
G2 X109 Y168.5 I-1.5 J0
G1 X1
X-0.397
G3 X-0.596 Y168.314 I0 J-0.2
G1 X-1.211 Y159.52
G3 X-1.011 Y159.306 I0.2 J-0.014
G18 G3 X-0.711 Z-5.05 I0 K-0.3
G1 Z-9.2
G2 X-0.411 Z-9.5 I0.3 K0
G1 X-0.4
X103.375
G17 G3 X103.694 Y159.625 I0 J0.319
G1 Y161.375
G3 X103.375 Y161.694 I-0.319 J0
G1 X-0.391
G3 X-0.591 Y161.495 I0 J-0.2
G1 X-0.6 Y157.807
G3 X-0.4 Y157.606 I0.2 J-0.001
G1 X105.075
G3 X105.394 Y157.925 I0 J0.319
G1 Y163.075
G3 X105.075 Y163.394 I-0.319 J0
G1 X-0.39
G3 X-0.59 Y163.194 I0 J-0.2
G1 X-0.583 Y156.106
G3 X-0.383 Y155.906 I0.2 J0
G1 X106.775
G3 X107.094 Y156.225 I0 J0.319
G1 Y164.775
G3 X106.775 Y165.094 I-0.319 J0
G1 X-0.39
G3 X-0.59 Y164.894 I0 J-0.2
G1 Y154.406
G3 X-0.39 Y154.206 I0.2 J0
G1 X108.481
G3 X108.794 Y154.519 I0 J0.313
G1 Y166.481
G3 X108.481 Y166.794 I-0.313 J0
G1 X-0.383
X-1.883
G18 G3 X-2.183 Z-9.2 I0 K0.3
G1 Z0.25
X-0.698 Y152.548
Z-9.2
X-0.69 Y152.547 Z-9.267
X-0.668 Y152.543 Z-9.33
X-0.633 Y152.538 Z-9.387
X-0.586 Y152.53 Z-9.435
X-0.53 Y152.521 Z-9.47
X-0.467 Y152.511 Z-9.492
X-0.401 Y152.501 Z-9.5
X-0.39 Y152.5
X109
G17 G2 X110.5 Y151 I0 J-1.5
G3 X113.5 Y151 I1.5 J0
X112 Y152.5 I-1.5 J0
G2 X110.5 Y154 I0 J1.5
G1 Y167
G2 X112 Y168.5 I1.5 J0
G3 X112 Y171.5 I0 J1.5
X110.5 Y170 I0 J-1.5
G1 X110.497 Y169.91
X110.489 Y169.82
G3 X110.993 Y169.701 I0.266 J0
G2 X111.508 Y169.662 I0.25 J-0.125
G3 X111.757 Y169.498 I0.226 J0.072
X112.3 Y169.731 I-0.094 J0.968
X112.321 Y170.321 I-0.264 J0.305
X111.731 Y170.3 I-0.285 J-0.285
X111.498 Y169.757 I0.736 J-0.637
G1 Y169.709
X111.508 Y169.662
X111.532 Y169.61 Z-9.489
X111.568 Y169.565 Z-9.477
X111.606 Y169.535 Z-9.445
X111.649 Y169.513 Z-9.412
X111.681 Y169.503 Z-9.363
X111.713 Y169.498 Z-9.315
X111.735 Y169.497 Z-9.2
G0 Z5
X-0.698 Y152.548
G1 Z0.25 F333.3
Z-9.2 F1000
X-0.69 Y152.547 Z-9.267
X-0.668 Y152.543 Z-9.33
X-0.633 Y152.538 Z-9.387
X-0.586 Y152.53 Z-9.435
X-0.53 Y152.521 Z-9.47
X-0.467 Y152.511 Z-9.492
X-0.401 Y152.501 Z-9.5
X-0.39 Y152.5
X109
G2 X110.491 Y151.16 I0 J-1.5
X111.116 Y151.042 I0 J-1.705
X111.642 Y150.685 I-0.532 J-1.352
G1 X111.693 Y150.639
X111.75 Y150.601
X111.812 Y150.571
G3 X112.321 Y150.679 I0.171 J0.445
X112.3 Y151.269 I-0.285 J0.285
X111.757 Y151.502 I-0.637 J-0.736
X111.498 Y151.243 I-0.023 J-0.236
G1 X111.511 Y151.122
X111.518 Y151
G3 X111.642 Y150.685 I0.459 J0
G1 X111.684 Y150.646 Z-9.489
X111.733 Y150.615 Z-9.477
X111.778 Y150.597 Z-9.445
X111.825 Y150.586 Z-9.412
X111.89 Y150.584 Z-9.315
X111.913 Y150.587 Z-9.2
G0 Z5
X-5.401 Y153.29
G1 Z-9.23 F333.3
X-5.394 Y153.289 Z-9.29 F1000
X-5.374 Y153.286 Z-9.347
X-5.342 Y153.281 Z-9.398
X-5.3 Y153.274 Z-9.441
X-5.25 Y153.266 Z-9.473
X-5.193 Y153.257 Z-9.493
X-5.134 Y153.248 Z-9.5
X-0.437 Y152.504
X-0.39 Y152.5
X109
G2 X110.5 Y151 I0 J-1.5
G3 X113.5 Y151 I1.5 J0
X112 Y152.5 I-1.5 J0
G2 X110.5 Y154 I0 J1.5
G1 Y167
G2 X112 Y168.5 I1.5 J0
G3 X112 Y171.5 I0 J1.5
X110.5 Y170 I0 J-1.5
G2 X109 Y168.5 I-1.5 J0
G1 X1
X-0.397
X-0.444 Y168.496
X-1.925 Y168.262
X-1.991 Y168.251 Z-9.492
X-2.054 Y168.241 Z-9.47
X-2.11 Y168.232 Z-9.435
X-2.157 Y168.225 Z-9.387
X-2.192 Y168.219 Z-9.33
X-2.214 Y168.216 Z-9.267
X-2.222 Y168.215 Z-9.2
G0 Z15
X-5.407 Y440.306
Z5
G1 Z-4.45 F333.3
G18 G2 X-5.107 Z-4.75 I0.3 K0 F1000
G1 X-0.4
X103.375
G17 G3 X103.694 Y440.625 I0 J0.319
G1 Y442.375
G3 X103.375 Y442.694 I-0.319 J0
G1 X-0.391
G3 X-0.591 Y442.495 I0 J-0.2
G1 X-0.6 Y438.806
G3 X-0.4 Y438.606 I0.2 J0
G1 X105.075
G3 X105.394 Y438.925 I0 J0.319
G1 Y444.075
G3 X105.075 Y444.394 I-0.319 J0
G1 X-0.39
G3 X-0.59 Y444.194 I0 J-0.2
G1 X-0.583 Y437.106
G3 X-0.383 Y436.906 I0.2 J0
G1 X106.775
G3 X107.094 Y437.225 I0 J0.319
G1 Y445.775
G3 X106.775 Y446.094 I-0.319 J0
G1 X-0.39
G3 X-0.59 Y445.894 I0 J-0.2
G1 Y435.406
G3 X-0.39 Y435.206 I0.2 J0
G1 X108.481
G3 X108.794 Y435.519 I0 J0.313
G1 Y447.481
G3 X108.481 Y447.794 I-0.313 J0
G1 X-0.383
X-1.883
G18 G3 X-2.183 Z-4.45 I0 K0.3
G1 Z5
X-0.698 Y433.548
Z-4.45
X-0.69 Y433.547 Z-4.517
X-0.668 Y433.543 Z-4.58
X-0.633 Y433.538 Z-4.637
X-0.586 Y433.53 Z-4.685
X-0.53 Y433.521 Z-4.72
X-0.467 Y433.511 Z-4.742
X-0.401 Y433.501 Z-4.75
X-0.39 Y433.5
X109
G17 G2 X110.5 Y432 I0 J-1.5
G3 X113.5 Y432 I1.5 J0
X112 Y433.5 I-1.5 J0
G2 X110.5 Y435 I0 J1.5
G1 Y448
G2 X112 Y449.5 I1.5 J0
G3 X112 Y452.5 I0 J1.5
X110.5 Y451 I0 J-1.5
G1 X110.497 Y450.91
X110.489 Y450.82
G3 X110.993 Y450.701 I0.266 J0
G2 X111.508 Y450.662 I0.25 J-0.125
G3 X111.757 Y450.498 I0.226 J0.072
X112.3 Y450.731 I-0.094 J0.968
X112.321 Y451.321 I-0.264 J0.305
X111.731 Y451.3 I-0.285 J-0.285
X111.498 Y450.757 I0.736 J-0.637
G1 Y450.709
X111.508 Y450.662
X111.532 Y450.61 Z-4.739
X111.568 Y450.565 Z-4.727
X111.606 Y450.535 Z-4.695
X111.649 Y450.513 Z-4.662
X111.681 Y450.503 Z-4.613
X111.713 Y450.498 Z-4.565
X111.735 Y450.497 Z-4.45
G0 Z5
X-0.698 Y433.548
G1 Z-4.45 F1000
X-0.69 Y433.547 Z-4.517
X-0.668 Y433.543 Z-4.58
X-0.633 Y433.538 Z-4.637
X-0.586 Y433.53 Z-4.685
X-0.53 Y433.521 Z-4.72
X-0.467 Y433.511 Z-4.742
X-0.401 Y433.501 Z-4.75
X-0.39 Y433.5
X109
G2 X110.491 Y432.16 I0 J-1.5
X111.159 Y432.069 I0 J-2.475
X111.726 Y431.706 I-0.312 J-1.112
G1 X111.731 Y431.7
G3 X112.321 Y431.679 I0.305 J0.264
X112.3 Y432.269 I-0.285 J0.285
X111.757 Y432.502 I-0.637 J-0.736
X111.498 Y432.243 I-0.023 J-0.236
X111.726 Y431.706 I0.968 J0.094
G1 X111.772 Y431.671 Z-4.739
X111.823 Y431.645 Z-4.727
X111.87 Y431.632 Z-4.695
X111.918 Y431.626 Z-4.662
X111.983 Y431.63 Z-4.565
X112.005 Y431.635 Z-4.45
G0 Z5
X-5.401 Y434.29
G1 Z-4.48 F333.3
X-5.394 Y434.289 Z-4.54 F1000
X-5.374 Y434.286 Z-4.597
X-5.342 Y434.281 Z-4.648
X-5.3 Y434.274 Z-4.691
X-5.25 Y434.266 Z-4.723
X-5.193 Y434.257 Z-4.743
X-5.134 Y434.248 Z-4.75
X-0.437 Y433.504
X-0.39 Y433.5
X109
G2 X110.5 Y432 I0 J-1.5
G3 X113.5 Y432 I1.5 J0
X112 Y433.5 I-1.5 J0
G2 X110.5 Y435 I0 J1.5
G1 Y448
G2 X112 Y449.5 I1.5 J0
G3 X112 Y452.5 I0 J1.5
X110.5 Y451 I0 J-1.5
G2 X109 Y449.5 I-1.5 J0
G1 X1
X-0.397
G3 X-0.596 Y449.314 I0 J-0.2
G1 X-1.211 Y440.52
G3 X-1.011 Y440.306 I0.2 J-0.014
G18 G3 X-0.711 Z-5.05 I0 K-0.3
G1 Z-9.2
G2 X-0.411 Z-9.5 I0.3 K0
G1 X-0.4
X103.375
G17 G3 X103.694 Y440.625 I0 J0.319
G1 Y442.375
G3 X103.375 Y442.694 I-0.319 J0
G1 X-0.391
G3 X-0.591 Y442.495 I0 J-0.2
G1 X-0.6 Y438.806
G3 X-0.4 Y438.606 I0.2 J0
G1 X105.075
G3 X105.394 Y438.925 I0 J0.319
G1 Y444.075
G3 X105.075 Y444.394 I-0.319 J0
G1 X-0.39
G3 X-0.59 Y444.194 I0 J-0.2
G1 X-0.583 Y437.106
G3 X-0.383 Y436.906 I0.2 J0
G1 X106.775
G3 X107.094 Y437.225 I0 J0.319
G1 Y445.775
G3 X106.775 Y446.094 I-0.319 J0
G1 X-0.39
G3 X-0.59 Y445.894 I0 J-0.2
G1 Y435.406
G3 X-0.39 Y435.206 I0.2 J0
G1 X108.481
G3 X108.794 Y435.519 I0 J0.313
G1 Y447.481
G3 X108.481 Y447.794 I-0.313 J0
G1 X-0.383
X-1.883
G18 G3 X-2.183 Z-9.2 I0 K0.3
G1 Z0.25
X-0.698 Y433.548
Z-9.2
X-0.69 Y433.547 Z-9.267
X-0.668 Y433.543 Z-9.33
X-0.633 Y433.538 Z-9.387
X-0.586 Y433.53 Z-9.435
X-0.53 Y433.521 Z-9.47
X-0.467 Y433.511 Z-9.492
X-0.401 Y433.501 Z-9.5
X-0.39 Y433.5
X109
G17 G2 X110.5 Y432 I0 J-1.5
G3 X113.5 Y432 I1.5 J0
X112 Y433.5 I-1.5 J0
G2 X110.5 Y435 I0 J1.5
G1 Y448
G2 X112 Y449.5 I1.5 J0
G3 X112 Y452.5 I0 J1.5
X110.5 Y451 I0 J-1.5
G1 X110.497 Y450.91
X110.489 Y450.82
G3 X110.993 Y450.701 I0.266 J0
G2 X111.508 Y450.662 I0.25 J-0.125
G3 X111.757 Y450.498 I0.226 J0.072
X112.3 Y450.731 I-0.094 J0.968
X112.321 Y451.321 I-0.264 J0.305
X111.731 Y451.3 I-0.285 J-0.285
X111.498 Y450.757 I0.736 J-0.637
G1 Y450.709
X111.508 Y450.662
X111.532 Y450.61 Z-9.489
X111.568 Y450.565 Z-9.477
X111.606 Y450.535 Z-9.445
X111.649 Y450.513 Z-9.412
X111.681 Y450.503 Z-9.363
X111.713 Y450.498 Z-9.315
X111.735 Y450.497 Z-9.2
G0 Z5
X-0.698 Y433.548
G1 Z0.25 F333.3
Z-9.2 F1000
X-0.69 Y433.547 Z-9.267
X-0.668 Y433.543 Z-9.33
X-0.633 Y433.538 Z-9.387
X-0.586 Y433.53 Z-9.435
X-0.53 Y433.521 Z-9.47
X-0.467 Y433.511 Z-9.492
X-0.401 Y433.501 Z-9.5
X-0.39 Y433.5
X109
G2 X110.491 Y432.16 I0 J-1.5
X111.159 Y432.069 I0 J-2.475
X111.726 Y431.706 I-0.312 J-1.112
G1 X111.731 Y431.7
G3 X112.321 Y431.679 I0.305 J0.264
X112.3 Y432.269 I-0.285 J0.285
X111.757 Y432.502 I-0.637 J-0.736
X111.498 Y432.243 I-0.023 J-0.236
X111.726 Y431.706 I0.968 J0.094
G1 X111.772 Y431.671 Z-9.489
X111.823 Y431.645 Z-9.477
X111.87 Y431.632 Z-9.445
X111.918 Y431.626 Z-9.412
X111.983 Y431.63 Z-9.315
X112.005 Y431.635 Z-9.2
G0 Z5
X-5.401 Y434.29
G1 Z-9.23 F333.3
X-5.394 Y434.289 Z-9.29 F1000
X-5.374 Y434.286 Z-9.347
X-5.342 Y434.281 Z-9.398
X-5.3 Y434.274 Z-9.441
X-5.25 Y434.266 Z-9.473
X-5.193 Y434.257 Z-9.493
X-5.134 Y434.248 Z-9.5
X-0.437 Y433.504
X-0.39 Y433.5
X109
G2 X110.5 Y432 I0 J-1.5
G3 X113.5 Y432 I1.5 J0
X112 Y433.5 I-1.5 J0
G2 X110.5 Y435 I0 J1.5
G1 Y448
G2 X112 Y449.5 I1.5 J0
G3 X112 Y452.5 I0 J1.5
X110.5 Y451 I0 J-1.5
G2 X109 Y449.5 I-1.5 J0
G1 X1
X-0.397
X-0.444 Y449.496
X-1.925 Y449.262
X-1.991 Y449.251 Z-9.492
X-2.054 Y449.241 Z-9.47
X-2.11 Y449.232 Z-9.435
X-2.157 Y449.225 Z-9.387
X-2.192 Y449.219 Z-9.33
X-2.214 Y449.216 Z-9.267
X-2.222 Y449.215 Z-9.2
G0 Z15

(2D Contour12)
X235.7 Y254.65
Z15
Z5
G1 Z-6.2 F333.3
G19 G2 Y254.35 Z-6.5 J-0.3 K0 F1000
G1 Y254.05
G17 G3 X236 Y253.75 I0.3 J0
G1 X386
G2 X387.5 Y252.25 I0 J-1.5
G1 Y41
G2 X346 Y-0.5 I-41.5 J0
G1 X41
G2 X-0.5 Y41 I0 J41.5
G1 Y467.653
G2 X10.181 Y495.447 I41.5 J0
G1 X57.585 Y548.01
G2 X59.703 Y548.119 I1.114 J-1.005
G1 X171.096 Y447.662
G2 X171.205 Y445.543 I-1.005 J-1.114
G1 X163.028 Y436.476
G2 X152.332 Y427.974 I-30.819 J27.791
G3 X132.5 Y394.303 I18.667 J-33.671
G1 Y191
G3 X171 Y152.5 I38.5 J0
G1 X196
G3 X234.5 Y191 I0 J38.5
G1 Y252.25
G2 X236 Y253.75 I1.5 J0
G3 X236.3 Y254.05 I0 J0.3
G1 Y254.35
G19 G3 Y254.65 Z-6.2 J0 K0.3
G0 Z5
X235.7
G1 Z-1.5 F333.3
Z-12.7
G2 Y254.35 Z-13 J-0.3 K0 F1000
G1 Y254.05
G17 G3 X236 Y253.75 I0.3 J0
G1 X386
G2 X387.5 Y252.25 I0 J-1.5
G1 Y41
G2 X346 Y-0.5 I-41.5 J0
G1 X41
G2 X-0.5 Y41 I0 J41.5
G1 Y467.653
G2 X10.181 Y495.447 I41.5 J0
G1 X57.585 Y548.01
G2 X59.703 Y548.119 I1.114 J-1.005
G1 X171.096 Y447.662
G2 X171.205 Y445.543 I-1.005 J-1.114
G1 X163.028 Y436.476
G2 X152.332 Y427.974 I-30.819 J27.791
G3 X132.5 Y394.303 I18.667 J-33.671
G1 Y191
G3 X171 Y152.5 I38.5 J0
G1 X196
G3 X234.5 Y191 I0 J38.5
G1 Y252.25
G2 X236 Y253.75 I1.5 J0
G3 X236.3 Y254.05 I0 J0.3
G1 Y254.35
G19 G3 Y254.65 Z-12.7 J0 K0.3
G0 Z5
X235.7
G1 Z-8 F333.3
Z-18.7
G2 Y254.35 Z-19 J-0.3 K0 F1000
G1 Y254.05
G17 G3 X236 Y253.75 I0.3 J0
G1 X386
G2 X387.5 Y252.25 I0 J-1.5
G1 Y41
G2 X346 Y-0.5 I-41.5 J0
G1 X41
G2 X-0.5 Y41 I0 J41.5
G1 Y467.653
G2 X10.181 Y495.447 I41.5 J0
G1 X57.585 Y548.01
G2 X59.703 Y548.119 I1.114 J-1.005
G1 X171.096 Y447.662
G2 X171.205 Y445.543 I-1.005 J-1.114
G1 X163.028 Y436.476
G2 X152.332 Y427.974 I-30.819 J27.791
G3 X132.5 Y394.303 I18.667 J-33.671
G1 Y191
G3 X171 Y152.5 I38.5 J0
G1 X196
G3 X234.5 Y191 I0 J38.5
G1 Y252.25
G2 X236 Y253.75 I1.5 J0
G3 X236.3 Y254.05 I0 J0.3
G1 Y254.35
G19 G3 Y254.65 Z-18.7 J0 K0.3
G0 Z15
G17
M9
M5
M30
