(TinyCNCRaspberryFront)
(T3  D=3 CR=0 - ZMIN=-19 - flat end mill)
G90 G94
G17
G21

(2D Pocket13)
T3
S5000 M3
G54
M8
G0 X111.595 Y93.431
Z15
Z5
G1 Z-2.867 F333.3
G19 G3 Y93.731 Z-3.167 J0.3 K0 F1000
G1 Y98.439
Y99.776
G17 G3 X111.276 Y100.095 I-0.319 J0
G1 X88.724
G3 X88.405 Y99.776 I0 J-0.319
G1 Y98.429
G3 X88.605 Y98.229 I0.2 J0
G1 X113.095 Y98.238
G3 X113.295 Y98.438 I0 J0.2
G1 Y101.476
G3 X112.976 Y101.795 I-0.319 J0
G1 X87.024
G3 X86.705 Y101.476 I0 J-0.319
G1 Y98.43
G3 X86.905 Y98.23 I0.2 J0
G1 X114.795 Y98.238
G3 X114.995 Y98.438 I0 J0.2
G1 Y103.176
G3 X114.676 Y103.495 I-0.319 J0
G1 X85.324
G3 X85.005 Y103.176 I0 J-0.319
G1 Y98.43
G3 X85.205 Y98.23 I0.2 J0
G1 X116.495 Y98.238
G3 X116.695 Y98.438 I0 J0.2
G1 Y104.876
G3 X116.376 Y105.195 I-0.319 J0
G1 X83.624
G3 X83.305 Y104.876 I0 J-0.319
G1 Y98.43
G3 X83.505 Y98.23 I0.2 J0
G1 X118.195 Y98.237
G3 X118.395 Y98.437 I0 J0.2
G1 Y106.576
G3 X118.076 Y106.895 I-0.319 J0
G1 X81.924
G3 X81.605 Y106.576 I0 J-0.319
G1 Y98.431
G3 X81.805 Y98.231 I0.2 J0
G1 X119.895 Y98.237
G3 X120.095 Y98.437 I0 J0.2
G1 Y108.276
G3 X119.776 Y108.595 I-0.319 J0
G1 X80.224
G3 X79.905 Y108.276 I0 J-0.319
G1 Y98.431
G3 X80.105 Y98.231 I0.2 J0
G1 X121.595 Y98.237
G3 X121.795 Y98.437 I0 J0.2
G1 Y109.976
G3 X121.476 Y110.295 I-0.319 J0
G1 X78.524
G3 X78.205 Y109.976 I0 J-0.319
G1 Y98.431
G3 X78.405 Y98.231 I0.2 J0
G1 X123.3 Y98.232
G3 X123.5 Y98.432 I0 J0.2
G1 Y112
X76.5
Y99.825
Y98.428
G3 X76.696 Y98.228 I0.2 J0
G1 X111.391 Y97.615
G3 X111.595 Y97.815 I0.004 J0.2
G19 G2 Y98.115 Z-3.467 J0 K-0.3
G1 Z-6.033
G3 Y98.415 Z-6.333 J0.3 K0
G1 Y98.439
Y99.776
G17 G3 X111.276 Y100.095 I-0.319 J0
G1 X88.724
G3 X88.405 Y99.776 I0 J-0.319
G1 Y98.429
G3 X88.605 Y98.229 I0.2 J0
G1 X113.095 Y98.238
G3 X113.295 Y98.438 I0 J0.2
G1 Y101.476
G3 X112.976 Y101.795 I-0.319 J0
G1 X87.024
G3 X86.705 Y101.476 I0 J-0.319
G1 Y98.43
G3 X86.905 Y98.23 I0.2 J0
G1 X114.795 Y98.238
G3 X114.995 Y98.438 I0 J0.2
G1 Y103.176
G3 X114.676 Y103.495 I-0.319 J0
G1 X85.324
G3 X85.005 Y103.176 I0 J-0.319
G1 Y98.43
G3 X85.205 Y98.23 I0.2 J0
G1 X116.495 Y98.238
G3 X116.695 Y98.438 I0 J0.2
G1 Y104.876
G3 X116.376 Y105.195 I-0.319 J0
G1 X83.624
G3 X83.305 Y104.876 I0 J-0.319
G1 Y98.43
G3 X83.505 Y98.23 I0.2 J0
G1 X118.195 Y98.237
G3 X118.395 Y98.437 I0 J0.2
G1 Y106.576
G3 X118.076 Y106.895 I-0.319 J0
G1 X81.924
G3 X81.605 Y106.576 I0 J-0.319
G1 Y98.431
G3 X81.805 Y98.231 I0.2 J0
G1 X119.895 Y98.237
G3 X120.095 Y98.437 I0 J0.2
G1 Y108.276
G3 X119.776 Y108.595 I-0.319 J0
G1 X80.224
G3 X79.905 Y108.276 I0 J-0.319
G1 Y98.431
G3 X80.105 Y98.231 I0.2 J0
G1 X121.595 Y98.237
G3 X121.795 Y98.437 I0 J0.2
G1 Y109.976
G3 X121.476 Y110.295 I-0.319 J0
G1 X78.524
G3 X78.205 Y109.976 I0 J-0.319
G1 Y98.431
G3 X78.405 Y98.231 I0.2 J0
G1 X123.3 Y98.232
G3 X123.5 Y98.432 I0 J0.2
G1 Y112
X76.5
Y99.825
Y98.428
G3 X76.696 Y98.228 I0.2 J0
G1 X111.391 Y97.615
G3 X111.595 Y97.815 I0.004 J0.2
G19 G2 Y98.115 Z-6.633 J0 K-0.3
G1 Z-9.2
G3 Y98.415 Z-9.5 J0.3 K0
G1 Y98.439
Y99.776
G17 G3 X111.276 Y100.095 I-0.319 J0
G1 X88.724
G3 X88.405 Y99.776 I0 J-0.319
G1 Y98.429
G3 X88.605 Y98.229 I0.2 J0
G1 X113.095 Y98.238
G3 X113.295 Y98.438 I0 J0.2
G1 Y101.476
G3 X112.976 Y101.795 I-0.319 J0
G1 X87.024
G3 X86.705 Y101.476 I0 J-0.319
G1 Y98.43
G3 X86.905 Y98.23 I0.2 J0
G1 X114.795 Y98.238
G3 X114.995 Y98.438 I0 J0.2
G1 Y103.176
G3 X114.676 Y103.495 I-0.319 J0
G1 X85.324
G3 X85.005 Y103.176 I0 J-0.319
G1 Y98.43
G3 X85.205 Y98.23 I0.2 J0
G1 X116.495 Y98.238
G3 X116.695 Y98.438 I0 J0.2
G1 Y104.876
G3 X116.376 Y105.195 I-0.319 J0
G1 X83.624
G3 X83.305 Y104.876 I0 J-0.319
G1 Y98.43
G3 X83.505 Y98.23 I0.2 J0
G1 X118.195 Y98.237
G3 X118.395 Y98.437 I0 J0.2
G1 Y106.576
G3 X118.076 Y106.895 I-0.319 J0
G1 X81.924
G3 X81.605 Y106.576 I0 J-0.319
G1 Y98.431
G3 X81.805 Y98.231 I0.2 J0
G1 X119.895 Y98.237
G3 X120.095 Y98.437 I0 J0.2
G1 Y108.276
G3 X119.776 Y108.595 I-0.319 J0
G1 X80.224
G3 X79.905 Y108.276 I0 J-0.319
G1 Y98.431
G3 X80.105 Y98.231 I0.2 J0
G1 X121.595 Y98.237
G3 X121.795 Y98.437 I0 J0.2
G1 Y109.976
G3 X121.476 Y110.295 I-0.319 J0
G1 X78.524
G3 X78.205 Y109.976 I0 J-0.319
G1 Y98.431
G3 X78.405 Y98.231 I0.2 J0
G1 X123.3 Y98.232
G3 X123.5 Y98.432 I0 J0.2
G1 Y112
X76.5
Y99.825
Y98.428
X76.504 Y98.381
X76.738 Y96.9
X76.749 Y96.834 Z-9.492
X76.759 Y96.771 Z-9.47
X76.768 Y96.715 Z-9.435
X76.775 Y96.668 Z-9.387
X76.781 Y96.633 Z-9.33
X76.784 Y96.611 Z-9.267
X76.785 Y96.603 Z-9.2
G0 Z15

(2D Pocket10)
X66.994 Y60.254
Z15
Z5
G1 Z2.8 F333.3
X67.022 Y60.227 Z2.653
X67.101 Y60.158 Z2.544
X67.219 Y60.073 Z2.5
G3 X68.772 Y62.463 Z2.344 I0.776 J1.195
X67.219 Y60.073 Z2.187 I-0.776 J-1.195
X68.772 Y62.463 Z2.031 I0.776 J1.195
X67.219 Y60.073 Z1.875 I-0.776 J-1.195
X68.772 Y62.463 Z1.718 I0.776 J1.195
X67.219 Y60.073 Z1.562 I-0.776 J-1.195
X68.772 Y62.463 Z1.406 I0.776 J1.195
X67.219 Y60.073 Z1.249 I-0.776 J-1.195
X68.772 Y62.463 Z1.093 I0.776 J1.195
X67.219 Y60.073 Z0.937 I-0.776 J-1.195
X68.772 Y62.463 Z0.78 I0.776 J1.195
X67.219 Y60.073 Z0.624 I-0.776 J-1.195
X68.772 Y62.463 Z0.468 I0.776 J1.195
X67.219 Y60.073 Z0.311 I-0.776 J-1.195
X68.772 Y62.463 Z0.155 I0.776 J1.195
X67.219 Y60.073 Z-0.001 I-0.776 J-1.195
X68.772 Y62.463 Z-0.158 I0.776 J1.195
X67.219 Y60.073 Z-0.314 I-0.776 J-1.195
X68.772 Y62.463 Z-0.47 I0.776 J1.195
X67.219 Y60.073 Z-0.627 I-0.776 J-1.195
X68.772 Y62.463 Z-0.783 I0.776 J1.195
X67.219 Y60.073 Z-0.939 I-0.776 J-1.195
X68.772 Y62.463 Z-1.096 I0.776 J1.195
X67.219 Y60.073 Z-1.252 I-0.776 J-1.195
X68.772 Y62.463 Z-1.408 I0.776 J1.195
X67.219 Y60.073 Z-1.565 I-0.776 J-1.195
X68.772 Y62.463 Z-1.721 I0.776 J1.195
X67.219 Y60.073 Z-1.877 I-0.776 J-1.195
X68.772 Y62.463 Z-2.034 I0.776 J1.195
X67.219 Y60.073 Z-2.19 I-0.776 J-1.195
X68.772 Y62.463 Z-2.346 I0.776 J1.195
X67.219 Y60.073 Z-2.503 I-0.776 J-1.195
X68.772 Y62.463 Z-2.659 I0.776 J1.195
X67.219 Y60.073 Z-2.815 I-0.776 J-1.195
X68.772 Y62.463 Z-2.972 I0.776 J1.195
X68.004 Y62.693 Z-3 I-0.776 J-1.195
G1 X67.624 Y62.695 F1000
G3 X67.305 Y62.376 I0 J-0.319
G1 Y61.624
G3 X67.624 Y61.305 I0.319 J0
G1 X132.376
G3 X132.695 Y61.624 I0 J0.319
G1 Y62.376
G3 X132.376 Y62.695 I-0.319 J0
G1 X75 Y62.65
X68.004 Y62.693
G2 X66.923 Y63.477 I0.007 J1.147
G3 X65.605 Y63.263 I-0.642 J-0.214
G1 Y59.924
G3 X65.924 Y59.605 I0.319 J0
G1 X134.076
G3 X134.395 Y59.924 I0 J0.319
G1 Y64.076
G3 X134.076 Y64.395 I-0.319 J0
G1 X65.924
G3 X65.605 Y64.076 I0 J-0.319
G1 Y63.263
G2 X64.755 Y61.988 I-1.381 J0
G3 X63.905 Y60.713 I0.531 J-1.275
G1 Y58.224
G3 X64.224 Y57.905 I0.319 J0
G1 X135.776
G3 X136.095 Y58.224 I0 J0.319
G1 Y65.776
G3 X135.776 Y66.095 I-0.319 J0
G1 X64.224
G3 X63.905 Y65.776 I0 J-0.319
G1 Y60.713
G2 X63.055 Y59.438 I-1.381 J0
G3 X62.205 Y58.163 I0.531 J-1.275
G1 Y56.524
G3 X62.524 Y56.205 I0.319 J0
G1 X137.476
G3 X137.795 Y56.524 I0 J0.319
G1 Y67.476
G3 X137.476 Y67.795 I-0.319 J0
G1 X62.524
G3 X62.205 Y67.476 I0 J-0.319
G1 Y58.163
G2 X61.355 Y56.888 I-1.381 J0
G3 X60.505 Y55.613 I0.531 J-1.275
G1 Y54.824
G3 X60.824 Y54.505 I0.319 J0
G1 X139.176
G3 X139.495 Y54.824 I0 J0.319
G1 Y69.176
G3 X139.176 Y69.495 I-0.319 J0
G1 X60.824
G3 X60.505 Y69.176 I0 J-0.319
G1 Y55.613
G2 X59.651 Y54.322 I-1.402 J0
G3 X59.959 Y52.805 I0.309 J-0.727
G1 X140.876
G3 X141.195 Y53.124 I0 J0.319
G1 Y70.876
G3 X140.876 Y71.195 I-0.319 J0
G1 X59.124
G3 X58.805 Y70.876 I0 J-0.319
G1 Y53.124
G3 X59.124 Y52.805 I0.319 J0
G1 X59.959
G2 X61.234 Y51.955 I0 J-1.381
G3 X62.509 Y51.105 I1.275 J0.531
G1 X142.576
G3 X142.895 Y51.424 I0 J0.319
G1 Y72.576
G3 X142.576 Y72.895 I-0.319 J0
G1 X57.424
G3 X57.105 Y72.576 I0 J-0.319
G1 Y51.424
G3 X57.424 Y51.105 I0.319 J0
G1 X62.509
G2 X63.784 Y50.255 I0 J-1.381
G3 X65.059 Y49.405 I1.275 J0.531
G1 X144.276
G3 X144.595 Y49.724 I0 J0.319
G1 Y74.276
G3 X144.276 Y74.595 I-0.319 J0
G1 X55.724
G3 X55.405 Y74.276 I0 J-0.319
G1 Y49.724
G3 X55.724 Y49.405 I0.319 J0
G1 X65.059
G2 X66.334 Y48.555 I0 J-1.381
G3 X67.609 Y47.705 I1.275 J0.531
G1 X145.976
G3 X146.295 Y48.024 I0 J0.319
G1 Y75.976
G3 X145.976 Y76.295 I-0.319 J0
G1 X54.024
G3 X53.705 Y75.976 I0 J-0.319
G1 Y48.024
G3 X54.024 Y47.705 I0.319 J0
G1 X67.609
G2 X68.884 Y46.855 I0 J-1.381
G3 X70.159 Y46.005 I1.275 J0.531
G1 X147.676
G3 X147.995 Y46.324 I0 J0.319
G1 Y77.676
G3 X147.676 Y77.995 I-0.319 J0
G1 X52.324
G3 X52.005 Y77.676 I0 J-0.319
G1 Y46.324
G3 X52.324 Y46.005 I0.319 J0
G1 X70.159
G2 X71.434 Y45.155 I0 J-1.381
G3 X72.709 Y44.305 I1.275 J0.531
G1 X149.376
G3 X149.695 Y44.624 I0 J0.319
G1 Y79.376
G3 X149.376 Y79.695 I-0.319 J0
G1 X50.624
G3 X50.305 Y79.376 I0 J-0.319
G1 Y44.624
G3 X50.624 Y44.305 I0.319 J0
G1 X72.709
G2 X73.984 Y43.455 I0 J-1.381
G3 X75.259 Y42.605 I1.275 J0.531
G1 X151.076
G3 X151.395 Y42.924 I0 J0.319
G1 Y81.076
G3 X151.076 Y81.395 I-0.319 J0
G1 X48.924
G3 X48.605 Y81.076 I0 J-0.319
G1 Y42.924
G3 X48.924 Y42.605 I0.319 J0
G1 X75.259
G2 X76.534 Y41.755 I0 J-1.381
G3 X77.809 Y40.905 I1.275 J0.531
G1 X152.776
G3 X153.095 Y41.224 I0 J0.319
G1 Y82.776
G3 X152.776 Y83.095 I-0.319 J0
G1 X47.224
G3 X46.905 Y82.776 I0 J-0.319
G1 Y41.224
G3 X47.224 Y40.905 I0.319 J0
G1 X77.809
G2 X79.084 Y40.055 I0 J-1.381
G3 X80.359 Y39.205 I1.275 J0.531
G1 X154.476
G3 X154.795 Y39.524 I0 J0.319
G1 Y84.476
G3 X154.476 Y84.795 I-0.319 J0
G1 X45.524
G3 X45.205 Y84.476 I0 J-0.319
G1 Y39.524
G3 X45.524 Y39.205 I0.319 J0
G1 X80.359
G2 X81.634 Y38.355 I0 J-1.381
G3 X82.909 Y37.505 I1.275 J0.531
G1 X156.176
G3 X156.495 Y37.824 I0 J0.319
G1 Y86.176
G3 X156.176 Y86.495 I-0.319 J0
G1 X43.824
G3 X43.505 Y86.176 I0 J-0.319
G1 Y37.824
G3 X43.824 Y37.505 I0.319 J0
G1 X82.909
G2 X84.184 Y36.655 I0 J-1.381
G3 X85.459 Y35.805 I1.275 J0.531
G1 X157.876
G3 X158.195 Y36.124 I0 J0.319
G1 Y87.876
G3 X157.876 Y88.195 I-0.319 J0
G1 X42.124
G3 X41.805 Y87.876 I0 J-0.319
G1 Y36.124
G3 X42.124 Y35.805 I0.319 J0
G1 X85.459
G2 X86.734 Y34.955 I0 J-1.381
G3 X88.009 Y34.105 I1.275 J0.531
G1 X159.576
G3 X159.895 Y34.424 I0 J0.319
G1 Y89.576
G3 X159.576 Y89.895 I-0.319 J0
G1 X40.424
G3 X40.105 Y89.576 I0 J-0.319
G1 Y34.424
G3 X40.424 Y34.105 I0.319 J0
G1 X88.009
G2 X89.284 Y33.255 I0 J-1.381
G3 X90.559 Y32.405 I1.275 J0.531
G1 X161.276
G3 X161.595 Y32.724 I0 J0.319
G1 Y91.276
G3 X161.276 Y91.595 I-0.319 J0
G1 X38.724
G3 X38.405 Y91.276 I0 J-0.319
G1 Y32.724
G3 X38.724 Y32.405 I0.319 J0
G1 X90.559
G2 X91.834 Y31.555 I0 J-1.381
G3 X93.109 Y30.705 I1.275 J0.531
G1 X162.976
G3 X163.295 Y31.024 I0 J0.319
G1 Y92.976
G3 X162.976 Y93.295 I-0.319 J0
G1 X37.024
G3 X36.705 Y92.976 I0 J-0.319
G1 Y31.024
G3 X37.024 Y30.705 I0.319 J0
G1 X93.109
G2 X94.384 Y29.855 I0 J-1.381
G3 X95.659 Y29.005 I1.275 J0.531
G1 X164.676
G3 X164.995 Y29.324 I0 J0.319
G1 Y94.676
G3 X164.676 Y94.995 I-0.319 J0
G1 X35.324
G3 X35.005 Y94.676 I0 J-0.319
G1 Y29.324
G3 X35.324 Y29.005 I0.319 J0
G1 X95.659
G2 X96.934 Y28.155 I0 J-1.381
G3 X98.209 Y27.305 I1.275 J0.531
G1 X166.376
G3 X166.695 Y27.624 I0 J0.319
G1 Y96.376
G3 X166.376 Y96.695 I-0.319 J0
G1 X33.624
G3 X33.305 Y96.376 I0 J-0.319
G1 Y27.624
G3 X33.624 Y27.305 I0.319 J0
G1 X98.209
G2 X99.484 Y26.455 I0 J-1.381
G3 X100.759 Y25.605 I1.275 J0.531
G1 X168.076
G3 X168.395 Y25.924 I0 J0.319
G1 Y98.076
G3 X168.076 Y98.395 I-0.319 J0
G1 X31.924
G3 X31.605 Y98.076 I0 J-0.319
G1 Y25.924
G3 X31.924 Y25.605 I0.319 J0
G1 X100.759
G2 X102.034 Y24.755 I0 J-1.381
G3 X103.309 Y23.905 I1.275 J0.531
G1 X169.776
G3 X170.095 Y24.224 I0 J0.319
G1 Y99.776
G3 X169.776 Y100.095 I-0.319 J0
G1 X30.224
G3 X29.905 Y99.776 I0 J-0.319
G1 Y24.224
G3 X30.224 Y23.905 I0.319 J0
G1 X103.309
G2 X104.584 Y23.055 I0 J-1.381
G3 X105.859 Y22.205 I1.275 J0.531
G1 X171.476
G3 X171.795 Y22.524 I0 J0.319
G1 Y101.476
G3 X171.476 Y101.795 I-0.319 J0
G1 X75 Y101.75
X28.524 Y101.795
G3 X28.205 Y101.476 I0 J-0.319
G1 Y22.524
G3 X28.524 Y22.205 I0.319 J0
G1 X105.859
G2 X107.134 Y21.355 I0 J-1.381
G3 X108.409 Y20.505 I1.275 J0.531
G1 X173.176
G3 X173.495 Y20.824 I0 J0.319
G1 Y103.176
G3 X173.176 Y103.495 I-0.319 J0
G1 X26.824
G3 X26.505 Y103.176 I0 J-0.319
G1 Y20.824
G3 X26.824 Y20.505 I0.319 J0
G1 X108.409
G2 X109.684 Y19.655 I0 J-1.381
G3 X110.959 Y18.805 I1.275 J0.531
G1 X174.876
G3 X175.195 Y19.124 I0 J0.319
G1 Y104.876
G3 X174.876 Y105.195 I-0.319 J0
G1 X25.124
G3 X24.805 Y104.876 I0 J-0.319
G1 Y19.124
G3 X25.124 Y18.805 I0.319 J0
G1 X110.959
G2 X112.234 Y17.955 I0 J-1.381
G3 X113.509 Y17.105 I1.275 J0.531
G1 X176.576
G3 X176.895 Y17.424 I0 J0.319
G1 Y106.576
G3 X176.576 Y106.895 I-0.319 J0
G1 X23.424
G3 X23.105 Y106.576 I0 J-0.319
G1 Y17.424
G3 X23.424 Y17.105 I0.319 J0
G1 X113.509
G2 X114.784 Y16.255 I0 J-1.381
G3 X116.059 Y15.405 I1.275 J0.531
G1 X178.276
G3 X178.595 Y15.724 I0 J0.319
G1 Y108.276
G3 X178.276 Y108.595 I-0.319 J0
G1 X21.724
G3 X21.405 Y108.276 I0 J-0.319
G1 Y15.724
G3 X21.724 Y15.405 I0.319 J0
G1 X116.059
G2 X117.334 Y14.555 I0 J-1.381
G3 X118.609 Y13.705 I1.275 J0.531
G1 X179.976
G3 X180.295 Y14.024 I0 J0.319
G1 Y109.976
G3 X179.976 Y110.295 I-0.319 J0
G1 X20.024
G3 X19.705 Y109.976 I0 J-0.319
G1 Y14.024
G3 X20.024 Y13.705 I0.319 J0
G1 X118.609
G2 X119.888 Y12.852 I0 J-1.385
G3 X121.167 Y12 I1.279 J0.533
G1 X182
Y112
X125
X18
Y12
X121.167
X121.224 Y12.005 Z-2.989
X121.279 Y12.022 Z-2.977
X121.322 Y12.043 Z-2.945
X121.362 Y12.072 Z-2.912
X121.406 Y12.119 Z-2.815
X121.419 Y12.138 Z-2.7
G0 Z5
X66.994 Y60.254
G1 Z0.075 F333.3
Z-0.2 F1000
X67.022 Y60.227 Z-0.347 F333.3
X67.101 Y60.158 Z-0.456
X67.219 Y60.073 Z-0.5
G3 X68.772 Y62.463 Z-0.656 I0.776 J1.195
X67.219 Y60.073 Z-0.813 I-0.776 J-1.195
X68.772 Y62.463 Z-0.969 I0.776 J1.195
X67.219 Y60.073 Z-1.125 I-0.776 J-1.195
X68.772 Y62.463 Z-1.282 I0.776 J1.195
X67.219 Y60.073 Z-1.438 I-0.776 J-1.195
X68.772 Y62.463 Z-1.594 I0.776 J1.195
X67.219 Y60.073 Z-1.751 I-0.776 J-1.195
X68.772 Y62.463 Z-1.907 I0.776 J1.195
X67.219 Y60.073 Z-2.063 I-0.776 J-1.195
X68.772 Y62.463 Z-2.22 I0.776 J1.195
X67.219 Y60.073 Z-2.376 I-0.776 J-1.195
X68.772 Y62.463 Z-2.532 I0.776 J1.195
X67.219 Y60.073 Z-2.689 I-0.776 J-1.195
X68.772 Y62.463 Z-2.845 I0.776 J1.195
X67.219 Y60.073 Z-3.001 I-0.776 J-1.195
X68.772 Y62.463 Z-3.158 I0.776 J1.195
X67.219 Y60.073 Z-3.314 I-0.776 J-1.195
X68.772 Y62.463 Z-3.47 I0.776 J1.195
X67.219 Y60.073 Z-3.627 I-0.776 J-1.195
X68.772 Y62.463 Z-3.783 I0.776 J1.195
X67.219 Y60.073 Z-3.939 I-0.776 J-1.195
X68.772 Y62.463 Z-4.096 I0.776 J1.195
X67.219 Y60.073 Z-4.252 I-0.776 J-1.195
X68.772 Y62.463 Z-4.408 I0.776 J1.195
X67.219 Y60.073 Z-4.565 I-0.776 J-1.195
X68.772 Y62.463 Z-4.721 I0.776 J1.195
X67.219 Y60.073 Z-4.877 I-0.776 J-1.195
X68.772 Y62.463 Z-5.034 I0.776 J1.195
X67.219 Y60.073 Z-5.19 I-0.776 J-1.195
X68.772 Y62.463 Z-5.346 I0.776 J1.195
X67.219 Y60.073 Z-5.503 I-0.776 J-1.195
X68.772 Y62.463 Z-5.659 I0.776 J1.195
X67.219 Y60.073 Z-5.815 I-0.776 J-1.195
X68.772 Y62.463 Z-5.972 I0.776 J1.195
X68.004 Y62.693 Z-6 I-0.776 J-1.195
G1 X67.624 Y62.695 F1000
G3 X67.305 Y62.376 I0 J-0.319
G1 Y61.624
G3 X67.624 Y61.305 I0.319 J0
G1 X132.376
G3 X132.695 Y61.624 I0 J0.319
G1 Y62.376
G3 X132.376 Y62.695 I-0.319 J0
G1 X75 Y62.65
X68.004 Y62.693
G2 X66.923 Y63.477 I0.007 J1.147
G3 X65.605 Y63.263 I-0.642 J-0.214
G1 Y59.924
G3 X65.924 Y59.605 I0.319 J0
G1 X134.076
G3 X134.395 Y59.924 I0 J0.319
G1 Y64.076
G3 X134.076 Y64.395 I-0.319 J0
G1 X65.924
G3 X65.605 Y64.076 I0 J-0.319
G1 Y63.263
G2 X64.755 Y61.988 I-1.381 J0
G3 X63.905 Y60.713 I0.531 J-1.275
G1 Y58.224
G3 X64.224 Y57.905 I0.319 J0
G1 X135.776
G3 X136.095 Y58.224 I0 J0.319
G1 Y65.776
G3 X135.776 Y66.095 I-0.319 J0
G1 X64.224
G3 X63.905 Y65.776 I0 J-0.319
G1 Y60.713
G2 X63.055 Y59.438 I-1.381 J0
G3 X62.205 Y58.163 I0.531 J-1.275
G1 Y56.524
G3 X62.524 Y56.205 I0.319 J0
G1 X137.476
G3 X137.795 Y56.524 I0 J0.319
G1 Y67.476
G3 X137.476 Y67.795 I-0.319 J0
G1 X62.524
G3 X62.205 Y67.476 I0 J-0.319
G1 Y58.163
G2 X61.355 Y56.888 I-1.381 J0
G3 X60.505 Y55.613 I0.531 J-1.275
G1 Y54.824
G3 X60.824 Y54.505 I0.319 J0
G1 X139.176
G3 X139.495 Y54.824 I0 J0.319
G1 Y69.176
G3 X139.176 Y69.495 I-0.319 J0
G1 X60.824
G3 X60.505 Y69.176 I0 J-0.319
G1 Y55.613
G2 X59.651 Y54.322 I-1.402 J0
G3 X59.959 Y52.805 I0.309 J-0.727
G1 X140.876
G3 X141.195 Y53.124 I0 J0.319
G1 Y70.876
G3 X140.876 Y71.195 I-0.319 J0
G1 X59.124
G3 X58.805 Y70.876 I0 J-0.319
G1 Y53.124
G3 X59.124 Y52.805 I0.319 J0
G1 X59.959
G2 X61.234 Y51.955 I0 J-1.381
G3 X62.509 Y51.105 I1.275 J0.531
G1 X142.576
G3 X142.895 Y51.424 I0 J0.319
G1 Y72.576
G3 X142.576 Y72.895 I-0.319 J0
G1 X57.424
G3 X57.105 Y72.576 I0 J-0.319
G1 Y51.424
G3 X57.424 Y51.105 I0.319 J0
G1 X62.509
G2 X63.784 Y50.255 I0 J-1.381
G3 X65.059 Y49.405 I1.275 J0.531
G1 X144.276
G3 X144.595 Y49.724 I0 J0.319
G1 Y74.276
G3 X144.276 Y74.595 I-0.319 J0
G1 X55.724
G3 X55.405 Y74.276 I0 J-0.319
G1 Y49.724
G3 X55.724 Y49.405 I0.319 J0
G1 X65.059
G2 X66.334 Y48.555 I0 J-1.381
G3 X67.609 Y47.705 I1.275 J0.531
G1 X145.976
G3 X146.295 Y48.024 I0 J0.319
G1 Y75.976
G3 X145.976 Y76.295 I-0.319 J0
G1 X54.024
G3 X53.705 Y75.976 I0 J-0.319
G1 Y48.024
G3 X54.024 Y47.705 I0.319 J0
G1 X67.609
G2 X68.884 Y46.855 I0 J-1.381
G3 X70.159 Y46.005 I1.275 J0.531
G1 X147.676
G3 X147.995 Y46.324 I0 J0.319
G1 Y77.676
G3 X147.676 Y77.995 I-0.319 J0
G1 X52.324
G3 X52.005 Y77.676 I0 J-0.319
G1 Y46.324
G3 X52.324 Y46.005 I0.319 J0
G1 X70.159
G2 X71.434 Y45.155 I0 J-1.381
G3 X72.709 Y44.305 I1.275 J0.531
G1 X149.376
G3 X149.695 Y44.624 I0 J0.319
G1 Y79.376
G3 X149.376 Y79.695 I-0.319 J0
G1 X50.624
G3 X50.305 Y79.376 I0 J-0.319
G1 Y44.624
G3 X50.624 Y44.305 I0.319 J0
G1 X72.709
G2 X73.984 Y43.455 I0 J-1.381
G3 X75.259 Y42.605 I1.275 J0.531
G1 X151.076
G3 X151.395 Y42.924 I0 J0.319
G1 Y81.076
G3 X151.076 Y81.395 I-0.319 J0
G1 X48.924
G3 X48.605 Y81.076 I0 J-0.319
G1 Y42.924
G3 X48.924 Y42.605 I0.319 J0
G1 X75.259
G2 X76.534 Y41.755 I0 J-1.381
G3 X77.809 Y40.905 I1.275 J0.531
G1 X152.776
G3 X153.095 Y41.224 I0 J0.319
G1 Y82.776
G3 X152.776 Y83.095 I-0.319 J0
G1 X47.224
G3 X46.905 Y82.776 I0 J-0.319
G1 Y41.224
G3 X47.224 Y40.905 I0.319 J0
G1 X77.809
G2 X79.084 Y40.055 I0 J-1.381
G3 X80.359 Y39.205 I1.275 J0.531
G1 X154.476
G3 X154.795 Y39.524 I0 J0.319
G1 Y84.476
G3 X154.476 Y84.795 I-0.319 J0
G1 X45.524
G3 X45.205 Y84.476 I0 J-0.319
G1 Y39.524
G3 X45.524 Y39.205 I0.319 J0
G1 X80.359
G2 X81.634 Y38.355 I0 J-1.381
G3 X82.909 Y37.505 I1.275 J0.531
G1 X156.176
G3 X156.495 Y37.824 I0 J0.319
G1 Y86.176
G3 X156.176 Y86.495 I-0.319 J0
G1 X43.824
G3 X43.505 Y86.176 I0 J-0.319
G1 Y37.824
G3 X43.824 Y37.505 I0.319 J0
G1 X82.909
G2 X84.184 Y36.655 I0 J-1.381
G3 X85.459 Y35.805 I1.275 J0.531
G1 X157.876
G3 X158.195 Y36.124 I0 J0.319
G1 Y87.876
G3 X157.876 Y88.195 I-0.319 J0
G1 X42.124
G3 X41.805 Y87.876 I0 J-0.319
G1 Y36.124
G3 X42.124 Y35.805 I0.319 J0
G1 X85.459
G2 X86.734 Y34.955 I0 J-1.381
G3 X88.009 Y34.105 I1.275 J0.531
G1 X159.576
G3 X159.895 Y34.424 I0 J0.319
G1 Y89.576
G3 X159.576 Y89.895 I-0.319 J0
G1 X40.424
G3 X40.105 Y89.576 I0 J-0.319
G1 Y34.424
G3 X40.424 Y34.105 I0.319 J0
G1 X88.009
G2 X89.284 Y33.255 I0 J-1.381
G3 X90.559 Y32.405 I1.275 J0.531
G1 X161.276
G3 X161.595 Y32.724 I0 J0.319
G1 Y91.276
G3 X161.276 Y91.595 I-0.319 J0
G1 X38.724
G3 X38.405 Y91.276 I0 J-0.319
G1 Y32.724
G3 X38.724 Y32.405 I0.319 J0
G1 X90.559
G2 X91.834 Y31.555 I0 J-1.381
G3 X93.109 Y30.705 I1.275 J0.531
G1 X162.976
G3 X163.295 Y31.024 I0 J0.319
G1 Y92.976
G3 X162.976 Y93.295 I-0.319 J0
G1 X37.024
G3 X36.705 Y92.976 I0 J-0.319
G1 Y31.024
G3 X37.024 Y30.705 I0.319 J0
G1 X93.109
G2 X94.384 Y29.855 I0 J-1.381
G3 X95.659 Y29.005 I1.275 J0.531
G1 X164.676
G3 X164.995 Y29.324 I0 J0.319
G1 Y94.676
G3 X164.676 Y94.995 I-0.319 J0
G1 X35.324
G3 X35.005 Y94.676 I0 J-0.319
G1 Y29.324
G3 X35.324 Y29.005 I0.319 J0
G1 X95.659
G2 X96.934 Y28.155 I0 J-1.381
G3 X98.209 Y27.305 I1.275 J0.531
G1 X166.376
G3 X166.695 Y27.624 I0 J0.319
G1 Y96.376
G3 X166.376 Y96.695 I-0.319 J0
G1 X33.624
G3 X33.305 Y96.376 I0 J-0.319
G1 Y27.624
G3 X33.624 Y27.305 I0.319 J0
G1 X98.209
G2 X99.484 Y26.455 I0 J-1.381
G3 X100.759 Y25.605 I1.275 J0.531
G1 X168.076
G3 X168.395 Y25.924 I0 J0.319
G1 Y98.076
G3 X168.076 Y98.395 I-0.319 J0
G1 X31.924
G3 X31.605 Y98.076 I0 J-0.319
G1 Y25.924
G3 X31.924 Y25.605 I0.319 J0
G1 X100.759
G2 X102.034 Y24.755 I0 J-1.381
G3 X103.309 Y23.905 I1.275 J0.531
G1 X169.776
G3 X170.095 Y24.224 I0 J0.319
G1 Y99.776
G3 X169.776 Y100.095 I-0.319 J0
G1 X30.224
G3 X29.905 Y99.776 I0 J-0.319
G1 Y24.224
G3 X30.224 Y23.905 I0.319 J0
G1 X103.309
G2 X104.584 Y23.055 I0 J-1.381
G3 X105.859 Y22.205 I1.275 J0.531
G1 X171.476
G3 X171.795 Y22.524 I0 J0.319
G1 Y101.476
G3 X171.476 Y101.795 I-0.319 J0
G1 X75 Y101.75
X28.524 Y101.795
G3 X28.205 Y101.476 I0 J-0.319
G1 Y22.524
G3 X28.524 Y22.205 I0.319 J0
G1 X105.859
G2 X107.134 Y21.355 I0 J-1.381
G3 X108.409 Y20.505 I1.275 J0.531
G1 X173.176
G3 X173.495 Y20.824 I0 J0.319
G1 Y103.176
G3 X173.176 Y103.495 I-0.319 J0
G1 X26.824
G3 X26.505 Y103.176 I0 J-0.319
G1 Y20.824
G3 X26.824 Y20.505 I0.319 J0
G1 X108.409
G2 X109.684 Y19.655 I0 J-1.381
G3 X110.959 Y18.805 I1.275 J0.531
G1 X174.876
G3 X175.195 Y19.124 I0 J0.319
G1 Y104.876
G3 X174.876 Y105.195 I-0.319 J0
G1 X25.124
G3 X24.805 Y104.876 I0 J-0.319
G1 Y19.124
G3 X25.124 Y18.805 I0.319 J0
G1 X110.959
G2 X112.234 Y17.955 I0 J-1.381
G3 X113.509 Y17.105 I1.275 J0.531
G1 X176.576
G3 X176.895 Y17.424 I0 J0.319
G1 Y106.576
G3 X176.576 Y106.895 I-0.319 J0
G1 X23.424
G3 X23.105 Y106.576 I0 J-0.319
G1 Y17.424
G3 X23.424 Y17.105 I0.319 J0
G1 X113.509
G2 X114.784 Y16.255 I0 J-1.381
G3 X116.059 Y15.405 I1.275 J0.531
G1 X178.276
G3 X178.595 Y15.724 I0 J0.319
G1 Y108.276
G3 X178.276 Y108.595 I-0.319 J0
G1 X21.724
G3 X21.405 Y108.276 I0 J-0.319
G1 Y15.724
G3 X21.724 Y15.405 I0.319 J0
G1 X116.059
G2 X117.334 Y14.555 I0 J-1.381
G3 X118.609 Y13.705 I1.275 J0.531
G1 X179.976
G3 X180.295 Y14.024 I0 J0.319
G1 Y109.976
G3 X179.976 Y110.295 I-0.319 J0
G1 X20.024
G3 X19.705 Y109.976 I0 J-0.319
G1 Y14.024
G3 X20.024 Y13.705 I0.319 J0
G1 X118.609
G2 X119.888 Y12.852 I0 J-1.385
G3 X121.167 Y12 I1.279 J0.533
G1 X182
Y112
X125
X18
Y12
X121.167
X121.224 Y12.005 Z-5.989
X121.279 Y12.022 Z-5.977
X121.322 Y12.043 Z-5.945
X121.362 Y12.072 Z-5.912
X121.406 Y12.119 Z-5.815
X121.419 Y12.138 Z-5.7
G0 Z15

(2D Pocket9)
X160.487 Y30.471
Z15
Z5
G1 Z2.8 F333.3
X160.453 Y30.454 Z2.653
X160.36 Y30.405 Z2.544
X160.238 Y30.325 Z2.5
G3 X161.922 Y28.025 Z2.344 I0.842 J-1.15
X160.238 Y30.325 Z2.187 I-0.842 J1.15
X161.922 Y28.025 Z2.031 I0.842 J-1.15
X160.238 Y30.325 Z1.875 I-0.842 J1.15
X161.922 Y28.025 Z1.718 I0.842 J-1.15
X160.238 Y30.325 Z1.562 I-0.842 J1.15
X161.922 Y28.025 Z1.406 I0.842 J-1.15
X160.238 Y30.325 Z1.249 I-0.842 J1.15
X161.922 Y28.025 Z1.093 I0.842 J-1.15
X160.238 Y30.325 Z0.937 I-0.842 J1.15
X161.922 Y28.025 Z0.78 I0.842 J-1.15
X160.238 Y30.325 Z0.624 I-0.842 J1.15
X161.922 Y28.025 Z0.468 I0.842 J-1.15
X160.238 Y30.325 Z0.311 I-0.842 J1.15
X161.922 Y28.025 Z0.155 I0.842 J-1.15
X160.238 Y30.325 Z-0.001 I-0.842 J1.15
X161.922 Y28.025 Z-0.158 I0.842 J-1.15
X160.238 Y30.325 Z-0.314 I-0.842 J1.15
X161.922 Y28.025 Z-0.47 I0.842 J-1.15
X160.238 Y30.325 Z-0.627 I-0.842 J1.15
X161.922 Y28.025 Z-0.783 I0.842 J-1.15
X160.238 Y30.325 Z-0.939 I-0.842 J1.15
X161.922 Y28.025 Z-1.096 I0.842 J-1.15
X160.238 Y30.325 Z-1.252 I-0.842 J1.15
X161.922 Y28.025 Z-1.408 I0.842 J-1.15
X160.238 Y30.325 Z-1.565 I-0.842 J1.15
X161.922 Y28.025 Z-1.721 I0.842 J-1.15
X160.238 Y30.325 Z-1.877 I-0.842 J1.15
X161.922 Y28.025 Z-2.034 I0.842 J-1.15
X160.238 Y30.325 Z-2.19 I-0.842 J1.15
X161.922 Y28.025 Z-2.346 I0.842 J-1.15
X160.238 Y30.325 Z-2.503 I-0.842 J1.15
X161.922 Y28.025 Z-2.659 I0.842 J-1.15
X160.238 Y30.325 Z-2.815 I-0.842 J1.15
X161.922 Y28.025 Z-2.972 I0.842 J-1.15
X160.238 Y30.325 Z-3.128 I-0.842 J1.15
X161.922 Y28.025 Z-3.284 I0.842 J-1.15
X160.238 Y30.325 Z-3.441 I-0.842 J1.15
X161.922 Y28.025 Z-3.597 I0.842 J-1.15
X160.238 Y30.325 Z-3.753 I-0.842 J1.15
X159.655 Y29.175 Z-3.8 I0.842 J-1.15
X160.1 Y28.73 I0.445 J0 F1000
G1 X166.1
G3 X166.1 Y29.62 I0 J0.445
G1 X160.1
G3 X159.655 Y29.175 I0 J-0.445
G2 X159.331 Y28.562 I-0.742 J0
G3 X159.36 Y27.87 I0.23 J-0.337
X160.1 Y27.675 I0.74 J1.305
G1 X166.1
G3 X166.1 Y30.675 I0 J1.5
G1 X160.1
G3 X159.36 Y27.87 I0 J-1.5
G1 X159.391 Y27.86
X159.423 Y27.861
X159.453 Y27.873
X159.476 Y27.896
X159.49 Y27.925
X159.602 Y28.346
X160.309 Y29.907
X160.399 Y30.256
X160.4 Y30.29
X160.389 Y30.322
X160.365 Y30.346
X160.334 Y30.36
X160.3
X160.269 Y30.347
G3 X161.891 Y28.003 Z-3.956 I0.811 J-1.172 F333.3
X160.269 Y30.347 Z-4.113 I-0.811 J1.172
X161.891 Y28.003 Z-4.269 I0.811 J-1.172
X160.269 Y30.347 Z-4.425 I-0.811 J1.172
X161.891 Y28.003 Z-4.582 I0.811 J-1.172
X160.269 Y30.347 Z-4.738 I-0.811 J1.172
X161.891 Y28.003 Z-4.894 I0.811 J-1.172
X160.269 Y30.347 Z-5.051 I-0.811 J1.172
X161.891 Y28.003 Z-5.207 I0.811 J-1.172
X160.269 Y30.347 Z-5.363 I-0.811 J1.172
X161.891 Y28.003 Z-5.52 I0.811 J-1.172
X160.269 Y30.347 Z-5.676 I-0.811 J1.172
X161.891 Y28.003 Z-5.832 I0.811 J-1.172
X160.269 Y30.347 Z-5.989 I-0.811 J1.172
X161.891 Y28.003 Z-6.145 I0.811 J-1.172
X160.269 Y30.347 Z-6.301 I-0.811 J1.172
X161.891 Y28.003 Z-6.458 I0.811 J-1.172
X160.269 Y30.347 Z-6.614 I-0.811 J1.172
X161.891 Y28.003 Z-6.77 I0.811 J-1.172
X160.269 Y30.347 Z-6.927 I-0.811 J1.172
X161.891 Y28.003 Z-7.083 I0.811 J-1.172
X160.269 Y30.347 Z-7.239 I-0.811 J1.172
X161.891 Y28.003 Z-7.396 I0.811 J-1.172
X160.269 Y30.347 Z-7.552 I-0.811 J1.172
X159.655 Y29.175 Z-7.6 I0.811 J-1.172
X160.1 Y28.73 I0.445 J0 F1000
G1 X166.1
G3 X166.1 Y29.62 I0 J0.445
G1 X160.1
G3 X159.655 Y29.175 I0 J-0.445
G2 X159.331 Y28.562 I-0.742 J0
G3 X159.36 Y27.87 I0.23 J-0.337
X160.1 Y27.675 I0.74 J1.305
G1 X166.1
G3 X166.1 Y30.675 I0 J1.5
G1 X160.1
G3 X159.36 Y27.87 I0 J-1.5
G1 X159.391 Y27.86
X159.423 Y27.861
X159.453 Y27.873
X159.476 Y27.896
X159.49 Y27.925
X159.602 Y28.346
X160.309 Y29.907
X160.399 Y30.256
X160.4 Y30.29
X160.389 Y30.322
X160.365 Y30.346
X160.334 Y30.36
X160.3
X160.269 Y30.347
G3 X161.891 Y28.003 Z-7.756 I0.811 J-1.172 F333.3
X160.269 Y30.347 Z-7.913 I-0.811 J1.172
X161.891 Y28.003 Z-8.069 I0.811 J-1.172
X160.269 Y30.347 Z-8.225 I-0.811 J1.172
X161.891 Y28.003 Z-8.382 I0.811 J-1.172
X160.269 Y30.347 Z-8.538 I-0.811 J1.172
X161.891 Y28.003 Z-8.694 I0.811 J-1.172
X160.269 Y30.347 Z-8.851 I-0.811 J1.172
X161.891 Y28.003 Z-9.007 I0.811 J-1.172
X160.269 Y30.347 Z-9.163 I-0.811 J1.172
X161.891 Y28.003 Z-9.32 I0.811 J-1.172
X160.269 Y30.347 Z-9.476 I-0.811 J1.172
X161.891 Y28.003 Z-9.632 I0.811 J-1.172
X160.269 Y30.347 Z-9.789 I-0.811 J1.172
X161.891 Y28.003 Z-9.945 I0.811 J-1.172
X160.269 Y30.347 Z-10.101 I-0.811 J1.172
X161.891 Y28.003 Z-10.258 I0.811 J-1.172
X160.269 Y30.347 Z-10.414 I-0.811 J1.172
X161.891 Y28.003 Z-10.57 I0.811 J-1.172
X160.269 Y30.347 Z-10.727 I-0.811 J1.172
X161.891 Y28.003 Z-10.883 I0.811 J-1.172
X160.269 Y30.347 Z-11.039 I-0.811 J1.172
X161.891 Y28.003 Z-11.196 I0.811 J-1.172
X160.269 Y30.347 Z-11.352 I-0.811 J1.172
X159.655 Y29.175 Z-11.4 I0.811 J-1.172
X160.1 Y28.73 I0.445 J0 F1000
G1 X166.1
G3 X166.1 Y29.62 I0 J0.445
G1 X160.1
G3 X159.655 Y29.175 I0 J-0.445
G2 X159.331 Y28.562 I-0.742 J0
G3 X159.36 Y27.87 I0.23 J-0.337
X160.1 Y27.675 I0.74 J1.305
G1 X166.1
G3 X166.1 Y30.675 I0 J1.5
G1 X160.1
G3 X159.36 Y27.87 I0 J-1.5
G1 X159.391 Y27.86
X159.423 Y27.861
X159.453 Y27.873
X159.476 Y27.896
X159.49 Y27.925
X159.602 Y28.346
X160.309 Y29.907
X160.399 Y30.256
X160.4 Y30.29
X160.389 Y30.322
X160.365 Y30.346
X160.334 Y30.36
X160.3
X160.269 Y30.347
G3 X161.891 Y28.003 Z-11.556 I0.811 J-1.172 F333.3
X160.269 Y30.347 Z-11.713 I-0.811 J1.172
X161.891 Y28.003 Z-11.869 I0.811 J-1.172
X160.269 Y30.347 Z-12.025 I-0.811 J1.172
X161.891 Y28.003 Z-12.182 I0.811 J-1.172
X160.269 Y30.347 Z-12.338 I-0.811 J1.172
X161.891 Y28.003 Z-12.494 I0.811 J-1.172
X160.269 Y30.347 Z-12.651 I-0.811 J1.172
X161.891 Y28.003 Z-12.807 I0.811 J-1.172
X160.269 Y30.347 Z-12.963 I-0.811 J1.172
X161.891 Y28.003 Z-13.12 I0.811 J-1.172
X160.269 Y30.347 Z-13.276 I-0.811 J1.172
X161.891 Y28.003 Z-13.432 I0.811 J-1.172
X160.269 Y30.347 Z-13.589 I-0.811 J1.172
X161.891 Y28.003 Z-13.745 I0.811 J-1.172
X160.269 Y30.347 Z-13.901 I-0.811 J1.172
X161.891 Y28.003 Z-14.058 I0.811 J-1.172
X160.269 Y30.347 Z-14.214 I-0.811 J1.172
X161.891 Y28.003 Z-14.37 I0.811 J-1.172
X160.269 Y30.347 Z-14.527 I-0.811 J1.172
X161.891 Y28.003 Z-14.683 I0.811 J-1.172
X160.269 Y30.347 Z-14.839 I-0.811 J1.172
X161.891 Y28.003 Z-14.996 I0.811 J-1.172
X160.269 Y30.347 Z-15.152 I-0.811 J1.172
X159.655 Y29.175 Z-15.2 I0.811 J-1.172
X160.1 Y28.73 I0.445 J0 F1000
G1 X166.1
G3 X166.1 Y29.62 I0 J0.445
G1 X160.1
G3 X159.655 Y29.175 I0 J-0.445
G2 X159.331 Y28.562 I-0.742 J0
G3 X159.36 Y27.87 I0.23 J-0.337
X160.1 Y27.675 I0.74 J1.305
G1 X166.1
G3 X166.1 Y30.675 I0 J1.5
G1 X160.1
G3 X159.36 Y27.87 I0 J-1.5
G1 X159.391 Y27.86
X159.423 Y27.861
X159.453 Y27.873
X159.476 Y27.896
X159.49 Y27.925
X159.602 Y28.346
X160.309 Y29.907
X160.399 Y30.256
X160.4 Y30.29
X160.389 Y30.322
X160.365 Y30.346
X160.334 Y30.36
X160.3
X160.269 Y30.347
G3 X161.891 Y28.003 Z-15.356 I0.811 J-1.172 F333.3
X160.269 Y30.347 Z-15.513 I-0.811 J1.172
X161.891 Y28.003 Z-15.669 I0.811 J-1.172
X160.269 Y30.347 Z-15.825 I-0.811 J1.172
X161.891 Y28.003 Z-15.982 I0.811 J-1.172
X160.269 Y30.347 Z-16.138 I-0.811 J1.172
X161.891 Y28.003 Z-16.294 I0.811 J-1.172
X160.269 Y30.347 Z-16.451 I-0.811 J1.172
X161.891 Y28.003 Z-16.607 I0.811 J-1.172
X160.269 Y30.347 Z-16.763 I-0.811 J1.172
X161.891 Y28.003 Z-16.92 I0.811 J-1.172
X160.269 Y30.347 Z-17.076 I-0.811 J1.172
X161.891 Y28.003 Z-17.232 I0.811 J-1.172
X160.269 Y30.347 Z-17.389 I-0.811 J1.172
X161.891 Y28.003 Z-17.545 I0.811 J-1.172
X160.269 Y30.347 Z-17.701 I-0.811 J1.172
X161.891 Y28.003 Z-17.858 I0.811 J-1.172
X160.269 Y30.347 Z-18.014 I-0.811 J1.172
X161.891 Y28.003 Z-18.17 I0.811 J-1.172
X160.269 Y30.347 Z-18.327 I-0.811 J1.172
X161.891 Y28.003 Z-18.483 I0.811 J-1.172
X160.269 Y30.347 Z-18.639 I-0.811 J1.172
X161.891 Y28.003 Z-18.796 I0.811 J-1.172
X160.269 Y30.347 Z-18.952 I-0.811 J1.172
X159.655 Y29.175 Z-19 I0.811 J-1.172
X160.1 Y28.73 I0.445 J0 F1000
G1 X166.1
G3 X166.1 Y29.62 I0 J0.445
G1 X160.1
G3 X159.655 Y29.175 I0 J-0.445
G2 X159.331 Y28.562 I-0.742 J0
G3 X159.36 Y27.87 I0.23 J-0.337
X160.1 Y27.675 I0.74 J1.305
G1 X166.1
G3 X166.1 Y30.675 I0 J1.5
G1 X160.1
G3 X159.36 Y27.87 I0 J-1.5
G1 X159.412 Y27.847 Z-18.989
X159.468 Y27.834 Z-18.977
X159.517 Y27.831 Z-18.945
X159.565 Y27.837 Z-18.912
X159.627 Y27.856 Z-18.815
X159.648 Y27.866 Z-18.7
G0 Z5
X160.487 Y96.121
G1 Z2.8 F333.3
X160.453 Y96.104 Z2.653
X160.36 Y96.055 Z2.544
X160.238 Y95.975 Z2.5
G3 X161.922 Y93.675 Z2.344 I0.842 J-1.15
X160.238 Y95.975 Z2.187 I-0.842 J1.15
X161.922 Y93.675 Z2.031 I0.842 J-1.15
X160.238 Y95.975 Z1.875 I-0.842 J1.15
X161.922 Y93.675 Z1.718 I0.842 J-1.15
X160.238 Y95.975 Z1.562 I-0.842 J1.15
X161.922 Y93.675 Z1.406 I0.842 J-1.15
X160.238 Y95.975 Z1.249 I-0.842 J1.15
X161.922 Y93.675 Z1.093 I0.842 J-1.15
X160.238 Y95.975 Z0.937 I-0.842 J1.15
X161.922 Y93.675 Z0.78 I0.842 J-1.15
X160.238 Y95.975 Z0.624 I-0.842 J1.15
X161.922 Y93.675 Z0.468 I0.842 J-1.15
X160.238 Y95.975 Z0.311 I-0.842 J1.15
X161.922 Y93.675 Z0.155 I0.842 J-1.15
X160.238 Y95.975 Z-0.001 I-0.842 J1.15
X161.922 Y93.675 Z-0.158 I0.842 J-1.15
X160.238 Y95.975 Z-0.314 I-0.842 J1.15
X161.922 Y93.675 Z-0.47 I0.842 J-1.15
X160.238 Y95.975 Z-0.627 I-0.842 J1.15
X161.922 Y93.675 Z-0.783 I0.842 J-1.15
X160.238 Y95.975 Z-0.939 I-0.842 J1.15
X161.922 Y93.675 Z-1.096 I0.842 J-1.15
X160.238 Y95.975 Z-1.252 I-0.842 J1.15
X161.922 Y93.675 Z-1.408 I0.842 J-1.15
X160.238 Y95.975 Z-1.565 I-0.842 J1.15
X161.922 Y93.675 Z-1.721 I0.842 J-1.15
X160.238 Y95.975 Z-1.877 I-0.842 J1.15
X161.922 Y93.675 Z-2.034 I0.842 J-1.15
X160.238 Y95.975 Z-2.19 I-0.842 J1.15
X161.922 Y93.675 Z-2.346 I0.842 J-1.15
X160.238 Y95.975 Z-2.503 I-0.842 J1.15
X161.922 Y93.675 Z-2.659 I0.842 J-1.15
X160.238 Y95.975 Z-2.815 I-0.842 J1.15
X161.922 Y93.675 Z-2.972 I0.842 J-1.15
X160.238 Y95.975 Z-3.128 I-0.842 J1.15
X161.922 Y93.675 Z-3.284 I0.842 J-1.15
X160.238 Y95.975 Z-3.441 I-0.842 J1.15
X161.922 Y93.675 Z-3.597 I0.842 J-1.15
X160.238 Y95.975 Z-3.753 I-0.842 J1.15
X159.655 Y94.825 Z-3.8 I0.842 J-1.15
X160.1 Y94.38 I0.445 J0 F1000
G1 X166.1
G3 X166.1 Y95.27 I0 J0.445
G1 X160.1
G3 X159.655 Y94.825 I0 J-0.445
G2 X159.331 Y94.212 I-0.742 J0
G3 X159.36 Y93.52 I0.23 J-0.337
X160.1 Y93.325 I0.74 J1.305
G1 X166.1
G3 X166.1 Y96.325 I0 J1.5
G1 X160.1
G3 X159.36 Y93.52 I0 J-1.5
G1 X159.391 Y93.51
X159.423 Y93.511
X159.453 Y93.523
X159.476 Y93.546
X159.49 Y93.575
X159.602 Y93.996
X160.309 Y95.557
X160.399 Y95.906
X160.4 Y95.94
X160.389 Y95.972
X160.365 Y95.996
X160.334 Y96.01
X160.3
X160.269 Y95.997
G3 X161.891 Y93.653 Z-3.956 I0.811 J-1.172 F333.3
X160.269 Y95.997 Z-4.113 I-0.811 J1.172
X161.891 Y93.653 Z-4.269 I0.811 J-1.172
X160.269 Y95.997 Z-4.425 I-0.811 J1.172
X161.891 Y93.653 Z-4.582 I0.811 J-1.172
X160.269 Y95.997 Z-4.738 I-0.811 J1.172
X161.891 Y93.653 Z-4.894 I0.811 J-1.172
X160.269 Y95.997 Z-5.051 I-0.811 J1.172
X161.891 Y93.653 Z-5.207 I0.811 J-1.172
X160.269 Y95.997 Z-5.363 I-0.811 J1.172
X161.891 Y93.653 Z-5.52 I0.811 J-1.172
X160.269 Y95.997 Z-5.676 I-0.811 J1.172
X161.891 Y93.653 Z-5.832 I0.811 J-1.172
X160.269 Y95.997 Z-5.989 I-0.811 J1.172
X161.891 Y93.653 Z-6.145 I0.811 J-1.172
X160.269 Y95.997 Z-6.301 I-0.811 J1.172
X161.891 Y93.653 Z-6.458 I0.811 J-1.172
X160.269 Y95.997 Z-6.614 I-0.811 J1.172
X161.891 Y93.653 Z-6.77 I0.811 J-1.172
X160.269 Y95.997 Z-6.927 I-0.811 J1.172
X161.891 Y93.653 Z-7.083 I0.811 J-1.172
X160.269 Y95.997 Z-7.239 I-0.811 J1.172
X161.891 Y93.653 Z-7.396 I0.811 J-1.172
X160.269 Y95.997 Z-7.552 I-0.811 J1.172
X159.655 Y94.825 Z-7.6 I0.811 J-1.172
X160.1 Y94.38 I0.445 J0 F1000
G1 X166.1
G3 X166.1 Y95.27 I0 J0.445
G1 X160.1
G3 X159.655 Y94.825 I0 J-0.445
G2 X159.331 Y94.212 I-0.742 J0
G3 X159.36 Y93.52 I0.23 J-0.337
X160.1 Y93.325 I0.74 J1.305
G1 X166.1
G3 X166.1 Y96.325 I0 J1.5
G1 X160.1
G3 X159.36 Y93.52 I0 J-1.5
G1 X159.391 Y93.51
X159.423 Y93.511
X159.453 Y93.523
X159.476 Y93.546
X159.49 Y93.575
X159.602 Y93.996
X160.309 Y95.557
X160.399 Y95.906
X160.4 Y95.94
X160.389 Y95.972
X160.365 Y95.996
X160.334 Y96.01
X160.3
X160.269 Y95.997
G3 X161.891 Y93.653 Z-7.756 I0.811 J-1.172 F333.3
X160.269 Y95.997 Z-7.913 I-0.811 J1.172
X161.891 Y93.653 Z-8.069 I0.811 J-1.172
X160.269 Y95.997 Z-8.225 I-0.811 J1.172
X161.891 Y93.653 Z-8.382 I0.811 J-1.172
X160.269 Y95.997 Z-8.538 I-0.811 J1.172
X161.891 Y93.653 Z-8.694 I0.811 J-1.172
X160.269 Y95.997 Z-8.851 I-0.811 J1.172
X161.891 Y93.653 Z-9.007 I0.811 J-1.172
X160.269 Y95.997 Z-9.163 I-0.811 J1.172
X161.891 Y93.653 Z-9.32 I0.811 J-1.172
X160.269 Y95.997 Z-9.476 I-0.811 J1.172
X161.891 Y93.653 Z-9.632 I0.811 J-1.172
X160.269 Y95.997 Z-9.789 I-0.811 J1.172
X161.891 Y93.653 Z-9.945 I0.811 J-1.172
X160.269 Y95.997 Z-10.101 I-0.811 J1.172
X161.891 Y93.653 Z-10.258 I0.811 J-1.172
X160.269 Y95.997 Z-10.414 I-0.811 J1.172
X161.891 Y93.653 Z-10.57 I0.811 J-1.172
X160.269 Y95.997 Z-10.727 I-0.811 J1.172
X161.891 Y93.653 Z-10.883 I0.811 J-1.172
X160.269 Y95.997 Z-11.039 I-0.811 J1.172
X161.891 Y93.653 Z-11.196 I0.811 J-1.172
X160.269 Y95.997 Z-11.352 I-0.811 J1.172
X159.655 Y94.825 Z-11.4 I0.811 J-1.172
X160.1 Y94.38 I0.445 J0 F1000
G1 X166.1
G3 X166.1 Y95.27 I0 J0.445
G1 X160.1
G3 X159.655 Y94.825 I0 J-0.445
G2 X159.331 Y94.212 I-0.742 J0
G3 X159.36 Y93.52 I0.23 J-0.337
X160.1 Y93.325 I0.74 J1.305
G1 X166.1
G3 X166.1 Y96.325 I0 J1.5
G1 X160.1
G3 X159.36 Y93.52 I0 J-1.5
G1 X159.391 Y93.51
X159.423 Y93.511
X159.453 Y93.523
X159.476 Y93.546
X159.49 Y93.575
X159.602 Y93.996
X160.309 Y95.557
X160.399 Y95.906
X160.4 Y95.94
X160.389 Y95.972
X160.365 Y95.996
X160.334 Y96.01
X160.3
X160.269 Y95.997
G3 X161.891 Y93.653 Z-11.556 I0.811 J-1.172 F333.3
X160.269 Y95.997 Z-11.713 I-0.811 J1.172
X161.891 Y93.653 Z-11.869 I0.811 J-1.172
X160.269 Y95.997 Z-12.025 I-0.811 J1.172
X161.891 Y93.653 Z-12.182 I0.811 J-1.172
X160.269 Y95.997 Z-12.338 I-0.811 J1.172
X161.891 Y93.653 Z-12.494 I0.811 J-1.172
X160.269 Y95.997 Z-12.651 I-0.811 J1.172
X161.891 Y93.653 Z-12.807 I0.811 J-1.172
X160.269 Y95.997 Z-12.963 I-0.811 J1.172
X161.891 Y93.653 Z-13.12 I0.811 J-1.172
X160.269 Y95.997 Z-13.276 I-0.811 J1.172
X161.891 Y93.653 Z-13.432 I0.811 J-1.172
X160.269 Y95.997 Z-13.589 I-0.811 J1.172
X161.891 Y93.653 Z-13.745 I0.811 J-1.172
X160.269 Y95.997 Z-13.901 I-0.811 J1.172
X161.891 Y93.653 Z-14.058 I0.811 J-1.172
X160.269 Y95.997 Z-14.214 I-0.811 J1.172
X161.891 Y93.653 Z-14.37 I0.811 J-1.172
X160.269 Y95.997 Z-14.527 I-0.811 J1.172
X161.891 Y93.653 Z-14.683 I0.811 J-1.172
X160.269 Y95.997 Z-14.839 I-0.811 J1.172
X161.891 Y93.653 Z-14.996 I0.811 J-1.172
X160.269 Y95.997 Z-15.152 I-0.811 J1.172
X159.655 Y94.825 Z-15.2 I0.811 J-1.172
X160.1 Y94.38 I0.445 J0 F1000
G1 X166.1
G3 X166.1 Y95.27 I0 J0.445
G1 X160.1
G3 X159.655 Y94.825 I0 J-0.445
G2 X159.331 Y94.212 I-0.742 J0
G3 X159.36 Y93.52 I0.23 J-0.337
X160.1 Y93.325 I0.74 J1.305
G1 X166.1
G3 X166.1 Y96.325 I0 J1.5
G1 X160.1
G3 X159.36 Y93.52 I0 J-1.5
G1 X159.391 Y93.51
X159.423 Y93.511
X159.453 Y93.523
X159.476 Y93.546
X159.49 Y93.575
X159.602 Y93.996
X160.309 Y95.557
X160.399 Y95.906
X160.4 Y95.94
X160.389 Y95.972
X160.365 Y95.996
X160.334 Y96.01
X160.3
X160.269 Y95.997
G3 X161.891 Y93.653 Z-15.356 I0.811 J-1.172 F333.3
X160.269 Y95.997 Z-15.513 I-0.811 J1.172
X161.891 Y93.653 Z-15.669 I0.811 J-1.172
X160.269 Y95.997 Z-15.825 I-0.811 J1.172
X161.891 Y93.653 Z-15.982 I0.811 J-1.172
X160.269 Y95.997 Z-16.138 I-0.811 J1.172
X161.891 Y93.653 Z-16.294 I0.811 J-1.172
X160.269 Y95.997 Z-16.451 I-0.811 J1.172
X161.891 Y93.653 Z-16.607 I0.811 J-1.172
X160.269 Y95.997 Z-16.763 I-0.811 J1.172
X161.891 Y93.653 Z-16.92 I0.811 J-1.172
X160.269 Y95.997 Z-17.076 I-0.811 J1.172
X161.891 Y93.653 Z-17.232 I0.811 J-1.172
X160.269 Y95.997 Z-17.389 I-0.811 J1.172
X161.891 Y93.653 Z-17.545 I0.811 J-1.172
X160.269 Y95.997 Z-17.701 I-0.811 J1.172
X161.891 Y93.653 Z-17.858 I0.811 J-1.172
X160.269 Y95.997 Z-18.014 I-0.811 J1.172
X161.891 Y93.653 Z-18.17 I0.811 J-1.172
X160.269 Y95.997 Z-18.327 I-0.811 J1.172
X161.891 Y93.653 Z-18.483 I0.811 J-1.172
X160.269 Y95.997 Z-18.639 I-0.811 J1.172
X161.891 Y93.653 Z-18.796 I0.811 J-1.172
X160.269 Y95.997 Z-18.952 I-0.811 J1.172
X159.655 Y94.825 Z-19 I0.811 J-1.172
X160.1 Y94.38 I0.445 J0 F1000
G1 X166.1
G3 X166.1 Y95.27 I0 J0.445
G1 X160.1
G3 X159.655 Y94.825 I0 J-0.445
G2 X159.331 Y94.212 I-0.742 J0
G3 X159.36 Y93.52 I0.23 J-0.337
X160.1 Y93.325 I0.74 J1.305
G1 X166.1
G3 X166.1 Y96.325 I0 J1.5
G1 X160.1
G3 X159.36 Y93.52 I0 J-1.5
G1 X159.412 Y93.497 Z-18.989
X159.468 Y93.484 Z-18.977
X159.517 Y93.481 Z-18.945
X159.565 Y93.487 Z-18.912
X159.627 Y93.506 Z-18.815
X159.648 Y93.516 Z-18.7
G0 Z5
X38.604 Y94.171
G1 Z2.8 F333.3
X38.621 Y94.136 Z2.653
X38.67 Y94.043 Z2.544
X38.75 Y93.922 Z2.5
G3 X41.05 Y95.606 Z2.344 I1.15 J0.842
X38.75 Y93.922 Z2.187 I-1.15 J-0.842
X41.05 Y95.606 Z2.031 I1.15 J0.842
X38.75 Y93.922 Z1.875 I-1.15 J-0.842
X41.05 Y95.606 Z1.718 I1.15 J0.842
X38.75 Y93.922 Z1.562 I-1.15 J-0.842
X41.05 Y95.606 Z1.406 I1.15 J0.842
X38.75 Y93.922 Z1.249 I-1.15 J-0.842
X41.05 Y95.606 Z1.093 I1.15 J0.842
X38.75 Y93.922 Z0.937 I-1.15 J-0.842
X41.05 Y95.606 Z0.78 I1.15 J0.842
X38.75 Y93.922 Z0.624 I-1.15 J-0.842
X41.05 Y95.606 Z0.468 I1.15 J0.842
X38.75 Y93.922 Z0.311 I-1.15 J-0.842
X41.05 Y95.606 Z0.155 I1.15 J0.842
X38.75 Y93.922 Z-0.001 I-1.15 J-0.842
X41.05 Y95.606 Z-0.158 I1.15 J0.842
X38.75 Y93.922 Z-0.314 I-1.15 J-0.842
X41.05 Y95.606 Z-0.47 I1.15 J0.842
X38.75 Y93.922 Z-0.627 I-1.15 J-0.842
X41.05 Y95.606 Z-0.783 I1.15 J0.842
X38.75 Y93.922 Z-0.939 I-1.15 J-0.842
X41.05 Y95.606 Z-1.096 I1.15 J0.842
X38.75 Y93.922 Z-1.252 I-1.15 J-0.842
X41.05 Y95.606 Z-1.408 I1.15 J0.842
X38.75 Y93.922 Z-1.565 I-1.15 J-0.842
X41.05 Y95.606 Z-1.721 I1.15 J0.842
X38.75 Y93.922 Z-1.877 I-1.15 J-0.842
X41.05 Y95.606 Z-2.034 I1.15 J0.842
X38.75 Y93.922 Z-2.19 I-1.15 J-0.842
X41.05 Y95.606 Z-2.346 I1.15 J0.842
X38.75 Y93.922 Z-2.503 I-1.15 J-0.842
X41.05 Y95.606 Z-2.659 I1.15 J0.842
X38.75 Y93.922 Z-2.815 I-1.15 J-0.842
X41.05 Y95.606 Z-2.972 I1.15 J0.842
X38.75 Y93.922 Z-3.128 I-1.15 J-0.842
X41.05 Y95.606 Z-3.284 I1.15 J0.842
X38.75 Y93.922 Z-3.441 I-1.15 J-0.842
X41.05 Y95.606 Z-3.597 I1.15 J0.842
X38.75 Y93.922 Z-3.753 I-1.15 J-0.842
X39.9 Y93.339 Z-3.8 I1.15 J0.842
X39.9 Y95.27 I0 J0.966
G1 X33.9 F1000
G3 X33.9 Y94.38 I0 J-0.445
G1 X39.9
G3 X39.9 Y95.27 I0 J0.445
G2 X39.109 Y95.798 I0 J0.857
G3 X38.318 Y96.325 I-0.791 J-0.33
G1 X33.9
G3 X33.9 Y93.325 I0 J-1.5
G1 X39.9
G3 X39.9 Y96.325 I0 J1.5
G1 X38.318
X38.284 Y96.318
X38.255 Y96.299
X38.235 Y96.27
X38.229 Y96.236
X38.235 Y96.202
X38.398 Y95.803
X38.861 Y94.339
X38.864 Y94.305
X38.854 Y94.272
X38.724 Y94.042
X38.714 Y94.012
X38.716 Y93.981
X38.728 Y93.952
G3 X41.072 Y95.575 Z-3.956 I1.172 J0.811 F333.3
X38.728 Y93.952 Z-4.113 I-1.172 J-0.811
X41.072 Y95.575 Z-4.269 I1.172 J0.811
X38.728 Y93.952 Z-4.425 I-1.172 J-0.811
X41.072 Y95.575 Z-4.582 I1.172 J0.811
X38.728 Y93.952 Z-4.738 I-1.172 J-0.811
X41.072 Y95.575 Z-4.894 I1.172 J0.811
X38.728 Y93.952 Z-5.051 I-1.172 J-0.811
X41.072 Y95.575 Z-5.207 I1.172 J0.811
X38.728 Y93.952 Z-5.363 I-1.172 J-0.811
X41.072 Y95.575 Z-5.52 I1.172 J0.811
X38.728 Y93.952 Z-5.676 I-1.172 J-0.811
X41.072 Y95.575 Z-5.832 I1.172 J0.811
X38.728 Y93.952 Z-5.989 I-1.172 J-0.811
X41.072 Y95.575 Z-6.145 I1.172 J0.811
X38.728 Y93.952 Z-6.301 I-1.172 J-0.811
X41.072 Y95.575 Z-6.458 I1.172 J0.811
X38.728 Y93.952 Z-6.614 I-1.172 J-0.811
X41.072 Y95.575 Z-6.77 I1.172 J0.811
X38.728 Y93.952 Z-6.927 I-1.172 J-0.811
X41.072 Y95.575 Z-7.083 I1.172 J0.811
X38.728 Y93.952 Z-7.239 I-1.172 J-0.811
X41.072 Y95.575 Z-7.396 I1.172 J0.811
X38.728 Y93.952 Z-7.552 I-1.172 J-0.811
X39.9 Y93.339 Z-7.6 I1.172 J0.811
X39.9 Y95.27 I0 J0.966
G1 X33.9 F1000
G3 X33.9 Y94.38 I0 J-0.445
G1 X39.9
G3 X39.9 Y95.27 I0 J0.445
G2 X39.109 Y95.798 I0 J0.857
G3 X38.318 Y96.325 I-0.791 J-0.33
G1 X33.9
G3 X33.9 Y93.325 I0 J-1.5
G1 X39.9
G3 X39.9 Y96.325 I0 J1.5
G1 X38.318
X38.284 Y96.318
X38.255 Y96.299
X38.235 Y96.27
X38.229 Y96.236
X38.235 Y96.202
X38.398 Y95.803
X38.861 Y94.339
X38.864 Y94.305
X38.854 Y94.272
X38.724 Y94.042
X38.714 Y94.012
X38.716 Y93.981
X38.728 Y93.952
G3 X41.072 Y95.575 Z-7.756 I1.172 J0.811 F333.3
X38.728 Y93.952 Z-7.913 I-1.172 J-0.811
X41.072 Y95.575 Z-8.069 I1.172 J0.811
X38.728 Y93.952 Z-8.225 I-1.172 J-0.811
X41.072 Y95.575 Z-8.382 I1.172 J0.811
X38.728 Y93.952 Z-8.538 I-1.172 J-0.811
X41.072 Y95.575 Z-8.694 I1.172 J0.811
X38.728 Y93.952 Z-8.851 I-1.172 J-0.811
X41.072 Y95.575 Z-9.007 I1.172 J0.811
X38.728 Y93.952 Z-9.163 I-1.172 J-0.811
X41.072 Y95.575 Z-9.32 I1.172 J0.811
X38.728 Y93.952 Z-9.476 I-1.172 J-0.811
X41.072 Y95.575 Z-9.632 I1.172 J0.811
X38.728 Y93.952 Z-9.789 I-1.172 J-0.811
X41.072 Y95.575 Z-9.945 I1.172 J0.811
X38.728 Y93.952 Z-10.101 I-1.172 J-0.811
X41.072 Y95.575 Z-10.258 I1.172 J0.811
X38.728 Y93.952 Z-10.414 I-1.172 J-0.811
X41.072 Y95.575 Z-10.57 I1.172 J0.811
X38.728 Y93.952 Z-10.727 I-1.172 J-0.811
X41.072 Y95.575 Z-10.883 I1.172 J0.811
X38.728 Y93.952 Z-11.039 I-1.172 J-0.811
X41.072 Y95.575 Z-11.196 I1.172 J0.811
X38.728 Y93.952 Z-11.352 I-1.172 J-0.811
X39.9 Y93.339 Z-11.4 I1.172 J0.811
X39.9 Y95.27 I0 J0.966
G1 X33.9 F1000
G3 X33.9 Y94.38 I0 J-0.445
G1 X39.9
G3 X39.9 Y95.27 I0 J0.445
G2 X39.109 Y95.798 I0 J0.857
G3 X38.318 Y96.325 I-0.791 J-0.33
G1 X33.9
G3 X33.9 Y93.325 I0 J-1.5
G1 X39.9
G3 X39.9 Y96.325 I0 J1.5
G1 X38.318
X38.284 Y96.318
X38.255 Y96.299
X38.235 Y96.27
X38.229 Y96.236
X38.235 Y96.202
X38.398 Y95.803
X38.861 Y94.339
X38.864 Y94.305
X38.854 Y94.272
X38.724 Y94.042
X38.714 Y94.012
X38.716 Y93.981
X38.728 Y93.952
G3 X41.072 Y95.575 Z-11.556 I1.172 J0.811 F333.3
X38.728 Y93.952 Z-11.713 I-1.172 J-0.811
X41.072 Y95.575 Z-11.869 I1.172 J0.811
X38.728 Y93.952 Z-12.025 I-1.172 J-0.811
X41.072 Y95.575 Z-12.182 I1.172 J0.811
X38.728 Y93.952 Z-12.338 I-1.172 J-0.811
X41.072 Y95.575 Z-12.494 I1.172 J0.811
X38.728 Y93.952 Z-12.651 I-1.172 J-0.811
X41.072 Y95.575 Z-12.807 I1.172 J0.811
X38.728 Y93.952 Z-12.963 I-1.172 J-0.811
X41.072 Y95.575 Z-13.12 I1.172 J0.811
X38.728 Y93.952 Z-13.276 I-1.172 J-0.811
X41.072 Y95.575 Z-13.432 I1.172 J0.811
X38.728 Y93.952 Z-13.589 I-1.172 J-0.811
X41.072 Y95.575 Z-13.745 I1.172 J0.811
X38.728 Y93.952 Z-13.901 I-1.172 J-0.811
X41.072 Y95.575 Z-14.058 I1.172 J0.811
X38.728 Y93.952 Z-14.214 I-1.172 J-0.811
X41.072 Y95.575 Z-14.37 I1.172 J0.811
X38.728 Y93.952 Z-14.527 I-1.172 J-0.811
X41.072 Y95.575 Z-14.683 I1.172 J0.811
X38.728 Y93.952 Z-14.839 I-1.172 J-0.811
X41.072 Y95.575 Z-14.996 I1.172 J0.811
X38.728 Y93.952 Z-15.152 I-1.172 J-0.811
X39.9 Y93.339 Z-15.2 I1.172 J0.811
X39.9 Y95.27 I0 J0.966
G1 X33.9 F1000
G3 X33.9 Y94.38 I0 J-0.445
G1 X39.9
G3 X39.9 Y95.27 I0 J0.445
G2 X39.109 Y95.798 I0 J0.857
G3 X38.318 Y96.325 I-0.791 J-0.33
G1 X33.9
G3 X33.9 Y93.325 I0 J-1.5
G1 X39.9
G3 X39.9 Y96.325 I0 J1.5
G1 X38.318
X38.284 Y96.318
X38.255 Y96.299
X38.235 Y96.27
X38.229 Y96.236
X38.235 Y96.202
X38.398 Y95.803
X38.861 Y94.339
X38.864 Y94.305
X38.854 Y94.272
X38.724 Y94.042
X38.714 Y94.012
X38.716 Y93.981
X38.728 Y93.952
G3 X41.072 Y95.575 Z-15.356 I1.172 J0.811 F333.3
X38.728 Y93.952 Z-15.513 I-1.172 J-0.811
X41.072 Y95.575 Z-15.669 I1.172 J0.811
X38.728 Y93.952 Z-15.825 I-1.172 J-0.811
X41.072 Y95.575 Z-15.982 I1.172 J0.811
X38.728 Y93.952 Z-16.138 I-1.172 J-0.811
X41.072 Y95.575 Z-16.294 I1.172 J0.811
X38.728 Y93.952 Z-16.451 I-1.172 J-0.811
X41.072 Y95.575 Z-16.607 I1.172 J0.811
X38.728 Y93.952 Z-16.763 I-1.172 J-0.811
X41.072 Y95.575 Z-16.92 I1.172 J0.811
X38.728 Y93.952 Z-17.076 I-1.172 J-0.811
X41.072 Y95.575 Z-17.232 I1.172 J0.811
X38.728 Y93.952 Z-17.389 I-1.172 J-0.811
X41.072 Y95.575 Z-17.545 I1.172 J0.811
X38.728 Y93.952 Z-17.701 I-1.172 J-0.811
X41.072 Y95.575 Z-17.858 I1.172 J0.811
X38.728 Y93.952 Z-18.014 I-1.172 J-0.811
X41.072 Y95.575 Z-18.17 I1.172 J0.811
X38.728 Y93.952 Z-18.327 I-1.172 J-0.811
X41.072 Y95.575 Z-18.483 I1.172 J0.811
X38.728 Y93.952 Z-18.639 I-1.172 J-0.811
X41.072 Y95.575 Z-18.796 I1.172 J0.811
X38.728 Y93.952 Z-18.952 I-1.172 J-0.811
X39.9 Y93.339 Z-19 I1.172 J0.811
X39.9 Y95.27 I0 J0.966
G1 X33.9 F1000
G3 X33.9 Y94.38 I0 J-0.445
G1 X39.9
G3 X39.9 Y95.27 I0 J0.445
G2 X39.109 Y95.798 I0 J0.857
G3 X38.318 Y96.325 I-0.791 J-0.33
G1 X33.9
G3 X33.9 Y93.325 I0 J-1.5
G1 X39.9
G3 X39.9 Y96.325 I0 J1.5
G1 X38.318
X38.26 Y96.32 Z-18.989
X38.205 Y96.303 Z-18.977
X38.162 Y96.282 Z-18.945
X38.123 Y96.253 Z-18.912
X38.078 Y96.206 Z-18.815
X38.065 Y96.187 Z-18.7
G0 Z5
X35.196 Y29.829
G1 Z2.8 F333.3
X35.179 Y29.864 Z2.653
X35.13 Y29.957 Z2.544
X35.05 Y30.078 Z2.5
G3 X32.75 Y28.394 Z2.344 I-1.15 J-0.842
X35.05 Y30.078 Z2.187 I1.15 J0.842
X32.75 Y28.394 Z2.031 I-1.15 J-0.842
X35.05 Y30.078 Z1.875 I1.15 J0.842
X32.75 Y28.394 Z1.718 I-1.15 J-0.842
X35.05 Y30.078 Z1.562 I1.15 J0.842
X32.75 Y28.394 Z1.406 I-1.15 J-0.842
X35.05 Y30.078 Z1.249 I1.15 J0.842
X32.75 Y28.394 Z1.093 I-1.15 J-0.842
X35.05 Y30.078 Z0.937 I1.15 J0.842
X32.75 Y28.394 Z0.78 I-1.15 J-0.842
X35.05 Y30.078 Z0.624 I1.15 J0.842
X32.75 Y28.394 Z0.468 I-1.15 J-0.842
X35.05 Y30.078 Z0.311 I1.15 J0.842
X32.75 Y28.394 Z0.155 I-1.15 J-0.842
X35.05 Y30.078 Z-0.001 I1.15 J0.842
X32.75 Y28.394 Z-0.158 I-1.15 J-0.842
X35.05 Y30.078 Z-0.314 I1.15 J0.842
X32.75 Y28.394 Z-0.47 I-1.15 J-0.842
X35.05 Y30.078 Z-0.627 I1.15 J0.842
X32.75 Y28.394 Z-0.783 I-1.15 J-0.842
X35.05 Y30.078 Z-0.939 I1.15 J0.842
X32.75 Y28.394 Z-1.096 I-1.15 J-0.842
X35.05 Y30.078 Z-1.252 I1.15 J0.842
X32.75 Y28.394 Z-1.408 I-1.15 J-0.842
X35.05 Y30.078 Z-1.565 I1.15 J0.842
X32.75 Y28.394 Z-1.721 I-1.15 J-0.842
X35.05 Y30.078 Z-1.877 I1.15 J0.842
X32.75 Y28.394 Z-2.034 I-1.15 J-0.842
X35.05 Y30.078 Z-2.19 I1.15 J0.842
X32.75 Y28.394 Z-2.346 I-1.15 J-0.842
X35.05 Y30.078 Z-2.503 I1.15 J0.842
X32.75 Y28.394 Z-2.659 I-1.15 J-0.842
X35.05 Y30.078 Z-2.815 I1.15 J0.842
X32.75 Y28.394 Z-2.972 I-1.15 J-0.842
X35.05 Y30.078 Z-3.128 I1.15 J0.842
X32.75 Y28.394 Z-3.284 I-1.15 J-0.842
X35.05 Y30.078 Z-3.441 I1.15 J0.842
X32.75 Y28.394 Z-3.597 I-1.15 J-0.842
X35.05 Y30.078 Z-3.753 I1.15 J0.842
X33.9 Y30.661 Z-3.8 I-1.15 J-0.842
X33.9 Y28.73 I0 J-0.966
G1 X39.9 F1000
G3 X39.9 Y29.62 I0 J0.445
G1 X33.9
G3 X33.9 Y28.73 I0 J-0.445
G2 X34.691 Y28.202 I0 J-0.857
G3 X35.482 Y27.675 I0.791 J0.33
G1 X39.9
G3 X39.9 Y30.675 I0 J1.5
G1 X33.9
G3 X33.9 Y27.675 I0 J-1.5
G1 X35.482
X35.516 Y27.682
X35.545 Y27.701
X35.565 Y27.73
X35.571 Y27.764
X35.565 Y27.798
X35.402 Y28.197
X34.939 Y29.661
X34.936 Y29.695
X34.946 Y29.728
X35.076 Y29.958
X35.086 Y29.988
X35.084 Y30.019
X35.072 Y30.048
G3 X32.728 Y28.425 Z-3.956 I-1.172 J-0.811 F333.3
X35.072 Y30.048 Z-4.113 I1.172 J0.811
X32.728 Y28.425 Z-4.269 I-1.172 J-0.811
X35.072 Y30.048 Z-4.425 I1.172 J0.811
X32.728 Y28.425 Z-4.582 I-1.172 J-0.811
X35.072 Y30.048 Z-4.738 I1.172 J0.811
X32.728 Y28.425 Z-4.894 I-1.172 J-0.811
X35.072 Y30.048 Z-5.051 I1.172 J0.811
X32.728 Y28.425 Z-5.207 I-1.172 J-0.811
X35.072 Y30.048 Z-5.363 I1.172 J0.811
X32.728 Y28.425 Z-5.52 I-1.172 J-0.811
X35.072 Y30.048 Z-5.676 I1.172 J0.811
X32.728 Y28.425 Z-5.832 I-1.172 J-0.811
X35.072 Y30.048 Z-5.989 I1.172 J0.811
X32.728 Y28.425 Z-6.145 I-1.172 J-0.811
X35.072 Y30.048 Z-6.301 I1.172 J0.811
X32.728 Y28.425 Z-6.458 I-1.172 J-0.811
X35.072 Y30.048 Z-6.614 I1.172 J0.811
X32.728 Y28.425 Z-6.77 I-1.172 J-0.811
X35.072 Y30.048 Z-6.927 I1.172 J0.811
X32.728 Y28.425 Z-7.083 I-1.172 J-0.811
X35.072 Y30.048 Z-7.239 I1.172 J0.811
X32.728 Y28.425 Z-7.396 I-1.172 J-0.811
X35.072 Y30.048 Z-7.552 I1.172 J0.811
X33.9 Y30.661 Z-7.6 I-1.172 J-0.811
X33.9 Y28.73 I0 J-0.966
G1 X39.9 F1000
G3 X39.9 Y29.62 I0 J0.445
G1 X33.9
G3 X33.9 Y28.73 I0 J-0.445
G2 X34.691 Y28.202 I0 J-0.857
G3 X35.482 Y27.675 I0.791 J0.33
G1 X39.9
G3 X39.9 Y30.675 I0 J1.5
G1 X33.9
G3 X33.9 Y27.675 I0 J-1.5
G1 X35.482
X35.516 Y27.682
X35.545 Y27.701
X35.565 Y27.73
X35.571 Y27.764
X35.565 Y27.798
X35.402 Y28.197
X34.939 Y29.661
X34.936 Y29.695
X34.946 Y29.728
X35.076 Y29.958
X35.086 Y29.988
X35.084 Y30.019
X35.072 Y30.048
G3 X32.728 Y28.425 Z-7.756 I-1.172 J-0.811 F333.3
X35.072 Y30.048 Z-7.913 I1.172 J0.811
X32.728 Y28.425 Z-8.069 I-1.172 J-0.811
X35.072 Y30.048 Z-8.225 I1.172 J0.811
X32.728 Y28.425 Z-8.382 I-1.172 J-0.811
X35.072 Y30.048 Z-8.538 I1.172 J0.811
X32.728 Y28.425 Z-8.694 I-1.172 J-0.811
X35.072 Y30.048 Z-8.851 I1.172 J0.811
X32.728 Y28.425 Z-9.007 I-1.172 J-0.811
X35.072 Y30.048 Z-9.163 I1.172 J0.811
X32.728 Y28.425 Z-9.32 I-1.172 J-0.811
X35.072 Y30.048 Z-9.476 I1.172 J0.811
X32.728 Y28.425 Z-9.632 I-1.172 J-0.811
X35.072 Y30.048 Z-9.789 I1.172 J0.811
X32.728 Y28.425 Z-9.945 I-1.172 J-0.811
X35.072 Y30.048 Z-10.101 I1.172 J0.811
X32.728 Y28.425 Z-10.258 I-1.172 J-0.811
X35.072 Y30.048 Z-10.414 I1.172 J0.811
X32.728 Y28.425 Z-10.57 I-1.172 J-0.811
X35.072 Y30.048 Z-10.727 I1.172 J0.811
X32.728 Y28.425 Z-10.883 I-1.172 J-0.811
X35.072 Y30.048 Z-11.039 I1.172 J0.811
X32.728 Y28.425 Z-11.196 I-1.172 J-0.811
X35.072 Y30.048 Z-11.352 I1.172 J0.811
X33.9 Y30.661 Z-11.4 I-1.172 J-0.811
X33.9 Y28.73 I0 J-0.966
G1 X39.9 F1000
G3 X39.9 Y29.62 I0 J0.445
G1 X33.9
G3 X33.9 Y28.73 I0 J-0.445
G2 X34.691 Y28.202 I0 J-0.857
G3 X35.482 Y27.675 I0.791 J0.33
G1 X39.9
G3 X39.9 Y30.675 I0 J1.5
G1 X33.9
G3 X33.9 Y27.675 I0 J-1.5
G1 X35.482
X35.516 Y27.682
X35.545 Y27.701
X35.565 Y27.73
X35.571 Y27.764
X35.565 Y27.798
X35.402 Y28.197
X34.939 Y29.661
X34.936 Y29.695
X34.946 Y29.728
X35.076 Y29.958
X35.086 Y29.988
X35.084 Y30.019
X35.072 Y30.048
G3 X32.728 Y28.425 Z-11.556 I-1.172 J-0.811 F333.3
X35.072 Y30.048 Z-11.713 I1.172 J0.811
X32.728 Y28.425 Z-11.869 I-1.172 J-0.811
X35.072 Y30.048 Z-12.025 I1.172 J0.811
X32.728 Y28.425 Z-12.182 I-1.172 J-0.811
X35.072 Y30.048 Z-12.338 I1.172 J0.811
X32.728 Y28.425 Z-12.494 I-1.172 J-0.811
X35.072 Y30.048 Z-12.651 I1.172 J0.811
X32.728 Y28.425 Z-12.807 I-1.172 J-0.811
X35.072 Y30.048 Z-12.963 I1.172 J0.811
X32.728 Y28.425 Z-13.12 I-1.172 J-0.811
X35.072 Y30.048 Z-13.276 I1.172 J0.811
X32.728 Y28.425 Z-13.432 I-1.172 J-0.811
X35.072 Y30.048 Z-13.589 I1.172 J0.811
X32.728 Y28.425 Z-13.745 I-1.172 J-0.811
X35.072 Y30.048 Z-13.901 I1.172 J0.811
X32.728 Y28.425 Z-14.058 I-1.172 J-0.811
X35.072 Y30.048 Z-14.214 I1.172 J0.811
X32.728 Y28.425 Z-14.37 I-1.172 J-0.811
X35.072 Y30.048 Z-14.527 I1.172 J0.811
X32.728 Y28.425 Z-14.683 I-1.172 J-0.811
X35.072 Y30.048 Z-14.839 I1.172 J0.811
X32.728 Y28.425 Z-14.996 I-1.172 J-0.811
X35.072 Y30.048 Z-15.152 I1.172 J0.811
X33.9 Y30.661 Z-15.2 I-1.172 J-0.811
X33.9 Y28.73 I0 J-0.966
G1 X39.9 F1000
G3 X39.9 Y29.62 I0 J0.445
G1 X33.9
G3 X33.9 Y28.73 I0 J-0.445
G2 X34.691 Y28.202 I0 J-0.857
G3 X35.482 Y27.675 I0.791 J0.33
G1 X39.9
G3 X39.9 Y30.675 I0 J1.5
G1 X33.9
G3 X33.9 Y27.675 I0 J-1.5
G1 X35.482
X35.516 Y27.682
X35.545 Y27.701
X35.565 Y27.73
X35.571 Y27.764
X35.565 Y27.798
X35.402 Y28.197
X34.939 Y29.661
X34.936 Y29.695
X34.946 Y29.728
X35.076 Y29.958
X35.086 Y29.988
X35.084 Y30.019
X35.072 Y30.048
G3 X32.728 Y28.425 Z-15.356 I-1.172 J-0.811 F333.3
X35.072 Y30.048 Z-15.513 I1.172 J0.811
X32.728 Y28.425 Z-15.669 I-1.172 J-0.811
X35.072 Y30.048 Z-15.825 I1.172 J0.811
X32.728 Y28.425 Z-15.982 I-1.172 J-0.811
X35.072 Y30.048 Z-16.138 I1.172 J0.811
X32.728 Y28.425 Z-16.294 I-1.172 J-0.811
X35.072 Y30.048 Z-16.451 I1.172 J0.811
X32.728 Y28.425 Z-16.607 I-1.172 J-0.811
X35.072 Y30.048 Z-16.763 I1.172 J0.811
X32.728 Y28.425 Z-16.92 I-1.172 J-0.811
X35.072 Y30.048 Z-17.076 I1.172 J0.811
X32.728 Y28.425 Z-17.232 I-1.172 J-0.811
X35.072 Y30.048 Z-17.389 I1.172 J0.811
X32.728 Y28.425 Z-17.545 I-1.172 J-0.811
X35.072 Y30.048 Z-17.701 I1.172 J0.811
X32.728 Y28.425 Z-17.858 I-1.172 J-0.811
X35.072 Y30.048 Z-18.014 I1.172 J0.811
X32.728 Y28.425 Z-18.17 I-1.172 J-0.811
X35.072 Y30.048 Z-18.327 I1.172 J0.811
X32.728 Y28.425 Z-18.483 I-1.172 J-0.811
X35.072 Y30.048 Z-18.639 I1.172 J0.811
X32.728 Y28.425 Z-18.796 I-1.172 J-0.811
X35.072 Y30.048 Z-18.952 I1.172 J0.811
X33.9 Y30.661 Z-19 I-1.172 J-0.811
X33.9 Y28.73 I0 J-0.966
G1 X39.9 F1000
G3 X39.9 Y29.62 I0 J0.445
G1 X33.9
G3 X33.9 Y28.73 I0 J-0.445
G2 X34.691 Y28.202 I0 J-0.857
G3 X35.482 Y27.675 I0.791 J0.33
G1 X39.9
G3 X39.9 Y30.675 I0 J1.5
G1 X33.9
G3 X33.9 Y27.675 I0 J-1.5
G1 X35.482
X35.54 Y27.68 Z-18.989
X35.595 Y27.697 Z-18.977
X35.638 Y27.718 Z-18.945
X35.677 Y27.747 Z-18.912
X35.722 Y27.794 Z-18.815
X35.735 Y27.813 Z-18.7
G0 Z15

(2D Contour9)
X147.396 Y61.7
Z15
Z5
G1 Z-3.7 F333.3
G18 G2 X147.696 Z-4 I0.3 K0 F1000
G1 X147.996
G17 G3 X148.296 Y62 I0 J0.3
G1 Y98.325
X51.704
Y25.675
X148.296
Y62
G3 X147.996 Y62.3 I-0.3 J0
G1 X147.696
G18 G3 X147.396 Z-3.7 I0 K0.3
G1 Y61.7
Z-7.7 F333.3
G2 X147.696 Z-8 I0.3 K0 F1000
G1 X147.996
G17 G3 X148.296 Y62 I0 J0.3
G1 Y98.325
X51.704
Y25.675
X148.296
Y62
G3 X147.996 Y62.3 I-0.3 J0
G1 X147.696
G18 G3 X147.396 Z-7.7 I0 K0.3
G1 Y61.7
Z-11.7 F333.3
G2 X147.696 Z-12 I0.3 K0 F1000
G1 X147.996
G17 G3 X148.296 Y62 I0 J0.3
G1 Y98.325
X51.704
Y25.675
X148.296
Y62
G3 X147.996 Y62.3 I-0.3 J0
G1 X147.696
G18 G3 X147.396 Z-11.7 I0 K0.3
G1 Y61.7
Z-15.7 F333.3
G2 X147.696 Z-16 I0.3 K0 F1000
G1 X147.996
G17 G3 X148.296 Y62 I0 J0.3
G1 Y98.325
X51.704
Y25.675
X148.296
Y62
G3 X147.996 Y62.3 I-0.3 J0
G1 X147.696
G18 G3 X147.396 Z-15.7 I0 K0.3
G1 Y61.7
Z-18 F333.3
X147.696 F1000
X147.996
G17 G3 X148.296 Y62 I0 J0.3
G1 Y65
Z-19 F333.3
Y98.325 F1000
X127.898
Z-18
X121.898
Z-19 F333.3
X78.102 F1000
Z-18
X72.102
Z-19 F333.3
X51.704 F1000
Y65
Z-18
Y59
Z-19 F333.3
Y25.675 F1000
X72.102
Z-18
X78.102
Z-19 F333.3
X121.898 F1000
Z-18
X127.898
Z-19 F333.3
X148.296 F1000
Y59
Z-18
Y62
G3 X147.996 Y62.3 I-0.3 J0
G1 X147.396
G0 Z15

(2D Pocket11)
X33.116 Y94.147
Z15
Z5
G1 Z2.8 F333.3
X33.1 Y94.112 Z2.653
X33.06 Y94.014 Z2.544
X33.018 Y93.875 Z2.5
G3 X35.782 Y93.183 Z2.344 I1.382 J-0.346
X33.018 Y93.875 Z2.187 I-1.382 J0.346
X35.782 Y93.183 Z2.031 I1.382 J-0.346
X33.018 Y93.875 Z1.875 I-1.382 J0.346
X35.782 Y93.183 Z1.718 I1.382 J-0.346
X33.018 Y93.875 Z1.562 I-1.382 J0.346
X35.782 Y93.183 Z1.406 I1.382 J-0.346
X33.018 Y93.875 Z1.249 I-1.382 J0.346
X35.782 Y93.183 Z1.093 I1.382 J-0.346
X33.018 Y93.875 Z0.937 I-1.382 J0.346
X35.782 Y93.183 Z0.78 I1.382 J-0.346
X33.018 Y93.875 Z0.624 I-1.382 J0.346
X35.782 Y93.183 Z0.468 I1.382 J-0.346
X33.018 Y93.875 Z0.311 I-1.382 J0.346
X35.782 Y93.183 Z0.155 I1.382 J-0.346
X33.018 Y93.875 Z-0.001 I-1.382 J0.346
X35.782 Y93.183 Z-0.158 I1.382 J-0.346
X33.018 Y93.875 Z-0.314 I-1.382 J0.346
X35.782 Y93.183 Z-0.47 I1.382 J-0.346
X33.018 Y93.875 Z-0.627 I-1.382 J0.346
X35.782 Y93.183 Z-0.783 I1.382 J-0.346
X33.018 Y93.875 Z-0.939 I-1.382 J0.346
X35.782 Y93.183 Z-1.096 I1.382 J-0.346
X33.018 Y93.875 Z-1.252 I-1.382 J0.346
X35.782 Y93.183 Z-1.408 I1.382 J-0.346
X33.018 Y93.875 Z-1.565 I-1.382 J0.346
X35.782 Y93.183 Z-1.721 I1.382 J-0.346
X33.018 Y93.875 Z-1.877 I-1.382 J0.346
X35.782 Y93.183 Z-2.034 I1.382 J-0.346
X33.018 Y93.875 Z-2.19 I-1.382 J0.346
X35.782 Y93.183 Z-2.346 I1.382 J-0.346
X33.018 Y93.875 Z-2.503 I-1.382 J0.346
X35.782 Y93.183 Z-2.659 I1.382 J-0.346
X33.018 Y93.875 Z-2.815 I-1.382 J0.346
X35.782 Y93.183 Z-2.972 I1.382 J-0.346
X33.018 Y93.875 Z-3.128 I-1.382 J0.346
X35.782 Y93.183 Z-3.284 I1.382 J-0.346
X33.018 Y93.875 Z-3.441 I-1.382 J0.346
X35.782 Y93.183 Z-3.597 I1.382 J-0.346
X33.018 Y93.875 Z-3.753 I-1.382 J0.346
X35.782 Y93.183 Z-3.91 I1.382 J-0.346
X34.4 Y94.954 Z-4 I-1.382 J0.346
G1 X34.368 F1000
X34.331 Y94.946
X34.299 Y94.926
X34.279 Y94.894
X34.271 Y94.857
Y94.793
X34.279 Y94.756
X34.299 Y94.724
X34.331 Y94.704
X34.368 Y94.696
X39.432
X39.469 Y94.704
X39.501 Y94.724
X39.521 Y94.756
X39.529 Y94.793
Y94.857
X39.521 Y94.894
X39.501 Y94.926
X39.469 Y94.946
X39.432 Y94.954
X34.4
G2 X33.587 Y95.53 I0 J0.862
G3 X32.605 Y95.362 I-0.477 J-0.168
G1 Y93.349
G3 X32.924 Y93.03 I0.319 J0
G1 X40.876
G3 X41.195 Y93.349 I0 J0.319
G1 Y96.301
G3 X40.876 Y96.62 I-0.319 J0
G1 X32.924
G3 X32.605 Y96.301 I0 J-0.319
G1 Y95.362
G2 X31.753 Y94.083 I-1.385 J0
G3 X30.9 Y92.804 I0.533 J-1.279
G1 Y91.325
X42.9
Y98.325
X30.9
Y92.804
G3 X31.241 Y92.663 I0.2 J0
G1 X32.694 Y94.107
G2 X33.027 Y93.911 I0.141 J-0.142
G3 X35.773 Y93.146 Z-4.156 I1.373 J-0.383 F333.3
X33.027 Y93.911 Z-4.313 I-1.373 J0.383
X35.773 Y93.146 Z-4.469 I1.373 J-0.383
X33.027 Y93.911 Z-4.625 I-1.373 J0.383
X35.773 Y93.146 Z-4.782 I1.373 J-0.383
X33.027 Y93.911 Z-4.938 I-1.373 J0.383
X35.773 Y93.146 Z-5.094 I1.373 J-0.383
X33.027 Y93.911 Z-5.251 I-1.373 J0.383
X35.773 Y93.146 Z-5.407 I1.373 J-0.383
X33.027 Y93.911 Z-5.563 I-1.373 J0.383
X35.773 Y93.146 Z-5.72 I1.373 J-0.383
X33.027 Y93.911 Z-5.876 I-1.373 J0.383
X35.773 Y93.146 Z-6.032 I1.373 J-0.383
X33.027 Y93.911 Z-6.189 I-1.373 J0.383
X35.773 Y93.146 Z-6.345 I1.373 J-0.383
X33.027 Y93.911 Z-6.501 I-1.373 J0.383
X35.773 Y93.146 Z-6.658 I1.373 J-0.383
X33.027 Y93.911 Z-6.814 I-1.373 J0.383
X35.773 Y93.146 Z-6.97 I1.373 J-0.383
X33.027 Y93.911 Z-7.127 I-1.373 J0.383
X35.773 Y93.146 Z-7.283 I1.373 J-0.383
X33.027 Y93.911 Z-7.439 I-1.373 J0.383
X35.773 Y93.146 Z-7.596 I1.373 J-0.383
X33.027 Y93.911 Z-7.752 I-1.373 J0.383
X35.773 Y93.146 Z-7.908 I1.373 J-0.383
X34.4 Y94.954 Z-8 I-1.373 J0.383
G1 X34.368 F1000
X34.331 Y94.946
X34.299 Y94.926
X34.279 Y94.894
X34.271 Y94.857
Y94.793
X34.279 Y94.756
X34.299 Y94.724
X34.331 Y94.704
X34.368 Y94.696
X39.432
X39.469 Y94.704
X39.501 Y94.724
X39.521 Y94.756
X39.529 Y94.793
Y94.857
X39.521 Y94.894
X39.501 Y94.926
X39.469 Y94.946
X39.432 Y94.954
X34.4
G2 X33.587 Y95.53 I0 J0.862
G3 X32.605 Y95.362 I-0.477 J-0.168
G1 Y93.349
G3 X32.924 Y93.03 I0.319 J0
G1 X40.876
G3 X41.195 Y93.349 I0 J0.319
G1 Y96.301
G3 X40.876 Y96.62 I-0.319 J0
G1 X32.924
G3 X32.605 Y96.301 I0 J-0.319
G1 Y95.362
G2 X31.753 Y94.083 I-1.385 J0
G3 X30.9 Y92.804 I0.533 J-1.279
G1 Y91.325
X42.9
Y98.325
X30.9
Y92.804
X30.905 Y92.747 Z-7.989
X30.922 Y92.692 Z-7.977
X30.943 Y92.649 Z-7.945
X30.972 Y92.61 Z-7.912
X31.019 Y92.565 Z-7.815
X31.038 Y92.552 Z-7.7
G0 Z5
X38.722 Y30.459
G1 Z2.8 F333.3
X38.687 Y30.475 Z2.653
X38.589 Y30.515 Z2.544
X38.45 Y30.557 Z2.5
G3 X37.758 Y27.793 Z2.344 I-0.346 J-1.382
X38.45 Y30.557 Z2.187 I0.346 J1.382
X37.758 Y27.793 Z2.031 I-0.346 J-1.382
X38.45 Y30.557 Z1.875 I0.346 J1.382
X37.758 Y27.793 Z1.718 I-0.346 J-1.382
X38.45 Y30.557 Z1.562 I0.346 J1.382
X37.758 Y27.793 Z1.406 I-0.346 J-1.382
X38.45 Y30.557 Z1.249 I0.346 J1.382
X37.758 Y27.793 Z1.093 I-0.346 J-1.382
X38.45 Y30.557 Z0.937 I0.346 J1.382
X37.758 Y27.793 Z0.78 I-0.346 J-1.382
X38.45 Y30.557 Z0.624 I0.346 J1.382
X37.758 Y27.793 Z0.468 I-0.346 J-1.382
X38.45 Y30.557 Z0.311 I0.346 J1.382
X37.758 Y27.793 Z0.155 I-0.346 J-1.382
X38.45 Y30.557 Z-0.001 I0.346 J1.382
X37.758 Y27.793 Z-0.158 I-0.346 J-1.382
X38.45 Y30.557 Z-0.314 I0.346 J1.382
X37.758 Y27.793 Z-0.47 I-0.346 J-1.382
X38.45 Y30.557 Z-0.627 I0.346 J1.382
X37.758 Y27.793 Z-0.783 I-0.346 J-1.382
X38.45 Y30.557 Z-0.939 I0.346 J1.382
X37.758 Y27.793 Z-1.096 I-0.346 J-1.382
X38.45 Y30.557 Z-1.252 I0.346 J1.382
X37.758 Y27.793 Z-1.408 I-0.346 J-1.382
X38.45 Y30.557 Z-1.565 I0.346 J1.382
X37.758 Y27.793 Z-1.721 I-0.346 J-1.382
X38.45 Y30.557 Z-1.877 I0.346 J1.382
X37.758 Y27.793 Z-2.034 I-0.346 J-1.382
X38.45 Y30.557 Z-2.19 I0.346 J1.382
X37.758 Y27.793 Z-2.346 I-0.346 J-1.382
X38.45 Y30.557 Z-2.503 I0.346 J1.382
X37.758 Y27.793 Z-2.659 I-0.346 J-1.382
X38.45 Y30.557 Z-2.815 I0.346 J1.382
X37.758 Y27.793 Z-2.972 I-0.346 J-1.382
X38.45 Y30.557 Z-3.128 I0.346 J1.382
X37.758 Y27.793 Z-3.284 I-0.346 J-1.382
X38.45 Y30.557 Z-3.441 I0.346 J1.382
X37.758 Y27.793 Z-3.597 I-0.346 J-1.382
X38.45 Y30.557 Z-3.753 I0.346 J1.382
X37.758 Y27.793 Z-3.91 I-0.346 J-1.382
X39.529 Y29.175 Z-4 I0.346 J1.382
G1 Y29.207 F1000
X39.521 Y29.244
X39.501 Y29.276
X39.469 Y29.296
X39.432 Y29.304
X34.368
X34.331 Y29.296
X34.299 Y29.276
X34.279 Y29.244
X34.271 Y29.207
Y29.143
X34.279 Y29.106
X34.299 Y29.074
X34.331 Y29.054
X34.368 Y29.046
X39.432
X39.469 Y29.054
X39.501 Y29.074
X39.521 Y29.106
X39.529 Y29.143
Y29.175
G2 X40.105 Y29.988 I0.862 J0
G3 X39.937 Y30.97 I-0.168 J0.477
G1 X32.924
G3 X32.605 Y30.651 I0 J-0.319
G1 Y27.699
G3 X32.924 Y27.38 I0.319 J0
G1 X40.876
G3 X41.195 Y27.699 I0 J0.319
G1 Y30.651
G3 X40.876 Y30.97 I-0.319 J0
G1 X39.937
G2 X38.658 Y31.823 I0 J1.385
G3 X37.379 Y32.675 I-1.279 J-0.533
G1 X30.9
Y25.675
X42.9
Y32.675
X37.379
G3 X37.238 Y32.334 I0 J-0.2
G1 X38.682 Y30.881
G2 X38.486 Y30.548 I-0.142 J-0.141
G3 X37.721 Y27.802 Z-4.156 I-0.383 J-1.373 F333.3
X38.486 Y30.548 Z-4.313 I0.383 J1.373
X37.721 Y27.802 Z-4.469 I-0.383 J-1.373
X38.486 Y30.548 Z-4.625 I0.383 J1.373
X37.721 Y27.802 Z-4.782 I-0.383 J-1.373
X38.486 Y30.548 Z-4.938 I0.383 J1.373
X37.721 Y27.802 Z-5.094 I-0.383 J-1.373
X38.486 Y30.548 Z-5.251 I0.383 J1.373
X37.721 Y27.802 Z-5.407 I-0.383 J-1.373
X38.486 Y30.548 Z-5.563 I0.383 J1.373
X37.721 Y27.802 Z-5.72 I-0.383 J-1.373
X38.486 Y30.548 Z-5.876 I0.383 J1.373
X37.721 Y27.802 Z-6.032 I-0.383 J-1.373
X38.486 Y30.548 Z-6.189 I0.383 J1.373
X37.721 Y27.802 Z-6.345 I-0.383 J-1.373
X38.486 Y30.548 Z-6.501 I0.383 J1.373
X37.721 Y27.802 Z-6.658 I-0.383 J-1.373
X38.486 Y30.548 Z-6.814 I0.383 J1.373
X37.721 Y27.802 Z-6.97 I-0.383 J-1.373
X38.486 Y30.548 Z-7.127 I0.383 J1.373
X37.721 Y27.802 Z-7.283 I-0.383 J-1.373
X38.486 Y30.548 Z-7.439 I0.383 J1.373
X37.721 Y27.802 Z-7.596 I-0.383 J-1.373
X38.486 Y30.548 Z-7.752 I0.383 J1.373
X37.721 Y27.802 Z-7.908 I-0.383 J-1.373
X39.529 Y29.175 Z-8 I0.383 J1.373
G1 Y29.207 F1000
X39.521 Y29.244
X39.501 Y29.276
X39.469 Y29.296
X39.432 Y29.304
X34.368
X34.331 Y29.296
X34.299 Y29.276
X34.279 Y29.244
X34.271 Y29.207
Y29.143
X34.279 Y29.106
X34.299 Y29.074
X34.331 Y29.054
X34.368 Y29.046
X39.432
X39.469 Y29.054
X39.501 Y29.074
X39.521 Y29.106
X39.529 Y29.143
Y29.175
G2 X40.105 Y29.988 I0.862 J0
G3 X39.937 Y30.97 I-0.168 J0.477
G1 X32.924
G3 X32.605 Y30.651 I0 J-0.319
G1 Y27.699
G3 X32.924 Y27.38 I0.319 J0
G1 X40.876
G3 X41.195 Y27.699 I0 J0.319
G1 Y30.651
G3 X40.876 Y30.97 I-0.319 J0
G1 X39.937
G2 X38.658 Y31.823 I0 J1.385
G3 X37.379 Y32.675 I-1.279 J-0.533
G1 X30.9
Y25.675
X42.9
Y32.675
X37.379
X37.322 Y32.67 Z-7.989
X37.267 Y32.653 Z-7.977
X37.224 Y32.632 Z-7.945
X37.185 Y32.603 Z-7.912
X37.14 Y32.556 Z-7.815
X37.127 Y32.537 Z-7.7
G0 Z5
X164.922 Y30.459
G1 Z2.8 F333.3
X164.887 Y30.475 Z2.653
X164.789 Y30.515 Z2.544
X164.65 Y30.557 Z2.5
G3 X163.958 Y27.793 Z2.344 I-0.346 J-1.382
X164.65 Y30.557 Z2.187 I0.346 J1.382
X163.958 Y27.793 Z2.031 I-0.346 J-1.382
X164.65 Y30.557 Z1.875 I0.346 J1.382
X163.958 Y27.793 Z1.718 I-0.346 J-1.382
X164.65 Y30.557 Z1.562 I0.346 J1.382
X163.958 Y27.793 Z1.406 I-0.346 J-1.382
X164.65 Y30.557 Z1.249 I0.346 J1.382
X163.958 Y27.793 Z1.093 I-0.346 J-1.382
X164.65 Y30.557 Z0.937 I0.346 J1.382
X163.958 Y27.793 Z0.78 I-0.346 J-1.382
X164.65 Y30.557 Z0.624 I0.346 J1.382
X163.958 Y27.793 Z0.468 I-0.346 J-1.382
X164.65 Y30.557 Z0.311 I0.346 J1.382
X163.958 Y27.793 Z0.155 I-0.346 J-1.382
X164.65 Y30.557 Z-0.001 I0.346 J1.382
X163.958 Y27.793 Z-0.158 I-0.346 J-1.382
X164.65 Y30.557 Z-0.314 I0.346 J1.382
X163.958 Y27.793 Z-0.47 I-0.346 J-1.382
X164.65 Y30.557 Z-0.627 I0.346 J1.382
X163.958 Y27.793 Z-0.783 I-0.346 J-1.382
X164.65 Y30.557 Z-0.939 I0.346 J1.382
X163.958 Y27.793 Z-1.096 I-0.346 J-1.382
X164.65 Y30.557 Z-1.252 I0.346 J1.382
X163.958 Y27.793 Z-1.408 I-0.346 J-1.382
X164.65 Y30.557 Z-1.565 I0.346 J1.382
X163.958 Y27.793 Z-1.721 I-0.346 J-1.382
X164.65 Y30.557 Z-1.877 I0.346 J1.382
X163.958 Y27.793 Z-2.034 I-0.346 J-1.382
X164.65 Y30.557 Z-2.19 I0.346 J1.382
X163.958 Y27.793 Z-2.346 I-0.346 J-1.382
X164.65 Y30.557 Z-2.503 I0.346 J1.382
X163.958 Y27.793 Z-2.659 I-0.346 J-1.382
X164.65 Y30.557 Z-2.815 I0.346 J1.382
X163.958 Y27.793 Z-2.972 I-0.346 J-1.382
X164.65 Y30.557 Z-3.128 I0.346 J1.382
X163.958 Y27.793 Z-3.284 I-0.346 J-1.382
X164.65 Y30.557 Z-3.441 I0.346 J1.382
X163.958 Y27.793 Z-3.597 I-0.346 J-1.382
X164.65 Y30.557 Z-3.753 I0.346 J1.382
X163.958 Y27.793 Z-3.91 I-0.346 J-1.382
X165.729 Y29.175 Z-4 I0.346 J1.382
G1 Y29.207 F1000
X165.721 Y29.244
X165.701 Y29.276
X165.669 Y29.296
X165.632 Y29.304
X160.689
G3 X160.689 Y29.046 I0 J-0.129
G1 X165.632
X165.669 Y29.054
X165.701 Y29.074
X165.721 Y29.106
X165.729 Y29.143
Y29.175
G2 X166.305 Y29.988 I0.862 J0
G3 X166.137 Y30.97 I-0.168 J0.477
G1 X159.124
G3 X158.805 Y30.651 I0 J-0.319
G1 Y27.699
G3 X159.124 Y27.38 I0.319 J0
G1 X167.076
G3 X167.395 Y27.699 I0 J0.319
G1 Y30.651
G3 X167.076 Y30.97 I-0.319 J0
G1 X166.137
G2 X164.858 Y31.823 I0 J1.385
G3 X163.579 Y32.675 I-1.279 J-0.533
G1 X157.1
Y25.675
X169.1
Y32.675
X163.579
G3 X163.438 Y32.334 I0 J-0.2
G1 X164.882 Y30.881
G2 X164.686 Y30.548 I-0.142 J-0.141
G3 X163.921 Y27.802 Z-4.156 I-0.383 J-1.373 F333.3
X164.686 Y30.548 Z-4.313 I0.383 J1.373
X163.921 Y27.802 Z-4.469 I-0.383 J-1.373
X164.686 Y30.548 Z-4.625 I0.383 J1.373
X163.921 Y27.802 Z-4.782 I-0.383 J-1.373
X164.686 Y30.548 Z-4.938 I0.383 J1.373
X163.921 Y27.802 Z-5.094 I-0.383 J-1.373
X164.686 Y30.548 Z-5.251 I0.383 J1.373
X163.921 Y27.802 Z-5.407 I-0.383 J-1.373
X164.686 Y30.548 Z-5.563 I0.383 J1.373
X163.921 Y27.802 Z-5.72 I-0.383 J-1.373
X164.686 Y30.548 Z-5.876 I0.383 J1.373
X163.921 Y27.802 Z-6.032 I-0.383 J-1.373
X164.686 Y30.548 Z-6.189 I0.383 J1.373
X163.921 Y27.802 Z-6.345 I-0.383 J-1.373
X164.686 Y30.548 Z-6.501 I0.383 J1.373
X163.921 Y27.802 Z-6.658 I-0.383 J-1.373
X164.686 Y30.548 Z-6.814 I0.383 J1.373
X163.921 Y27.802 Z-6.97 I-0.383 J-1.373
X164.686 Y30.548 Z-7.127 I0.383 J1.373
X163.921 Y27.802 Z-7.283 I-0.383 J-1.373
X164.686 Y30.548 Z-7.439 I0.383 J1.373
X163.921 Y27.802 Z-7.596 I-0.383 J-1.373
X164.686 Y30.548 Z-7.752 I0.383 J1.373
X163.921 Y27.802 Z-7.908 I-0.383 J-1.373
X165.729 Y29.175 Z-8 I0.383 J1.373
G1 Y29.207 F1000
X165.721 Y29.244
X165.701 Y29.276
X165.669 Y29.296
X165.632 Y29.304
X160.689
G3 X160.689 Y29.046 I0 J-0.129
G1 X165.632
X165.669 Y29.054
X165.701 Y29.074
X165.721 Y29.106
X165.729 Y29.143
Y29.175
G2 X166.305 Y29.988 I0.862 J0
G3 X166.137 Y30.97 I-0.168 J0.477
G1 X159.124
G3 X158.805 Y30.651 I0 J-0.319
G1 Y27.699
G3 X159.124 Y27.38 I0.319 J0
G1 X167.076
G3 X167.395 Y27.699 I0 J0.319
G1 Y30.651
G3 X167.076 Y30.97 I-0.319 J0
G1 X166.137
G2 X164.858 Y31.823 I0 J1.385
G3 X163.579 Y32.675 I-1.279 J-0.533
G1 X157.1
Y25.675
X169.1
Y32.675
X163.579
X163.522 Y32.67 Z-7.989
X163.467 Y32.653 Z-7.977
X163.424 Y32.632 Z-7.945
X163.385 Y32.603 Z-7.912
X163.34 Y32.556 Z-7.815
X163.327 Y32.537 Z-7.7
G0 Z5
X164.922 Y96.109
G1 Z2.8 F333.3
X164.887 Y96.125 Z2.653
X164.789 Y96.165 Z2.544
X164.65 Y96.207 Z2.5
G3 X163.958 Y93.443 Z2.344 I-0.346 J-1.382
X164.65 Y96.207 Z2.187 I0.346 J1.382
X163.958 Y93.443 Z2.031 I-0.346 J-1.382
X164.65 Y96.207 Z1.875 I0.346 J1.382
X163.958 Y93.443 Z1.718 I-0.346 J-1.382
X164.65 Y96.207 Z1.562 I0.346 J1.382
X163.958 Y93.443 Z1.406 I-0.346 J-1.382
X164.65 Y96.207 Z1.249 I0.346 J1.382
X163.958 Y93.443 Z1.093 I-0.346 J-1.382
X164.65 Y96.207 Z0.937 I0.346 J1.382
X163.958 Y93.443 Z0.78 I-0.346 J-1.382
X164.65 Y96.207 Z0.624 I0.346 J1.382
X163.958 Y93.443 Z0.468 I-0.346 J-1.382
X164.65 Y96.207 Z0.311 I0.346 J1.382
X163.958 Y93.443 Z0.155 I-0.346 J-1.382
X164.65 Y96.207 Z-0.001 I0.346 J1.382
X163.958 Y93.443 Z-0.158 I-0.346 J-1.382
X164.65 Y96.207 Z-0.314 I0.346 J1.382
X163.958 Y93.443 Z-0.47 I-0.346 J-1.382
X164.65 Y96.207 Z-0.627 I0.346 J1.382
X163.958 Y93.443 Z-0.783 I-0.346 J-1.382
X164.65 Y96.207 Z-0.939 I0.346 J1.382
X163.958 Y93.443 Z-1.096 I-0.346 J-1.382
X164.65 Y96.207 Z-1.252 I0.346 J1.382
X163.958 Y93.443 Z-1.408 I-0.346 J-1.382
X164.65 Y96.207 Z-1.565 I0.346 J1.382
X163.958 Y93.443 Z-1.721 I-0.346 J-1.382
X164.65 Y96.207 Z-1.877 I0.346 J1.382
X163.958 Y93.443 Z-2.034 I-0.346 J-1.382
X164.65 Y96.207 Z-2.19 I0.346 J1.382
X163.958 Y93.443 Z-2.346 I-0.346 J-1.382
X164.65 Y96.207 Z-2.503 I0.346 J1.382
X163.958 Y93.443 Z-2.659 I-0.346 J-1.382
X164.65 Y96.207 Z-2.815 I0.346 J1.382
X163.958 Y93.443 Z-2.972 I-0.346 J-1.382
X164.65 Y96.207 Z-3.128 I0.346 J1.382
X163.958 Y93.443 Z-3.284 I-0.346 J-1.382
X164.65 Y96.207 Z-3.441 I0.346 J1.382
X163.958 Y93.443 Z-3.597 I-0.346 J-1.382
X164.65 Y96.207 Z-3.753 I0.346 J1.382
X163.958 Y93.443 Z-3.91 I-0.346 J-1.382
X165.729 Y94.825 Z-4 I0.346 J1.382
G1 Y94.857 F1000
X165.721 Y94.894
X165.701 Y94.926
X165.669 Y94.946
X165.632 Y94.954
X160.689
G3 X160.689 Y94.696 I0 J-0.129
G1 X165.632
X165.669 Y94.704
X165.701 Y94.724
X165.721 Y94.756
X165.729 Y94.793
Y94.825
G2 X166.305 Y95.638 I0.862 J0
G3 X166.137 Y96.62 I-0.168 J0.477
G1 X159.124
G3 X158.805 Y96.301 I0 J-0.319
G1 Y93.349
G3 X159.124 Y93.03 I0.319 J0
G1 X167.076
G3 X167.395 Y93.349 I0 J0.319
G1 Y96.301
G3 X167.076 Y96.62 I-0.319 J0
G1 X166.137
G2 X164.858 Y97.473 I0 J1.385
G3 X163.579 Y98.325 I-1.279 J-0.533
G1 X157.1
Y91.325
X169.1
Y98.325
X163.579
G3 X163.438 Y97.984 I0 J-0.2
G1 X164.882 Y96.531
G2 X164.686 Y96.198 I-0.142 J-0.141
G3 X163.921 Y93.452 Z-4.156 I-0.383 J-1.373 F333.3
X164.686 Y96.198 Z-4.313 I0.383 J1.373
X163.921 Y93.452 Z-4.469 I-0.383 J-1.373
X164.686 Y96.198 Z-4.625 I0.383 J1.373
X163.921 Y93.452 Z-4.782 I-0.383 J-1.373
X164.686 Y96.198 Z-4.938 I0.383 J1.373
X163.921 Y93.452 Z-5.094 I-0.383 J-1.373
X164.686 Y96.198 Z-5.251 I0.383 J1.373
X163.921 Y93.452 Z-5.407 I-0.383 J-1.373
X164.686 Y96.198 Z-5.563 I0.383 J1.373
X163.921 Y93.452 Z-5.72 I-0.383 J-1.373
X164.686 Y96.198 Z-5.876 I0.383 J1.373
X163.921 Y93.452 Z-6.032 I-0.383 J-1.373
X164.686 Y96.198 Z-6.189 I0.383 J1.373
X163.921 Y93.452 Z-6.345 I-0.383 J-1.373
X164.686 Y96.198 Z-6.501 I0.383 J1.373
X163.921 Y93.452 Z-6.658 I-0.383 J-1.373
X164.686 Y96.198 Z-6.814 I0.383 J1.373
X163.921 Y93.452 Z-6.97 I-0.383 J-1.373
X164.686 Y96.198 Z-7.127 I0.383 J1.373
X163.921 Y93.452 Z-7.283 I-0.383 J-1.373
X164.686 Y96.198 Z-7.439 I0.383 J1.373
X163.921 Y93.452 Z-7.596 I-0.383 J-1.373
X164.686 Y96.198 Z-7.752 I0.383 J1.373
X163.921 Y93.452 Z-7.908 I-0.383 J-1.373
X165.729 Y94.825 Z-8 I0.383 J1.373
G1 Y94.857 F1000
X165.721 Y94.894
X165.701 Y94.926
X165.669 Y94.946
X165.632 Y94.954
X160.689
G3 X160.689 Y94.696 I0 J-0.129
G1 X165.632
X165.669 Y94.704
X165.701 Y94.724
X165.721 Y94.756
X165.729 Y94.793
Y94.825
G2 X166.305 Y95.638 I0.862 J0
G3 X166.137 Y96.62 I-0.168 J0.477
G1 X159.124
G3 X158.805 Y96.301 I0 J-0.319
G1 Y93.349
G3 X159.124 Y93.03 I0.319 J0
G1 X167.076
G3 X167.395 Y93.349 I0 J0.319
G1 Y96.301
G3 X167.076 Y96.62 I-0.319 J0
G1 X166.137
G2 X164.858 Y97.473 I0 J1.385
G3 X163.579 Y98.325 I-1.279 J-0.533
G1 X157.1
Y91.325
X169.1
Y98.325
X163.579
X163.522 Y98.32 Z-7.989
X163.467 Y98.303 Z-7.977
X163.424 Y98.282 Z-7.945
X163.385 Y98.253 Z-7.912
X163.34 Y98.206 Z-7.815
X163.327 Y98.187 Z-7.7
G0 Z15
M9
M5
M30
