(TinyCNCRaspberryFront)
(T3  D=3 CR=0 - ZMIN=-19 - flat end mill)
G90 G94
G17
G21

(2D Pocket12)
T3
S5000 M3
G54
M8
G0 X103.351 Y68.904
Z15
Z5
G1 Z2.8 F333.3
X103.317 Y68.886 Z2.653
X103.226 Y68.832 Z2.544
X103.109 Y68.747 Z2.5
G3 X104.891 Y66.523 Z2.344 I0.891 J-1.112
X103.109 Y68.747 Z2.187 I-0.891 J1.112
X104.891 Y66.523 Z2.031 I0.891 J-1.112
X103.109 Y68.747 Z1.875 I-0.891 J1.112
X104.891 Y66.523 Z1.718 I0.891 J-1.112
X103.109 Y68.747 Z1.562 I-0.891 J1.112
X104.891 Y66.523 Z1.406 I0.891 J-1.112
X103.109 Y68.747 Z1.249 I-0.891 J1.112
X104.891 Y66.523 Z1.093 I0.891 J-1.112
X103.109 Y68.747 Z0.937 I-0.891 J1.112
X104.891 Y66.523 Z0.78 I0.891 J-1.112
X103.109 Y68.747 Z0.624 I-0.891 J1.112
X104.891 Y66.523 Z0.468 I0.891 J-1.112
X103.109 Y68.747 Z0.311 I-0.891 J1.112
X104.891 Y66.523 Z0.155 I0.891 J-1.112
X103.109 Y68.747 Z-0.001 I-0.891 J1.112
X104.891 Y66.523 Z-0.158 I0.891 J-1.112
X103.109 Y68.747 Z-0.314 I-0.891 J1.112
X104.891 Y66.523 Z-0.47 I0.891 J-1.112
X103.109 Y68.747 Z-0.627 I-0.891 J1.112
X104.891 Y66.523 Z-0.783 I0.891 J-1.112
X103.109 Y68.747 Z-0.939 I-0.891 J1.112
X104.891 Y66.523 Z-1.096 I0.891 J-1.112
X103.109 Y68.747 Z-1.252 I-0.891 J1.112
X104.891 Y66.523 Z-1.408 I0.891 J-1.112
X103.109 Y68.747 Z-1.565 I-0.891 J1.112
X104.891 Y66.523 Z-1.721 I0.891 J-1.112
X103.109 Y68.747 Z-1.877 I-0.891 J1.112
X104 Y66.21 Z-2 I0.891 J-1.112
G1 X186.171 F1000
G3 X186.49 Y66.529 I0 J0.319
G1 Y66.871
G3 X186.171 Y67.19 I-0.319 J0
G1 X103.829
G3 X103.51 Y66.871 I0 J-0.319
G1 Y66.529
G3 X103.829 Y66.21 I0.319 J0
G1 X104
G2 X104.754 Y65.707 I0 J-0.817
G3 X105.507 Y65.205 I0.754 J0.314
G1 X187.176
G3 X187.495 Y65.524 I0 J0.319
G1 Y67.876
G3 X187.176 Y68.195 I-0.319 J0
G1 X102.824
G3 X102.505 Y67.876 I0 J-0.319
G1 Y65.524
G3 X102.824 Y65.205 I0.319 J0
G1 X105.507
G2 X106.783 Y64.355 I0 J-1.381
G3 X108.058 Y63.505 I1.275 J0.531
G1 X188.876
G3 X189.195 Y63.824 I0 J0.319
G1 Y69.576
G3 X188.876 Y69.895 I-0.319 J0
G1 X101.124
G3 X100.805 Y69.576 I0 J-0.319
G1 Y63.824
G3 X101.124 Y63.505 I0.319 J0
G1 X108.058
G2 X109.332 Y62.655 I0 J-1.381
G3 X110.607 Y61.805 I1.275 J0.531
G1 X190.576
G3 X190.895 Y62.124 I0 J0.319
G1 Y71.276
G3 X190.576 Y71.595 I-0.319 J0
G1 X99.424
G3 X99.105 Y71.276 I0 J-0.319
G1 Y62.124
G3 X99.424 Y61.805 I0.319 J0
G1 X110.607
G2 X111.882 Y60.955 I0 J-1.381
G3 X113.158 Y60.105 I1.275 J0.531
G1 X192.276
G3 X192.595 Y60.424 I0 J0.319
G1 Y72.976
G3 X192.276 Y73.295 I-0.319 J0
G1 X97.724
G3 X97.405 Y72.976 I0 J-0.319
G1 Y60.424
G3 X97.724 Y60.105 I0.319 J0
G1 X113.158
G2 X114.433 Y59.255 I0 J-1.381
G3 X115.707 Y58.405 I1.275 J0.531
G1 X193.976
G3 X194.295 Y58.724 I0 J0.319
G1 Y74.676
G3 X193.976 Y74.995 I-0.319 J0
G1 X96.024
G3 X95.705 Y74.676 I0 J-0.319
G1 Y58.724
G3 X96.024 Y58.405 I0.319 J0
G1 X115.707
G2 X116.982 Y57.555 I0 J-1.381
G3 X118.257 Y56.705 I1.275 J0.531
G1 X195.676
G3 X195.995 Y57.024 I0 J0.319
G1 Y76.376
G3 X195.676 Y76.695 I-0.319 J0
G1 X94.324
G3 X94.005 Y76.376 I0 J-0.319
G1 Y57.024
G3 X94.324 Y56.705 I0.319 J0
G1 X118.257
G2 X119.533 Y55.855 I0 J-1.381
G3 X120.808 Y55.005 I1.275 J0.531
G1 X197.376
G3 X197.695 Y55.324 I0 J0.319
G1 Y78.076
G3 X197.376 Y78.395 I-0.319 J0
G1 X92.624
G3 X92.305 Y78.076 I0 J-0.319
G1 Y55.324
G3 X92.624 Y55.005 I0.319 J0
G1 X120.808
G2 X122.082 Y54.155 I0 J-1.381
G3 X123.357 Y53.305 I1.275 J0.531
G1 X199.076
G3 X199.395 Y53.624 I0 J0.319
G1 Y79.776
G3 X199.076 Y80.095 I-0.319 J0
G1 X90.924
G3 X90.605 Y79.776 I0 J-0.319
G1 Y53.624
G3 X90.924 Y53.305 I0.319 J0
G1 X123.357
G2 X124.632 Y52.455 I0 J-1.381
G3 X125.908 Y51.605 I1.275 J0.531
G1 X200.776
G3 X201.095 Y51.924 I0 J0.319
G1 Y81.476
G3 X200.776 Y81.795 I-0.319 J0
G1 X89.224
G3 X88.905 Y81.476 I0 J-0.319
G1 Y51.924
G3 X89.224 Y51.605 I0.319 J0
G1 X125.908
G2 X127.183 Y50.755 I0 J-1.381
G3 X128.458 Y49.905 I1.275 J0.531
G1 X202.476
G3 X202.795 Y50.224 I0 J0.319
G1 Y83.176
G3 X202.476 Y83.495 I-0.319 J0
G1 X87.524
G3 X87.205 Y83.176 I0 J-0.319
G1 Y50.224
G3 X87.524 Y49.905 I0.319 J0
G1 X128.458
G2 X129.732 Y49.055 I0 J-1.381
G3 X131.008 Y48.205 I1.275 J0.531
G1 X204.176
G3 X204.495 Y48.524 I0 J0.319
G1 Y84.876
G3 X204.176 Y85.195 I-0.319 J0
G1 X85.824
G3 X85.505 Y84.876 I0 J-0.319
G1 Y48.524
G3 X85.824 Y48.205 I0.319 J0
G1 X131.008
G2 X132.283 Y47.355 I0 J-1.381
G3 X133.557 Y46.505 I1.275 J0.531
G1 X205.876
G3 X206.195 Y46.824 I0 J0.319
G1 Y86.576
G3 X205.876 Y86.895 I-0.319 J0
G1 X84.124
G3 X83.805 Y86.576 I0 J-0.319
G1 Y46.824
G3 X84.124 Y46.505 I0.319 J0
G1 X133.557
G2 X134.833 Y45.655 I0 J-1.381
G3 X136.107 Y44.805 I1.275 J0.531
G1 X207.576
G3 X207.895 Y45.124 I0 J0.319
G1 Y88.276
G3 X207.576 Y88.595 I-0.319 J0
G1 X82.424
G3 X82.105 Y88.276 I0 J-0.319
G1 Y45.124
G3 X82.424 Y44.805 I0.319 J0
G1 X136.107
G2 X137.383 Y43.955 I0 J-1.381
G3 X138.658 Y43.105 I1.275 J0.531
G1 X209.276
G3 X209.595 Y43.424 I0 J0.319
G1 Y89.976
G3 X209.276 Y90.295 I-0.319 J0
G1 X80.724
G3 X80.405 Y89.976 I0 J-0.319
G1 Y43.424
G3 X80.724 Y43.105 I0.319 J0
G1 X138.658
G2 X139.932 Y42.255 I0 J-1.381
G3 X141.208 Y41.405 I1.275 J0.531
G1 X210.976
G3 X211.295 Y41.724 I0 J0.319
G1 Y91.676
G3 X210.976 Y91.995 I-0.319 J0
G1 X79.024
G3 X78.705 Y91.676 I0 J-0.319
G1 Y41.724
G3 X79.024 Y41.405 I0.319 J0
G1 X141.208
G2 X142.482 Y40.555 I0 J-1.381
G3 X143.758 Y39.705 I1.275 J0.531
G1 X212.676
G3 X212.995 Y40.024 I0 J0.319
G1 Y93.376
G3 X212.676 Y93.695 I-0.319 J0
G1 X77.324
G3 X77.005 Y93.376 I0 J-0.319
G1 Y40.024
G3 X77.324 Y39.705 I0.319 J0
G1 X143.758
G2 X145.033 Y38.855 I0 J-1.381
G3 X146.307 Y38.005 I1.275 J0.531
G1 X214.376
G3 X214.695 Y38.324 I0 J0.319
G1 Y95.076
G3 X214.376 Y95.395 I-0.319 J0
G1 X75.624
G3 X75.305 Y95.076 I0 J-0.319
G1 Y38.324
G3 X75.624 Y38.005 I0.319 J0
G1 X146.307
G2 X147.583 Y37.155 I0 J-1.381
G3 X148.857 Y36.305 I1.275 J0.531
G1 X216.076
G3 X216.395 Y36.624 I0 J0.319
G1 Y96.776
G3 X216.076 Y97.095 I-0.319 J0
G1 X73.924
G3 X73.605 Y96.776 I0 J-0.319
G1 Y36.624
G3 X73.924 Y36.305 I0.319 J0
G1 X148.857
G2 X150.133 Y35.455 I0 J-1.381
G3 X151.408 Y34.605 I1.275 J0.531
G1 X217.776
G3 X218.095 Y34.924 I0 J0.319
G1 Y98.476
G3 X217.776 Y98.795 I-0.319 J0
G1 X72.224
G3 X71.905 Y98.476 I0 J-0.319
G1 Y34.924
G3 X72.224 Y34.605 I0.319 J0
G1 X151.408
G2 X152.682 Y33.755 I0 J-1.381
G3 X153.958 Y32.905 I1.275 J0.531
G1 X219.476
G3 X219.795 Y33.224 I0 J0.319
G1 Y100.176
G3 X219.476 Y100.495 I-0.319 J0
G1 X70.524
G3 X70.205 Y100.176 I0 J-0.319
G1 Y33.224
G3 X70.524 Y32.905 I0.319 J0
G1 X153.958
G2 X155.232 Y32.055 I0 J-1.381
G3 X156.508 Y31.205 I1.275 J0.531
G1 X221.176
G3 X221.495 Y31.524 I0 J0.319
G1 Y101.876
G3 X221.176 Y102.195 I-0.319 J0
G1 X68.824
G3 X68.505 Y101.876 I0 J-0.319
G1 Y31.524
G3 X68.824 Y31.205 I0.319 J0
G1 X156.508
G2 X157.783 Y30.355 I0 J-1.381
G3 X159.057 Y29.505 I1.275 J0.531
G1 X222.876
G3 X223.195 Y29.824 I0 J0.319
G1 Y103.576
G3 X222.876 Y103.895 I-0.319 J0
G1 X67.124
G3 X66.805 Y103.576 I0 J-0.319
G1 Y29.824
G3 X67.124 Y29.505 I0.319 J0
G1 X159.057
G2 X160.333 Y28.655 I0 J-1.381
G3 X161.607 Y27.805 I1.275 J0.531
G1 X224.576
G3 X224.895 Y28.124 I0 J0.319
G1 Y105.276
G3 X224.576 Y105.595 I-0.319 J0
G1 X65.424
G3 X65.105 Y105.276 I0 J-0.319
G1 Y28.124
G3 X65.424 Y27.805 I0.319 J0
G1 X161.607
G2 X162.883 Y26.955 I0 J-1.381
G3 X164.158 Y26.105 I1.275 J0.531
G1 X226.276
G3 X226.595 Y26.424 I0 J0.319
G1 Y106.976
G3 X226.276 Y107.295 I-0.319 J0
G1 X63.724
G3 X63.405 Y106.976 I0 J-0.319
G1 Y26.424
G3 X63.724 Y26.105 I0.319 J0
G1 X164.158
G2 X165.432 Y25.255 I0 J-1.381
G3 X166.708 Y24.405 I1.275 J0.531
G1 X227.976
G3 X228.295 Y24.724 I0 J0.319
G1 Y108.676
G3 X227.976 Y108.995 I-0.319 J0
G1 X62.024
G3 X61.705 Y108.676 I0 J-0.319
G1 Y24.724
G3 X62.024 Y24.405 I0.319 J0
G1 X166.708
G2 X167.982 Y23.555 I0 J-1.381
G3 X169.258 Y22.705 I1.275 J0.531
G1 X229.676
G3 X229.995 Y23.024 I0 J0.319
G1 Y110.376
G3 X229.676 Y110.695 I-0.319 J0
G1 X60.324
G3 X60.005 Y110.376 I0 J-0.319
G1 Y23.024
G3 X60.324 Y22.705 I0.319 J0
G1 X169.258
G2 X170.533 Y21.855 I0 J-1.381
G3 X171.807 Y21.005 I1.275 J0.531
G1 X231.376
G3 X231.695 Y21.324 I0 J0.319
G1 Y112.076
G3 X231.376 Y112.395 I-0.319 J0
G1 X58.624
G3 X58.305 Y112.076 I0 J-0.319
G1 Y21.324
G3 X58.624 Y21.005 I0.319 J0
G1 X171.807
G2 X173.083 Y20.155 I0 J-1.381
G3 X174.357 Y19.305 I1.275 J0.531
G1 X233.076
G3 X233.395 Y19.624 I0 J0.319
G1 Y113.776
G3 X233.076 Y114.095 I-0.319 J0
G1 X56.924
G3 X56.605 Y113.776 I0 J-0.319
G1 Y19.624
G3 X56.924 Y19.305 I0.319 J0
G1 X174.357
G2 X175.633 Y18.455 I0 J-1.381
G3 X176.908 Y17.605 I1.275 J0.531
G1 X234.776
G3 X235.095 Y17.924 I0 J0.319
G1 Y115.476
G3 X234.776 Y115.795 I-0.319 J0
G1 X55.224
G3 X54.905 Y115.476 I0 J-0.319
G1 Y17.924
G3 X55.224 Y17.605 I0.319 J0
G1 X176.908
G2 X178.149 Y16.778 I0 J-1.345
G3 X179.39 Y15.95 I1.241 J0.517
G1 X235.7
G3 X236.75 Y17 I0 J1.05
G1 Y116.4
G3 X235.7 Y117.45 I-1.05 J0
G1 X54.3
G3 X53.25 Y116.4 I0 J-1.05
G1 Y17
G3 X54.3 Y15.95 I1.05 J0
G1 X179.39
G2 X180.665 Y15.1 I0 J-1.381
G3 X181.94 Y14.25 I1.275 J0.531
G1 X235.7
G3 X238.45 Y17 I0 J2.75
G1 Y116.4
G3 X235.7 Y119.15 I-2.75 J0
G1 X54.3
G3 X51.55 Y116.4 I0 J-2.75
G1 Y17
G3 X54.3 Y14.25 I2.75 J0
G1 X181.94
G2 X183.253 Y13.375 I0 J-1.422
G3 X184.565 Y12.5 I1.313 J0.547
G1 X235.7
G3 X240.2 Y17 I0 J4.5
G1 Y116.4
G3 X235.7 Y120.9 I-4.5 J0
G1 X54.3
G3 X49.8 Y116.4 I0 J-4.5
G1 Y17
G3 X54.3 Y12.5 I4.5 J0
G1 X184.565
X184.622 Y12.505 Z-1.989
X184.677 Y12.522 Z-1.977
X184.72 Y12.543 Z-1.945
X184.76 Y12.572 Z-1.912
X184.804 Y12.619 Z-1.815
X184.817 Y12.638 Z-1.7
G0 Z15

(2D Pocket13)
X161.695 Y103.065
Z15
Z5
G1 Z-3.7 F333.3
G19 G3 Y103.365 Z-4 J0.3 K0 F1000
G1 Y108.063
Y109.376
G17 G3 X161.376 Y109.695 I-0.319 J0
G1 X128.624
G3 X128.305 Y109.376 I0 J-0.319
G1 Y108.063
G3 X128.505 Y107.863 I0.2 J0
G1 X163.195
G3 X163.395 Y108.063 I0 J0.2
G1 Y111.076
G3 X163.076 Y111.395 I-0.319 J0
G1 X126.924
G3 X126.605 Y111.076 I0 J-0.319
G1 Y108.063
G3 X126.805 Y107.863 I0.2 J0
G1 X164.895 Y107.862
G3 X165.095 Y108.062 I0 J0.2
G1 Y112.776
G3 X164.776 Y113.095 I-0.319 J0
G1 X125.224
G3 X124.905 Y112.776 I0 J-0.319
G1 Y108.064
G3 X125.105 Y107.864 I0.2 J0
G1 X166.595 Y107.862
G3 X166.795 Y108.062 I0 J0.2
G1 Y114.476
G3 X166.476 Y114.795 I-0.319 J0
G1 X123.524
G3 X123.205 Y114.476 I0 J-0.319
G1 Y108.064
G3 X123.405 Y107.864 I0.2 J0
G1 X168.3 Y107.874
G3 X168.5 Y108.074 I0 J0.2
G1 Y116.5
X121.5
Y109.46
Y108.063
G3 X121.697 Y107.863 I0.2 J0
G1 X161.492 Y107.251
G3 X161.695 Y107.451 I0.003 J0.2
G19 G2 Y107.751 Z-4.3 J0 K-0.3
G1 Z-7.7
G3 Y108.051 Z-8 J0.3 K0
G1 Y108.063
Y109.376
G17 G3 X161.376 Y109.695 I-0.319 J0
G1 X128.624
G3 X128.305 Y109.376 I0 J-0.319
G1 Y108.063
G3 X128.505 Y107.863 I0.2 J0
G1 X163.195
G3 X163.395 Y108.063 I0 J0.2
G1 Y111.076
G3 X163.076 Y111.395 I-0.319 J0
G1 X126.924
G3 X126.605 Y111.076 I0 J-0.319
G1 Y108.063
G3 X126.805 Y107.863 I0.2 J0
G1 X164.895 Y107.862
G3 X165.095 Y108.062 I0 J0.2
G1 Y112.776
G3 X164.776 Y113.095 I-0.319 J0
G1 X125.224
G3 X124.905 Y112.776 I0 J-0.319
G1 Y108.064
G3 X125.105 Y107.864 I0.2 J0
G1 X166.595 Y107.862
G3 X166.795 Y108.062 I0 J0.2
G1 Y114.476
G3 X166.476 Y114.795 I-0.319 J0
G1 X123.524
G3 X123.205 Y114.476 I0 J-0.319
G1 Y108.064
G3 X123.405 Y107.864 I0.2 J0
G1 X168.3 Y107.874
G3 X168.5 Y108.074 I0 J0.2
G1 Y116.5
X121.5
Y109.46
Y108.063
G3 X121.697 Y107.863 I0.2 J0
G1 X161.492 Y107.251
G3 X161.695 Y107.451 I0.003 J0.2
G19 G2 Y107.751 Z-8.3 J0 K-0.3
G1 Z-11.7
G3 Y108.051 Z-12 J0.3 K0
G1 Y108.063
Y109.376
G17 G3 X161.376 Y109.695 I-0.319 J0
G1 X128.624
G3 X128.305 Y109.376 I0 J-0.319
G1 Y108.063
G3 X128.505 Y107.863 I0.2 J0
G1 X163.195
G3 X163.395 Y108.063 I0 J0.2
G1 Y111.076
G3 X163.076 Y111.395 I-0.319 J0
G1 X126.924
G3 X126.605 Y111.076 I0 J-0.319
G1 Y108.063
G3 X126.805 Y107.863 I0.2 J0
G1 X164.895 Y107.862
G3 X165.095 Y108.062 I0 J0.2
G1 Y112.776
G3 X164.776 Y113.095 I-0.319 J0
G1 X125.224
G3 X124.905 Y112.776 I0 J-0.319
G1 Y108.064
G3 X125.105 Y107.864 I0.2 J0
G1 X166.595 Y107.862
G3 X166.795 Y108.062 I0 J0.2
G1 Y114.476
G3 X166.476 Y114.795 I-0.319 J0
G1 X123.524
G3 X123.205 Y114.476 I0 J-0.319
G1 Y108.064
G3 X123.405 Y107.864 I0.2 J0
G1 X168.3 Y107.874
G3 X168.5 Y108.074 I0 J0.2
G1 Y116.5
X121.5
Y109.46
Y108.063
X121.504 Y108.016
X121.738 Y106.535
X121.749 Y106.469 Z-11.992
X121.759 Y106.406 Z-11.97
X121.768 Y106.35 Z-11.935
X121.775 Y106.303 Z-11.887
X121.781 Y106.268 Z-11.83
X121.784 Y106.246 Z-11.767
X121.785 Y106.238 Z-11.7
G0 Z15

(2D Pocket10)
X111.716 Y66.388
Z15
Z5
G1 Z2.8 F333.3
X111.7 Y66.353 Z2.653
X111.66 Y66.255 Z2.544
X111.618 Y66.116 Z2.5
G3 X114.382 Y65.424 Z2.344 I1.382 J-0.346
X111.618 Y66.116 Z2.187 I-1.382 J0.346
X114.382 Y65.424 Z2.031 I1.382 J-0.346
X111.618 Y66.116 Z1.875 I-1.382 J0.346
X114.382 Y65.424 Z1.718 I1.382 J-0.346
X111.618 Y66.116 Z1.562 I-1.382 J0.346
X114.382 Y65.424 Z1.406 I1.382 J-0.346
X111.618 Y66.116 Z1.249 I-1.382 J0.346
X114.382 Y65.424 Z1.093 I1.382 J-0.346
X111.618 Y66.116 Z0.937 I-1.382 J0.346
X114.382 Y65.424 Z0.78 I1.382 J-0.346
X111.618 Y66.116 Z0.624 I-1.382 J0.346
X114.382 Y65.424 Z0.468 I1.382 J-0.346
X111.618 Y66.116 Z0.311 I-1.382 J0.346
X114.382 Y65.424 Z0.155 I1.382 J-0.346
X111.618 Y66.116 Z-0.001 I-1.382 J0.346
X114.382 Y65.424 Z-0.158 I1.382 J-0.346
X111.618 Y66.116 Z-0.314 I-1.382 J0.346
X114.382 Y65.424 Z-0.47 I1.382 J-0.346
X111.618 Y66.116 Z-0.627 I-1.382 J0.346
X114.382 Y65.424 Z-0.783 I1.382 J-0.346
X111.618 Y66.116 Z-0.939 I-1.382 J0.346
X114.382 Y65.424 Z-1.096 I1.382 J-0.346
X111.618 Y66.116 Z-1.252 I-1.382 J0.346
X114.382 Y65.424 Z-1.408 I1.382 J-0.346
X111.618 Y66.116 Z-1.565 I-1.382 J0.346
X114.382 Y65.424 Z-1.721 I1.382 J-0.346
X111.618 Y66.116 Z-1.877 I-1.382 J0.346
X114.382 Y65.424 Z-2.034 I1.382 J-0.346
X111.618 Y66.116 Z-2.19 I-1.382 J0.346
X114.382 Y65.424 Z-2.346 I1.382 J-0.346
X111.618 Y66.116 Z-2.503 I-1.382 J0.346
X114.382 Y65.424 Z-2.659 I1.382 J-0.346
X111.618 Y66.116 Z-2.815 I-1.382 J0.346
X114.382 Y65.424 Z-2.972 I1.382 J-0.346
X111.618 Y66.116 Z-3.128 I-1.382 J0.346
X114.382 Y65.424 Z-3.284 I1.382 J-0.346
X111.618 Y66.116 Z-3.441 I-1.382 J0.346
X114.382 Y65.424 Z-3.597 I1.382 J-0.346
X111.618 Y66.116 Z-3.753 I-1.382 J0.346
X114.382 Y65.424 Z-3.91 I1.382 J-0.346
X113 Y67.195 Z-4 I-1.382 J0.346
G1 X112.624 F1000
G3 X112.305 Y66.876 I0 J-0.319
G1 Y66.124
G3 X112.624 Y65.805 I0.319 J0
G1 X177.376
G3 X177.695 Y66.124 I0 J0.319
G1 Y66.876
G3 X177.376 Y67.195 I-0.319 J0
G1 X113
G2 X111.918 Y67.97 I0 J1.143
G3 X110.605 Y67.753 I-0.639 J-0.217
G1 Y64.424
G3 X110.924 Y64.105 I0.319 J0
G1 X179.076
G3 X179.395 Y64.424 I0 J0.319
G1 Y68.576
G3 X179.076 Y68.895 I-0.319 J0
G1 X110.924
G3 X110.605 Y68.576 I0 J-0.319
G1 Y67.753
G2 X109.755 Y66.478 I-1.381 J0
G3 X108.905 Y65.203 I0.531 J-1.275
G1 Y62.724
G3 X109.224 Y62.405 I0.319 J0
G1 X180.776
G3 X181.095 Y62.724 I0 J0.319
G1 Y70.276
G3 X180.776 Y70.595 I-0.319 J0
G1 X109.224
G3 X108.905 Y70.276 I0 J-0.319
G1 Y65.203
G2 X108.055 Y63.928 I-1.381 J0
G3 X107.205 Y62.653 I0.531 J-1.275
G1 Y61.024
G3 X107.524 Y60.705 I0.319 J0
G1 X182.476
G3 X182.795 Y61.024 I0 J0.319
G1 Y71.976
G3 X182.476 Y72.295 I-0.319 J0
G1 X107.524
G3 X107.205 Y71.976 I0 J-0.319
G1 Y62.653
G2 X106.355 Y61.378 I-1.381 J0
G3 X105.505 Y60.103 I0.531 J-1.275
G1 Y59.324
G3 X105.824 Y59.005 I0.319 J0
G1 X184.176
G3 X184.495 Y59.324 I0 J0.319
G1 Y73.676
G3 X184.176 Y73.995 I-0.319 J0
G1 X105.824
G3 X105.505 Y73.676 I0 J-0.319
G1 Y60.103
G2 X104.658 Y58.815 I-1.403 J0
G3 X104.969 Y57.305 I0.312 J-0.723
G1 X185.876
G3 X186.195 Y57.624 I0 J0.319
G1 Y75.376
G3 X185.876 Y75.695 I-0.319 J0
G1 X104.124
G3 X103.805 Y75.376 I0 J-0.319
G1 Y57.624
G3 X104.124 Y57.305 I0.319 J0
G1 X104.969
G2 X106.244 Y56.455 I0 J-1.381
G3 X107.519 Y55.605 I1.275 J0.531
G1 X187.576
G3 X187.895 Y55.924 I0 J0.319
G1 Y77.076
G3 X187.576 Y77.395 I-0.319 J0
G1 X102.424
G3 X102.105 Y77.076 I0 J-0.319
G1 Y55.924
G3 X102.424 Y55.605 I0.319 J0
G1 X107.519
G2 X108.794 Y54.755 I0 J-1.381
G3 X110.069 Y53.905 I1.275 J0.531
G1 X189.276
G3 X189.595 Y54.224 I0 J0.319
G1 Y78.776
G3 X189.276 Y79.095 I-0.319 J0
G1 X100.724
G3 X100.405 Y78.776 I0 J-0.319
G1 Y54.224
G3 X100.724 Y53.905 I0.319 J0
G1 X110.069
G2 X111.344 Y53.055 I0 J-1.381
G3 X112.619 Y52.205 I1.275 J0.531
G1 X190.976
G3 X191.295 Y52.524 I0 J0.319
G1 Y80.476
G3 X190.976 Y80.795 I-0.319 J0
G1 X99.024
G3 X98.705 Y80.476 I0 J-0.319
G1 Y52.524
G3 X99.024 Y52.205 I0.319 J0
G1 X112.619
G2 X113.894 Y51.355 I0 J-1.381
G3 X115.169 Y50.505 I1.275 J0.531
G1 X192.676
G3 X192.995 Y50.824 I0 J0.319
G1 Y82.176
G3 X192.676 Y82.495 I-0.319 J0
G1 X97.324
G3 X97.005 Y82.176 I0 J-0.319
G1 Y50.824
G3 X97.324 Y50.505 I0.319 J0
G1 X115.169
G2 X116.444 Y49.655 I0 J-1.381
G3 X117.719 Y48.805 I1.275 J0.531
G1 X194.376
G3 X194.695 Y49.124 I0 J0.319
G1 Y83.876
G3 X194.376 Y84.195 I-0.319 J0
G1 X95.624
G3 X95.305 Y83.876 I0 J-0.319
G1 Y49.124
G3 X95.624 Y48.805 I0.319 J0
G1 X117.719
G2 X118.994 Y47.955 I0 J-1.381
G3 X120.269 Y47.105 I1.275 J0.531
G1 X196.076
G3 X196.395 Y47.424 I0 J0.319
G1 Y85.576
G3 X196.076 Y85.895 I-0.319 J0
G1 X93.924
G3 X93.605 Y85.576 I0 J-0.319
G1 Y47.424
G3 X93.924 Y47.105 I0.319 J0
G1 X120.269
G2 X121.544 Y46.255 I0 J-1.381
G3 X122.819 Y45.405 I1.275 J0.531
G1 X197.776
G3 X198.095 Y45.724 I0 J0.319
G1 Y87.276
G3 X197.776 Y87.595 I-0.319 J0
G1 X92.224
G3 X91.905 Y87.276 I0 J-0.319
G1 Y45.724
G3 X92.224 Y45.405 I0.319 J0
G1 X122.819
G2 X124.094 Y44.555 I0 J-1.381
G3 X125.369 Y43.705 I1.275 J0.531
G1 X199.476
G3 X199.795 Y44.024 I0 J0.319
G1 Y88.976
G3 X199.476 Y89.295 I-0.319 J0
G1 X90.524
G3 X90.205 Y88.976 I0 J-0.319
G1 Y44.024
G3 X90.524 Y43.705 I0.319 J0
G1 X125.369
G2 X126.644 Y42.855 I0 J-1.381
G3 X127.919 Y42.005 I1.275 J0.531
G1 X201.176
G3 X201.495 Y42.324 I0 J0.319
G1 Y90.676
G3 X201.176 Y90.995 I-0.319 J0
G1 X88.824
G3 X88.505 Y90.676 I0 J-0.319
G1 Y42.324
G3 X88.824 Y42.005 I0.319 J0
G1 X127.919
G2 X129.194 Y41.155 I0 J-1.381
G3 X130.469 Y40.305 I1.275 J0.531
G1 X202.876
G3 X203.195 Y40.624 I0 J0.319
G1 Y92.376
G3 X202.876 Y92.695 I-0.319 J0
G1 X87.124
G3 X86.805 Y92.376 I0 J-0.319
G1 Y40.624
G3 X87.124 Y40.305 I0.319 J0
G1 X130.469
G2 X131.744 Y39.455 I0 J-1.381
G3 X133.019 Y38.605 I1.275 J0.531
G1 X204.576
G3 X204.895 Y38.924 I0 J0.319
G1 Y94.076
G3 X204.576 Y94.395 I-0.319 J0
G1 X85.424
G3 X85.105 Y94.076 I0 J-0.319
G1 Y38.924
G3 X85.424 Y38.605 I0.319 J0
G1 X133.019
G2 X134.294 Y37.755 I0 J-1.381
G3 X135.569 Y36.905 I1.275 J0.531
G1 X206.276
G3 X206.595 Y37.224 I0 J0.319
G1 Y95.776
G3 X206.276 Y96.095 I-0.319 J0
G1 X83.724
G3 X83.405 Y95.776 I0 J-0.319
G1 Y37.224
G3 X83.724 Y36.905 I0.319 J0
G1 X135.569
G2 X136.844 Y36.055 I0 J-1.381
G3 X138.119 Y35.205 I1.275 J0.531
G1 X207.976
G3 X208.295 Y35.524 I0 J0.319
G1 Y97.476
G3 X207.976 Y97.795 I-0.319 J0
G1 X82.024
G3 X81.705 Y97.476 I0 J-0.319
G1 Y35.524
G3 X82.024 Y35.205 I0.319 J0
G1 X138.119
G2 X139.394 Y34.355 I0 J-1.381
G3 X140.669 Y33.505 I1.275 J0.531
G1 X209.676
G3 X209.995 Y33.824 I0 J0.319
G1 Y99.176
G3 X209.676 Y99.495 I-0.319 J0
G1 X80.324
G3 X80.005 Y99.176 I0 J-0.319
G1 Y33.824
G3 X80.324 Y33.505 I0.319 J0
G1 X140.669
G2 X141.944 Y32.655 I0 J-1.381
G3 X143.219 Y31.805 I1.275 J0.531
G1 X211.376
G3 X211.695 Y32.124 I0 J0.319
G1 Y100.876
G3 X211.376 Y101.195 I-0.319 J0
G1 X78.624
G3 X78.305 Y100.876 I0 J-0.319
G1 Y32.124
G3 X78.624 Y31.805 I0.319 J0
G1 X143.219
G2 X144.494 Y30.955 I0 J-1.381
G3 X145.769 Y30.105 I1.275 J0.531
G1 X213.076
G3 X213.395 Y30.424 I0 J0.319
G1 Y102.576
G3 X213.076 Y102.895 I-0.319 J0
G1 X76.924
G3 X76.605 Y102.576 I0 J-0.319
G1 Y30.424
G3 X76.924 Y30.105 I0.319 J0
G1 X145.769
G2 X147.044 Y29.255 I0 J-1.381
G3 X148.319 Y28.405 I1.275 J0.531
G1 X214.776
G3 X215.095 Y28.724 I0 J0.319
G1 Y104.276
G3 X214.776 Y104.595 I-0.319 J0
G1 X75.224
G3 X74.905 Y104.276 I0 J-0.319
G1 Y28.724
G3 X75.224 Y28.405 I0.319 J0
G1 X148.319
G2 X149.594 Y27.555 I0 J-1.381
G3 X150.869 Y26.705 I1.275 J0.531
G1 X216.476
G3 X216.795 Y27.024 I0 J0.319
G1 Y105.976
G3 X216.476 Y106.295 I-0.319 J0
G1 X120 Y106.25
X73.524 Y106.295
G3 X73.205 Y105.976 I0 J-0.319
G1 Y27.024
G3 X73.524 Y26.705 I0.319 J0
G1 X150.869
G2 X152.144 Y25.855 I0 J-1.381
G3 X153.419 Y25.005 I1.275 J0.531
G1 X218.176
G3 X218.495 Y25.324 I0 J0.319
G1 Y107.676
G3 X218.176 Y107.995 I-0.319 J0
G1 X71.824
G3 X71.505 Y107.676 I0 J-0.319
G1 Y25.324
G3 X71.824 Y25.005 I0.319 J0
G1 X153.419
G2 X154.694 Y24.155 I0 J-1.381
G3 X155.969 Y23.305 I1.275 J0.531
G1 X219.876
G3 X220.195 Y23.624 I0 J0.319
G1 Y109.376
G3 X219.876 Y109.695 I-0.319 J0
G1 X70.124
G3 X69.805 Y109.376 I0 J-0.319
G1 Y23.624
G3 X70.124 Y23.305 I0.319 J0
G1 X155.969
G2 X157.244 Y22.455 I0 J-1.381
G3 X158.519 Y21.605 I1.275 J0.531
G1 X221.576
G3 X221.895 Y21.924 I0 J0.319
G1 Y111.076
G3 X221.576 Y111.395 I-0.319 J0
G1 X68.424
G3 X68.105 Y111.076 I0 J-0.319
G1 Y21.924
G3 X68.424 Y21.605 I0.319 J0
G1 X158.519
G2 X159.794 Y20.755 I0 J-1.381
G3 X161.069 Y19.905 I1.275 J0.531
G1 X223.276
G3 X223.595 Y20.224 I0 J0.319
G1 Y112.776
G3 X223.276 Y113.095 I-0.319 J0
G1 X66.724
G3 X66.405 Y112.776 I0 J-0.319
G1 Y20.224
G3 X66.724 Y19.905 I0.319 J0
G1 X161.069
G2 X162.344 Y19.055 I0 J-1.381
G3 X163.619 Y18.205 I1.275 J0.531
G1 X224.976
G3 X225.295 Y18.524 I0 J0.319
G1 Y114.476
G3 X224.976 Y114.795 I-0.319 J0
G1 X65.024
G3 X64.705 Y114.476 I0 J-0.319
G1 Y18.524
G3 X65.024 Y18.205 I0.319 J0
G1 X163.619
G2 X164.898 Y17.353 I0 J-1.385
G3 X166.177 Y16.5 I1.279 J0.533
G1 X227
Y116.5
X170
X63
Y16.5
X166.177
X166.234 Y16.505 Z-3.989
X166.289 Y16.522 Z-3.977
X166.332 Y16.543 Z-3.945
X166.372 Y16.572 Z-3.912
X166.416 Y16.619 Z-3.815
X166.429 Y16.638 Z-3.7
G0 Z5
X111.716 Y66.388
G1 Z0.075 F333.3
Z-1.2 F1000
X111.7 Y66.353 Z-1.347 F333.3
X111.66 Y66.255 Z-1.456
X111.618 Y66.116 Z-1.5
G3 X114.382 Y65.424 Z-1.656 I1.382 J-0.346
X111.618 Y66.116 Z-1.813 I-1.382 J0.346
X114.382 Y65.424 Z-1.969 I1.382 J-0.346
X111.618 Y66.116 Z-2.125 I-1.382 J0.346
X114.382 Y65.424 Z-2.282 I1.382 J-0.346
X111.618 Y66.116 Z-2.438 I-1.382 J0.346
X114.382 Y65.424 Z-2.594 I1.382 J-0.346
X111.618 Y66.116 Z-2.751 I-1.382 J0.346
X114.382 Y65.424 Z-2.907 I1.382 J-0.346
X111.618 Y66.116 Z-3.063 I-1.382 J0.346
X114.382 Y65.424 Z-3.22 I1.382 J-0.346
X111.618 Y66.116 Z-3.376 I-1.382 J0.346
X114.382 Y65.424 Z-3.532 I1.382 J-0.346
X111.618 Y66.116 Z-3.689 I-1.382 J0.346
X114.382 Y65.424 Z-3.845 I1.382 J-0.346
X111.618 Y66.116 Z-4.001 I-1.382 J0.346
X114.382 Y65.424 Z-4.158 I1.382 J-0.346
X111.618 Y66.116 Z-4.314 I-1.382 J0.346
X114.382 Y65.424 Z-4.47 I1.382 J-0.346
X111.618 Y66.116 Z-4.627 I-1.382 J0.346
X114.382 Y65.424 Z-4.783 I1.382 J-0.346
X111.618 Y66.116 Z-4.939 I-1.382 J0.346
X114.382 Y65.424 Z-5.096 I1.382 J-0.346
X111.618 Y66.116 Z-5.252 I-1.382 J0.346
X114.382 Y65.424 Z-5.408 I1.382 J-0.346
X111.618 Y66.116 Z-5.565 I-1.382 J0.346
X114.382 Y65.424 Z-5.721 I1.382 J-0.346
X111.618 Y66.116 Z-5.877 I-1.382 J0.346
X114.382 Y65.424 Z-6.034 I1.382 J-0.346
X111.618 Y66.116 Z-6.19 I-1.382 J0.346
X114.382 Y65.424 Z-6.346 I1.382 J-0.346
X111.618 Y66.116 Z-6.503 I-1.382 J0.346
X114.382 Y65.424 Z-6.659 I1.382 J-0.346
X111.618 Y66.116 Z-6.815 I-1.382 J0.346
X114.382 Y65.424 Z-6.972 I1.382 J-0.346
X111.618 Y66.116 Z-7.128 I-1.382 J0.346
X114.382 Y65.424 Z-7.284 I1.382 J-0.346
X111.618 Y66.116 Z-7.441 I-1.382 J0.346
X114.382 Y65.424 Z-7.597 I1.382 J-0.346
X111.618 Y66.116 Z-7.753 I-1.382 J0.346
X114.382 Y65.424 Z-7.91 I1.382 J-0.346
X113 Y67.195 Z-8 I-1.382 J0.346
G1 X112.624 F1000
G3 X112.305 Y66.876 I0 J-0.319
G1 Y66.124
G3 X112.624 Y65.805 I0.319 J0
G1 X177.376
G3 X177.695 Y66.124 I0 J0.319
G1 Y66.876
G3 X177.376 Y67.195 I-0.319 J0
G1 X113
G2 X111.918 Y67.97 I0 J1.143
G3 X110.605 Y67.753 I-0.639 J-0.217
G1 Y64.424
G3 X110.924 Y64.105 I0.319 J0
G1 X179.076
G3 X179.395 Y64.424 I0 J0.319
G1 Y68.576
G3 X179.076 Y68.895 I-0.319 J0
G1 X110.924
G3 X110.605 Y68.576 I0 J-0.319
G1 Y67.753
G2 X109.755 Y66.478 I-1.381 J0
G3 X108.905 Y65.203 I0.531 J-1.275
G1 Y62.724
G3 X109.224 Y62.405 I0.319 J0
G1 X180.776
G3 X181.095 Y62.724 I0 J0.319
G1 Y70.276
G3 X180.776 Y70.595 I-0.319 J0
G1 X109.224
G3 X108.905 Y70.276 I0 J-0.319
G1 Y65.203
G2 X108.055 Y63.928 I-1.381 J0
G3 X107.205 Y62.653 I0.531 J-1.275
G1 Y61.024
G3 X107.524 Y60.705 I0.319 J0
G1 X182.476
G3 X182.795 Y61.024 I0 J0.319
G1 Y71.976
G3 X182.476 Y72.295 I-0.319 J0
G1 X107.524
G3 X107.205 Y71.976 I0 J-0.319
G1 Y62.653
G2 X106.355 Y61.378 I-1.381 J0
G3 X105.505 Y60.103 I0.531 J-1.275
G1 Y59.324
G3 X105.824 Y59.005 I0.319 J0
G1 X184.176
G3 X184.495 Y59.324 I0 J0.319
G1 Y73.676
G3 X184.176 Y73.995 I-0.319 J0
G1 X105.824
G3 X105.505 Y73.676 I0 J-0.319
G1 Y60.103
G2 X104.658 Y58.815 I-1.403 J0
G3 X104.969 Y57.305 I0.312 J-0.723
G1 X185.876
G3 X186.195 Y57.624 I0 J0.319
G1 Y75.376
G3 X185.876 Y75.695 I-0.319 J0
G1 X104.124
G3 X103.805 Y75.376 I0 J-0.319
G1 Y57.624
G3 X104.124 Y57.305 I0.319 J0
G1 X104.969
G2 X106.244 Y56.455 I0 J-1.381
G3 X107.519 Y55.605 I1.275 J0.531
G1 X187.576
G3 X187.895 Y55.924 I0 J0.319
G1 Y77.076
G3 X187.576 Y77.395 I-0.319 J0
G1 X102.424
G3 X102.105 Y77.076 I0 J-0.319
G1 Y55.924
G3 X102.424 Y55.605 I0.319 J0
G1 X107.519
G2 X108.794 Y54.755 I0 J-1.381
G3 X110.069 Y53.905 I1.275 J0.531
G1 X189.276
G3 X189.595 Y54.224 I0 J0.319
G1 Y78.776
G3 X189.276 Y79.095 I-0.319 J0
G1 X100.724
G3 X100.405 Y78.776 I0 J-0.319
G1 Y54.224
G3 X100.724 Y53.905 I0.319 J0
G1 X110.069
G2 X111.344 Y53.055 I0 J-1.381
G3 X112.619 Y52.205 I1.275 J0.531
G1 X190.976
G3 X191.295 Y52.524 I0 J0.319
G1 Y80.476
G3 X190.976 Y80.795 I-0.319 J0
G1 X99.024
G3 X98.705 Y80.476 I0 J-0.319
G1 Y52.524
G3 X99.024 Y52.205 I0.319 J0
G1 X112.619
G2 X113.894 Y51.355 I0 J-1.381
G3 X115.169 Y50.505 I1.275 J0.531
G1 X192.676
G3 X192.995 Y50.824 I0 J0.319
G1 Y82.176
G3 X192.676 Y82.495 I-0.319 J0
G1 X97.324
G3 X97.005 Y82.176 I0 J-0.319
G1 Y50.824
G3 X97.324 Y50.505 I0.319 J0
G1 X115.169
G2 X116.444 Y49.655 I0 J-1.381
G3 X117.719 Y48.805 I1.275 J0.531
G1 X194.376
G3 X194.695 Y49.124 I0 J0.319
G1 Y83.876
G3 X194.376 Y84.195 I-0.319 J0
G1 X95.624
G3 X95.305 Y83.876 I0 J-0.319
G1 Y49.124
G3 X95.624 Y48.805 I0.319 J0
G1 X117.719
G2 X118.994 Y47.955 I0 J-1.381
G3 X120.269 Y47.105 I1.275 J0.531
G1 X196.076
G3 X196.395 Y47.424 I0 J0.319
G1 Y85.576
G3 X196.076 Y85.895 I-0.319 J0
G1 X93.924
G3 X93.605 Y85.576 I0 J-0.319
G1 Y47.424
G3 X93.924 Y47.105 I0.319 J0
G1 X120.269
G2 X121.544 Y46.255 I0 J-1.381
G3 X122.819 Y45.405 I1.275 J0.531
G1 X197.776
G3 X198.095 Y45.724 I0 J0.319
G1 Y87.276
G3 X197.776 Y87.595 I-0.319 J0
G1 X92.224
G3 X91.905 Y87.276 I0 J-0.319
G1 Y45.724
G3 X92.224 Y45.405 I0.319 J0
G1 X122.819
G2 X124.094 Y44.555 I0 J-1.381
G3 X125.369 Y43.705 I1.275 J0.531
G1 X199.476
G3 X199.795 Y44.024 I0 J0.319
G1 Y88.976
G3 X199.476 Y89.295 I-0.319 J0
G1 X90.524
G3 X90.205 Y88.976 I0 J-0.319
G1 Y44.024
G3 X90.524 Y43.705 I0.319 J0
G1 X125.369
G2 X126.644 Y42.855 I0 J-1.381
G3 X127.919 Y42.005 I1.275 J0.531
G1 X201.176
G3 X201.495 Y42.324 I0 J0.319
G1 Y90.676
G3 X201.176 Y90.995 I-0.319 J0
G1 X88.824
G3 X88.505 Y90.676 I0 J-0.319
G1 Y42.324
G3 X88.824 Y42.005 I0.319 J0
G1 X127.919
G2 X129.194 Y41.155 I0 J-1.381
G3 X130.469 Y40.305 I1.275 J0.531
G1 X202.876
G3 X203.195 Y40.624 I0 J0.319
G1 Y92.376
G3 X202.876 Y92.695 I-0.319 J0
G1 X87.124
G3 X86.805 Y92.376 I0 J-0.319
G1 Y40.624
G3 X87.124 Y40.305 I0.319 J0
G1 X130.469
G2 X131.744 Y39.455 I0 J-1.381
G3 X133.019 Y38.605 I1.275 J0.531
G1 X204.576
G3 X204.895 Y38.924 I0 J0.319
G1 Y94.076
G3 X204.576 Y94.395 I-0.319 J0
G1 X85.424
G3 X85.105 Y94.076 I0 J-0.319
G1 Y38.924
G3 X85.424 Y38.605 I0.319 J0
G1 X133.019
G2 X134.294 Y37.755 I0 J-1.381
G3 X135.569 Y36.905 I1.275 J0.531
G1 X206.276
G3 X206.595 Y37.224 I0 J0.319
G1 Y95.776
G3 X206.276 Y96.095 I-0.319 J0
G1 X83.724
G3 X83.405 Y95.776 I0 J-0.319
G1 Y37.224
G3 X83.724 Y36.905 I0.319 J0
G1 X135.569
G2 X136.844 Y36.055 I0 J-1.381
G3 X138.119 Y35.205 I1.275 J0.531
G1 X207.976
G3 X208.295 Y35.524 I0 J0.319
G1 Y97.476
G3 X207.976 Y97.795 I-0.319 J0
G1 X82.024
G3 X81.705 Y97.476 I0 J-0.319
G1 Y35.524
G3 X82.024 Y35.205 I0.319 J0
G1 X138.119
G2 X139.394 Y34.355 I0 J-1.381
G3 X140.669 Y33.505 I1.275 J0.531
G1 X209.676
G3 X209.995 Y33.824 I0 J0.319
G1 Y99.176
G3 X209.676 Y99.495 I-0.319 J0
G1 X80.324
G3 X80.005 Y99.176 I0 J-0.319
G1 Y33.824
G3 X80.324 Y33.505 I0.319 J0
G1 X140.669
G2 X141.944 Y32.655 I0 J-1.381
G3 X143.219 Y31.805 I1.275 J0.531
G1 X211.376
G3 X211.695 Y32.124 I0 J0.319
G1 Y100.876
G3 X211.376 Y101.195 I-0.319 J0
G1 X78.624
G3 X78.305 Y100.876 I0 J-0.319
G1 Y32.124
G3 X78.624 Y31.805 I0.319 J0
G1 X143.219
G2 X144.494 Y30.955 I0 J-1.381
G3 X145.769 Y30.105 I1.275 J0.531
G1 X213.076
G3 X213.395 Y30.424 I0 J0.319
G1 Y102.576
G3 X213.076 Y102.895 I-0.319 J0
G1 X76.924
G3 X76.605 Y102.576 I0 J-0.319
G1 Y30.424
G3 X76.924 Y30.105 I0.319 J0
G1 X145.769
G2 X147.044 Y29.255 I0 J-1.381
G3 X148.319 Y28.405 I1.275 J0.531
G1 X214.776
G3 X215.095 Y28.724 I0 J0.319
G1 Y104.276
G3 X214.776 Y104.595 I-0.319 J0
G1 X75.224
G3 X74.905 Y104.276 I0 J-0.319
G1 Y28.724
G3 X75.224 Y28.405 I0.319 J0
G1 X148.319
G2 X149.594 Y27.555 I0 J-1.381
G3 X150.869 Y26.705 I1.275 J0.531
G1 X216.476
G3 X216.795 Y27.024 I0 J0.319
G1 Y105.976
G3 X216.476 Y106.295 I-0.319 J0
G1 X120 Y106.25
X73.524 Y106.295
G3 X73.205 Y105.976 I0 J-0.319
G1 Y27.024
G3 X73.524 Y26.705 I0.319 J0
G1 X150.869
G2 X152.144 Y25.855 I0 J-1.381
G3 X153.419 Y25.005 I1.275 J0.531
G1 X218.176
G3 X218.495 Y25.324 I0 J0.319
G1 Y107.676
G3 X218.176 Y107.995 I-0.319 J0
G1 X71.824
G3 X71.505 Y107.676 I0 J-0.319
G1 Y25.324
G3 X71.824 Y25.005 I0.319 J0
G1 X153.419
G2 X154.694 Y24.155 I0 J-1.381
G3 X155.969 Y23.305 I1.275 J0.531
G1 X219.876
G3 X220.195 Y23.624 I0 J0.319
G1 Y109.376
G3 X219.876 Y109.695 I-0.319 J0
G1 X70.124
G3 X69.805 Y109.376 I0 J-0.319
G1 Y23.624
G3 X70.124 Y23.305 I0.319 J0
G1 X155.969
G2 X157.244 Y22.455 I0 J-1.381
G3 X158.519 Y21.605 I1.275 J0.531
G1 X221.576
G3 X221.895 Y21.924 I0 J0.319
G1 Y111.076
G3 X221.576 Y111.395 I-0.319 J0
G1 X68.424
G3 X68.105 Y111.076 I0 J-0.319
G1 Y21.924
G3 X68.424 Y21.605 I0.319 J0
G1 X158.519
G2 X159.794 Y20.755 I0 J-1.381
G3 X161.069 Y19.905 I1.275 J0.531
G1 X223.276
G3 X223.595 Y20.224 I0 J0.319
G1 Y112.776
G3 X223.276 Y113.095 I-0.319 J0
G1 X66.724
G3 X66.405 Y112.776 I0 J-0.319
G1 Y20.224
G3 X66.724 Y19.905 I0.319 J0
G1 X161.069
G2 X162.344 Y19.055 I0 J-1.381
G3 X163.619 Y18.205 I1.275 J0.531
G1 X224.976
G3 X225.295 Y18.524 I0 J0.319
G1 Y114.476
G3 X224.976 Y114.795 I-0.319 J0
G1 X65.024
G3 X64.705 Y114.476 I0 J-0.319
G1 Y18.524
G3 X65.024 Y18.205 I0.319 J0
G1 X163.619
G2 X164.898 Y17.353 I0 J-1.385
G3 X166.177 Y16.5 I1.279 J0.533
G1 X227
Y116.5
X170
X63
Y16.5
X166.177
X166.234 Y16.505 Z-7.989
X166.289 Y16.522 Z-7.977
X166.332 Y16.543 Z-7.945
X166.372 Y16.572 Z-7.912
X166.416 Y16.619 Z-7.815
X166.429 Y16.638 Z-7.7
G0 Z15

(2D Pocket9)
X205.487 Y34.971
Z15
Z5
G1 Z2.8 F333.3
X205.453 Y34.954 Z2.653
X205.36 Y34.905 Z2.544
X205.238 Y34.825 Z2.5
G3 X206.922 Y32.525 Z2.344 I0.842 J-1.15
X205.238 Y34.825 Z2.187 I-0.842 J1.15
X206.922 Y32.525 Z2.031 I0.842 J-1.15
X205.238 Y34.825 Z1.875 I-0.842 J1.15
X206.922 Y32.525 Z1.718 I0.842 J-1.15
X205.238 Y34.825 Z1.562 I-0.842 J1.15
X206.922 Y32.525 Z1.406 I0.842 J-1.15
X205.238 Y34.825 Z1.249 I-0.842 J1.15
X206.922 Y32.525 Z1.093 I0.842 J-1.15
X205.238 Y34.825 Z0.937 I-0.842 J1.15
X206.922 Y32.525 Z0.78 I0.842 J-1.15
X205.238 Y34.825 Z0.624 I-0.842 J1.15
X206.922 Y32.525 Z0.468 I0.842 J-1.15
X205.238 Y34.825 Z0.311 I-0.842 J1.15
X206.922 Y32.525 Z0.155 I0.842 J-1.15
X205.238 Y34.825 Z-0.001 I-0.842 J1.15
X206.922 Y32.525 Z-0.158 I0.842 J-1.15
X205.238 Y34.825 Z-0.314 I-0.842 J1.15
X206.922 Y32.525 Z-0.47 I0.842 J-1.15
X205.238 Y34.825 Z-0.627 I-0.842 J1.15
X206.922 Y32.525 Z-0.783 I0.842 J-1.15
X205.238 Y34.825 Z-0.939 I-0.842 J1.15
X206.922 Y32.525 Z-1.096 I0.842 J-1.15
X205.238 Y34.825 Z-1.252 I-0.842 J1.15
X206.922 Y32.525 Z-1.408 I0.842 J-1.15
X205.238 Y34.825 Z-1.565 I-0.842 J1.15
X206.922 Y32.525 Z-1.721 I0.842 J-1.15
X205.238 Y34.825 Z-1.877 I-0.842 J1.15
X206.922 Y32.525 Z-2.034 I0.842 J-1.15
X205.238 Y34.825 Z-2.19 I-0.842 J1.15
X206.922 Y32.525 Z-2.346 I0.842 J-1.15
X205.238 Y34.825 Z-2.503 I-0.842 J1.15
X206.922 Y32.525 Z-2.659 I0.842 J-1.15
X205.238 Y34.825 Z-2.815 I-0.842 J1.15
X206.922 Y32.525 Z-2.972 I0.842 J-1.15
X205.238 Y34.825 Z-3.128 I-0.842 J1.15
X206.922 Y32.525 Z-3.284 I0.842 J-1.15
X205.238 Y34.825 Z-3.441 I-0.842 J1.15
X206.922 Y32.525 Z-3.597 I0.842 J-1.15
X205.238 Y34.825 Z-3.753 I-0.842 J1.15
X204.655 Y33.675 Z-3.8 I0.842 J-1.15
X205.1 Y33.23 I0.445 J0 F1000
G1 X211.1
G3 X211.1 Y34.12 I0 J0.445
G1 X205.1
G3 X204.655 Y33.675 I0 J-0.445
G2 X204.331 Y33.062 I-0.742 J0
G3 X204.36 Y32.37 I0.23 J-0.337
X205.1 Y32.175 I0.74 J1.305
G1 X211.1
G3 X211.1 Y35.175 I0 J1.5
G1 X205.1
G3 X204.36 Y32.37 I0 J-1.5
G1 X204.391 Y32.36
X204.423 Y32.361
X204.453 Y32.373
X204.476 Y32.396
X204.49 Y32.425
X204.602 Y32.846
X205.309 Y34.407
X205.399 Y34.756
X205.4 Y34.79
X205.389 Y34.822
X205.365 Y34.846
X205.334 Y34.86
X205.3
X205.269 Y34.847
G3 X206.891 Y32.503 Z-3.956 I0.811 J-1.172 F333.3
X205.269 Y34.847 Z-4.113 I-0.811 J1.172
X206.891 Y32.503 Z-4.269 I0.811 J-1.172
X205.269 Y34.847 Z-4.425 I-0.811 J1.172
X206.891 Y32.503 Z-4.582 I0.811 J-1.172
X205.269 Y34.847 Z-4.738 I-0.811 J1.172
X206.891 Y32.503 Z-4.894 I0.811 J-1.172
X205.269 Y34.847 Z-5.051 I-0.811 J1.172
X206.891 Y32.503 Z-5.207 I0.811 J-1.172
X205.269 Y34.847 Z-5.363 I-0.811 J1.172
X206.891 Y32.503 Z-5.52 I0.811 J-1.172
X205.269 Y34.847 Z-5.676 I-0.811 J1.172
X206.891 Y32.503 Z-5.832 I0.811 J-1.172
X205.269 Y34.847 Z-5.989 I-0.811 J1.172
X206.891 Y32.503 Z-6.145 I0.811 J-1.172
X205.269 Y34.847 Z-6.301 I-0.811 J1.172
X206.891 Y32.503 Z-6.458 I0.811 J-1.172
X205.269 Y34.847 Z-6.614 I-0.811 J1.172
X206.891 Y32.503 Z-6.77 I0.811 J-1.172
X205.269 Y34.847 Z-6.927 I-0.811 J1.172
X206.891 Y32.503 Z-7.083 I0.811 J-1.172
X205.269 Y34.847 Z-7.239 I-0.811 J1.172
X206.891 Y32.503 Z-7.396 I0.811 J-1.172
X205.269 Y34.847 Z-7.552 I-0.811 J1.172
X204.655 Y33.675 Z-7.6 I0.811 J-1.172
X205.1 Y33.23 I0.445 J0 F1000
G1 X211.1
G3 X211.1 Y34.12 I0 J0.445
G1 X205.1
G3 X204.655 Y33.675 I0 J-0.445
G2 X204.331 Y33.062 I-0.742 J0
G3 X204.36 Y32.37 I0.23 J-0.337
X205.1 Y32.175 I0.74 J1.305
G1 X211.1
G3 X211.1 Y35.175 I0 J1.5
G1 X205.1
G3 X204.36 Y32.37 I0 J-1.5
G1 X204.391 Y32.36
X204.423 Y32.361
X204.453 Y32.373
X204.476 Y32.396
X204.49 Y32.425
X204.602 Y32.846
X205.309 Y34.407
X205.399 Y34.756
X205.4 Y34.79
X205.389 Y34.822
X205.365 Y34.846
X205.334 Y34.86
X205.3
X205.269 Y34.847
G3 X206.891 Y32.503 Z-7.756 I0.811 J-1.172 F333.3
X205.269 Y34.847 Z-7.913 I-0.811 J1.172
X206.891 Y32.503 Z-8.069 I0.811 J-1.172
X205.269 Y34.847 Z-8.225 I-0.811 J1.172
X206.891 Y32.503 Z-8.382 I0.811 J-1.172
X205.269 Y34.847 Z-8.538 I-0.811 J1.172
X206.891 Y32.503 Z-8.694 I0.811 J-1.172
X205.269 Y34.847 Z-8.851 I-0.811 J1.172
X206.891 Y32.503 Z-9.007 I0.811 J-1.172
X205.269 Y34.847 Z-9.163 I-0.811 J1.172
X206.891 Y32.503 Z-9.32 I0.811 J-1.172
X205.269 Y34.847 Z-9.476 I-0.811 J1.172
X206.891 Y32.503 Z-9.632 I0.811 J-1.172
X205.269 Y34.847 Z-9.789 I-0.811 J1.172
X206.891 Y32.503 Z-9.945 I0.811 J-1.172
X205.269 Y34.847 Z-10.101 I-0.811 J1.172
X206.891 Y32.503 Z-10.258 I0.811 J-1.172
X205.269 Y34.847 Z-10.414 I-0.811 J1.172
X206.891 Y32.503 Z-10.57 I0.811 J-1.172
X205.269 Y34.847 Z-10.727 I-0.811 J1.172
X206.891 Y32.503 Z-10.883 I0.811 J-1.172
X205.269 Y34.847 Z-11.039 I-0.811 J1.172
X206.891 Y32.503 Z-11.196 I0.811 J-1.172
X205.269 Y34.847 Z-11.352 I-0.811 J1.172
X204.655 Y33.675 Z-11.4 I0.811 J-1.172
X205.1 Y33.23 I0.445 J0 F1000
G1 X211.1
G3 X211.1 Y34.12 I0 J0.445
G1 X205.1
G3 X204.655 Y33.675 I0 J-0.445
G2 X204.331 Y33.062 I-0.742 J0
G3 X204.36 Y32.37 I0.23 J-0.337
X205.1 Y32.175 I0.74 J1.305
G1 X211.1
G3 X211.1 Y35.175 I0 J1.5
G1 X205.1
G3 X204.36 Y32.37 I0 J-1.5
G1 X204.391 Y32.36
X204.423 Y32.361
X204.453 Y32.373
X204.476 Y32.396
X204.49 Y32.425
X204.602 Y32.846
X205.309 Y34.407
X205.399 Y34.756
X205.4 Y34.79
X205.389 Y34.822
X205.365 Y34.846
X205.334 Y34.86
X205.3
X205.269 Y34.847
G3 X206.891 Y32.503 Z-11.556 I0.811 J-1.172 F333.3
X205.269 Y34.847 Z-11.713 I-0.811 J1.172
X206.891 Y32.503 Z-11.869 I0.811 J-1.172
X205.269 Y34.847 Z-12.025 I-0.811 J1.172
X206.891 Y32.503 Z-12.182 I0.811 J-1.172
X205.269 Y34.847 Z-12.338 I-0.811 J1.172
X206.891 Y32.503 Z-12.494 I0.811 J-1.172
X205.269 Y34.847 Z-12.651 I-0.811 J1.172
X206.891 Y32.503 Z-12.807 I0.811 J-1.172
X205.269 Y34.847 Z-12.963 I-0.811 J1.172
X206.891 Y32.503 Z-13.12 I0.811 J-1.172
X205.269 Y34.847 Z-13.276 I-0.811 J1.172
X206.891 Y32.503 Z-13.432 I0.811 J-1.172
X205.269 Y34.847 Z-13.589 I-0.811 J1.172
X206.891 Y32.503 Z-13.745 I0.811 J-1.172
X205.269 Y34.847 Z-13.901 I-0.811 J1.172
X206.891 Y32.503 Z-14.058 I0.811 J-1.172
X205.269 Y34.847 Z-14.214 I-0.811 J1.172
X206.891 Y32.503 Z-14.37 I0.811 J-1.172
X205.269 Y34.847 Z-14.527 I-0.811 J1.172
X206.891 Y32.503 Z-14.683 I0.811 J-1.172
X205.269 Y34.847 Z-14.839 I-0.811 J1.172
X206.891 Y32.503 Z-14.996 I0.811 J-1.172
X205.269 Y34.847 Z-15.152 I-0.811 J1.172
X204.655 Y33.675 Z-15.2 I0.811 J-1.172
X205.1 Y33.23 I0.445 J0 F1000
G1 X211.1
G3 X211.1 Y34.12 I0 J0.445
G1 X205.1
G3 X204.655 Y33.675 I0 J-0.445
G2 X204.331 Y33.062 I-0.742 J0
G3 X204.36 Y32.37 I0.23 J-0.337
X205.1 Y32.175 I0.74 J1.305
G1 X211.1
G3 X211.1 Y35.175 I0 J1.5
G1 X205.1
G3 X204.36 Y32.37 I0 J-1.5
G1 X204.391 Y32.36
X204.423 Y32.361
X204.453 Y32.373
X204.476 Y32.396
X204.49 Y32.425
X204.602 Y32.846
X205.309 Y34.407
X205.399 Y34.756
X205.4 Y34.79
X205.389 Y34.822
X205.365 Y34.846
X205.334 Y34.86
X205.3
X205.269 Y34.847
G3 X206.891 Y32.503 Z-15.356 I0.811 J-1.172 F333.3
X205.269 Y34.847 Z-15.513 I-0.811 J1.172
X206.891 Y32.503 Z-15.669 I0.811 J-1.172
X205.269 Y34.847 Z-15.825 I-0.811 J1.172
X206.891 Y32.503 Z-15.982 I0.811 J-1.172
X205.269 Y34.847 Z-16.138 I-0.811 J1.172
X206.891 Y32.503 Z-16.294 I0.811 J-1.172
X205.269 Y34.847 Z-16.451 I-0.811 J1.172
X206.891 Y32.503 Z-16.607 I0.811 J-1.172
X205.269 Y34.847 Z-16.763 I-0.811 J1.172
X206.891 Y32.503 Z-16.92 I0.811 J-1.172
X205.269 Y34.847 Z-17.076 I-0.811 J1.172
X206.891 Y32.503 Z-17.232 I0.811 J-1.172
X205.269 Y34.847 Z-17.389 I-0.811 J1.172
X206.891 Y32.503 Z-17.545 I0.811 J-1.172
X205.269 Y34.847 Z-17.701 I-0.811 J1.172
X206.891 Y32.503 Z-17.858 I0.811 J-1.172
X205.269 Y34.847 Z-18.014 I-0.811 J1.172
X206.891 Y32.503 Z-18.17 I0.811 J-1.172
X205.269 Y34.847 Z-18.327 I-0.811 J1.172
X206.891 Y32.503 Z-18.483 I0.811 J-1.172
X205.269 Y34.847 Z-18.639 I-0.811 J1.172
X206.891 Y32.503 Z-18.796 I0.811 J-1.172
X205.269 Y34.847 Z-18.952 I-0.811 J1.172
X204.655 Y33.675 Z-19 I0.811 J-1.172
X205.1 Y33.23 I0.445 J0 F1000
G1 X211.1
G3 X211.1 Y34.12 I0 J0.445
G1 X205.1
G3 X204.655 Y33.675 I0 J-0.445
G2 X204.331 Y33.062 I-0.742 J0
G3 X204.36 Y32.37 I0.23 J-0.337
X205.1 Y32.175 I0.74 J1.305
G1 X211.1
G3 X211.1 Y35.175 I0 J1.5
G1 X205.1
G3 X204.36 Y32.37 I0 J-1.5
G1 X204.412 Y32.347 Z-18.989
X204.468 Y32.334 Z-18.977
X204.517 Y32.331 Z-18.945
X204.565 Y32.337 Z-18.912
X204.627 Y32.356 Z-18.815
X204.648 Y32.366 Z-18.7
G0 Z5
X205.487 Y100.621
G1 Z2.8 F333.3
X205.453 Y100.604 Z2.653
X205.36 Y100.555 Z2.544
X205.238 Y100.475 Z2.5
G3 X206.922 Y98.175 Z2.344 I0.842 J-1.15
X205.238 Y100.475 Z2.187 I-0.842 J1.15
X206.922 Y98.175 Z2.031 I0.842 J-1.15
X205.238 Y100.475 Z1.875 I-0.842 J1.15
X206.922 Y98.175 Z1.718 I0.842 J-1.15
X205.238 Y100.475 Z1.562 I-0.842 J1.15
X206.922 Y98.175 Z1.406 I0.842 J-1.15
X205.238 Y100.475 Z1.249 I-0.842 J1.15
X206.922 Y98.175 Z1.093 I0.842 J-1.15
X205.238 Y100.475 Z0.937 I-0.842 J1.15
X206.922 Y98.175 Z0.78 I0.842 J-1.15
X205.238 Y100.475 Z0.624 I-0.842 J1.15
X206.922 Y98.175 Z0.468 I0.842 J-1.15
X205.238 Y100.475 Z0.311 I-0.842 J1.15
X206.922 Y98.175 Z0.155 I0.842 J-1.15
X205.238 Y100.475 Z-0.001 I-0.842 J1.15
X206.922 Y98.175 Z-0.158 I0.842 J-1.15
X205.238 Y100.475 Z-0.314 I-0.842 J1.15
X206.922 Y98.175 Z-0.47 I0.842 J-1.15
X205.238 Y100.475 Z-0.627 I-0.842 J1.15
X206.922 Y98.175 Z-0.783 I0.842 J-1.15
X205.238 Y100.475 Z-0.939 I-0.842 J1.15
X206.922 Y98.175 Z-1.096 I0.842 J-1.15
X205.238 Y100.475 Z-1.252 I-0.842 J1.15
X206.922 Y98.175 Z-1.408 I0.842 J-1.15
X205.238 Y100.475 Z-1.565 I-0.842 J1.15
X206.922 Y98.175 Z-1.721 I0.842 J-1.15
X205.238 Y100.475 Z-1.877 I-0.842 J1.15
X206.922 Y98.175 Z-2.034 I0.842 J-1.15
X205.238 Y100.475 Z-2.19 I-0.842 J1.15
X206.922 Y98.175 Z-2.346 I0.842 J-1.15
X205.238 Y100.475 Z-2.503 I-0.842 J1.15
X206.922 Y98.175 Z-2.659 I0.842 J-1.15
X205.238 Y100.475 Z-2.815 I-0.842 J1.15
X206.922 Y98.175 Z-2.972 I0.842 J-1.15
X205.238 Y100.475 Z-3.128 I-0.842 J1.15
X206.922 Y98.175 Z-3.284 I0.842 J-1.15
X205.238 Y100.475 Z-3.441 I-0.842 J1.15
X206.922 Y98.175 Z-3.597 I0.842 J-1.15
X205.238 Y100.475 Z-3.753 I-0.842 J1.15
X204.655 Y99.325 Z-3.8 I0.842 J-1.15
X205.1 Y98.88 I0.445 J0 F1000
G1 X211.1
G3 X211.1 Y99.77 I0 J0.445
G1 X205.1
G3 X204.655 Y99.325 I0 J-0.445
G2 X204.331 Y98.712 I-0.742 J0
G3 X204.36 Y98.02 I0.23 J-0.337
X205.1 Y97.825 I0.74 J1.305
G1 X211.1
G3 X211.1 Y100.825 I0 J1.5
G1 X205.1
G3 X204.36 Y98.02 I0 J-1.5
G1 X204.391 Y98.01
X204.423 Y98.011
X204.453 Y98.023
X204.476 Y98.046
X204.49 Y98.075
X204.602 Y98.496
X205.309 Y100.057
X205.399 Y100.406
X205.4 Y100.44
X205.389 Y100.472
X205.365 Y100.496
X205.334 Y100.51
X205.3
X205.269 Y100.497
G3 X206.891 Y98.153 Z-3.956 I0.811 J-1.172 F333.3
X205.269 Y100.497 Z-4.113 I-0.811 J1.172
X206.891 Y98.153 Z-4.269 I0.811 J-1.172
X205.269 Y100.497 Z-4.425 I-0.811 J1.172
X206.891 Y98.153 Z-4.582 I0.811 J-1.172
X205.269 Y100.497 Z-4.738 I-0.811 J1.172
X206.891 Y98.153 Z-4.894 I0.811 J-1.172
X205.269 Y100.497 Z-5.051 I-0.811 J1.172
X206.891 Y98.153 Z-5.207 I0.811 J-1.172
X205.269 Y100.497 Z-5.363 I-0.811 J1.172
X206.891 Y98.153 Z-5.52 I0.811 J-1.172
X205.269 Y100.497 Z-5.676 I-0.811 J1.172
X206.891 Y98.153 Z-5.832 I0.811 J-1.172
X205.269 Y100.497 Z-5.989 I-0.811 J1.172
X206.891 Y98.153 Z-6.145 I0.811 J-1.172
X205.269 Y100.497 Z-6.301 I-0.811 J1.172
X206.891 Y98.153 Z-6.458 I0.811 J-1.172
X205.269 Y100.497 Z-6.614 I-0.811 J1.172
X206.891 Y98.153 Z-6.77 I0.811 J-1.172
X205.269 Y100.497 Z-6.927 I-0.811 J1.172
X206.891 Y98.153 Z-7.083 I0.811 J-1.172
X205.269 Y100.497 Z-7.239 I-0.811 J1.172
X206.891 Y98.153 Z-7.396 I0.811 J-1.172
X205.269 Y100.497 Z-7.552 I-0.811 J1.172
X204.655 Y99.325 Z-7.6 I0.811 J-1.172
X205.1 Y98.88 I0.445 J0 F1000
G1 X211.1
G3 X211.1 Y99.77 I0 J0.445
G1 X205.1
G3 X204.655 Y99.325 I0 J-0.445
G2 X204.331 Y98.712 I-0.742 J0
G3 X204.36 Y98.02 I0.23 J-0.337
X205.1 Y97.825 I0.74 J1.305
G1 X211.1
G3 X211.1 Y100.825 I0 J1.5
G1 X205.1
G3 X204.36 Y98.02 I0 J-1.5
G1 X204.391 Y98.01
X204.423 Y98.011
X204.453 Y98.023
X204.476 Y98.046
X204.49 Y98.075
X204.602 Y98.496
X205.309 Y100.057
X205.399 Y100.406
X205.4 Y100.44
X205.389 Y100.472
X205.365 Y100.496
X205.334 Y100.51
X205.3
X205.269 Y100.497
G3 X206.891 Y98.153 Z-7.756 I0.811 J-1.172 F333.3
X205.269 Y100.497 Z-7.913 I-0.811 J1.172
X206.891 Y98.153 Z-8.069 I0.811 J-1.172
X205.269 Y100.497 Z-8.225 I-0.811 J1.172
X206.891 Y98.153 Z-8.382 I0.811 J-1.172
X205.269 Y100.497 Z-8.538 I-0.811 J1.172
X206.891 Y98.153 Z-8.694 I0.811 J-1.172
X205.269 Y100.497 Z-8.851 I-0.811 J1.172
X206.891 Y98.153 Z-9.007 I0.811 J-1.172
X205.269 Y100.497 Z-9.163 I-0.811 J1.172
X206.891 Y98.153 Z-9.32 I0.811 J-1.172
X205.269 Y100.497 Z-9.476 I-0.811 J1.172
X206.891 Y98.153 Z-9.632 I0.811 J-1.172
X205.269 Y100.497 Z-9.789 I-0.811 J1.172
X206.891 Y98.153 Z-9.945 I0.811 J-1.172
X205.269 Y100.497 Z-10.101 I-0.811 J1.172
X206.891 Y98.153 Z-10.258 I0.811 J-1.172
X205.269 Y100.497 Z-10.414 I-0.811 J1.172
X206.891 Y98.153 Z-10.57 I0.811 J-1.172
X205.269 Y100.497 Z-10.727 I-0.811 J1.172
X206.891 Y98.153 Z-10.883 I0.811 J-1.172
X205.269 Y100.497 Z-11.039 I-0.811 J1.172
X206.891 Y98.153 Z-11.196 I0.811 J-1.172
X205.269 Y100.497 Z-11.352 I-0.811 J1.172
X204.655 Y99.325 Z-11.4 I0.811 J-1.172
X205.1 Y98.88 I0.445 J0 F1000
G1 X211.1
G3 X211.1 Y99.77 I0 J0.445
G1 X205.1
G3 X204.655 Y99.325 I0 J-0.445
G2 X204.331 Y98.712 I-0.742 J0
G3 X204.36 Y98.02 I0.23 J-0.337
X205.1 Y97.825 I0.74 J1.305
G1 X211.1
G3 X211.1 Y100.825 I0 J1.5
G1 X205.1
G3 X204.36 Y98.02 I0 J-1.5
G1 X204.391 Y98.01
X204.423 Y98.011
X204.453 Y98.023
X204.476 Y98.046
X204.49 Y98.075
X204.602 Y98.496
X205.309 Y100.057
X205.399 Y100.406
X205.4 Y100.44
X205.389 Y100.472
X205.365 Y100.496
X205.334 Y100.51
X205.3
X205.269 Y100.497
G3 X206.891 Y98.153 Z-11.556 I0.811 J-1.172 F333.3
X205.269 Y100.497 Z-11.713 I-0.811 J1.172
X206.891 Y98.153 Z-11.869 I0.811 J-1.172
X205.269 Y100.497 Z-12.025 I-0.811 J1.172
X206.891 Y98.153 Z-12.182 I0.811 J-1.172
X205.269 Y100.497 Z-12.338 I-0.811 J1.172
X206.891 Y98.153 Z-12.494 I0.811 J-1.172
X205.269 Y100.497 Z-12.651 I-0.811 J1.172
X206.891 Y98.153 Z-12.807 I0.811 J-1.172
X205.269 Y100.497 Z-12.963 I-0.811 J1.172
X206.891 Y98.153 Z-13.12 I0.811 J-1.172
X205.269 Y100.497 Z-13.276 I-0.811 J1.172
X206.891 Y98.153 Z-13.432 I0.811 J-1.172
X205.269 Y100.497 Z-13.589 I-0.811 J1.172
X206.891 Y98.153 Z-13.745 I0.811 J-1.172
X205.269 Y100.497 Z-13.901 I-0.811 J1.172
X206.891 Y98.153 Z-14.058 I0.811 J-1.172
X205.269 Y100.497 Z-14.214 I-0.811 J1.172
X206.891 Y98.153 Z-14.37 I0.811 J-1.172
X205.269 Y100.497 Z-14.527 I-0.811 J1.172
X206.891 Y98.153 Z-14.683 I0.811 J-1.172
X205.269 Y100.497 Z-14.839 I-0.811 J1.172
X206.891 Y98.153 Z-14.996 I0.811 J-1.172
X205.269 Y100.497 Z-15.152 I-0.811 J1.172
X204.655 Y99.325 Z-15.2 I0.811 J-1.172
X205.1 Y98.88 I0.445 J0 F1000
G1 X211.1
G3 X211.1 Y99.77 I0 J0.445
G1 X205.1
G3 X204.655 Y99.325 I0 J-0.445
G2 X204.331 Y98.712 I-0.742 J0
G3 X204.36 Y98.02 I0.23 J-0.337
X205.1 Y97.825 I0.74 J1.305
G1 X211.1
G3 X211.1 Y100.825 I0 J1.5
G1 X205.1
G3 X204.36 Y98.02 I0 J-1.5
G1 X204.391 Y98.01
X204.423 Y98.011
X204.453 Y98.023
X204.476 Y98.046
X204.49 Y98.075
X204.602 Y98.496
X205.309 Y100.057
X205.399 Y100.406
X205.4 Y100.44
X205.389 Y100.472
X205.365 Y100.496
X205.334 Y100.51
X205.3
X205.269 Y100.497
G3 X206.891 Y98.153 Z-15.356 I0.811 J-1.172 F333.3
X205.269 Y100.497 Z-15.513 I-0.811 J1.172
X206.891 Y98.153 Z-15.669 I0.811 J-1.172
X205.269 Y100.497 Z-15.825 I-0.811 J1.172
X206.891 Y98.153 Z-15.982 I0.811 J-1.172
X205.269 Y100.497 Z-16.138 I-0.811 J1.172
X206.891 Y98.153 Z-16.294 I0.811 J-1.172
X205.269 Y100.497 Z-16.451 I-0.811 J1.172
X206.891 Y98.153 Z-16.607 I0.811 J-1.172
X205.269 Y100.497 Z-16.763 I-0.811 J1.172
X206.891 Y98.153 Z-16.92 I0.811 J-1.172
X205.269 Y100.497 Z-17.076 I-0.811 J1.172
X206.891 Y98.153 Z-17.232 I0.811 J-1.172
X205.269 Y100.497 Z-17.389 I-0.811 J1.172
X206.891 Y98.153 Z-17.545 I0.811 J-1.172
X205.269 Y100.497 Z-17.701 I-0.811 J1.172
X206.891 Y98.153 Z-17.858 I0.811 J-1.172
X205.269 Y100.497 Z-18.014 I-0.811 J1.172
X206.891 Y98.153 Z-18.17 I0.811 J-1.172
X205.269 Y100.497 Z-18.327 I-0.811 J1.172
X206.891 Y98.153 Z-18.483 I0.811 J-1.172
X205.269 Y100.497 Z-18.639 I-0.811 J1.172
X206.891 Y98.153 Z-18.796 I0.811 J-1.172
X205.269 Y100.497 Z-18.952 I-0.811 J1.172
X204.655 Y99.325 Z-19 I0.811 J-1.172
X205.1 Y98.88 I0.445 J0 F1000
G1 X211.1
G3 X211.1 Y99.77 I0 J0.445
G1 X205.1
G3 X204.655 Y99.325 I0 J-0.445
G2 X204.331 Y98.712 I-0.742 J0
G3 X204.36 Y98.02 I0.23 J-0.337
X205.1 Y97.825 I0.74 J1.305
G1 X211.1
G3 X211.1 Y100.825 I0 J1.5
G1 X205.1
G3 X204.36 Y98.02 I0 J-1.5
G1 X204.412 Y97.997 Z-18.989
X204.468 Y97.984 Z-18.977
X204.517 Y97.981 Z-18.945
X204.565 Y97.987 Z-18.912
X204.627 Y98.006 Z-18.815
X204.648 Y98.016 Z-18.7
G0 Z5
X83.604 Y98.671
G1 Z2.8 F333.3
X83.621 Y98.636 Z2.653
X83.67 Y98.543 Z2.544
X83.75 Y98.422 Z2.5
G3 X86.05 Y100.106 Z2.344 I1.15 J0.842
X83.75 Y98.422 Z2.187 I-1.15 J-0.842
X86.05 Y100.106 Z2.031 I1.15 J0.842
X83.75 Y98.422 Z1.875 I-1.15 J-0.842
X86.05 Y100.106 Z1.718 I1.15 J0.842
X83.75 Y98.422 Z1.562 I-1.15 J-0.842
X86.05 Y100.106 Z1.406 I1.15 J0.842
X83.75 Y98.422 Z1.249 I-1.15 J-0.842
X86.05 Y100.106 Z1.093 I1.15 J0.842
X83.75 Y98.422 Z0.937 I-1.15 J-0.842
X86.05 Y100.106 Z0.78 I1.15 J0.842
X83.75 Y98.422 Z0.624 I-1.15 J-0.842
X86.05 Y100.106 Z0.468 I1.15 J0.842
X83.75 Y98.422 Z0.311 I-1.15 J-0.842
X86.05 Y100.106 Z0.155 I1.15 J0.842
X83.75 Y98.422 Z-0.001 I-1.15 J-0.842
X86.05 Y100.106 Z-0.158 I1.15 J0.842
X83.75 Y98.422 Z-0.314 I-1.15 J-0.842
X86.05 Y100.106 Z-0.47 I1.15 J0.842
X83.75 Y98.422 Z-0.627 I-1.15 J-0.842
X86.05 Y100.106 Z-0.783 I1.15 J0.842
X83.75 Y98.422 Z-0.939 I-1.15 J-0.842
X86.05 Y100.106 Z-1.096 I1.15 J0.842
X83.75 Y98.422 Z-1.252 I-1.15 J-0.842
X86.05 Y100.106 Z-1.408 I1.15 J0.842
X83.75 Y98.422 Z-1.565 I-1.15 J-0.842
X86.05 Y100.106 Z-1.721 I1.15 J0.842
X83.75 Y98.422 Z-1.877 I-1.15 J-0.842
X86.05 Y100.106 Z-2.034 I1.15 J0.842
X83.75 Y98.422 Z-2.19 I-1.15 J-0.842
X86.05 Y100.106 Z-2.346 I1.15 J0.842
X83.75 Y98.422 Z-2.503 I-1.15 J-0.842
X86.05 Y100.106 Z-2.659 I1.15 J0.842
X83.75 Y98.422 Z-2.815 I-1.15 J-0.842
X86.05 Y100.106 Z-2.972 I1.15 J0.842
X83.75 Y98.422 Z-3.128 I-1.15 J-0.842
X86.05 Y100.106 Z-3.284 I1.15 J0.842
X83.75 Y98.422 Z-3.441 I-1.15 J-0.842
X86.05 Y100.106 Z-3.597 I1.15 J0.842
X83.75 Y98.422 Z-3.753 I-1.15 J-0.842
X84.9 Y97.839 Z-3.8 I1.15 J0.842
X84.9 Y99.77 I0 J0.966
G1 X78.9 F1000
G3 X78.9 Y98.88 I0 J-0.445
G1 X84.9
G3 X84.9 Y99.77 I0 J0.445
G2 X84.109 Y100.298 I0 J0.857
G3 X83.317 Y100.825 I-0.791 J-0.33
G1 X78.9
G3 X78.9 Y97.825 I0 J-1.5
G1 X84.9
G3 X84.9 Y100.825 I0 J1.5
G1 X83.317
X83.284 Y100.818
X83.255 Y100.799
X83.235 Y100.77
X83.229 Y100.736
X83.235 Y100.702
X83.398 Y100.303
X83.861 Y98.839
X83.864 Y98.805
X83.854 Y98.772
X83.724 Y98.542
X83.714 Y98.512
X83.716 Y98.481
X83.728 Y98.452
G3 X86.072 Y100.075 Z-3.956 I1.172 J0.811 F333.3
X83.728 Y98.452 Z-4.113 I-1.172 J-0.811
X86.072 Y100.075 Z-4.269 I1.172 J0.811
X83.728 Y98.452 Z-4.425 I-1.172 J-0.811
X86.072 Y100.075 Z-4.582 I1.172 J0.811
X83.728 Y98.452 Z-4.738 I-1.172 J-0.811
X86.072 Y100.075 Z-4.894 I1.172 J0.811
X83.728 Y98.452 Z-5.051 I-1.172 J-0.811
X86.072 Y100.075 Z-5.207 I1.172 J0.811
X83.728 Y98.452 Z-5.363 I-1.172 J-0.811
X86.072 Y100.075 Z-5.52 I1.172 J0.811
X83.728 Y98.452 Z-5.676 I-1.172 J-0.811
X86.072 Y100.075 Z-5.832 I1.172 J0.811
X83.728 Y98.452 Z-5.989 I-1.172 J-0.811
X86.072 Y100.075 Z-6.145 I1.172 J0.811
X83.728 Y98.452 Z-6.301 I-1.172 J-0.811
X86.072 Y100.075 Z-6.458 I1.172 J0.811
X83.728 Y98.452 Z-6.614 I-1.172 J-0.811
X86.072 Y100.075 Z-6.77 I1.172 J0.811
X83.728 Y98.452 Z-6.927 I-1.172 J-0.811
X86.072 Y100.075 Z-7.083 I1.172 J0.811
X83.728 Y98.452 Z-7.239 I-1.172 J-0.811
X86.072 Y100.075 Z-7.396 I1.172 J0.811
X83.728 Y98.452 Z-7.552 I-1.172 J-0.811
X84.9 Y97.839 Z-7.6 I1.172 J0.811
X84.9 Y99.77 I0 J0.966
G1 X78.9 F1000
G3 X78.9 Y98.88 I0 J-0.445
G1 X84.9
G3 X84.9 Y99.77 I0 J0.445
G2 X84.109 Y100.298 I0 J0.857
G3 X83.317 Y100.825 I-0.791 J-0.33
G1 X78.9
G3 X78.9 Y97.825 I0 J-1.5
G1 X84.9
G3 X84.9 Y100.825 I0 J1.5
G1 X83.317
X83.284 Y100.818
X83.255 Y100.799
X83.235 Y100.77
X83.229 Y100.736
X83.235 Y100.702
X83.398 Y100.303
X83.861 Y98.839
X83.864 Y98.805
X83.854 Y98.772
X83.724 Y98.542
X83.714 Y98.512
X83.716 Y98.481
X83.728 Y98.452
G3 X86.072 Y100.075 Z-7.756 I1.172 J0.811 F333.3
X83.728 Y98.452 Z-7.913 I-1.172 J-0.811
X86.072 Y100.075 Z-8.069 I1.172 J0.811
X83.728 Y98.452 Z-8.225 I-1.172 J-0.811
X86.072 Y100.075 Z-8.382 I1.172 J0.811
X83.728 Y98.452 Z-8.538 I-1.172 J-0.811
X86.072 Y100.075 Z-8.694 I1.172 J0.811
X83.728 Y98.452 Z-8.851 I-1.172 J-0.811
X86.072 Y100.075 Z-9.007 I1.172 J0.811
X83.728 Y98.452 Z-9.163 I-1.172 J-0.811
X86.072 Y100.075 Z-9.32 I1.172 J0.811
X83.728 Y98.452 Z-9.476 I-1.172 J-0.811
X86.072 Y100.075 Z-9.632 I1.172 J0.811
X83.728 Y98.452 Z-9.789 I-1.172 J-0.811
X86.072 Y100.075 Z-9.945 I1.172 J0.811
X83.728 Y98.452 Z-10.101 I-1.172 J-0.811
X86.072 Y100.075 Z-10.258 I1.172 J0.811
X83.728 Y98.452 Z-10.414 I-1.172 J-0.811
X86.072 Y100.075 Z-10.57 I1.172 J0.811
X83.728 Y98.452 Z-10.727 I-1.172 J-0.811
X86.072 Y100.075 Z-10.883 I1.172 J0.811
X83.728 Y98.452 Z-11.039 I-1.172 J-0.811
X86.072 Y100.075 Z-11.196 I1.172 J0.811
X83.728 Y98.452 Z-11.352 I-1.172 J-0.811
X84.9 Y97.839 Z-11.4 I1.172 J0.811
X84.9 Y99.77 I0 J0.966
G1 X78.9 F1000
G3 X78.9 Y98.88 I0 J-0.445
G1 X84.9
G3 X84.9 Y99.77 I0 J0.445
G2 X84.109 Y100.298 I0 J0.857
G3 X83.317 Y100.825 I-0.791 J-0.33
G1 X78.9
G3 X78.9 Y97.825 I0 J-1.5
G1 X84.9
G3 X84.9 Y100.825 I0 J1.5
G1 X83.317
X83.284 Y100.818
X83.255 Y100.799
X83.235 Y100.77
X83.229 Y100.736
X83.235 Y100.702
X83.398 Y100.303
X83.861 Y98.839
X83.864 Y98.805
X83.854 Y98.772
X83.724 Y98.542
X83.714 Y98.512
X83.716 Y98.481
X83.728 Y98.452
G3 X86.072 Y100.075 Z-11.556 I1.172 J0.811 F333.3
X83.728 Y98.452 Z-11.713 I-1.172 J-0.811
X86.072 Y100.075 Z-11.869 I1.172 J0.811
X83.728 Y98.452 Z-12.025 I-1.172 J-0.811
X86.072 Y100.075 Z-12.182 I1.172 J0.811
X83.728 Y98.452 Z-12.338 I-1.172 J-0.811
X86.072 Y100.075 Z-12.494 I1.172 J0.811
X83.728 Y98.452 Z-12.651 I-1.172 J-0.811
X86.072 Y100.075 Z-12.807 I1.172 J0.811
X83.728 Y98.452 Z-12.963 I-1.172 J-0.811
X86.072 Y100.075 Z-13.12 I1.172 J0.811
X83.728 Y98.452 Z-13.276 I-1.172 J-0.811
X86.072 Y100.075 Z-13.432 I1.172 J0.811
X83.728 Y98.452 Z-13.589 I-1.172 J-0.811
X86.072 Y100.075 Z-13.745 I1.172 J0.811
X83.728 Y98.452 Z-13.901 I-1.172 J-0.811
X86.072 Y100.075 Z-14.058 I1.172 J0.811
X83.728 Y98.452 Z-14.214 I-1.172 J-0.811
X86.072 Y100.075 Z-14.37 I1.172 J0.811
X83.728 Y98.452 Z-14.527 I-1.172 J-0.811
X86.072 Y100.075 Z-14.683 I1.172 J0.811
X83.728 Y98.452 Z-14.839 I-1.172 J-0.811
X86.072 Y100.075 Z-14.996 I1.172 J0.811
X83.728 Y98.452 Z-15.152 I-1.172 J-0.811
X84.9 Y97.839 Z-15.2 I1.172 J0.811
X84.9 Y99.77 I0 J0.966
G1 X78.9 F1000
G3 X78.9 Y98.88 I0 J-0.445
G1 X84.9
G3 X84.9 Y99.77 I0 J0.445
G2 X84.109 Y100.298 I0 J0.857
G3 X83.317 Y100.825 I-0.791 J-0.33
G1 X78.9
G3 X78.9 Y97.825 I0 J-1.5
G1 X84.9
G3 X84.9 Y100.825 I0 J1.5
G1 X83.317
X83.284 Y100.818
X83.255 Y100.799
X83.235 Y100.77
X83.229 Y100.736
X83.235 Y100.702
X83.398 Y100.303
X83.861 Y98.839
X83.864 Y98.805
X83.854 Y98.772
X83.724 Y98.542
X83.714 Y98.512
X83.716 Y98.481
X83.728 Y98.452
G3 X86.072 Y100.075 Z-15.356 I1.172 J0.811 F333.3
X83.728 Y98.452 Z-15.513 I-1.172 J-0.811
X86.072 Y100.075 Z-15.669 I1.172 J0.811
X83.728 Y98.452 Z-15.825 I-1.172 J-0.811
X86.072 Y100.075 Z-15.982 I1.172 J0.811
X83.728 Y98.452 Z-16.138 I-1.172 J-0.811
X86.072 Y100.075 Z-16.294 I1.172 J0.811
X83.728 Y98.452 Z-16.451 I-1.172 J-0.811
X86.072 Y100.075 Z-16.607 I1.172 J0.811
X83.728 Y98.452 Z-16.763 I-1.172 J-0.811
X86.072 Y100.075 Z-16.92 I1.172 J0.811
X83.728 Y98.452 Z-17.076 I-1.172 J-0.811
X86.072 Y100.075 Z-17.232 I1.172 J0.811
X83.728 Y98.452 Z-17.389 I-1.172 J-0.811
X86.072 Y100.075 Z-17.545 I1.172 J0.811
X83.728 Y98.452 Z-17.701 I-1.172 J-0.811
X86.072 Y100.075 Z-17.858 I1.172 J0.811
X83.728 Y98.452 Z-18.014 I-1.172 J-0.811
X86.072 Y100.075 Z-18.17 I1.172 J0.811
X83.728 Y98.452 Z-18.327 I-1.172 J-0.811
X86.072 Y100.075 Z-18.483 I1.172 J0.811
X83.728 Y98.452 Z-18.639 I-1.172 J-0.811
X86.072 Y100.075 Z-18.796 I1.172 J0.811
X83.728 Y98.452 Z-18.952 I-1.172 J-0.811
X84.9 Y97.839 Z-19 I1.172 J0.811
X84.9 Y99.77 I0 J0.966
G1 X78.9 F1000
G3 X78.9 Y98.88 I0 J-0.445
G1 X84.9
G3 X84.9 Y99.77 I0 J0.445
G2 X84.109 Y100.298 I0 J0.857
G3 X83.317 Y100.825 I-0.791 J-0.33
G1 X78.9
G3 X78.9 Y97.825 I0 J-1.5
G1 X84.9
G3 X84.9 Y100.825 I0 J1.5
G1 X83.317
X83.26 Y100.82 Z-18.989
X83.205 Y100.803 Z-18.977
X83.162 Y100.782 Z-18.945
X83.123 Y100.753 Z-18.912
X83.078 Y100.706 Z-18.815
X83.065 Y100.687 Z-18.7
G0 Z5
X79.287 Y34.971
G1 Z2.8 F333.3
X79.253 Y34.954 Z2.653
X79.16 Y34.905 Z2.544
X79.038 Y34.825 Z2.5
G3 X80.722 Y32.525 Z2.344 I0.842 J-1.15
X79.038 Y34.825 Z2.187 I-0.842 J1.15
X80.722 Y32.525 Z2.031 I0.842 J-1.15
X79.038 Y34.825 Z1.875 I-0.842 J1.15
X80.722 Y32.525 Z1.718 I0.842 J-1.15
X79.038 Y34.825 Z1.562 I-0.842 J1.15
X80.722 Y32.525 Z1.406 I0.842 J-1.15
X79.038 Y34.825 Z1.249 I-0.842 J1.15
X80.722 Y32.525 Z1.093 I0.842 J-1.15
X79.038 Y34.825 Z0.937 I-0.842 J1.15
X80.722 Y32.525 Z0.78 I0.842 J-1.15
X79.038 Y34.825 Z0.624 I-0.842 J1.15
X80.722 Y32.525 Z0.468 I0.842 J-1.15
X79.038 Y34.825 Z0.311 I-0.842 J1.15
X80.722 Y32.525 Z0.155 I0.842 J-1.15
X79.038 Y34.825 Z-0.001 I-0.842 J1.15
X80.722 Y32.525 Z-0.158 I0.842 J-1.15
X79.038 Y34.825 Z-0.314 I-0.842 J1.15
X80.722 Y32.525 Z-0.47 I0.842 J-1.15
X79.038 Y34.825 Z-0.627 I-0.842 J1.15
X80.722 Y32.525 Z-0.783 I0.842 J-1.15
X79.038 Y34.825 Z-0.939 I-0.842 J1.15
X80.722 Y32.525 Z-1.096 I0.842 J-1.15
X79.038 Y34.825 Z-1.252 I-0.842 J1.15
X80.722 Y32.525 Z-1.408 I0.842 J-1.15
X79.038 Y34.825 Z-1.565 I-0.842 J1.15
X80.722 Y32.525 Z-1.721 I0.842 J-1.15
X79.038 Y34.825 Z-1.877 I-0.842 J1.15
X80.722 Y32.525 Z-2.034 I0.842 J-1.15
X79.038 Y34.825 Z-2.19 I-0.842 J1.15
X80.722 Y32.525 Z-2.346 I0.842 J-1.15
X79.038 Y34.825 Z-2.503 I-0.842 J1.15
X80.722 Y32.525 Z-2.659 I0.842 J-1.15
X79.038 Y34.825 Z-2.815 I-0.842 J1.15
X80.722 Y32.525 Z-2.972 I0.842 J-1.15
X79.038 Y34.825 Z-3.128 I-0.842 J1.15
X80.722 Y32.525 Z-3.284 I0.842 J-1.15
X79.038 Y34.825 Z-3.441 I-0.842 J1.15
X80.722 Y32.525 Z-3.597 I0.842 J-1.15
X79.038 Y34.825 Z-3.753 I-0.842 J1.15
X78.455 Y33.675 Z-3.8 I0.842 J-1.15
X78.9 Y33.23 I0.445 J0 F1000
G1 X84.9
G3 X84.9 Y34.12 I0 J0.445
G1 X78.9
G3 X78.455 Y33.675 I0 J-0.445
G2 X78.131 Y33.062 I-0.742 J0
G3 X78.16 Y32.37 I0.23 J-0.337
X78.9 Y32.175 I0.74 J1.305
G1 X84.9
G3 X84.9 Y35.175 I0 J1.5
G1 X78.9
G3 X78.16 Y32.37 I0 J-1.5
G1 X78.191 Y32.36
X78.223 Y32.361
X78.253 Y32.373
X78.276 Y32.396
X78.29 Y32.425
X78.402 Y32.846
X79.109 Y34.407
X79.199 Y34.756
X79.2 Y34.79
X79.189 Y34.822
X79.165 Y34.846
X79.134 Y34.86
X79.1
X79.069 Y34.847
G3 X80.691 Y32.503 Z-3.956 I0.811 J-1.172 F333.3
X79.069 Y34.847 Z-4.113 I-0.811 J1.172
X80.691 Y32.503 Z-4.269 I0.811 J-1.172
X79.069 Y34.847 Z-4.425 I-0.811 J1.172
X80.691 Y32.503 Z-4.582 I0.811 J-1.172
X79.069 Y34.847 Z-4.738 I-0.811 J1.172
X80.691 Y32.503 Z-4.894 I0.811 J-1.172
X79.069 Y34.847 Z-5.051 I-0.811 J1.172
X80.691 Y32.503 Z-5.207 I0.811 J-1.172
X79.069 Y34.847 Z-5.363 I-0.811 J1.172
X80.691 Y32.503 Z-5.52 I0.811 J-1.172
X79.069 Y34.847 Z-5.676 I-0.811 J1.172
X80.691 Y32.503 Z-5.832 I0.811 J-1.172
X79.069 Y34.847 Z-5.989 I-0.811 J1.172
X80.691 Y32.503 Z-6.145 I0.811 J-1.172
X79.069 Y34.847 Z-6.301 I-0.811 J1.172
X80.691 Y32.503 Z-6.458 I0.811 J-1.172
X79.069 Y34.847 Z-6.614 I-0.811 J1.172
X80.691 Y32.503 Z-6.77 I0.811 J-1.172
X79.069 Y34.847 Z-6.927 I-0.811 J1.172
X80.691 Y32.503 Z-7.083 I0.811 J-1.172
X79.069 Y34.847 Z-7.239 I-0.811 J1.172
X80.691 Y32.503 Z-7.396 I0.811 J-1.172
X79.069 Y34.847 Z-7.552 I-0.811 J1.172
X78.455 Y33.675 Z-7.6 I0.811 J-1.172
X78.9 Y33.23 I0.445 J0 F1000
G1 X84.9
G3 X84.9 Y34.12 I0 J0.445
G1 X78.9
G3 X78.455 Y33.675 I0 J-0.445
G2 X78.131 Y33.062 I-0.742 J0
G3 X78.16 Y32.37 I0.23 J-0.337
X78.9 Y32.175 I0.74 J1.305
G1 X84.9
G3 X84.9 Y35.175 I0 J1.5
G1 X78.9
G3 X78.16 Y32.37 I0 J-1.5
G1 X78.191 Y32.36
X78.223 Y32.361
X78.253 Y32.373
X78.276 Y32.396
X78.29 Y32.425
X78.402 Y32.846
X79.109 Y34.407
X79.199 Y34.756
X79.2 Y34.79
X79.189 Y34.822
X79.165 Y34.846
X79.134 Y34.86
X79.1
X79.069 Y34.847
G3 X80.691 Y32.503 Z-7.756 I0.811 J-1.172 F333.3
X79.069 Y34.847 Z-7.913 I-0.811 J1.172
X80.691 Y32.503 Z-8.069 I0.811 J-1.172
X79.069 Y34.847 Z-8.225 I-0.811 J1.172
X80.691 Y32.503 Z-8.382 I0.811 J-1.172
X79.069 Y34.847 Z-8.538 I-0.811 J1.172
X80.691 Y32.503 Z-8.694 I0.811 J-1.172
X79.069 Y34.847 Z-8.851 I-0.811 J1.172
X80.691 Y32.503 Z-9.007 I0.811 J-1.172
X79.069 Y34.847 Z-9.163 I-0.811 J1.172
X80.691 Y32.503 Z-9.32 I0.811 J-1.172
X79.069 Y34.847 Z-9.476 I-0.811 J1.172
X80.691 Y32.503 Z-9.632 I0.811 J-1.172
X79.069 Y34.847 Z-9.789 I-0.811 J1.172
X80.691 Y32.503 Z-9.945 I0.811 J-1.172
X79.069 Y34.847 Z-10.101 I-0.811 J1.172
X80.691 Y32.503 Z-10.258 I0.811 J-1.172
X79.069 Y34.847 Z-10.414 I-0.811 J1.172
X80.691 Y32.503 Z-10.57 I0.811 J-1.172
X79.069 Y34.847 Z-10.727 I-0.811 J1.172
X80.691 Y32.503 Z-10.883 I0.811 J-1.172
X79.069 Y34.847 Z-11.039 I-0.811 J1.172
X80.691 Y32.503 Z-11.196 I0.811 J-1.172
X79.069 Y34.847 Z-11.352 I-0.811 J1.172
X78.455 Y33.675 Z-11.4 I0.811 J-1.172
X78.9 Y33.23 I0.445 J0 F1000
G1 X84.9
G3 X84.9 Y34.12 I0 J0.445
G1 X78.9
G3 X78.455 Y33.675 I0 J-0.445
G2 X78.131 Y33.062 I-0.742 J0
G3 X78.16 Y32.37 I0.23 J-0.337
X78.9 Y32.175 I0.74 J1.305
G1 X84.9
G3 X84.9 Y35.175 I0 J1.5
G1 X78.9
G3 X78.16 Y32.37 I0 J-1.5
G1 X78.191 Y32.36
X78.223 Y32.361
X78.253 Y32.373
X78.276 Y32.396
X78.29 Y32.425
X78.402 Y32.846
X79.109 Y34.407
X79.199 Y34.756
X79.2 Y34.79
X79.189 Y34.822
X79.165 Y34.846
X79.134 Y34.86
X79.1
X79.069 Y34.847
G3 X80.691 Y32.503 Z-11.556 I0.811 J-1.172 F333.3
X79.069 Y34.847 Z-11.713 I-0.811 J1.172
X80.691 Y32.503 Z-11.869 I0.811 J-1.172
X79.069 Y34.847 Z-12.025 I-0.811 J1.172
X80.691 Y32.503 Z-12.182 I0.811 J-1.172
X79.069 Y34.847 Z-12.338 I-0.811 J1.172
X80.691 Y32.503 Z-12.494 I0.811 J-1.172
X79.069 Y34.847 Z-12.651 I-0.811 J1.172
X80.691 Y32.503 Z-12.807 I0.811 J-1.172
X79.069 Y34.847 Z-12.963 I-0.811 J1.172
X80.691 Y32.503 Z-13.12 I0.811 J-1.172
X79.069 Y34.847 Z-13.276 I-0.811 J1.172
X80.691 Y32.503 Z-13.432 I0.811 J-1.172
X79.069 Y34.847 Z-13.589 I-0.811 J1.172
X80.691 Y32.503 Z-13.745 I0.811 J-1.172
X79.069 Y34.847 Z-13.901 I-0.811 J1.172
X80.691 Y32.503 Z-14.058 I0.811 J-1.172
X79.069 Y34.847 Z-14.214 I-0.811 J1.172
X80.691 Y32.503 Z-14.37 I0.811 J-1.172
X79.069 Y34.847 Z-14.527 I-0.811 J1.172
X80.691 Y32.503 Z-14.683 I0.811 J-1.172
X79.069 Y34.847 Z-14.839 I-0.811 J1.172
X80.691 Y32.503 Z-14.996 I0.811 J-1.172
X79.069 Y34.847 Z-15.152 I-0.811 J1.172
X78.455 Y33.675 Z-15.2 I0.811 J-1.172
X78.9 Y33.23 I0.445 J0 F1000
G1 X84.9
G3 X84.9 Y34.12 I0 J0.445
G1 X78.9
G3 X78.455 Y33.675 I0 J-0.445
G2 X78.131 Y33.062 I-0.742 J0
G3 X78.16 Y32.37 I0.23 J-0.337
X78.9 Y32.175 I0.74 J1.305
G1 X84.9
G3 X84.9 Y35.175 I0 J1.5
G1 X78.9
G3 X78.16 Y32.37 I0 J-1.5
G1 X78.191 Y32.36
X78.223 Y32.361
X78.253 Y32.373
X78.276 Y32.396
X78.29 Y32.425
X78.402 Y32.846
X79.109 Y34.407
X79.199 Y34.756
X79.2 Y34.79
X79.189 Y34.822
X79.165 Y34.846
X79.134 Y34.86
X79.1
X79.069 Y34.847
G3 X80.691 Y32.503 Z-15.356 I0.811 J-1.172 F333.3
X79.069 Y34.847 Z-15.513 I-0.811 J1.172
X80.691 Y32.503 Z-15.669 I0.811 J-1.172
X79.069 Y34.847 Z-15.825 I-0.811 J1.172
X80.691 Y32.503 Z-15.982 I0.811 J-1.172
X79.069 Y34.847 Z-16.138 I-0.811 J1.172
X80.691 Y32.503 Z-16.294 I0.811 J-1.172
X79.069 Y34.847 Z-16.451 I-0.811 J1.172
X80.691 Y32.503 Z-16.607 I0.811 J-1.172
X79.069 Y34.847 Z-16.763 I-0.811 J1.172
X80.691 Y32.503 Z-16.92 I0.811 J-1.172
X79.069 Y34.847 Z-17.076 I-0.811 J1.172
X80.691 Y32.503 Z-17.232 I0.811 J-1.172
X79.069 Y34.847 Z-17.389 I-0.811 J1.172
X80.691 Y32.503 Z-17.545 I0.811 J-1.172
X79.069 Y34.847 Z-17.701 I-0.811 J1.172
X80.691 Y32.503 Z-17.858 I0.811 J-1.172
X79.069 Y34.847 Z-18.014 I-0.811 J1.172
X80.691 Y32.503 Z-18.17 I0.811 J-1.172
X79.069 Y34.847 Z-18.327 I-0.811 J1.172
X80.691 Y32.503 Z-18.483 I0.811 J-1.172
X79.069 Y34.847 Z-18.639 I-0.811 J1.172
X80.691 Y32.503 Z-18.796 I0.811 J-1.172
X79.069 Y34.847 Z-18.952 I-0.811 J1.172
X78.455 Y33.675 Z-19 I0.811 J-1.172
X78.9 Y33.23 I0.445 J0 F1000
G1 X84.9
G3 X84.9 Y34.12 I0 J0.445
G1 X78.9
G3 X78.455 Y33.675 I0 J-0.445
G2 X78.131 Y33.062 I-0.742 J0
G3 X78.16 Y32.37 I0.23 J-0.337
X78.9 Y32.175 I0.74 J1.305
G1 X84.9
G3 X84.9 Y35.175 I0 J1.5
G1 X78.9
G3 X78.16 Y32.37 I0 J-1.5
G1 X78.212 Y32.347 Z-18.989
X78.268 Y32.334 Z-18.977
X78.317 Y32.331 Z-18.945
X78.365 Y32.337 Z-18.912
X78.427 Y32.356 Z-18.815
X78.448 Y32.366 Z-18.7
G0 Z15

(2D Contour9)
X197.89 Y64.628
Z15
Z5
G1 Z-4.7 F333.3
G18 G2 X198.19 Z-5 I0.3 K0 F1000
G1 X198.49
G17 G3 X198.79 Y64.928 I0 J0.3
G1 Y107.96
X91.21
Y21.896
X198.79
Y64.928
G3 X198.49 Y65.228 I-0.3 J0
G1 X198.19
G18 G3 X197.89 Z-4.7 I0 K0.3
G1 Y64.628
Z-9.7 F333.3
G2 X198.19 Z-10 I0.3 K0 F1000
G1 X198.49
G17 G3 X198.79 Y64.928 I0 J0.3
G1 Y107.96
X91.21
Y21.896
X198.79
Y64.928
G3 X198.49 Y65.228 I-0.3 J0
G1 X198.19
G18 G3 X197.89 Z-9.7 I0 K0.3
G1 Y64.628
Z-14.7 F333.3
G2 X198.19 Z-15 I0.3 K0 F1000
G1 X198.49
G17 G3 X198.79 Y64.928 I0 J0.3
G1 Y107.96
X91.21
Y21.896
X198.79
Y64.928
G3 X198.49 Y65.228 I-0.3 J0
G1 X198.19
G18 G3 X197.89 Z-14.7 I0 K0.3
G1 Y64.628
Z-18.7 F333.3
G2 X198.19 Z-19 I0.3 K0 F1000
G1 X198.49
G17 G3 X198.79 Y64.928 I0 J0.3
G1 Y84.194
Z-18
Y90.194
Z-19 F333.3
Y107.96 F1000
X175.645
Z-18
X169.645
Z-19 F333.3
X120.355 F1000
Z-18
X114.355
Z-19 F333.3
X91.21 F1000
Y90.194
Z-18
Y84.194
Z-19 F333.3
Y45.662 F1000
Z-18
Y39.662
Z-19 F333.3
Y21.896 F1000
X114.355
Z-18
X120.355
Z-19 F333.3
X169.645 F1000
Z-18
X175.645
Z-19 F333.3
X198.79 F1000
Y39.662
Z-18
Y45.662
Z-19 F333.3
Y64.928 F1000
G3 X198.49 Y65.228 I-0.3 J0
G1 X198.19
G18 G3 X197.89 Z-18.7 I0 K0.3
G0 Z15
G17

(2D Pocket11)
G0 X80.874 Y100.32
Z15
Z5
G1 Z2.8 F333.3
X80.848 Y100.293 Z2.653
X80.779 Y100.212 Z2.544
X80.694 Y100.094 Z2.5
G3 X83.094 Y98.556 Z2.344 I1.2 J-0.769
X80.694 Y100.094 Z2.187 I-1.2 J0.769
X83.094 Y98.556 Z2.031 I1.2 J-0.769
X80.694 Y100.094 Z1.875 I-1.2 J0.769
X83.094 Y98.556 Z1.718 I1.2 J-0.769
X80.694 Y100.094 Z1.562 I-1.2 J0.769
X83.094 Y98.556 Z1.406 I1.2 J-0.769
X80.694 Y100.094 Z1.249 I-1.2 J0.769
X83.094 Y98.556 Z1.093 I1.2 J-0.769
X80.694 Y100.094 Z0.937 I-1.2 J0.769
X83.094 Y98.556 Z0.78 I1.2 J-0.769
X80.694 Y100.094 Z0.624 I-1.2 J0.769
X83.094 Y98.556 Z0.468 I1.2 J-0.769
X80.694 Y100.094 Z0.311 I-1.2 J0.769
X83.094 Y98.556 Z0.155 I1.2 J-0.769
X80.694 Y100.094 Z-0.001 I-1.2 J0.769
X83.094 Y98.556 Z-0.158 I1.2 J-0.769
X80.694 Y100.094 Z-0.314 I-1.2 J0.769
X83.094 Y98.556 Z-0.47 I1.2 J-0.769
X80.694 Y100.094 Z-0.627 I-1.2 J0.769
X83.094 Y98.556 Z-0.783 I1.2 J-0.769
X80.694 Y100.094 Z-0.939 I-1.2 J0.769
X83.094 Y98.556 Z-1.096 I1.2 J-0.769
X80.694 Y100.094 Z-1.252 I-1.2 J0.769
X83.094 Y98.556 Z-1.408 I1.2 J-0.769
X80.694 Y100.094 Z-1.565 I-1.2 J0.769
X83.094 Y98.556 Z-1.721 I1.2 J-0.769
X80.694 Y100.094 Z-1.877 I-1.2 J0.769
X83.094 Y98.556 Z-2.034 I1.2 J-0.769
X80.694 Y100.094 Z-2.19 I-1.2 J0.769
X83.094 Y98.556 Z-2.346 I1.2 J-0.769
X80.694 Y100.094 Z-2.503 I-1.2 J0.769
X83.094 Y98.556 Z-2.659 I1.2 J-0.769
X80.694 Y100.094 Z-2.815 I-1.2 J0.769
X83.094 Y98.556 Z-2.972 I1.2 J-0.769
X83.319 Y99.325 Z-3 I-1.2 J0.769
G1 Y99.337 F1000
X83.312 Y99.374
X83.291 Y99.406
X83.26 Y99.426
X83.223 Y99.434
X79.493
X79.456 Y99.427
X79.424 Y99.408
X79.399 Y99.379
X79.386 Y99.344
Y99.306
X79.399 Y99.271
X79.424 Y99.242
X79.456 Y99.223
X79.493 Y99.216
X83.223
X83.26 Y99.224
X83.291 Y99.244
X83.312 Y99.276
X83.319 Y99.313
Y99.325
G2 X83.821 Y100.051 I0.777 J0
G3 X83.662 Y100.92 I-0.159 J0.42
G1 X78.124
G3 X77.805 Y100.601 I0 J-0.319
G1 Y98.049
G3 X78.124 Y97.73 I0.319 J0
G1 X84.486
G3 X84.805 Y98.049 I0 J0.319
G1 Y100.601
G3 X84.486 Y100.92 I-0.319 J0
G1 X83.662
G2 X82.387 Y101.77 I0 J1.381
G3 X81.112 Y102.62 I-1.275 J-0.531
G1 X76.424
G3 X76.105 Y102.301 I0 J-0.319
G1 Y96.349
G3 X76.424 Y96.03 I0.319 J0
G1 X86.186
G3 X86.505 Y96.349 I0 J0.319
G1 Y102.301
G3 X86.186 Y102.62 I-0.319 J0
G1 X81.112
G2 X79.834 Y103.473 I0 J1.385
G3 X78.555 Y104.325 I-1.279 J-0.533
G1 X74.4
Y94.325
X88.21
Y104.325
X78.555
G3 X78.386 Y104.018 I0 J-0.2
G1 X80.719 Y100.345
X80.739 Y100.303
X80.749 Y100.258
X80.748 Y100.212
X80.737 Y100.167
X80.715 Y100.126
G3 X83.073 Y98.524 Z-3.156 I1.179 J-0.801 F333.3
X80.715 Y100.126 Z-3.313 I-1.179 J0.801
X83.073 Y98.524 Z-3.469 I1.179 J-0.801
X80.715 Y100.126 Z-3.625 I-1.179 J0.801
X83.073 Y98.524 Z-3.782 I1.179 J-0.801
X80.715 Y100.126 Z-3.938 I-1.179 J0.801
X83.073 Y98.524 Z-4.094 I1.179 J-0.801
X80.715 Y100.126 Z-4.251 I-1.179 J0.801
X83.073 Y98.524 Z-4.407 I1.179 J-0.801
X80.715 Y100.126 Z-4.563 I-1.179 J0.801
X83.073 Y98.524 Z-4.72 I1.179 J-0.801
X80.715 Y100.126 Z-4.876 I-1.179 J0.801
X83.073 Y98.524 Z-5.032 I1.179 J-0.801
X80.715 Y100.126 Z-5.189 I-1.179 J0.801
X83.073 Y98.524 Z-5.345 I1.179 J-0.801
X80.715 Y100.126 Z-5.501 I-1.179 J0.801
X83.073 Y98.524 Z-5.658 I1.179 J-0.801
X80.715 Y100.126 Z-5.814 I-1.179 J0.801
X83.073 Y98.524 Z-5.97 I1.179 J-0.801
X83.319 Y99.325 Z-6 I-1.179 J0.801
G1 Y99.337 F1000
X83.312 Y99.374
X83.291 Y99.406
X83.26 Y99.426
X83.223 Y99.434
X79.493
X79.456 Y99.427
X79.424 Y99.408
X79.399 Y99.379
X79.386 Y99.344
Y99.306
X79.399 Y99.271
X79.424 Y99.242
X79.456 Y99.223
X79.493 Y99.216
X83.223
X83.26 Y99.224
X83.291 Y99.244
X83.312 Y99.276
X83.319 Y99.313
Y99.325
G2 X83.821 Y100.051 I0.777 J0
G3 X83.662 Y100.92 I-0.159 J0.42
G1 X78.124
G3 X77.805 Y100.601 I0 J-0.319
G1 Y98.049
G3 X78.124 Y97.73 I0.319 J0
G1 X84.486
G3 X84.805 Y98.049 I0 J0.319
G1 Y100.601
G3 X84.486 Y100.92 I-0.319 J0
G1 X83.662
G2 X82.387 Y101.77 I0 J1.381
G3 X81.112 Y102.62 I-1.275 J-0.531
G1 X76.424
G3 X76.105 Y102.301 I0 J-0.319
G1 Y96.349
G3 X76.424 Y96.03 I0.319 J0
G1 X86.186
G3 X86.505 Y96.349 I0 J0.319
G1 Y102.301
G3 X86.186 Y102.62 I-0.319 J0
G1 X81.112
G2 X79.834 Y103.473 I0 J1.385
G3 X78.555 Y104.325 I-1.279 J-0.533
G1 X74.4
Y94.325
X88.21
Y104.325
X78.555
G3 X78.386 Y104.018 I0 J-0.2
G1 X80.719 Y100.345
X80.739 Y100.303
X80.749 Y100.258
X80.748 Y100.212
X80.737 Y100.167
X80.715 Y100.126
G3 X83.073 Y98.524 Z-6.156 I1.179 J-0.801 F333.3
X80.715 Y100.126 Z-6.313 I-1.179 J0.801
X83.073 Y98.524 Z-6.469 I1.179 J-0.801
X80.715 Y100.126 Z-6.625 I-1.179 J0.801
X83.073 Y98.524 Z-6.782 I1.179 J-0.801
X80.715 Y100.126 Z-6.938 I-1.179 J0.801
X83.073 Y98.524 Z-7.094 I1.179 J-0.801
X80.715 Y100.126 Z-7.251 I-1.179 J0.801
X83.073 Y98.524 Z-7.407 I1.179 J-0.801
X80.715 Y100.126 Z-7.563 I-1.179 J0.801
X83.073 Y98.524 Z-7.72 I1.179 J-0.801
X80.715 Y100.126 Z-7.876 I-1.179 J0.801
X83.073 Y98.524 Z-8.032 I1.179 J-0.801
X80.715 Y100.126 Z-8.189 I-1.179 J0.801
X83.073 Y98.524 Z-8.345 I1.179 J-0.801
X80.715 Y100.126 Z-8.501 I-1.179 J0.801
X83.073 Y98.524 Z-8.658 I1.179 J-0.801
X80.715 Y100.126 Z-8.814 I-1.179 J0.801
X83.073 Y98.524 Z-8.97 I1.179 J-0.801
X83.319 Y99.325 Z-9 I-1.179 J0.801
G1 Y99.337 F1000
X83.312 Y99.374
X83.291 Y99.406
X83.26 Y99.426
X83.223 Y99.434
X79.493
X79.456 Y99.427
X79.424 Y99.408
X79.399 Y99.379
X79.386 Y99.344
Y99.306
X79.399 Y99.271
X79.424 Y99.242
X79.456 Y99.223
X79.493 Y99.216
X83.223
X83.26 Y99.224
X83.291 Y99.244
X83.312 Y99.276
X83.319 Y99.313
Y99.325
G2 X83.821 Y100.051 I0.777 J0
G3 X83.662 Y100.92 I-0.159 J0.42
G1 X78.124
G3 X77.805 Y100.601 I0 J-0.319
G1 Y98.049
G3 X78.124 Y97.73 I0.319 J0
G1 X84.486
G3 X84.805 Y98.049 I0 J0.319
G1 Y100.601
G3 X84.486 Y100.92 I-0.319 J0
G1 X83.662
G2 X82.387 Y101.77 I0 J1.381
G3 X81.112 Y102.62 I-1.275 J-0.531
G1 X76.424
G3 X76.105 Y102.301 I0 J-0.319
G1 Y96.349
G3 X76.424 Y96.03 I0.319 J0
G1 X86.186
G3 X86.505 Y96.349 I0 J0.319
G1 Y102.301
G3 X86.186 Y102.62 I-0.319 J0
G1 X81.112
G2 X79.834 Y103.473 I0 J1.385
G3 X78.555 Y104.325 I-1.279 J-0.533
G1 X74.4
Y94.325
X88.21
Y104.325
X78.555
X78.498 Y104.32 Z-8.989
X78.443 Y104.303 Z-8.977
X78.399 Y104.282 Z-8.945
X78.36 Y104.253 Z-8.912
X78.315 Y104.206 Z-8.815
X78.302 Y104.187 Z-8.7
G0 Z5
X80.874 Y34.67
G1 Z2.8 F333.3
X80.848 Y34.643 Z2.653
X80.779 Y34.562 Z2.544
X80.694 Y34.444 Z2.5
G3 X83.094 Y32.906 Z2.344 I1.2 J-0.769
X80.694 Y34.444 Z2.187 I-1.2 J0.769
X83.094 Y32.906 Z2.031 I1.2 J-0.769
X80.694 Y34.444 Z1.875 I-1.2 J0.769
X83.094 Y32.906 Z1.718 I1.2 J-0.769
X80.694 Y34.444 Z1.562 I-1.2 J0.769
X83.094 Y32.906 Z1.406 I1.2 J-0.769
X80.694 Y34.444 Z1.249 I-1.2 J0.769
X83.094 Y32.906 Z1.093 I1.2 J-0.769
X80.694 Y34.444 Z0.937 I-1.2 J0.769
X83.094 Y32.906 Z0.78 I1.2 J-0.769
X80.694 Y34.444 Z0.624 I-1.2 J0.769
X83.094 Y32.906 Z0.468 I1.2 J-0.769
X80.694 Y34.444 Z0.311 I-1.2 J0.769
X83.094 Y32.906 Z0.155 I1.2 J-0.769
X80.694 Y34.444 Z-0.001 I-1.2 J0.769
X83.094 Y32.906 Z-0.158 I1.2 J-0.769
X80.694 Y34.444 Z-0.314 I-1.2 J0.769
X83.094 Y32.906 Z-0.47 I1.2 J-0.769
X80.694 Y34.444 Z-0.627 I-1.2 J0.769
X83.094 Y32.906 Z-0.783 I1.2 J-0.769
X80.694 Y34.444 Z-0.939 I-1.2 J0.769
X83.094 Y32.906 Z-1.096 I1.2 J-0.769
X80.694 Y34.444 Z-1.252 I-1.2 J0.769
X83.094 Y32.906 Z-1.408 I1.2 J-0.769
X80.694 Y34.444 Z-1.565 I-1.2 J0.769
X83.094 Y32.906 Z-1.721 I1.2 J-0.769
X80.694 Y34.444 Z-1.877 I-1.2 J0.769
X83.094 Y32.906 Z-2.034 I1.2 J-0.769
X80.694 Y34.444 Z-2.19 I-1.2 J0.769
X83.094 Y32.906 Z-2.346 I1.2 J-0.769
X80.694 Y34.444 Z-2.503 I-1.2 J0.769
X83.094 Y32.906 Z-2.659 I1.2 J-0.769
X80.694 Y34.444 Z-2.815 I-1.2 J0.769
X83.094 Y32.906 Z-2.972 I1.2 J-0.769
X83.319 Y33.675 Z-3 I-1.2 J0.769
G1 Y33.687 F1000
X83.312 Y33.724
X83.291 Y33.756
X83.26 Y33.776
X83.223 Y33.784
X79.388
X79.351 Y33.776
X79.319 Y33.756
X79.299 Y33.724
X79.291 Y33.687
Y33.663
X79.299 Y33.626
X79.319 Y33.594
X79.351 Y33.574
X79.388 Y33.566
X83.223
X83.26 Y33.574
X83.291 Y33.594
X83.312 Y33.626
X83.319 Y33.663
Y33.675
G2 X83.821 Y34.401 I0.777 J0
G3 X83.662 Y35.27 I-0.159 J0.42
G1 X78.124
G3 X77.805 Y34.951 I0 J-0.319
G1 Y32.399
G3 X78.124 Y32.08 I0.319 J0
G1 X84.486
G3 X84.805 Y32.399 I0 J0.319
G1 Y34.951
G3 X84.486 Y35.27 I-0.319 J0
G1 X83.662
G2 X82.387 Y36.12 I0 J1.381
G3 X81.112 Y36.97 I-1.275 J-0.531
G1 X76.424
G3 X76.105 Y36.651 I0 J-0.319
G1 Y30.699
G3 X76.424 Y30.38 I0.319 J0
G1 X86.186
G3 X86.505 Y30.699 I0 J0.319
G1 Y36.651
G3 X86.186 Y36.97 I-0.319 J0
G1 X81.112
G2 X79.834 Y37.822 I0 J1.385
G3 X78.555 Y38.675 I-1.279 J-0.533
G1 X74.4
Y28.675
X88.21
Y38.675
X78.555
G3 X78.386 Y38.368 I0 J-0.2
G1 X80.719 Y34.695
X80.739 Y34.653
X80.749 Y34.608
X80.748 Y34.562
X80.737 Y34.517
X80.715 Y34.476
G3 X83.073 Y32.874 Z-3.156 I1.179 J-0.801 F333.3
X80.715 Y34.476 Z-3.313 I-1.179 J0.801
X83.073 Y32.874 Z-3.469 I1.179 J-0.801
X80.715 Y34.476 Z-3.625 I-1.179 J0.801
X83.073 Y32.874 Z-3.782 I1.179 J-0.801
X80.715 Y34.476 Z-3.938 I-1.179 J0.801
X83.073 Y32.874 Z-4.094 I1.179 J-0.801
X80.715 Y34.476 Z-4.251 I-1.179 J0.801
X83.073 Y32.874 Z-4.407 I1.179 J-0.801
X80.715 Y34.476 Z-4.563 I-1.179 J0.801
X83.073 Y32.874 Z-4.72 I1.179 J-0.801
X80.715 Y34.476 Z-4.876 I-1.179 J0.801
X83.073 Y32.874 Z-5.032 I1.179 J-0.801
X80.715 Y34.476 Z-5.189 I-1.179 J0.801
X83.073 Y32.874 Z-5.345 I1.179 J-0.801
X80.715 Y34.476 Z-5.501 I-1.179 J0.801
X83.073 Y32.874 Z-5.658 I1.179 J-0.801
X80.715 Y34.476 Z-5.814 I-1.179 J0.801
X83.073 Y32.874 Z-5.97 I1.179 J-0.801
X83.319 Y33.675 Z-6 I-1.179 J0.801
G1 Y33.687 F1000
X83.312 Y33.724
X83.291 Y33.756
X83.26 Y33.776
X83.223 Y33.784
X79.388
X79.351 Y33.776
X79.319 Y33.756
X79.299 Y33.724
X79.291 Y33.687
Y33.663
X79.299 Y33.626
X79.319 Y33.594
X79.351 Y33.574
X79.388 Y33.566
X83.223
X83.26 Y33.574
X83.291 Y33.594
X83.312 Y33.626
X83.319 Y33.663
Y33.675
G2 X83.821 Y34.401 I0.777 J0
G3 X83.662 Y35.27 I-0.159 J0.42
G1 X78.124
G3 X77.805 Y34.951 I0 J-0.319
G1 Y32.399
G3 X78.124 Y32.08 I0.319 J0
G1 X84.486
G3 X84.805 Y32.399 I0 J0.319
G1 Y34.951
G3 X84.486 Y35.27 I-0.319 J0
G1 X83.662
G2 X82.387 Y36.12 I0 J1.381
G3 X81.112 Y36.97 I-1.275 J-0.531
G1 X76.424
G3 X76.105 Y36.651 I0 J-0.319
G1 Y30.699
G3 X76.424 Y30.38 I0.319 J0
G1 X86.186
G3 X86.505 Y30.699 I0 J0.319
G1 Y36.651
G3 X86.186 Y36.97 I-0.319 J0
G1 X81.112
G2 X79.834 Y37.822 I0 J1.385
G3 X78.555 Y38.675 I-1.279 J-0.533
G1 X74.4
Y28.675
X88.21
Y38.675
X78.555
G3 X78.386 Y38.368 I0 J-0.2
G1 X80.719 Y34.695
X80.739 Y34.653
X80.749 Y34.608
X80.748 Y34.562
X80.737 Y34.517
X80.715 Y34.476
G3 X83.073 Y32.874 Z-6.156 I1.179 J-0.801 F333.3
X80.715 Y34.476 Z-6.313 I-1.179 J0.801
X83.073 Y32.874 Z-6.469 I1.179 J-0.801
X80.715 Y34.476 Z-6.625 I-1.179 J0.801
X83.073 Y32.874 Z-6.782 I1.179 J-0.801
X80.715 Y34.476 Z-6.938 I-1.179 J0.801
X83.073 Y32.874 Z-7.094 I1.179 J-0.801
X80.715 Y34.476 Z-7.251 I-1.179 J0.801
X83.073 Y32.874 Z-7.407 I1.179 J-0.801
X80.715 Y34.476 Z-7.563 I-1.179 J0.801
X83.073 Y32.874 Z-7.72 I1.179 J-0.801
X80.715 Y34.476 Z-7.876 I-1.179 J0.801
X83.073 Y32.874 Z-8.032 I1.179 J-0.801
X80.715 Y34.476 Z-8.189 I-1.179 J0.801
X83.073 Y32.874 Z-8.345 I1.179 J-0.801
X80.715 Y34.476 Z-8.501 I-1.179 J0.801
X83.073 Y32.874 Z-8.658 I1.179 J-0.801
X80.715 Y34.476 Z-8.814 I-1.179 J0.801
X83.073 Y32.874 Z-8.97 I1.179 J-0.801
X83.319 Y33.675 Z-9 I-1.179 J0.801
G1 Y33.687 F1000
X83.312 Y33.724
X83.291 Y33.756
X83.26 Y33.776
X83.223 Y33.784
X79.388
X79.351 Y33.776
X79.319 Y33.756
X79.299 Y33.724
X79.291 Y33.687
Y33.663
X79.299 Y33.626
X79.319 Y33.594
X79.351 Y33.574
X79.388 Y33.566
X83.223
X83.26 Y33.574
X83.291 Y33.594
X83.312 Y33.626
X83.319 Y33.663
Y33.675
G2 X83.821 Y34.401 I0.777 J0
G3 X83.662 Y35.27 I-0.159 J0.42
G1 X78.124
G3 X77.805 Y34.951 I0 J-0.319
G1 Y32.399
G3 X78.124 Y32.08 I0.319 J0
G1 X84.486
G3 X84.805 Y32.399 I0 J0.319
G1 Y34.951
G3 X84.486 Y35.27 I-0.319 J0
G1 X83.662
G2 X82.387 Y36.12 I0 J1.381
G3 X81.112 Y36.97 I-1.275 J-0.531
G1 X76.424
G3 X76.105 Y36.651 I0 J-0.319
G1 Y30.699
G3 X76.424 Y30.38 I0.319 J0
G1 X86.186
G3 X86.505 Y30.699 I0 J0.319
G1 Y36.651
G3 X86.186 Y36.97 I-0.319 J0
G1 X81.112
G2 X79.834 Y37.822 I0 J1.385
G3 X78.555 Y38.675 I-1.279 J-0.533
G1 X74.4
Y28.675
X88.21
Y38.675
X78.555
X78.498 Y38.67 Z-8.989
X78.443 Y38.653 Z-8.977
X78.399 Y38.632 Z-8.945
X78.36 Y38.603 Z-8.912
X78.315 Y38.556 Z-8.815
X78.302 Y38.537 Z-8.7
G0 Z5
X208.264 Y34.67
G1 Z2.8 F333.3
X208.238 Y34.643 Z2.653
X208.169 Y34.562 Z2.544
X208.084 Y34.444 Z2.5
G3 X210.483 Y32.906 Z2.344 I1.2 J-0.769
X208.084 Y34.444 Z2.187 I-1.2 J0.769
X210.483 Y32.906 Z2.031 I1.2 J-0.769
X208.084 Y34.444 Z1.875 I-1.2 J0.769
X210.483 Y32.906 Z1.718 I1.2 J-0.769
X208.084 Y34.444 Z1.562 I-1.2 J0.769
X210.483 Y32.906 Z1.406 I1.2 J-0.769
X208.084 Y34.444 Z1.249 I-1.2 J0.769
X210.483 Y32.906 Z1.093 I1.2 J-0.769
X208.084 Y34.444 Z0.937 I-1.2 J0.769
X210.483 Y32.906 Z0.78 I1.2 J-0.769
X208.084 Y34.444 Z0.624 I-1.2 J0.769
X210.483 Y32.906 Z0.468 I1.2 J-0.769
X208.084 Y34.444 Z0.311 I-1.2 J0.769
X210.483 Y32.906 Z0.155 I1.2 J-0.769
X208.084 Y34.444 Z-0.001 I-1.2 J0.769
X210.483 Y32.906 Z-0.158 I1.2 J-0.769
X208.084 Y34.444 Z-0.314 I-1.2 J0.769
X210.483 Y32.906 Z-0.47 I1.2 J-0.769
X208.084 Y34.444 Z-0.627 I-1.2 J0.769
X210.483 Y32.906 Z-0.783 I1.2 J-0.769
X208.084 Y34.444 Z-0.939 I-1.2 J0.769
X210.483 Y32.906 Z-1.096 I1.2 J-0.769
X208.084 Y34.444 Z-1.252 I-1.2 J0.769
X210.483 Y32.906 Z-1.408 I1.2 J-0.769
X208.084 Y34.444 Z-1.565 I-1.2 J0.769
X210.483 Y32.906 Z-1.721 I1.2 J-0.769
X208.084 Y34.444 Z-1.877 I-1.2 J0.769
X210.483 Y32.906 Z-2.034 I1.2 J-0.769
X208.084 Y34.444 Z-2.19 I-1.2 J0.769
X210.483 Y32.906 Z-2.346 I1.2 J-0.769
X208.084 Y34.444 Z-2.503 I-1.2 J0.769
X210.483 Y32.906 Z-2.659 I1.2 J-0.769
X208.084 Y34.444 Z-2.815 I-1.2 J0.769
X210.483 Y32.906 Z-2.972 I1.2 J-0.769
X210.709 Y33.675 Z-3 I-1.2 J0.769
G1 Y33.687 F1000
X210.701 Y33.724
X210.681 Y33.756
X210.649 Y33.776
X210.612 Y33.784
X206.883
X206.846 Y33.777
X206.814 Y33.758
X206.789 Y33.729
X206.776 Y33.694
Y33.656
X206.789 Y33.621
X206.814 Y33.592
X206.846 Y33.573
X206.883 Y33.566
X210.612
X210.649 Y33.574
X210.681 Y33.594
X210.701 Y33.626
X210.709 Y33.663
Y33.675
G2 X211.211 Y34.401 I0.777 J0
G3 X211.052 Y35.27 I-0.159 J0.42
G1 X205.514
G3 X205.195 Y34.951 I0 J-0.319
G1 Y32.399
G3 X205.514 Y32.08 I0.319 J0
G1 X211.876
G3 X212.195 Y32.399 I0 J0.319
G1 Y34.951
G3 X211.876 Y35.27 I-0.319 J0
G1 X211.052
G2 X209.777 Y36.12 I0 J1.381
G3 X208.502 Y36.97 I-1.275 J-0.531
G1 X203.814
G3 X203.495 Y36.651 I0 J-0.319
G1 Y30.699
G3 X203.814 Y30.38 I0.319 J0
G1 X213.576
G3 X213.895 Y30.699 I0 J0.319
G1 Y36.651
G3 X213.576 Y36.97 I-0.319 J0
G1 X208.502
G2 X207.223 Y37.822 I0 J1.385
G3 X205.945 Y38.675 I-1.279 J-0.533
G1 X201.79
Y28.675
X215.6
Y38.675
X205.945
G3 X205.776 Y38.368 I0 J-0.2
G1 X208.108 Y34.695
X208.128 Y34.653
X208.138 Y34.608
Y34.562
X208.126 Y34.517
X208.105 Y34.476
G3 X210.463 Y32.874 Z-3.156 I1.179 J-0.801 F333.3
X208.105 Y34.476 Z-3.313 I-1.179 J0.801
X210.463 Y32.874 Z-3.469 I1.179 J-0.801
X208.105 Y34.476 Z-3.625 I-1.179 J0.801
X210.463 Y32.874 Z-3.782 I1.179 J-0.801
X208.105 Y34.476 Z-3.938 I-1.179 J0.801
X210.463 Y32.874 Z-4.094 I1.179 J-0.801
X208.105 Y34.476 Z-4.251 I-1.179 J0.801
X210.463 Y32.874 Z-4.407 I1.179 J-0.801
X208.105 Y34.476 Z-4.563 I-1.179 J0.801
X210.463 Y32.874 Z-4.72 I1.179 J-0.801
X208.105 Y34.476 Z-4.876 I-1.179 J0.801
X210.463 Y32.874 Z-5.032 I1.179 J-0.801
X208.105 Y34.476 Z-5.189 I-1.179 J0.801
X210.463 Y32.874 Z-5.345 I1.179 J-0.801
X208.105 Y34.476 Z-5.501 I-1.179 J0.801
X210.463 Y32.874 Z-5.658 I1.179 J-0.801
X208.105 Y34.476 Z-5.814 I-1.179 J0.801
X210.463 Y32.874 Z-5.97 I1.179 J-0.801
X210.709 Y33.675 Z-6 I-1.179 J0.801
G1 Y33.687 F1000
X210.701 Y33.724
X210.681 Y33.756
X210.649 Y33.776
X210.612 Y33.784
X206.883
X206.846 Y33.777
X206.814 Y33.758
X206.789 Y33.729
X206.776 Y33.694
Y33.656
X206.789 Y33.621
X206.814 Y33.592
X206.846 Y33.573
X206.883 Y33.566
X210.612
X210.649 Y33.574
X210.681 Y33.594
X210.701 Y33.626
X210.709 Y33.663
Y33.675
G2 X211.211 Y34.401 I0.777 J0
G3 X211.052 Y35.27 I-0.159 J0.42
G1 X205.514
G3 X205.195 Y34.951 I0 J-0.319
G1 Y32.399
G3 X205.514 Y32.08 I0.319 J0
G1 X211.876
G3 X212.195 Y32.399 I0 J0.319
G1 Y34.951
G3 X211.876 Y35.27 I-0.319 J0
G1 X211.052
G2 X209.777 Y36.12 I0 J1.381
G3 X208.502 Y36.97 I-1.275 J-0.531
G1 X203.814
G3 X203.495 Y36.651 I0 J-0.319
G1 Y30.699
G3 X203.814 Y30.38 I0.319 J0
G1 X213.576
G3 X213.895 Y30.699 I0 J0.319
G1 Y36.651
G3 X213.576 Y36.97 I-0.319 J0
G1 X208.502
G2 X207.223 Y37.822 I0 J1.385
G3 X205.945 Y38.675 I-1.279 J-0.533
G1 X201.79
Y28.675
X215.6
Y38.675
X205.945
G3 X205.776 Y38.368 I0 J-0.2
G1 X208.108 Y34.695
X208.128 Y34.653
X208.138 Y34.608
Y34.562
X208.126 Y34.517
X208.105 Y34.476
G3 X210.463 Y32.874 Z-6.156 I1.179 J-0.801 F333.3
X208.105 Y34.476 Z-6.313 I-1.179 J0.801
X210.463 Y32.874 Z-6.469 I1.179 J-0.801
X208.105 Y34.476 Z-6.625 I-1.179 J0.801
X210.463 Y32.874 Z-6.782 I1.179 J-0.801
X208.105 Y34.476 Z-6.938 I-1.179 J0.801
X210.463 Y32.874 Z-7.094 I1.179 J-0.801
X208.105 Y34.476 Z-7.251 I-1.179 J0.801
X210.463 Y32.874 Z-7.407 I1.179 J-0.801
X208.105 Y34.476 Z-7.563 I-1.179 J0.801
X210.463 Y32.874 Z-7.72 I1.179 J-0.801
X208.105 Y34.476 Z-7.876 I-1.179 J0.801
X210.463 Y32.874 Z-8.032 I1.179 J-0.801
X208.105 Y34.476 Z-8.189 I-1.179 J0.801
X210.463 Y32.874 Z-8.345 I1.179 J-0.801
X208.105 Y34.476 Z-8.501 I-1.179 J0.801
X210.463 Y32.874 Z-8.658 I1.179 J-0.801
X208.105 Y34.476 Z-8.814 I-1.179 J0.801
X210.463 Y32.874 Z-8.97 I1.179 J-0.801
X210.709 Y33.675 Z-9 I-1.179 J0.801
G1 Y33.687 F1000
X210.701 Y33.724
X210.681 Y33.756
X210.649 Y33.776
X210.612 Y33.784
X206.883
X206.846 Y33.777
X206.814 Y33.758
X206.789 Y33.729
X206.776 Y33.694
Y33.656
X206.789 Y33.621
X206.814 Y33.592
X206.846 Y33.573
X206.883 Y33.566
X210.612
X210.649 Y33.574
X210.681 Y33.594
X210.701 Y33.626
X210.709 Y33.663
Y33.675
G2 X211.211 Y34.401 I0.777 J0
G3 X211.052 Y35.27 I-0.159 J0.42
G1 X205.514
G3 X205.195 Y34.951 I0 J-0.319
G1 Y32.399
G3 X205.514 Y32.08 I0.319 J0
G1 X211.876
G3 X212.195 Y32.399 I0 J0.319
G1 Y34.951
G3 X211.876 Y35.27 I-0.319 J0
G1 X211.052
G2 X209.777 Y36.12 I0 J1.381
G3 X208.502 Y36.97 I-1.275 J-0.531
G1 X203.814
G3 X203.495 Y36.651 I0 J-0.319
G1 Y30.699
G3 X203.814 Y30.38 I0.319 J0
G1 X213.576
G3 X213.895 Y30.699 I0 J0.319
G1 Y36.651
G3 X213.576 Y36.97 I-0.319 J0
G1 X208.502
G2 X207.223 Y37.822 I0 J1.385
G3 X205.945 Y38.675 I-1.279 J-0.533
G1 X201.79
Y28.675
X215.6
Y38.675
X205.945
X205.887 Y38.67 Z-8.989
X205.832 Y38.653 Z-8.977
X205.789 Y38.632 Z-8.945
X205.75 Y38.603 Z-8.912
X205.705 Y38.556 Z-8.815
X205.692 Y38.537 Z-8.7
G0 Z5
X208.264 Y100.32
G1 Z2.8 F333.3
X208.238 Y100.293 Z2.653
X208.169 Y100.212 Z2.544
X208.084 Y100.094 Z2.5
G3 X210.483 Y98.556 Z2.344 I1.2 J-0.769
X208.084 Y100.094 Z2.187 I-1.2 J0.769
X210.483 Y98.556 Z2.031 I1.2 J-0.769
X208.084 Y100.094 Z1.875 I-1.2 J0.769
X210.483 Y98.556 Z1.718 I1.2 J-0.769
X208.084 Y100.094 Z1.562 I-1.2 J0.769
X210.483 Y98.556 Z1.406 I1.2 J-0.769
X208.084 Y100.094 Z1.249 I-1.2 J0.769
X210.483 Y98.556 Z1.093 I1.2 J-0.769
X208.084 Y100.094 Z0.937 I-1.2 J0.769
X210.483 Y98.556 Z0.78 I1.2 J-0.769
X208.084 Y100.094 Z0.624 I-1.2 J0.769
X210.483 Y98.556 Z0.468 I1.2 J-0.769
X208.084 Y100.094 Z0.311 I-1.2 J0.769
X210.483 Y98.556 Z0.155 I1.2 J-0.769
X208.084 Y100.094 Z-0.001 I-1.2 J0.769
X210.483 Y98.556 Z-0.158 I1.2 J-0.769
X208.084 Y100.094 Z-0.314 I-1.2 J0.769
X210.483 Y98.556 Z-0.47 I1.2 J-0.769
X208.084 Y100.094 Z-0.627 I-1.2 J0.769
X210.483 Y98.556 Z-0.783 I1.2 J-0.769
X208.084 Y100.094 Z-0.939 I-1.2 J0.769
X210.483 Y98.556 Z-1.096 I1.2 J-0.769
X208.084 Y100.094 Z-1.252 I-1.2 J0.769
X210.483 Y98.556 Z-1.408 I1.2 J-0.769
X208.084 Y100.094 Z-1.565 I-1.2 J0.769
X210.483 Y98.556 Z-1.721 I1.2 J-0.769
X208.084 Y100.094 Z-1.877 I-1.2 J0.769
X210.483 Y98.556 Z-2.034 I1.2 J-0.769
X208.084 Y100.094 Z-2.19 I-1.2 J0.769
X210.483 Y98.556 Z-2.346 I1.2 J-0.769
X208.084 Y100.094 Z-2.503 I-1.2 J0.769
X210.483 Y98.556 Z-2.659 I1.2 J-0.769
X208.084 Y100.094 Z-2.815 I-1.2 J0.769
X210.483 Y98.556 Z-2.972 I1.2 J-0.769
X210.709 Y99.325 Z-3 I-1.2 J0.769
G1 Y99.337 F1000
X210.701 Y99.374
X210.681 Y99.406
X210.649 Y99.426
X210.612 Y99.434
X206.883
X206.846 Y99.427
X206.814 Y99.408
X206.789 Y99.379
X206.776 Y99.344
Y99.306
X206.789 Y99.271
X206.814 Y99.242
X206.846 Y99.223
X206.883 Y99.216
X210.612
X210.649 Y99.224
X210.681 Y99.244
X210.701 Y99.276
X210.709 Y99.313
Y99.325
G2 X211.211 Y100.051 I0.777 J0
G3 X211.052 Y100.92 I-0.159 J0.42
G1 X205.514
G3 X205.195 Y100.601 I0 J-0.319
G1 Y98.049
G3 X205.514 Y97.73 I0.319 J0
G1 X211.876
G3 X212.195 Y98.049 I0 J0.319
G1 Y100.601
G3 X211.876 Y100.92 I-0.319 J0
G1 X211.052
G2 X209.777 Y101.77 I0 J1.381
G3 X208.502 Y102.62 I-1.275 J-0.531
G1 X203.814
G3 X203.495 Y102.301 I0 J-0.319
G1 Y96.349
G3 X203.814 Y96.03 I0.319 J0
G1 X213.576
G3 X213.895 Y96.349 I0 J0.319
G1 Y102.301
G3 X213.576 Y102.62 I-0.319 J0
G1 X208.502
G2 X207.223 Y103.473 I0 J1.385
G3 X205.945 Y104.325 I-1.279 J-0.533
G1 X201.79
Y94.325
X215.6
Y104.325
X205.945
G3 X205.776 Y104.018 I0 J-0.2
G1 X208.108 Y100.345
X208.128 Y100.303
X208.138 Y100.258
Y100.212
X208.126 Y100.167
X208.105 Y100.126
G3 X210.463 Y98.524 Z-3.156 I1.179 J-0.801 F333.3
X208.105 Y100.126 Z-3.313 I-1.179 J0.801
X210.463 Y98.524 Z-3.469 I1.179 J-0.801
X208.105 Y100.126 Z-3.625 I-1.179 J0.801
X210.463 Y98.524 Z-3.782 I1.179 J-0.801
X208.105 Y100.126 Z-3.938 I-1.179 J0.801
X210.463 Y98.524 Z-4.094 I1.179 J-0.801
X208.105 Y100.126 Z-4.251 I-1.179 J0.801
X210.463 Y98.524 Z-4.407 I1.179 J-0.801
X208.105 Y100.126 Z-4.563 I-1.179 J0.801
X210.463 Y98.524 Z-4.72 I1.179 J-0.801
X208.105 Y100.126 Z-4.876 I-1.179 J0.801
X210.463 Y98.524 Z-5.032 I1.179 J-0.801
X208.105 Y100.126 Z-5.189 I-1.179 J0.801
X210.463 Y98.524 Z-5.345 I1.179 J-0.801
X208.105 Y100.126 Z-5.501 I-1.179 J0.801
X210.463 Y98.524 Z-5.658 I1.179 J-0.801
X208.105 Y100.126 Z-5.814 I-1.179 J0.801
X210.463 Y98.524 Z-5.97 I1.179 J-0.801
X210.709 Y99.325 Z-6 I-1.179 J0.801
G1 Y99.337 F1000
X210.701 Y99.374
X210.681 Y99.406
X210.649 Y99.426
X210.612 Y99.434
X206.883
X206.846 Y99.427
X206.814 Y99.408
X206.789 Y99.379
X206.776 Y99.344
Y99.306
X206.789 Y99.271
X206.814 Y99.242
X206.846 Y99.223
X206.883 Y99.216
X210.612
X210.649 Y99.224
X210.681 Y99.244
X210.701 Y99.276
X210.709 Y99.313
Y99.325
G2 X211.211 Y100.051 I0.777 J0
G3 X211.052 Y100.92 I-0.159 J0.42
G1 X205.514
G3 X205.195 Y100.601 I0 J-0.319
G1 Y98.049
G3 X205.514 Y97.73 I0.319 J0
G1 X211.876
G3 X212.195 Y98.049 I0 J0.319
G1 Y100.601
G3 X211.876 Y100.92 I-0.319 J0
G1 X211.052
G2 X209.777 Y101.77 I0 J1.381
G3 X208.502 Y102.62 I-1.275 J-0.531
G1 X203.814
G3 X203.495 Y102.301 I0 J-0.319
G1 Y96.349
G3 X203.814 Y96.03 I0.319 J0
G1 X213.576
G3 X213.895 Y96.349 I0 J0.319
G1 Y102.301
G3 X213.576 Y102.62 I-0.319 J0
G1 X208.502
G2 X207.223 Y103.473 I0 J1.385
G3 X205.945 Y104.325 I-1.279 J-0.533
G1 X201.79
Y94.325
X215.6
Y104.325
X205.945
G3 X205.776 Y104.018 I0 J-0.2
G1 X208.108 Y100.345
X208.128 Y100.303
X208.138 Y100.258
Y100.212
X208.126 Y100.167
X208.105 Y100.126
G3 X210.463 Y98.524 Z-6.156 I1.179 J-0.801 F333.3
X208.105 Y100.126 Z-6.313 I-1.179 J0.801
X210.463 Y98.524 Z-6.469 I1.179 J-0.801
X208.105 Y100.126 Z-6.625 I-1.179 J0.801
X210.463 Y98.524 Z-6.782 I1.179 J-0.801
X208.105 Y100.126 Z-6.938 I-1.179 J0.801
X210.463 Y98.524 Z-7.094 I1.179 J-0.801
X208.105 Y100.126 Z-7.251 I-1.179 J0.801
X210.463 Y98.524 Z-7.407 I1.179 J-0.801
X208.105 Y100.126 Z-7.563 I-1.179 J0.801
X210.463 Y98.524 Z-7.72 I1.179 J-0.801
X208.105 Y100.126 Z-7.876 I-1.179 J0.801
X210.463 Y98.524 Z-8.032 I1.179 J-0.801
X208.105 Y100.126 Z-8.189 I-1.179 J0.801
X210.463 Y98.524 Z-8.345 I1.179 J-0.801
X208.105 Y100.126 Z-8.501 I-1.179 J0.801
X210.463 Y98.524 Z-8.658 I1.179 J-0.801
X208.105 Y100.126 Z-8.814 I-1.179 J0.801
X210.463 Y98.524 Z-8.97 I1.179 J-0.801
X210.709 Y99.325 Z-9 I-1.179 J0.801
G1 Y99.337 F1000
X210.701 Y99.374
X210.681 Y99.406
X210.649 Y99.426
X210.612 Y99.434
X206.883
X206.846 Y99.427
X206.814 Y99.408
X206.789 Y99.379
X206.776 Y99.344
Y99.306
X206.789 Y99.271
X206.814 Y99.242
X206.846 Y99.223
X206.883 Y99.216
X210.612
X210.649 Y99.224
X210.681 Y99.244
X210.701 Y99.276
X210.709 Y99.313
Y99.325
G2 X211.211 Y100.051 I0.777 J0
G3 X211.052 Y100.92 I-0.159 J0.42
G1 X205.514
G3 X205.195 Y100.601 I0 J-0.319
G1 Y98.049
G3 X205.514 Y97.73 I0.319 J0
G1 X211.876
G3 X212.195 Y98.049 I0 J0.319
G1 Y100.601
G3 X211.876 Y100.92 I-0.319 J0
G1 X211.052
G2 X209.777 Y101.77 I0 J1.381
G3 X208.502 Y102.62 I-1.275 J-0.531
G1 X203.814
G3 X203.495 Y102.301 I0 J-0.319
G1 Y96.349
G3 X203.814 Y96.03 I0.319 J0
G1 X213.576
G3 X213.895 Y96.349 I0 J0.319
G1 Y102.301
G3 X213.576 Y102.62 I-0.319 J0
G1 X208.502
G2 X207.223 Y103.473 I0 J1.385
G3 X205.945 Y104.325 I-1.279 J-0.533
G1 X201.79
Y94.325
X215.6
Y104.325
X205.945
X205.887 Y104.32 Z-8.989
X205.832 Y104.303 Z-8.977
X205.789 Y104.282 Z-8.945
X205.75 Y104.253 Z-8.912
X205.705 Y104.206 Z-8.815
X205.692 Y104.187 Z-8.7
G0 Z15

(2D Contour10)
X0.7 Y153.4
Z15
Z5
G1 Z-4.7 F333.3
G19 G2 Y153.1 Z-5 J-0.3 K0 F1000
G1 Y152.8
G17 G3 X1 Y152.5 I0.3 J0
G1 X289
G2 X290.5 Y151 I0 J-1.5
G1 Y1
G2 X289 Y-0.5 I-1.5 J0
G1 X1
G2 X-0.5 Y1 I0 J1.5
G1 Y151
G2 X1 Y152.5 I1.5 J0
G3 X1.3 Y152.8 I0 J0.3
G1 Y153.1
G19 G3 Y153.4 Z-4.7 J0 K0.3
G1 X0.7
Z-9.7 F333.3
G2 Y153.1 Z-10 J-0.3 K0 F1000
G1 Y152.8
G17 G3 X1 Y152.5 I0.3 J0
G1 X289
G2 X290.5 Y151 I0 J-1.5
G1 Y1
G2 X289 Y-0.5 I-1.5 J0
G1 X1
G2 X-0.5 Y1 I0 J1.5
G1 Y151
G2 X1 Y152.5 I1.5 J0
G3 X1.3 Y152.8 I0 J0.3
G1 Y153.1
G19 G3 Y153.4 Z-9.7 J0 K0.3
G1 X0.7
Z-14.7 F333.3
G2 Y153.1 Z-15 J-0.3 K0 F1000
G1 Y152.8
G17 G3 X1 Y152.5 I0.3 J0
G1 X289
G2 X290.5 Y151 I0 J-1.5
G1 Y1
G2 X289 Y-0.5 I-1.5 J0
G1 X1
G2 X-0.5 Y1 I0 J1.5
G1 Y151
G2 X1 Y152.5 I1.5 J0
G3 X1.3 Y152.8 I0 J0.3
G1 Y153.1
G19 G3 Y153.4 Z-14.7 J0 K0.3
G1 X0.7
Z-18.7 F333.3
G2 Y153.1 Z-19 J-0.3 K0 F1000
G1 Y152.8
G17 G3 X1 Y152.5 I0.3 J0
G1 X70
Z-18.25
X76
Z-19 F333.3
X214 F1000
Z-18.25
X220
Z-19 F333.3
X289 F1000
G2 X290.5 Y151 I0 J-1.5
G1 Y79
Z-18.25
Y73
Z-19 F333.3
Y1 F1000
G2 X289 Y-0.5 I-1.5 J0
G1 X220
Z-18.25
X214
Z-19 F333.3
X76 F1000
Z-18.25
X70
Z-19 F333.3
X1 F1000
G2 X-0.5 Y1 I0 J1.5
G1 Y73
Z-18.25
Y79
Z-19 F333.3
Y151 F1000
G2 X1 Y152.5 I1.5 J0
G3 X1.3 Y152.8 I0 J0.3
G1 Y153.1
G19 G3 Y153.4 Z-18.7 J0 K0.3
G0 Z15
G17
M9
M5
M30
