(TinyCNCSeitenwandRechts)
(T3  D=3 CR=0 - ZMIN=-19 - flat end mill)
G90 G94
G17
G21

(2D Pocket16)
T3
S5000 M3
G54
M8
G0 X23.946 Y31.45
Z15
Z5
G1 Z2.8 F333.3
X23.981 Y31.435 Z2.653
X24.08 Y31.398 Z2.544
X24.22 Y31.359 Z2.5
G3 X24.84 Y34.141 Z2.344 I0.31 J1.391
X24.22 Y31.359 Z2.187 I-0.31 J-1.391
X24.84 Y34.141 Z2.031 I0.31 J1.391
X24.22 Y31.359 Z1.875 I-0.31 J-1.391
X24.84 Y34.141 Z1.718 I0.31 J1.391
X24.22 Y31.359 Z1.562 I-0.31 J-1.391
X24.84 Y34.141 Z1.406 I0.31 J1.391
X24.22 Y31.359 Z1.249 I-0.31 J-1.391
X24.84 Y34.141 Z1.093 I0.31 J1.391
X24.22 Y31.359 Z0.937 I-0.31 J-1.391
X24.84 Y34.141 Z0.78 I0.31 J1.391
X24.22 Y31.359 Z0.624 I-0.31 J-1.391
X24.84 Y34.141 Z0.468 I0.31 J1.391
X24.22 Y31.359 Z0.311 I-0.31 J-1.391
X24.84 Y34.141 Z0.155 I0.31 J1.391
X24.22 Y31.359 Z-0.001 I-0.31 J-1.391
X24.84 Y34.141 Z-0.158 I0.31 J1.391
X24.22 Y31.359 Z-0.314 I-0.31 J-1.391
X24.84 Y34.141 Z-0.47 I0.31 J1.391
X24.22 Y31.359 Z-0.627 I-0.31 J-1.391
X24.84 Y34.141 Z-0.783 I0.31 J1.391
X24.22 Y31.359 Z-0.939 I-0.31 J-1.391
X24.84 Y34.141 Z-1.096 I0.31 J1.391
X24.22 Y31.359 Z-1.252 I-0.31 J-1.391
X24.84 Y34.141 Z-1.408 I0.31 J1.391
X24.22 Y31.359 Z-1.565 I-0.31 J-1.391
X24.84 Y34.141 Z-1.721 I0.31 J1.391
X24.22 Y31.359 Z-1.877 I-0.31 J-1.391
X24.84 Y34.141 Z-2.034 I0.31 J1.391
X24.22 Y31.359 Z-2.19 I-0.31 J-1.391
X24.84 Y34.141 Z-2.346 I0.31 J1.391
X24.22 Y31.359 Z-2.503 I-0.31 J-1.391
X24.84 Y34.141 Z-2.659 I0.31 J1.391
X24.22 Y31.359 Z-2.815 I-0.31 J-1.391
X24.84 Y34.141 Z-2.972 I0.31 J1.391
X24.22 Y31.359 Z-3.128 I-0.31 J-1.391
X24.84 Y34.141 Z-3.284 I0.31 J1.391
X24.22 Y31.359 Z-3.441 I-0.31 J-1.391
X24.84 Y34.141 Z-3.597 I0.31 J1.391
X24.22 Y31.359 Z-3.753 I-0.31 J-1.391
X24.84 Y34.141 Z-3.91 I0.31 J1.391
X24.22 Y31.359 Z-4.066 I-0.31 J-1.391
X24.84 Y34.141 Z-4.222 I0.31 J1.391
X24.22 Y31.359 Z-4.379 I-0.31 J-1.391
X24.84 Y34.141 Z-4.535 I0.31 J1.391
X24.22 Y31.359 Z-4.691 I-0.31 J-1.391
X24.84 Y34.141 Z-4.848 I0.31 J1.391
X24.22 Y31.359 Z-5.004 I-0.31 J-1.391
X24.84 Y34.141 Z-5.16 I0.31 J1.391
X24.22 Y31.359 Z-5.317 I-0.31 J-1.391
X24.84 Y34.141 Z-5.473 I0.31 J1.391
X24.22 Y31.359 Z-5.629 I-0.31 J-1.391
X24.84 Y34.141 Z-5.786 I0.31 J1.391
X24.22 Y31.359 Z-5.942 I-0.31 J-1.391
X24.84 Y34.141 Z-6.098 I0.31 J1.391
X24.22 Y31.359 Z-6.255 I-0.31 J-1.391
X24.84 Y34.141 Z-6.411 I0.31 J1.391
X23.105 Y32.75 Z-6.5 I-0.31 J-1.391
G1 Y32.424 F1000
G3 X23.424 Y32.105 I0.319 J0
G1 X318.576
G3 X318.895 Y32.424 I0 J0.319
G1 Y33.076
G3 X318.576 Y33.395 I-0.319 J0
G1 X23.424
G3 X23.105 Y33.076 I0 J-0.319
G1 Y32.75
G2 X22.365 Y31.683 I-1.14 J0
G3 X22.597 Y30.405 I0.232 J-0.618
G1 X320.276
G3 X320.595 Y30.724 I0 J0.319
G1 Y34.776
G3 X320.276 Y35.095 I-0.319 J0
G1 X21.724
G3 X21.405 Y34.776 I0 J-0.319
G1 Y30.724
G3 X21.724 Y30.405 I0.319 J0
G1 X22.597
G2 X23.872 Y29.555 I0 J-1.381
G3 X25.147 Y28.705 I1.275 J0.531
G1 X321.976
G3 X322.295 Y29.024 I0 J0.319
G1 Y36.476
G3 X321.976 Y36.795 I-0.319 J0
G1 X20.024
G3 X19.705 Y36.476 I0 J-0.319
G1 Y29.024
G3 X20.024 Y28.705 I0.319 J0
G1 X25.147
G2 X26.426 Y27.853 I0 J-1.385
G3 X27.705 Y27 I1.279 J0.533
G1 X324
Y38.5
X18
Y27
X27.705
X27.762 Y27.005 Z-6.489
X27.817 Y27.022 Z-6.477
X27.86 Y27.043 Z-6.445
X27.899 Y27.072 Z-6.412
X27.944 Y27.119 Z-6.315
X27.957 Y27.138 Z-6.2
G0 Z15
X25.05 Y92.946
Z5
G1 Z2.8 F333.3
X25.065 Y92.981 Z2.653
X25.102 Y93.08 Z2.544
X25.141 Y93.22 Z2.5
G3 X22.359 Y93.84 Z2.344 I-1.391 J0.31
X25.141 Y93.22 Z2.187 I1.391 J-0.31
X22.359 Y93.84 Z2.031 I-1.391 J0.31
X25.141 Y93.22 Z1.875 I1.391 J-0.31
X22.359 Y93.84 Z1.718 I-1.391 J0.31
X25.141 Y93.22 Z1.562 I1.391 J-0.31
X22.359 Y93.84 Z1.406 I-1.391 J0.31
X25.141 Y93.22 Z1.249 I1.391 J-0.31
X22.359 Y93.84 Z1.093 I-1.391 J0.31
X25.141 Y93.22 Z0.937 I1.391 J-0.31
X22.359 Y93.84 Z0.78 I-1.391 J0.31
X25.141 Y93.22 Z0.624 I1.391 J-0.31
X22.359 Y93.84 Z0.468 I-1.391 J0.31
X25.141 Y93.22 Z0.311 I1.391 J-0.31
X22.359 Y93.84 Z0.155 I-1.391 J0.31
X25.141 Y93.22 Z-0.001 I1.391 J-0.31
X22.359 Y93.84 Z-0.158 I-1.391 J0.31
X25.141 Y93.22 Z-0.314 I1.391 J-0.31
X22.359 Y93.84 Z-0.47 I-1.391 J0.31
X25.141 Y93.22 Z-0.627 I1.391 J-0.31
X22.359 Y93.84 Z-0.783 I-1.391 J0.31
X25.141 Y93.22 Z-0.939 I1.391 J-0.31
X22.359 Y93.84 Z-1.096 I-1.391 J0.31
X25.141 Y93.22 Z-1.252 I1.391 J-0.31
X22.359 Y93.84 Z-1.408 I-1.391 J0.31
X25.141 Y93.22 Z-1.565 I1.391 J-0.31
X22.359 Y93.84 Z-1.721 I-1.391 J0.31
X25.141 Y93.22 Z-1.877 I1.391 J-0.31
X22.359 Y93.84 Z-2.034 I-1.391 J0.31
X25.141 Y93.22 Z-2.19 I1.391 J-0.31
X22.359 Y93.84 Z-2.346 I-1.391 J0.31
X25.141 Y93.22 Z-2.503 I1.391 J-0.31
X22.359 Y93.84 Z-2.659 I-1.391 J0.31
X25.141 Y93.22 Z-2.815 I1.391 J-0.31
X22.359 Y93.84 Z-2.972 I-1.391 J0.31
X25.141 Y93.22 Z-3.128 I1.391 J-0.31
X22.359 Y93.84 Z-3.284 I-1.391 J0.31
X25.141 Y93.22 Z-3.441 I1.391 J-0.31
X22.359 Y93.84 Z-3.597 I-1.391 J0.31
X25.141 Y93.22 Z-3.753 I1.391 J-0.31
X22.359 Y93.84 Z-3.91 I-1.391 J0.31
X25.141 Y93.22 Z-4.066 I1.391 J-0.31
X22.359 Y93.84 Z-4.222 I-1.391 J0.31
X25.141 Y93.22 Z-4.379 I1.391 J-0.31
X22.359 Y93.84 Z-4.535 I-1.391 J0.31
X25.141 Y93.22 Z-4.691 I1.391 J-0.31
X22.359 Y93.84 Z-4.848 I-1.391 J0.31
X25.141 Y93.22 Z-5.004 I1.391 J-0.31
X22.359 Y93.84 Z-5.16 I-1.391 J0.31
X25.141 Y93.22 Z-5.317 I1.391 J-0.31
X22.359 Y93.84 Z-5.473 I-1.391 J0.31
X25.141 Y93.22 Z-5.629 I1.391 J-0.31
X22.359 Y93.84 Z-5.786 I-1.391 J0.31
X25.141 Y93.22 Z-5.942 I1.391 J-0.31
X22.359 Y93.84 Z-6.098 I-1.391 J0.31
X25.141 Y93.22 Z-6.255 I1.391 J-0.31
X22.359 Y93.84 Z-6.411 I-1.391 J0.31
X23.75 Y92.105 Z-6.5 I1.391 J-0.31
G1 X318.576 F1000
G3 X318.895 Y92.424 I0 J0.319
G1 Y93.076
G3 X318.576 Y93.395 I-0.319 J0
G1 X23.424
G3 X23.105 Y93.076 I0 J-0.319
G1 Y92.424
G3 X23.424 Y92.105 I0.319 J0
G1 X23.75
G2 X25.025 Y91.255 I0 J-1.381
G3 X26.3 Y90.405 I1.275 J0.531
G1 X320.276
G3 X320.595 Y90.724 I0 J0.319
G1 Y94.776
G3 X320.276 Y95.095 I-0.319 J0
G1 X21.724
G3 X21.405 Y94.776 I0 J-0.319
G1 Y90.724
G3 X21.724 Y90.405 I0.319 J0
G1 X26.3
G2 X27.575 Y89.555 I0 J-1.381
G3 X28.85 Y88.705 I1.275 J0.531
G1 X321.976
G3 X322.295 Y89.024 I0 J0.319
G1 Y96.476
G3 X321.976 Y96.795 I-0.319 J0
G1 X20.024
G3 X19.705 Y96.476 I0 J-0.319
G1 Y89.024
G3 X20.024 Y88.705 I0.319 J0
G1 X28.85
G2 X30.129 Y87.853 I0 J-1.385
G3 X31.407 Y87 I1.279 J0.533
G1 X324
Y98.5
X18
Y87
X31.407
X31.465 Y87.005 Z-6.489
X31.52 Y87.022 Z-6.477
X31.563 Y87.043 Z-6.445
X31.602 Y87.072 Z-6.412
X31.647 Y87.119 Z-6.315
X31.66 Y87.138 Z-6.2
G0 Z15

(2D Pocket17)
X388.391 Y161.195
Z15
Z5
G1 Z-8.7 F333.3
G18 G3 X388.091 Z-9 I-0.3 K0 F1000
G1 X387.389
X284.124
G17 G3 X283.805 Y160.876 I0 J-0.319
G1 Y160.124
G3 X284.124 Y159.805 I0.319 J0
G1 X387.385
G3 X387.585 Y160.005 I0 J0.2
G1 X387.589 Y162.695
G3 X387.389 Y162.895 I-0.2 J0
G1 X282.424
G3 X282.105 Y162.576 I0 J-0.319
G1 Y158.424
G3 X282.424 Y158.105 I0.319 J0
G1 X387.385
G3 X387.585 Y158.305 I0 J0.2
G1 X387.589 Y164.395
G3 X387.389 Y164.595 I-0.2 J0
G1 X280.724
G3 X280.405 Y164.276 I0 J-0.319
G1 Y156.724
G3 X280.724 Y156.405 I0.319 J0
G1 X387.384
G3 X387.584 Y156.605 I0 J0.2
G1 X387.59 Y166.095
G3 X387.39 Y166.295 I-0.2 J0
G1 X279.024
G3 X278.705 Y165.976 I0 J-0.319
G1 Y155.024
G3 X279.024 Y154.705 I0.319 J0
G1 X387.384
G3 X387.584 Y154.905 I0 J0.2
G1 X387.595 Y167.8
G3 X387.395 Y168 I-0.2 J0
G1 X278
G2 X276 Y170 I0 J2
G3 X274 Y170 I-1 J0
X275 Y169 I1 J0
G2 X277 Y167 I0 J-2
G1 Y154
G2 X275 Y152 I-2 J0
G3 X275 Y150 I0 J-1
X276 Y151 I0 J1
G2 X278 Y153 I2 J0
G1 X386
X387.397
X387.444 Y153.004
X388.092 Y153.106
X388.158 Y153.117 Z-8.992
X388.22 Y153.127 Z-8.97
X388.277 Y153.136 Z-8.935
X388.324 Y153.143 Z-8.887
X388.359 Y153.149 Z-8.83
X388.381 Y153.152 Z-8.767
X388.388 Y153.153 Z-8.7
G0 Z15
X388.391 Y442.195
Z5
G1 Z-8.7 F333.3
G18 G3 X388.091 Z-9 I-0.3 K0 F1000
G1 X387.389
X284.124
G17 G3 X283.805 Y441.876 I0 J-0.319
G1 Y441.124
G3 X284.124 Y440.805 I0.319 J0
G1 X387.385
G3 X387.585 Y441.005 I0 J0.2
G1 X387.589 Y443.695
G3 X387.389 Y443.895 I-0.2 J0
G1 X282.424
G3 X282.105 Y443.576 I0 J-0.319
G1 Y439.424
G3 X282.424 Y439.105 I0.319 J0
G1 X387.385
G3 X387.585 Y439.305 I0 J0.2
G1 X387.589 Y445.395
G3 X387.389 Y445.595 I-0.2 J0
G1 X280.724
G3 X280.405 Y445.276 I0 J-0.319
G1 Y437.724
G3 X280.724 Y437.405 I0.319 J0
G1 X387.384
G3 X387.584 Y437.605 I0 J0.2
G1 X387.59 Y447.095
G3 X387.39 Y447.295 I-0.2 J0
G1 X279.024
G3 X278.705 Y446.976 I0 J-0.319
G1 Y436.024
G3 X279.024 Y435.705 I0.319 J0
G1 X387.384
G3 X387.584 Y435.905 I0 J0.2
G1 X387.595 Y448.8
G3 X387.395 Y449 I-0.2 J0
G1 X278
G2 X276 Y451 I0 J2
G3 X274 Y451 I-1 J0
X275 Y450 I1 J0
G2 X277 Y448 I0 J-2
G1 Y435
G2 X275 Y433 I-2 J0
G3 X275 Y431 I0 J-1
X276 Y432 I0 J1
G2 X278 Y434 I2 J0
G1 X386
X387.397
X387.444 Y434.004
X388.092 Y434.106
X388.158 Y434.117 Z-8.992
X388.22 Y434.127 Z-8.97
X388.277 Y434.136 Z-8.935
X388.324 Y434.143 Z-8.887
X388.359 Y434.149 Z-8.83
X388.381 Y434.152 Z-8.767
X388.388 Y434.153 Z-8.7
G0 Z15

(2D Contour11)
X253.6 Y361.057
Z15
Z5
G1 Z-6.2 F333.3
G18 G2 X253.9 Z-6.5 I0.3 K0 F1000
G1 X254.2
G17 G3 X254.5 Y361.357 I0 J0.3
G1 Y394.303
G3 X234.668 Y427.974 I-38.5 J0
G2 X223.972 Y436.476 I20.124 J36.294
G1 X215.795 Y445.543
G2 X215.904 Y447.662 I1.114 J1.005
G1 X327.296 Y548.119
G2 X329.415 Y548.01 I1.005 J-1.114
G1 X376.819 Y495.447
G2 X387.5 Y467.653 I-30.819 J-27.793
G1 Y41
G2 X346 Y-0.5 I-41.5 J0
G1 X41
G2 X-0.5 Y41 I0 J41.5
G1 Y252.25
G2 X1 Y253.75 I1.5 J0
G1 X151
G2 X152.5 Y252.25 I0 J-1.5
G1 Y191
G3 X191 Y152.5 I38.5 J0
G1 X216
G3 X254.5 Y191 I0 J38.5
G1 Y361.357
G3 X254.2 Y361.657 I-0.3 J0
G1 X253.9
G18 G3 X253.6 Z-6.2 I0 K0.3
G1 Y361.057
Z-12.7 F333.3
G2 X253.9 Z-13 I0.3 K0 F1000
G1 X254.2
G17 G3 X254.5 Y361.357 I0 J0.3
G1 Y394.303
G3 X234.668 Y427.974 I-38.5 J0
G2 X223.972 Y436.476 I20.124 J36.294
G1 X215.795 Y445.543
G2 X215.904 Y447.662 I1.114 J1.005
G1 X327.296 Y548.119
G2 X329.415 Y548.01 I1.005 J-1.114
G1 X376.819 Y495.447
G2 X387.5 Y467.653 I-30.819 J-27.793
G1 Y41
G2 X346 Y-0.5 I-41.5 J0
G1 X41
G2 X-0.5 Y41 I0 J41.5
G1 Y252.25
G2 X1 Y253.75 I1.5 J0
G1 X151
G2 X152.5 Y252.25 I0 J-1.5
G1 Y191
G3 X191 Y152.5 I38.5 J0
G1 X216
G3 X254.5 Y191 I0 J38.5
G1 Y361.357
G3 X254.2 Y361.657 I-0.3 J0
G1 X253.9
G18 G3 X253.6 Z-12.7 I0 K0.3
G1 Y361.057
Z-18.7 F333.3
G2 X253.9 Z-19 I0.3 K0 F1000
G1 X254.2
G17 G3 X254.5 Y361.357 I0 J0.3
G1 Y394.303
G3 X234.668 Y427.974 I-38.5 J0
G2 X223.972 Y436.476 I20.124 J36.294
G1 X215.795 Y445.543
G2 X215.904 Y447.662 I1.114 J1.005
G1 X327.296 Y548.119
G2 X329.415 Y548.01 I1.005 J-1.114
G1 X376.819 Y495.447
G2 X387.5 Y467.653 I-30.819 J-27.793
G1 Y41
G2 X346 Y-0.5 I-41.5 J0
G1 X41
G2 X-0.5 Y41 I0 J41.5
G1 Y252.25
G2 X1 Y253.75 I1.5 J0
G1 X151
G2 X152.5 Y252.25 I0 J-1.5
G1 Y191
G3 X191 Y152.5 I38.5 J0
G1 X216
G3 X254.5 Y191 I0 J38.5
G1 Y361.357
G3 X254.2 Y361.657 I-0.3 J0
G1 X253.9
G18 G3 X253.6 Z-18.7 I0 K0.3
G0 Z15
G17
M9
M5
M30
