(TinyCNCBasisplatte)
(T3  D=3 CR=0 - ZMIN=-19 - flat end mill)
G90 G94
G17
G21

(2D Contour1)
T3
S5000 M3
G54
M8
G0 X-11.035 Y2.953
Z15
Z5
G1 Z2.8 F333.3
G18 G3 X-11.335 Z2.5 I-0.3 K0 F1000
G1 X-11.635
G17 G3 X-11.935 Y2.652 I0 J-0.3
G1 Y-52 Z1.86 F333.3
X11.935 Z1.581
Y95 Z-0.14
X-11.935 Z-0.419
Y-52 Z-2.14
X11.935 Z-2.419
Y83.065 Z-4
Y95 F1000
X-11.935
Y-52
X11.935
Y83.065
Y95 Z-4.14 F333.3
X-11.935 Z-4.419
Y-52 Z-6.14
X11.935 Z-6.419
Y83.065 Z-8
Y95 F1000
X-11.935
Y-52
X11.935
Y83.065
Y95 Z-8.14 F333.3
X-11.935 Z-8.419
Y-52 Z-10.14
X11.935 Z-10.419
Y83.065 Z-12
Y95 F1000
X-11.935
Y-52
X11.935
Y83.065
Y95 Z-12.14 F333.3
X-11.935 Z-12.419
Y-52 Z-14.14
X11.935 Z-14.419
Y83.065 Z-16
Y95 F1000
X-11.935
Y-52
X11.935
Y83.065
Y95 Z-16.14 F333.3
X-11.935 Z-16.419
Y-52 Z-18.14
X11.935 Z-18.419
Y-2.37 Z-19
Y83.065 F1000
Y95
X-11.935
Y-52
X11.935
Y83.065
Y95
X-11.935
Y-52
X11.935
Y-2.37
G3 X11.635 Y-2.07 I-0.3 J0
G1 X11.335
G18 G3 X11.035 Z-18.7 I0 K0.3
G0 Z15
G17

(2D Pocket5 3)
G0 X-10.604 Y-86.228
Z15
Z5
G1 Z2.8 F333.3
X-10.614 Y-86.191 Z2.653
X-10.646 Y-86.09 Z2.544
X-10.702 Y-85.956 Z2.5
G3 X-13.27 Y-87.194 Z2.344 I-1.284 J-0.619
X-10.702 Y-85.956 Z2.187 I1.284 J0.619
X-13.27 Y-87.194 Z2.031 I-1.284 J-0.619
X-10.702 Y-85.956 Z1.875 I1.284 J0.619
X-13.27 Y-87.194 Z1.718 I-1.284 J-0.619
X-10.702 Y-85.956 Z1.562 I1.284 J0.619
X-13.27 Y-87.194 Z1.406 I-1.284 J-0.619
X-10.702 Y-85.956 Z1.249 I1.284 J0.619
X-13.27 Y-87.194 Z1.093 I-1.284 J-0.619
X-10.702 Y-85.956 Z0.937 I1.284 J0.619
X-13.27 Y-87.194 Z0.78 I-1.284 J-0.619
X-10.702 Y-85.956 Z0.624 I1.284 J0.619
X-13.27 Y-87.194 Z0.468 I-1.284 J-0.619
X-10.702 Y-85.956 Z0.311 I1.284 J0.619
X-13.27 Y-87.194 Z0.155 I-1.284 J-0.619
X-10.702 Y-85.956 Z-0.001 I1.284 J0.619
X-13.27 Y-87.194 Z-0.158 I-1.284 J-0.619
X-10.702 Y-85.956 Z-0.314 I1.284 J0.619
X-13.27 Y-87.194 Z-0.47 I-1.284 J-0.619
X-10.702 Y-85.956 Z-0.627 I1.284 J0.619
X-13.27 Y-87.194 Z-0.783 I-1.284 J-0.619
X-10.702 Y-85.956 Z-0.939 I1.284 J0.619
X-13.27 Y-87.194 Z-1.096 I-1.284 J-0.619
X-10.702 Y-85.956 Z-1.252 I1.284 J0.619
X-13.27 Y-87.194 Z-1.408 I-1.284 J-0.619
X-10.702 Y-85.956 Z-1.565 I1.284 J0.619
X-13.27 Y-87.194 Z-1.721 I-1.284 J-0.619
X-10.702 Y-85.956 Z-1.877 I1.284 J0.619
X-13.27 Y-87.194 Z-2.034 I-1.284 J-0.619
X-10.702 Y-85.956 Z-2.19 I1.284 J0.619
X-13.27 Y-87.194 Z-2.346 I-1.284 J-0.619
X-10.702 Y-85.956 Z-2.503 I1.284 J0.619
X-13.27 Y-87.194 Z-2.659 I-1.284 J-0.619
X-12 Y-88 Z-2.714 I1.284 J0.619
G1 X11.849 Y-88.234 F1000
X11.972 Y-88.232
X12.094 Y-88.226
X12.135 Y-88.217
X12.172 Y-88.196
X12.201 Y-88.165
X12.219 Y-88.127
X12.226 Y-88.085
Y-88.009
G3 X11.985 Y-87.765 I-0.244 J0.001
G1 X-11.931 Y-87.53
G3 X-12.452 Y-88.046 I-0.005 J-0.516
G1 X-12.451 Y-88.177
G3 X-12.192 Y-88.461 I0.286 J0.001
X-11.677 Y-88.489 I0.643 J6.992
G1 X11.408 Y-88.911
G3 X12.371 Y-88.888 I0.212 J11.619
X12.897 Y-88.334 I-0.036 J0.561
G1 X12.9 Y-88.034
G3 X11.941 Y-87.045 I-0.977 J0.012
G1 X-10.969 Y-86.627
G3 X-12.667 Y-86.666 I-0.372 J-20.356
G1 X-12.792 Y-86.675
G3 X-13.332 Y-87.207 I0.038 J-0.577
X-13.352 Y-87.713 I6.772 J-0.525
G1 X-13.354 Y-88.524
G3 X-12.574 Y-89.379 I0.856 J-0.002
X-11.034 Y-89.461 I1.877 J20.92
G1 X10.641 Y-89.809
G3 X12.891 Y-89.758 I0.465 J28.956
G1 X13.112 Y-89.744
G3 X13.759 Y-89.107 I-0.043 J0.691
X13.793 Y-88.373 I-11.547 J0.906
G1 X13.805 Y-87.623
G3 X13.789 Y-86.931 I-9.314 J0.139
X13.07 Y-86.194 I-0.785 J-0.047
G1 X12.907 Y-86.181
G3 X10.469 Y-86.06 I-3.023 J-36.303
G1 X-10.25 Y-85.727
G3 X-13.105 Y-85.792 I-0.591 J-36.758
G1 X-13.442 Y-85.813
G3 X-14.201 Y-86.558 I0.05 J-0.811
G1 X-14.212 Y-86.684
G3 X-14.248 Y-87.523 I11.197 J-0.908
G1 X-14.254 Y-88.477
G3 X-14.233 Y-89.392 I15.67 J-0.097
G1 X-14.23 Y-89.453
G3 X-13.46 Y-90.25 I0.844 J0.044
G1 X-13.15 Y-90.277
G3 X-10.199 Y-90.428 I3.528 J40.07
G1 X9.956 Y-90.717
G3 X13.327 Y-90.637 I0.635 J44.308
G1 X13.779 Y-90.61
G3 X14.63 Y-89.772 I-0.056 J0.908
G1 X14.677 Y-89.184
G3 X14.7 Y-86.669 I-18.209 J1.427
G1 X14.669 Y-86.155
G3 X13.846 Y-85.312 I-0.898 J-0.054
G1 X13.341 Y-85.27
G3 X9.746 Y-85.095 I-4.348 J-52.264
G1 X-11.269 Y-84.793
G3 X-12.728 Y-84.848 I-0.203 J-14.134
G1 X-13.158 Y-84.886
X-13.326 Y-84.895
X-13.563 Y-84.899
G3 X-15.131 Y-86.436 I0.026 J-1.595
G1 X-15.139 Y-86.66
X-15.152 Y-86.828
X-15.179 Y-87.08
G3 X-15.195 Y-88.921 I9.082 J-1
G1 X-15.168 Y-89.216
X-15.159 Y-89.402
X-15.155 Y-89.688
G3 X-13.69 Y-91.197 I1.526 J0.017
G1 X-13.369 Y-91.21
X-13.2 Y-91.223
X-12.742 Y-91.274
G3 X-11.253 Y-91.367 I1.683 J14.954
G1 X11.295 Y-91.658
G3 X12.702 Y-91.605 I0.18 J13.968
G1 X13.285 Y-91.554
G2 X13.547 Y-91.544 I0.225 J-2.549
G1 X14.348 Y-91.556
G3 X15.576 Y-90.348 I0.017 J1.21
G1 X15.578 Y-89.62
G2 X15.594 Y-89.346 I2.466 J-0.006
G1 X15.642 Y-88.926
G3 X15.665 Y-87.071 I-9.146 J1.044
G1 X15.632 Y-86.699
G2 X15.623 Y-86.407 I2.591 J0.229
G1 X15.644 Y-85.544
G3 X14.46 Y-84.331 I-1.184 J0.029
G1 X13.612 Y-84.334
G2 X13.319 Y-84.318 I-0.009 J2.576
G1 X12.675 Y-84.247
G3 X11.321 Y-84.163 I-1.534 J-13.827
G1 X-11.208 Y-83.873
G3 X-12.789 Y-83.927 I-0.217 J-16.866
G2 X-14.166 Y-83.982 I-1.364 J16.815
G1 X-14.903 Y-83.981
X-15.003 Y-83.977
X-15.087 Y-83.974
G3 X-16.036 Y-84.989 I0 J-0.952
G1 X-16.034 Y-85.106
X-16.057 Y-86.082
G2 X-16.112 Y-86.963 I-11.354 J0.272
G1 X-16.116 Y-86.994
G3 X-16.136 Y-89.008 I10.938 J-1.117
G2 X-16.1 Y-90.046 I-10.981 J-0.898
G1 X-16.112 Y-90.949
X-16.115 Y-91.031
X-16.122 Y-91.13
G3 X-15.129 Y-92.144 I0.945 J-0.068
G1 X-15.004 Y-92.137
X-14.902 Y-92.136
X-14.176 Y-92.151
G2 X-12.78 Y-92.236 I-0.372 J-17.697
G3 X-11.216 Y-92.323 I1.768 J17.61
G1 X11.263 Y-92.583
G3 X12.735 Y-92.54 I0.21 J18.143
G2 X14.22 Y-92.498 I1.262 J-18.1
G1 X14.901 Y-92.506
X15.005 Y-92.51
X15.667 Y-92.554
G3 X16.574 Y-91.666 I0.057 J0.85
G1 X16.545 Y-91.035
X16.543 Y-90.948
X16.544 Y-90.083
G2 X16.597 Y-88.971 I12.13 J-0.019
G3 X16.622 Y-87.027 I-12.06 J1.13
G2 X16.596 Y-86.022 I12.144 J0.821
G1 X16.61 Y-85.102
X16.615 Y-84.992
X16.668 Y-84.217
G3 X15.782 Y-83.316 I-0.841 J0.058
G1 X15.015 Y-83.357
X14.89 Y-83.359
X14.23 Y-83.354
G2 X12.726 Y-83.28 I0.168 J18.846
G3 X11.271 Y-83.207 I-1.672 J-18.773
G1 X-11.277 Y-82.946
G3 X-12.722 Y-82.98 I-0.239 J-20.687
G2 X-14.232 Y-83.013 I-1.206 J20.653
G1 X-14.883 Y-83.003
X-15.022 Y-82.998
X-16.216 Y-82.914
G3 X-17.099 Y-83.784 I-0.058 J-0.824
G1 X-17.032 Y-84.965
X-17.028 Y-85.13
X-17.036 Y-86.022
G2 X-17.081 Y-87.024 I-14.198 J0.131
G3 X-17.102 Y-88.977 I14.126 J-1.132
G2 X-17.081 Y-90.076 I-14.163 J-0.821
G1 X-17.098 Y-90.922
X-17.104 Y-91.058
X-17.198 Y-92.371
G3 X-16.37 Y-93.216 I0.787 J-0.057
G1 X-15.035 Y-93.146
X-14.87 Y-93.143
X-14.216 Y-93.149
G2 X-12.739 Y-93.214 I-0.237 J-22.535
G3 X-11.259 Y-93.278 I1.715 J22.471
G1 X11.265 Y-93.514
G3 X12.734 Y-93.486 I0.261 J24.909
G1 X12.757 Y-93.485
G2 X14.197 Y-93.458 I1.171 J-24.113
G1 X14.856 Y-93.465
X15.049 Y-93.473
X16.882 Y-93.609
G3 X17.624 Y-92.881 I0.051 J0.69
G1 X17.525 Y-91.078
X17.52 Y-90.901
X17.523 Y-90.082
G2 X17.564 Y-88.971 I16.912 J-0.058
G3 X17.586 Y-87.028 I-16.859 J1.168
G2 X17.57 Y-86.023 I16.967 J0.783
G1 X17.581 Y-85.147
X17.59 Y-84.948
X17.736 Y-82.992
G3 X17.007 Y-82.25 I-0.69 J0.052
G1 X15.059 Y-82.362
X14.846 Y-82.367
X14.155 Y-82.361
G2 X12.799 Y-82.311 I0.21 J24.132
G1 X12.726 Y-82.307
G3 X11.272 Y-82.252 I-1.734 J-26.669
G1 X-11.278 Y-82.016
G3 X-12.721 Y-82.035 I-0.317 J-30.252
G1 X-12.818 Y-82.039
G2 X-14.135 Y-82.055 I-0.982 J26.361
G1 X-14.839 Y-82.046
X-15.067 Y-82.036
X-17.422 Y-81.859
G3 X-18.152 Y-82.578 I-0.051 J-0.678
G1 X-18.013 Y-84.922
G2 X-18.006 Y-85.173 I-3.659 J-0.218
G1 X-18.014 Y-86.022
G2 X-18.047 Y-87.024 I-21.2 J0.191
G3 X-18.067 Y-88.977 I21.156 J-1.192
G2 X-18.055 Y-90.074 I-21.216 J-0.763
G1 X-18.068 Y-90.875
X-18.079 Y-91.104
X-18.268 Y-93.585
G3 X-17.584 Y-94.282 I0.647 J-0.049
G1 X-15.08 Y-94.139
G2 X-14.825 Y-94.133 I0.218 J-3.806
G1 X-14.053 Y-94.14
G2 X-12.901 Y-94.176 I-0.262 J-26.94
G1 X-12.739 Y-94.185
G3 X-11.26 Y-94.23 I1.81 J34.463
G1 X11.267 Y-94.446
G3 X12.733 Y-94.433 I0.382 J39.924
G1 X12.946 Y-94.427
G2 X14.007 Y-94.418 I0.773 J-28.475
G1 X14.811 Y-94.427
G2 X15.094 Y-94.439 I-0.043 J-4.257
G1 X18.065 Y-94.667
G3 X18.678 Y-94.064 I0.044 J0.569
G1 X18.505 Y-91.125
G2 X18.497 Y-90.854 I4.208 J0.248
G1 X18.502 Y-90.082
G2 X18.53 Y-88.971 I28.024 J-0.152
G3 X18.55 Y-87.029 I-27.988 J1.263
G2 X18.542 Y-86.34 I28.165 J0.688
X18.543 Y-86.024 I28.174 J0
G1 X18.553 Y-85.192
G2 X18.565 Y-84.903 I4.412 J-0.05
G1 X18.804 Y-81.8
G3 X18.199 Y-81.185 I-0.571 J0.044
G1 X15.104 Y-81.371
G2 X14.802 Y-81.378 I-0.264 J4.392
G1 X13.951 Y-81.371
G2 X13.002 Y-81.347 I0.253 J29.179
G1 X12.728 Y-81.336
G3 X11.272 Y-81.299 I-1.897 J-46.011
G1 X-11.281 Y-81.083
G3 X-12.719 Y-81.088 I-0.542 J-56.56
G1 X-13.049 Y-81.093
G2 X-13.904 Y-81.095 I-0.506 J31.92
G1 X-14.793 Y-81.085
G2 X-15.112 Y-81.071 I0.053 J4.851
G1 X-18.598 Y-80.804
G3 X-19.206 Y-81.402 I-0.043 J-0.564
G1 X-18.993 Y-84.878
G2 X-18.984 Y-85.217 I-4.824 J-0.296
G1 X-18.992 Y-86.15
G2 X-19.008 Y-86.897 I-31.361 J0.282
G1 X-19.012 Y-87.024
G3 X-19.031 Y-88.976 I42.016 J-1.379
G1 X-19.029 Y-89.116
G2 X-19.028 Y-89.935 I-31.931 J-0.435
G1 X-19.039 Y-90.826
G2 X-19.054 Y-91.154 I-4.965 J0.06
G1 X-19.337 Y-94.769
G3 X-18.768 Y-95.348 I0.536 J-0.042
G1 X-15.125 Y-95.129
G2 X-14.78 Y-95.12 I0.299 J-4.984
G1 X-13.807 Y-95.129
G2 X-13.146 Y-95.142 I-0.3 J-33.221
G1 X-12.742 Y-95.153
G3 X-11.258 Y-95.181 I2.136 J73.873
G1 X12 Y-95.386
X13.969 Y-95.383
G2 X15.935 Y-95.454 I-0.335 J-36.365
G1 X19.381 Y-95.672
X19.442 Y-95.682
X19.515 Y-95.701
G3 X19.701 Y-95.515 I0.039 J0.148
G1 X19.683 Y-95.444
X19.673 Y-95.378
X19.514 Y-91.886
G2 X19.479 Y-90.093 I33.692 J1.537
G1 X19.495 Y-88.97
G3 X19.514 Y-87.03 I-82.326 J1.736
G1 X19.521 Y-85.662
G2 X19.557 Y-84.434 I29.953 J-0.286
G1 X19.749 Y-80.651
X19.755 Y-80.596
X19.769 Y-80.542
X19.868 Y-80.229
X19.871 Y-80.196
X19.859 Y-80.164
X19.836 Y-80.141
X19.804 Y-80.129
X19.771 Y-80.132
X19.461 Y-80.23
X19.404 Y-80.244
X19.345 Y-80.25
X15.536 Y-80.375
G2 X14.369 Y-80.388 I-0.92 J28.18
G1 X7.048 Y-80.311
X-14.953 Y-80.121
X-19.167 Y-80.05
G2 X-19.6 Y-79.998 I0.036 J2.124
G1 X-19.882 Y-79.934
X-19.925 Y-79.921
X-19.965 Y-79.901
X-20.182 Y-79.772
X-20.203 Y-79.768
X-20.223 Y-79.777
X-20.232 Y-79.797
X-20.228 Y-79.818
X-20.099 Y-80.035
X-20.079 Y-80.075
X-20.066 Y-80.118
X-20.004 Y-80.389
G2 X-19.954 Y-80.841 I-2.002 J-0.452
G1 X-19.959 Y-85.047
X-20 Y-89.526
Y-95.382
G2 X-20.382 Y-96.382 I-1.5 J0
X-19.382 Y-96 I1 J-1.118
G1 X19.382
G2 X20.382 Y-96.382 I0 J-1.5
X20 Y-95.382 I1.118 J1
G1 Y-80.618
G2 X20.382 Y-79.618 I1.5 J0
X19.382 Y-80 I-1 J1.118
G1 X-19.382
G2 X-20.382 Y-79.618 I0 J1.5
X-20 Y-80.618 I-1.118 J-1
G1 Y-89.526
X-19.993 Y-89.572
X-19.972 Y-89.613
X-19.939 Y-89.646
X-19.898 Y-89.668
X-19.853 Y-89.676
X-19.807 Y-89.67
X-15.231 Y-88.281
X-10.76 Y-86.188
X-10.721 Y-86.162
X-10.692 Y-86.125
X-10.676 Y-86.082
X-10.674 Y-86.035
X-10.687 Y-85.99
G3 X-13.286 Y-87.16 Z-2.871 I-1.3 J-0.585 F333.3
X-10.687 Y-85.99 Z-3.027 I1.3 J0.585
X-13.286 Y-87.16 Z-3.183 I-1.3 J-0.585
X-10.687 Y-85.99 Z-3.34 I1.3 J0.585
X-13.286 Y-87.16 Z-3.496 I-1.3 J-0.585
X-10.687 Y-85.99 Z-3.652 I1.3 J0.585
X-13.286 Y-87.16 Z-3.809 I-1.3 J-0.585
X-10.687 Y-85.99 Z-3.965 I1.3 J0.585
X-13.286 Y-87.16 Z-4.121 I-1.3 J-0.585
X-10.687 Y-85.99 Z-4.278 I1.3 J0.585
X-13.286 Y-87.16 Z-4.434 I-1.3 J-0.585
X-10.687 Y-85.99 Z-4.59 I1.3 J0.585
X-13.286 Y-87.16 Z-4.747 I-1.3 J-0.585
X-10.687 Y-85.99 Z-4.903 I1.3 J0.585
X-13.286 Y-87.16 Z-5.059 I-1.3 J-0.585
X-10.687 Y-85.99 Z-5.216 I1.3 J0.585
X-13.286 Y-87.16 Z-5.372 I-1.3 J-0.585
X-12 Y-88 Z-5.429 I1.3 J0.585
G1 X11.849 Y-88.234 F1000
X11.972 Y-88.232
X12.094 Y-88.226
X12.135 Y-88.217
X12.172 Y-88.196
X12.201 Y-88.165
X12.219 Y-88.127
X12.226 Y-88.085
Y-88.009
G3 X11.985 Y-87.765 I-0.244 J0.001
G1 X-11.931 Y-87.53
G3 X-12.452 Y-88.046 I-0.005 J-0.516
G1 X-12.451 Y-88.177
G3 X-12.192 Y-88.461 I0.286 J0.001
X-11.677 Y-88.489 I0.643 J6.992
G1 X11.408 Y-88.911
G3 X12.371 Y-88.888 I0.212 J11.619
X12.897 Y-88.334 I-0.036 J0.561
G1 X12.9 Y-88.034
G3 X11.941 Y-87.045 I-0.977 J0.012
G1 X-10.969 Y-86.627
G3 X-12.667 Y-86.666 I-0.372 J-20.356
G1 X-12.792 Y-86.675
G3 X-13.332 Y-87.207 I0.038 J-0.577
X-13.352 Y-87.713 I6.772 J-0.525
G1 X-13.354 Y-88.524
G3 X-12.574 Y-89.379 I0.856 J-0.002
X-11.034 Y-89.461 I1.877 J20.92
G1 X10.641 Y-89.809
G3 X12.891 Y-89.758 I0.465 J28.956
G1 X13.112 Y-89.744
G3 X13.759 Y-89.107 I-0.043 J0.691
X13.793 Y-88.373 I-11.547 J0.906
G1 X13.805 Y-87.623
G3 X13.789 Y-86.931 I-9.314 J0.139
X13.07 Y-86.194 I-0.785 J-0.047
G1 X12.907 Y-86.181
G3 X10.469 Y-86.06 I-3.023 J-36.303
G1 X-10.25 Y-85.727
G3 X-13.105 Y-85.792 I-0.591 J-36.758
G1 X-13.442 Y-85.813
G3 X-14.201 Y-86.558 I0.05 J-0.811
G1 X-14.212 Y-86.684
G3 X-14.248 Y-87.523 I11.197 J-0.908
G1 X-14.254 Y-88.477
G3 X-14.233 Y-89.392 I15.67 J-0.097
G1 X-14.23 Y-89.453
G3 X-13.46 Y-90.25 I0.844 J0.044
G1 X-13.15 Y-90.277
G3 X-10.199 Y-90.428 I3.528 J40.07
G1 X9.956 Y-90.717
G3 X13.327 Y-90.637 I0.635 J44.308
G1 X13.779 Y-90.61
G3 X14.63 Y-89.772 I-0.056 J0.908
G1 X14.677 Y-89.184
G3 X14.7 Y-86.669 I-18.209 J1.427
G1 X14.669 Y-86.155
G3 X13.846 Y-85.312 I-0.898 J-0.054
G1 X13.341 Y-85.27
G3 X9.746 Y-85.095 I-4.348 J-52.264
G1 X-11.269 Y-84.793
G3 X-12.728 Y-84.848 I-0.203 J-14.134
G1 X-13.158 Y-84.886
X-13.326 Y-84.895
X-13.563 Y-84.899
G3 X-15.131 Y-86.436 I0.026 J-1.595
G1 X-15.139 Y-86.66
X-15.152 Y-86.828
X-15.179 Y-87.08
G3 X-15.195 Y-88.921 I9.082 J-1
G1 X-15.168 Y-89.216
X-15.159 Y-89.402
X-15.155 Y-89.688
G3 X-13.69 Y-91.197 I1.526 J0.017
G1 X-13.369 Y-91.21
X-13.2 Y-91.223
X-12.742 Y-91.274
G3 X-11.253 Y-91.367 I1.683 J14.954
G1 X11.295 Y-91.658
G3 X12.702 Y-91.605 I0.18 J13.968
G1 X13.285 Y-91.554
G2 X13.547 Y-91.544 I0.225 J-2.549
G1 X14.348 Y-91.556
G3 X15.576 Y-90.348 I0.017 J1.21
G1 X15.578 Y-89.62
G2 X15.594 Y-89.346 I2.466 J-0.006
G1 X15.642 Y-88.926
G3 X15.665 Y-87.071 I-9.146 J1.044
G1 X15.632 Y-86.699
G2 X15.623 Y-86.407 I2.591 J0.229
G1 X15.644 Y-85.544
G3 X14.46 Y-84.331 I-1.184 J0.029
G1 X13.612 Y-84.334
G2 X13.319 Y-84.318 I-0.009 J2.576
G1 X12.675 Y-84.247
G3 X11.321 Y-84.163 I-1.534 J-13.827
G1 X-11.208 Y-83.873
G3 X-12.789 Y-83.927 I-0.217 J-16.866
G2 X-14.166 Y-83.982 I-1.364 J16.815
G1 X-14.903 Y-83.981
X-15.003 Y-83.977
X-15.087 Y-83.974
G3 X-16.036 Y-84.989 I0 J-0.952
G1 X-16.034 Y-85.106
X-16.057 Y-86.082
G2 X-16.112 Y-86.963 I-11.354 J0.272
G1 X-16.116 Y-86.994
G3 X-16.136 Y-89.008 I10.938 J-1.117
G2 X-16.1 Y-90.046 I-10.981 J-0.898
G1 X-16.112 Y-90.949
X-16.115 Y-91.031
X-16.122 Y-91.13
G3 X-15.129 Y-92.144 I0.945 J-0.068
G1 X-15.004 Y-92.137
X-14.902 Y-92.136
X-14.176 Y-92.151
G2 X-12.78 Y-92.236 I-0.372 J-17.697
G3 X-11.216 Y-92.323 I1.768 J17.61
G1 X11.263 Y-92.583
G3 X12.735 Y-92.54 I0.21 J18.143
G2 X14.22 Y-92.498 I1.262 J-18.1
G1 X14.901 Y-92.506
X15.005 Y-92.51
X15.667 Y-92.554
G3 X16.574 Y-91.666 I0.057 J0.85
G1 X16.545 Y-91.035
X16.543 Y-90.948
X16.544 Y-90.083
G2 X16.597 Y-88.971 I12.13 J-0.019
G3 X16.622 Y-87.027 I-12.06 J1.13
G2 X16.596 Y-86.022 I12.144 J0.821
G1 X16.61 Y-85.102
X16.615 Y-84.992
X16.668 Y-84.217
G3 X15.782 Y-83.316 I-0.841 J0.058
G1 X15.015 Y-83.357
X14.89 Y-83.359
X14.23 Y-83.354
G2 X12.726 Y-83.28 I0.168 J18.846
G3 X11.271 Y-83.207 I-1.672 J-18.773
G1 X-11.277 Y-82.946
G3 X-12.722 Y-82.98 I-0.239 J-20.687
G2 X-14.232 Y-83.013 I-1.206 J20.653
G1 X-14.883 Y-83.003
X-15.022 Y-82.998
X-16.216 Y-82.914
G3 X-17.099 Y-83.784 I-0.058 J-0.824
G1 X-17.032 Y-84.965
X-17.028 Y-85.13
X-17.036 Y-86.022
G2 X-17.081 Y-87.024 I-14.198 J0.131
G3 X-17.102 Y-88.977 I14.126 J-1.132
G2 X-17.081 Y-90.076 I-14.163 J-0.821
G1 X-17.098 Y-90.922
X-17.104 Y-91.058
X-17.198 Y-92.371
G3 X-16.37 Y-93.216 I0.787 J-0.057
G1 X-15.035 Y-93.146
X-14.87 Y-93.143
X-14.216 Y-93.149
G2 X-12.739 Y-93.214 I-0.237 J-22.535
G3 X-11.259 Y-93.278 I1.715 J22.471
G1 X11.265 Y-93.514
G3 X12.734 Y-93.486 I0.261 J24.909
G1 X12.757 Y-93.485
G2 X14.197 Y-93.458 I1.171 J-24.113
G1 X14.856 Y-93.465
X15.049 Y-93.473
X16.882 Y-93.609
G3 X17.624 Y-92.881 I0.051 J0.69
G1 X17.525 Y-91.078
X17.52 Y-90.901
X17.523 Y-90.082
G2 X17.564 Y-88.971 I16.912 J-0.058
G3 X17.586 Y-87.028 I-16.859 J1.168
G2 X17.57 Y-86.023 I16.967 J0.783
G1 X17.581 Y-85.147
X17.59 Y-84.948
X17.736 Y-82.992
G3 X17.007 Y-82.25 I-0.69 J0.052
G1 X15.059 Y-82.362
X14.846 Y-82.367
X14.155 Y-82.361
G2 X12.799 Y-82.311 I0.21 J24.132
G1 X12.726 Y-82.307
G3 X11.272 Y-82.252 I-1.734 J-26.669
G1 X-11.278 Y-82.016
G3 X-12.721 Y-82.035 I-0.317 J-30.252
G1 X-12.818 Y-82.039
G2 X-14.135 Y-82.055 I-0.982 J26.361
G1 X-14.839 Y-82.046
X-15.067 Y-82.036
X-17.422 Y-81.859
G3 X-18.152 Y-82.578 I-0.051 J-0.678
G1 X-18.013 Y-84.922
G2 X-18.006 Y-85.173 I-3.659 J-0.218
G1 X-18.014 Y-86.022
G2 X-18.047 Y-87.024 I-21.2 J0.191
G3 X-18.067 Y-88.977 I21.156 J-1.192
G2 X-18.055 Y-90.074 I-21.216 J-0.763
G1 X-18.068 Y-90.875
X-18.079 Y-91.104
X-18.268 Y-93.585
G3 X-17.584 Y-94.282 I0.647 J-0.049
G1 X-15.08 Y-94.139
G2 X-14.825 Y-94.133 I0.218 J-3.806
G1 X-14.053 Y-94.14
G2 X-12.901 Y-94.176 I-0.262 J-26.94
G1 X-12.739 Y-94.185
G3 X-11.26 Y-94.23 I1.81 J34.463
G1 X11.267 Y-94.446
G3 X12.733 Y-94.433 I0.382 J39.924
G1 X12.946 Y-94.427
G2 X14.007 Y-94.418 I0.773 J-28.475
G1 X14.811 Y-94.427
G2 X15.094 Y-94.439 I-0.043 J-4.257
G1 X18.065 Y-94.667
G3 X18.678 Y-94.064 I0.044 J0.569
G1 X18.505 Y-91.125
G2 X18.497 Y-90.854 I4.208 J0.248
G1 X18.502 Y-90.082
G2 X18.53 Y-88.971 I28.024 J-0.152
G3 X18.55 Y-87.029 I-27.988 J1.263
G2 X18.542 Y-86.34 I28.165 J0.688
X18.543 Y-86.024 I28.174 J0
G1 X18.553 Y-85.192
G2 X18.565 Y-84.903 I4.412 J-0.05
G1 X18.804 Y-81.8
G3 X18.199 Y-81.185 I-0.571 J0.044
G1 X15.104 Y-81.371
G2 X14.802 Y-81.378 I-0.264 J4.392
G1 X13.951 Y-81.371
G2 X13.002 Y-81.347 I0.253 J29.179
G1 X12.728 Y-81.336
G3 X11.272 Y-81.299 I-1.897 J-46.011
G1 X-11.281 Y-81.083
G3 X-12.719 Y-81.088 I-0.542 J-56.56
G1 X-13.049 Y-81.093
G2 X-13.904 Y-81.095 I-0.506 J31.92
G1 X-14.793 Y-81.085
G2 X-15.112 Y-81.071 I0.053 J4.851
G1 X-18.598 Y-80.804
G3 X-19.206 Y-81.402 I-0.043 J-0.564
G1 X-18.993 Y-84.878
G2 X-18.984 Y-85.217 I-4.824 J-0.296
G1 X-18.992 Y-86.15
G2 X-19.008 Y-86.897 I-31.361 J0.282
G1 X-19.012 Y-87.024
G3 X-19.031 Y-88.976 I42.016 J-1.379
G1 X-19.029 Y-89.116
G2 X-19.028 Y-89.935 I-31.931 J-0.435
G1 X-19.039 Y-90.826
G2 X-19.054 Y-91.154 I-4.965 J0.06
G1 X-19.337 Y-94.769
G3 X-18.768 Y-95.348 I0.536 J-0.042
G1 X-15.125 Y-95.129
G2 X-14.78 Y-95.12 I0.299 J-4.984
G1 X-13.807 Y-95.129
G2 X-13.146 Y-95.142 I-0.3 J-33.221
G1 X-12.742 Y-95.153
G3 X-11.258 Y-95.181 I2.136 J73.873
G1 X12 Y-95.386
X13.969 Y-95.383
G2 X15.935 Y-95.454 I-0.335 J-36.365
G1 X19.381 Y-95.672
X19.442 Y-95.682
X19.515 Y-95.701
G3 X19.701 Y-95.515 I0.039 J0.148
G1 X19.683 Y-95.444
X19.673 Y-95.378
X19.514 Y-91.886
G2 X19.479 Y-90.093 I33.692 J1.537
G1 X19.495 Y-88.97
G3 X19.514 Y-87.03 I-82.326 J1.736
G1 X19.521 Y-85.662
G2 X19.557 Y-84.434 I29.953 J-0.286
G1 X19.749 Y-80.651
X19.755 Y-80.596
X19.769 Y-80.542
X19.868 Y-80.229
X19.871 Y-80.196
X19.859 Y-80.164
X19.836 Y-80.141
X19.804 Y-80.129
X19.771 Y-80.132
X19.461 Y-80.23
X19.404 Y-80.244
X19.345 Y-80.25
X15.536 Y-80.375
G2 X14.369 Y-80.388 I-0.92 J28.18
G1 X7.048 Y-80.311
X-14.953 Y-80.121
X-19.167 Y-80.05
G2 X-19.6 Y-79.998 I0.036 J2.124
G1 X-19.882 Y-79.934
X-19.925 Y-79.921
X-19.965 Y-79.901
X-20.182 Y-79.772
X-20.203 Y-79.768
X-20.223 Y-79.777
X-20.232 Y-79.797
X-20.228 Y-79.818
X-20.099 Y-80.035
X-20.079 Y-80.075
X-20.066 Y-80.118
X-20.004 Y-80.389
G2 X-19.954 Y-80.841 I-2.002 J-0.452
G1 X-19.959 Y-85.047
X-20 Y-89.526
Y-95.382
G2 X-20.382 Y-96.382 I-1.5 J0
X-19.382 Y-96 I1 J-1.118
G1 X19.382
G2 X20.382 Y-96.382 I0 J-1.5
X20 Y-95.382 I1.118 J1
G1 Y-80.618
G2 X20.382 Y-79.618 I1.5 J0
X19.382 Y-80 I-1 J1.118
G1 X-19.382
G2 X-20.382 Y-79.618 I0 J1.5
X-20 Y-80.618 I-1.118 J-1
G1 Y-89.526
X-19.993 Y-89.572
X-19.972 Y-89.613
X-19.939 Y-89.646
X-19.898 Y-89.668
X-19.853 Y-89.676
X-19.807 Y-89.67
X-15.231 Y-88.281
X-10.76 Y-86.188
X-10.721 Y-86.162
X-10.692 Y-86.125
X-10.676 Y-86.082
X-10.674 Y-86.035
X-10.687 Y-85.99
G3 X-13.286 Y-87.16 Z-5.585 I-1.3 J-0.585 F333.3
X-10.687 Y-85.99 Z-5.741 I1.3 J0.585
X-13.286 Y-87.16 Z-5.898 I-1.3 J-0.585
X-10.687 Y-85.99 Z-6.054 I1.3 J0.585
X-13.286 Y-87.16 Z-6.21 I-1.3 J-0.585
X-10.687 Y-85.99 Z-6.367 I1.3 J0.585
X-13.286 Y-87.16 Z-6.523 I-1.3 J-0.585
X-10.687 Y-85.99 Z-6.679 I1.3 J0.585
X-13.286 Y-87.16 Z-6.836 I-1.3 J-0.585
X-10.687 Y-85.99 Z-6.992 I1.3 J0.585
X-13.286 Y-87.16 Z-7.148 I-1.3 J-0.585
X-10.687 Y-85.99 Z-7.305 I1.3 J0.585
X-13.286 Y-87.16 Z-7.461 I-1.3 J-0.585
X-10.687 Y-85.99 Z-7.617 I1.3 J0.585
X-13.286 Y-87.16 Z-7.774 I-1.3 J-0.585
X-10.687 Y-85.99 Z-7.93 I1.3 J0.585
X-13.286 Y-87.16 Z-8.086 I-1.3 J-0.585
X-12 Y-88 Z-8.143 I1.3 J0.585
G1 X11.849 Y-88.234 F1000
X11.972 Y-88.232
X12.094 Y-88.226
X12.135 Y-88.217
X12.172 Y-88.196
X12.201 Y-88.165
X12.219 Y-88.127
X12.226 Y-88.085
Y-88.009
G3 X11.985 Y-87.765 I-0.244 J0.001
G1 X-11.931 Y-87.53
G3 X-12.452 Y-88.046 I-0.005 J-0.516
G1 X-12.451 Y-88.177
G3 X-12.192 Y-88.461 I0.286 J0.001
X-11.677 Y-88.489 I0.643 J6.992
G1 X11.408 Y-88.911
G3 X12.371 Y-88.888 I0.212 J11.619
X12.897 Y-88.334 I-0.036 J0.561
G1 X12.9 Y-88.034
G3 X11.941 Y-87.045 I-0.977 J0.012
G1 X-10.969 Y-86.627
G3 X-12.667 Y-86.666 I-0.372 J-20.356
G1 X-12.792 Y-86.675
G3 X-13.332 Y-87.207 I0.038 J-0.577
X-13.352 Y-87.713 I6.772 J-0.525
G1 X-13.354 Y-88.524
G3 X-12.574 Y-89.379 I0.856 J-0.002
X-11.034 Y-89.461 I1.877 J20.92
G1 X10.641 Y-89.809
G3 X12.891 Y-89.758 I0.465 J28.956
G1 X13.112 Y-89.744
G3 X13.759 Y-89.107 I-0.043 J0.691
X13.793 Y-88.373 I-11.547 J0.906
G1 X13.805 Y-87.623
G3 X13.789 Y-86.931 I-9.314 J0.139
X13.07 Y-86.194 I-0.785 J-0.047
G1 X12.907 Y-86.181
G3 X10.469 Y-86.06 I-3.023 J-36.303
G1 X-10.25 Y-85.727
G3 X-13.105 Y-85.792 I-0.591 J-36.758
G1 X-13.442 Y-85.813
G3 X-14.201 Y-86.558 I0.05 J-0.811
G1 X-14.212 Y-86.684
G3 X-14.248 Y-87.523 I11.197 J-0.908
G1 X-14.254 Y-88.477
G3 X-14.233 Y-89.392 I15.67 J-0.097
G1 X-14.23 Y-89.453
G3 X-13.46 Y-90.25 I0.844 J0.044
G1 X-13.15 Y-90.277
G3 X-10.199 Y-90.428 I3.528 J40.07
G1 X9.956 Y-90.717
G3 X13.327 Y-90.637 I0.635 J44.308
G1 X13.779 Y-90.61
G3 X14.63 Y-89.772 I-0.056 J0.908
G1 X14.677 Y-89.184
G3 X14.7 Y-86.669 I-18.209 J1.427
G1 X14.669 Y-86.155
G3 X13.846 Y-85.312 I-0.898 J-0.054
G1 X13.341 Y-85.27
G3 X9.746 Y-85.095 I-4.348 J-52.264
G1 X-11.269 Y-84.793
G3 X-12.728 Y-84.848 I-0.203 J-14.134
G1 X-13.158 Y-84.886
X-13.326 Y-84.895
X-13.563 Y-84.899
G3 X-15.131 Y-86.436 I0.026 J-1.595
G1 X-15.139 Y-86.66
X-15.152 Y-86.828
X-15.179 Y-87.08
G3 X-15.195 Y-88.921 I9.082 J-1
G1 X-15.168 Y-89.216
X-15.159 Y-89.402
X-15.155 Y-89.688
G3 X-13.69 Y-91.197 I1.526 J0.017
G1 X-13.369 Y-91.21
X-13.2 Y-91.223
X-12.742 Y-91.274
G3 X-11.253 Y-91.367 I1.683 J14.954
G1 X11.295 Y-91.658
G3 X12.702 Y-91.605 I0.18 J13.968
G1 X13.285 Y-91.554
G2 X13.547 Y-91.544 I0.225 J-2.549
G1 X14.348 Y-91.556
G3 X15.576 Y-90.348 I0.017 J1.21
G1 X15.578 Y-89.62
G2 X15.594 Y-89.346 I2.466 J-0.006
G1 X15.642 Y-88.926
G3 X15.665 Y-87.071 I-9.146 J1.044
G1 X15.632 Y-86.699
G2 X15.623 Y-86.407 I2.591 J0.229
G1 X15.644 Y-85.544
G3 X14.46 Y-84.331 I-1.184 J0.029
G1 X13.612 Y-84.334
G2 X13.319 Y-84.318 I-0.009 J2.576
G1 X12.675 Y-84.247
G3 X11.321 Y-84.163 I-1.534 J-13.827
G1 X-11.208 Y-83.873
G3 X-12.789 Y-83.927 I-0.217 J-16.866
G2 X-14.166 Y-83.982 I-1.364 J16.815
G1 X-14.903 Y-83.981
X-15.003 Y-83.977
X-15.087 Y-83.974
G3 X-16.036 Y-84.989 I0 J-0.952
G1 X-16.034 Y-85.106
X-16.057 Y-86.082
G2 X-16.112 Y-86.963 I-11.354 J0.272
G1 X-16.116 Y-86.994
G3 X-16.136 Y-89.008 I10.938 J-1.117
G2 X-16.1 Y-90.046 I-10.981 J-0.898
G1 X-16.112 Y-90.949
X-16.115 Y-91.031
X-16.122 Y-91.13
G3 X-15.129 Y-92.144 I0.945 J-0.068
G1 X-15.004 Y-92.137
X-14.902 Y-92.136
X-14.176 Y-92.151
G2 X-12.78 Y-92.236 I-0.372 J-17.697
G3 X-11.216 Y-92.323 I1.768 J17.61
G1 X11.263 Y-92.583
G3 X12.735 Y-92.54 I0.21 J18.143
G2 X14.22 Y-92.498 I1.262 J-18.1
G1 X14.901 Y-92.506
X15.005 Y-92.51
X15.667 Y-92.554
G3 X16.574 Y-91.666 I0.057 J0.85
G1 X16.545 Y-91.035
X16.543 Y-90.948
X16.544 Y-90.083
G2 X16.597 Y-88.971 I12.13 J-0.019
G3 X16.622 Y-87.027 I-12.06 J1.13
G2 X16.596 Y-86.022 I12.144 J0.821
G1 X16.61 Y-85.102
X16.615 Y-84.992
X16.668 Y-84.217
G3 X15.782 Y-83.316 I-0.841 J0.058
G1 X15.015 Y-83.357
X14.89 Y-83.359
X14.23 Y-83.354
G2 X12.726 Y-83.28 I0.168 J18.846
G3 X11.271 Y-83.207 I-1.672 J-18.773
G1 X-11.277 Y-82.946
G3 X-12.722 Y-82.98 I-0.239 J-20.687
G2 X-14.232 Y-83.013 I-1.206 J20.653
G1 X-14.883 Y-83.003
X-15.022 Y-82.998
X-16.216 Y-82.914
G3 X-17.099 Y-83.784 I-0.058 J-0.824
G1 X-17.032 Y-84.965
X-17.028 Y-85.13
X-17.036 Y-86.022
G2 X-17.081 Y-87.024 I-14.198 J0.131
G3 X-17.102 Y-88.977 I14.126 J-1.132
G2 X-17.081 Y-90.076 I-14.163 J-0.821
G1 X-17.098 Y-90.922
X-17.104 Y-91.058
X-17.198 Y-92.371
G3 X-16.37 Y-93.216 I0.787 J-0.057
G1 X-15.035 Y-93.146
X-14.87 Y-93.143
X-14.216 Y-93.149
G2 X-12.739 Y-93.214 I-0.237 J-22.535
G3 X-11.259 Y-93.278 I1.715 J22.471
G1 X11.265 Y-93.514
G3 X12.734 Y-93.486 I0.261 J24.909
G1 X12.757 Y-93.485
G2 X14.197 Y-93.458 I1.171 J-24.113
G1 X14.856 Y-93.465
X15.049 Y-93.473
X16.882 Y-93.609
G3 X17.624 Y-92.881 I0.051 J0.69
G1 X17.525 Y-91.078
X17.52 Y-90.901
X17.523 Y-90.082
G2 X17.564 Y-88.971 I16.912 J-0.058
G3 X17.586 Y-87.028 I-16.859 J1.168
G2 X17.57 Y-86.023 I16.967 J0.783
G1 X17.581 Y-85.147
X17.59 Y-84.948
X17.736 Y-82.992
G3 X17.007 Y-82.25 I-0.69 J0.052
G1 X15.059 Y-82.362
X14.846 Y-82.367
X14.155 Y-82.361
G2 X12.799 Y-82.311 I0.21 J24.132
G1 X12.726 Y-82.307
G3 X11.272 Y-82.252 I-1.734 J-26.669
G1 X-11.278 Y-82.016
G3 X-12.721 Y-82.035 I-0.317 J-30.252
G1 X-12.818 Y-82.039
G2 X-14.135 Y-82.055 I-0.982 J26.361
G1 X-14.839 Y-82.046
X-15.067 Y-82.036
X-17.422 Y-81.859
G3 X-18.152 Y-82.578 I-0.051 J-0.678
G1 X-18.013 Y-84.922
G2 X-18.006 Y-85.173 I-3.659 J-0.218
G1 X-18.014 Y-86.022
G2 X-18.047 Y-87.024 I-21.2 J0.191
G3 X-18.067 Y-88.977 I21.156 J-1.192
G2 X-18.055 Y-90.074 I-21.216 J-0.763
G1 X-18.068 Y-90.875
X-18.079 Y-91.104
X-18.268 Y-93.585
G3 X-17.584 Y-94.282 I0.647 J-0.049
G1 X-15.08 Y-94.139
G2 X-14.825 Y-94.133 I0.218 J-3.806
G1 X-14.053 Y-94.14
G2 X-12.901 Y-94.176 I-0.262 J-26.94
G1 X-12.739 Y-94.185
G3 X-11.26 Y-94.23 I1.81 J34.463
G1 X11.267 Y-94.446
G3 X12.733 Y-94.433 I0.382 J39.924
G1 X12.946 Y-94.427
G2 X14.007 Y-94.418 I0.773 J-28.475
G1 X14.811 Y-94.427
G2 X15.094 Y-94.439 I-0.043 J-4.257
G1 X18.065 Y-94.667
G3 X18.678 Y-94.064 I0.044 J0.569
G1 X18.505 Y-91.125
G2 X18.497 Y-90.854 I4.208 J0.248
G1 X18.502 Y-90.082
G2 X18.53 Y-88.971 I28.024 J-0.152
G3 X18.55 Y-87.029 I-27.988 J1.263
G2 X18.542 Y-86.34 I28.165 J0.688
X18.543 Y-86.024 I28.174 J0
G1 X18.553 Y-85.192
G2 X18.565 Y-84.903 I4.412 J-0.05
G1 X18.804 Y-81.8
G3 X18.199 Y-81.185 I-0.571 J0.044
G1 X15.104 Y-81.371
G2 X14.802 Y-81.378 I-0.264 J4.392
G1 X13.951 Y-81.371
G2 X13.002 Y-81.347 I0.253 J29.179
G1 X12.728 Y-81.336
G3 X11.272 Y-81.299 I-1.897 J-46.011
G1 X-11.281 Y-81.083
G3 X-12.719 Y-81.088 I-0.542 J-56.56
G1 X-13.049 Y-81.093
G2 X-13.904 Y-81.095 I-0.506 J31.92
G1 X-14.793 Y-81.085
G2 X-15.112 Y-81.071 I0.053 J4.851
G1 X-18.598 Y-80.804
G3 X-19.206 Y-81.402 I-0.043 J-0.564
G1 X-18.993 Y-84.878
G2 X-18.984 Y-85.217 I-4.824 J-0.296
G1 X-18.992 Y-86.15
G2 X-19.008 Y-86.897 I-31.361 J0.282
G1 X-19.012 Y-87.024
G3 X-19.031 Y-88.976 I42.016 J-1.379
G1 X-19.029 Y-89.116
G2 X-19.028 Y-89.935 I-31.931 J-0.435
G1 X-19.039 Y-90.826
G2 X-19.054 Y-91.154 I-4.965 J0.06
G1 X-19.337 Y-94.769
G3 X-18.768 Y-95.348 I0.536 J-0.042
G1 X-15.125 Y-95.129
G2 X-14.78 Y-95.12 I0.299 J-4.984
G1 X-13.807 Y-95.129
G2 X-13.146 Y-95.142 I-0.3 J-33.221
G1 X-12.742 Y-95.153
G3 X-11.258 Y-95.181 I2.136 J73.873
G1 X12 Y-95.386
X13.969 Y-95.383
G2 X15.935 Y-95.454 I-0.335 J-36.365
G1 X19.381 Y-95.672
X19.442 Y-95.682
X19.515 Y-95.701
G3 X19.701 Y-95.515 I0.039 J0.148
G1 X19.683 Y-95.444
X19.673 Y-95.378
X19.514 Y-91.886
G2 X19.479 Y-90.093 I33.692 J1.537
G1 X19.495 Y-88.97
G3 X19.514 Y-87.03 I-82.326 J1.736
G1 X19.521 Y-85.662
G2 X19.557 Y-84.434 I29.953 J-0.286
G1 X19.749 Y-80.651
X19.755 Y-80.596
X19.769 Y-80.542
X19.868 Y-80.229
X19.871 Y-80.196
X19.859 Y-80.164
X19.836 Y-80.141
X19.804 Y-80.129
X19.771 Y-80.132
X19.461 Y-80.23
X19.404 Y-80.244
X19.345 Y-80.25
X15.536 Y-80.375
G2 X14.369 Y-80.388 I-0.92 J28.18
G1 X7.048 Y-80.311
X-14.953 Y-80.121
X-19.167 Y-80.05
G2 X-19.6 Y-79.998 I0.036 J2.124
G1 X-19.882 Y-79.934
X-19.925 Y-79.921
X-19.965 Y-79.901
X-20.182 Y-79.772
X-20.203 Y-79.768
X-20.223 Y-79.777
X-20.232 Y-79.797
X-20.228 Y-79.818
X-20.099 Y-80.035
X-20.079 Y-80.075
X-20.066 Y-80.118
X-20.004 Y-80.389
G2 X-19.954 Y-80.841 I-2.002 J-0.452
G1 X-19.959 Y-85.047
X-20 Y-89.526
Y-95.382
G2 X-20.382 Y-96.382 I-1.5 J0
X-19.382 Y-96 I1 J-1.118
G1 X19.382
G2 X20.382 Y-96.382 I0 J-1.5
X20 Y-95.382 I1.118 J1
G1 Y-80.618
G2 X20.382 Y-79.618 I1.5 J0
X19.382 Y-80 I-1 J1.118
G1 X-19.382
G2 X-20.382 Y-79.618 I0 J1.5
X-20 Y-80.618 I-1.118 J-1
G1 Y-89.526
X-19.993 Y-89.572
X-19.972 Y-89.613
X-19.939 Y-89.646
X-19.898 Y-89.668
X-19.853 Y-89.676
X-19.807 Y-89.67
X-15.231 Y-88.281
X-10.76 Y-86.188
X-10.721 Y-86.162
X-10.692 Y-86.125
X-10.676 Y-86.082
X-10.674 Y-86.035
X-10.687 Y-85.99
G3 X-13.286 Y-87.16 Z-8.299 I-1.3 J-0.585 F333.3
X-10.687 Y-85.99 Z-8.456 I1.3 J0.585
X-13.286 Y-87.16 Z-8.612 I-1.3 J-0.585
X-10.687 Y-85.99 Z-8.768 I1.3 J0.585
X-13.286 Y-87.16 Z-8.925 I-1.3 J-0.585
X-10.687 Y-85.99 Z-9.081 I1.3 J0.585
X-13.286 Y-87.16 Z-9.237 I-1.3 J-0.585
X-10.687 Y-85.99 Z-9.394 I1.3 J0.585
X-13.286 Y-87.16 Z-9.55 I-1.3 J-0.585
X-10.687 Y-85.99 Z-9.706 I1.3 J0.585
X-13.286 Y-87.16 Z-9.863 I-1.3 J-0.585
X-10.687 Y-85.99 Z-10.019 I1.3 J0.585
X-13.286 Y-87.16 Z-10.175 I-1.3 J-0.585
X-10.687 Y-85.99 Z-10.332 I1.3 J0.585
X-13.286 Y-87.16 Z-10.488 I-1.3 J-0.585
X-10.687 Y-85.99 Z-10.644 I1.3 J0.585
X-13.286 Y-87.16 Z-10.801 I-1.3 J-0.585
X-12 Y-88 Z-10.857 I1.3 J0.585
G1 X11.849 Y-88.234 F1000
X11.972 Y-88.232
X12.094 Y-88.226
X12.135 Y-88.217
X12.172 Y-88.196
X12.201 Y-88.165
X12.219 Y-88.127
X12.226 Y-88.085
Y-88.009
G3 X11.985 Y-87.765 I-0.244 J0.001
G1 X-11.931 Y-87.53
G3 X-12.452 Y-88.046 I-0.005 J-0.516
G1 X-12.451 Y-88.177
G3 X-12.192 Y-88.461 I0.286 J0.001
X-11.677 Y-88.489 I0.643 J6.992
G1 X11.408 Y-88.911
G3 X12.371 Y-88.888 I0.212 J11.619
X12.897 Y-88.334 I-0.036 J0.561
G1 X12.9 Y-88.034
G3 X11.941 Y-87.045 I-0.977 J0.012
G1 X-10.969 Y-86.627
G3 X-12.667 Y-86.666 I-0.372 J-20.356
G1 X-12.792 Y-86.675
G3 X-13.332 Y-87.207 I0.038 J-0.577
X-13.352 Y-87.713 I6.772 J-0.525
G1 X-13.354 Y-88.524
G3 X-12.574 Y-89.379 I0.856 J-0.002
X-11.034 Y-89.461 I1.877 J20.92
G1 X10.641 Y-89.809
G3 X12.891 Y-89.758 I0.465 J28.956
G1 X13.112 Y-89.744
G3 X13.759 Y-89.107 I-0.043 J0.691
X13.793 Y-88.373 I-11.547 J0.906
G1 X13.805 Y-87.623
G3 X13.789 Y-86.931 I-9.314 J0.139
X13.07 Y-86.194 I-0.785 J-0.047
G1 X12.907 Y-86.181
G3 X10.469 Y-86.06 I-3.023 J-36.303
G1 X-10.25 Y-85.727
G3 X-13.105 Y-85.792 I-0.591 J-36.758
G1 X-13.442 Y-85.813
G3 X-14.201 Y-86.558 I0.05 J-0.811
G1 X-14.212 Y-86.684
G3 X-14.248 Y-87.523 I11.197 J-0.908
G1 X-14.254 Y-88.477
G3 X-14.233 Y-89.392 I15.67 J-0.097
G1 X-14.23 Y-89.453
G3 X-13.46 Y-90.25 I0.844 J0.044
G1 X-13.15 Y-90.277
G3 X-10.199 Y-90.428 I3.528 J40.07
G1 X9.956 Y-90.717
G3 X13.327 Y-90.637 I0.635 J44.308
G1 X13.779 Y-90.61
G3 X14.63 Y-89.772 I-0.056 J0.908
G1 X14.677 Y-89.184
G3 X14.7 Y-86.669 I-18.209 J1.427
G1 X14.669 Y-86.155
G3 X13.846 Y-85.312 I-0.898 J-0.054
G1 X13.341 Y-85.27
G3 X9.746 Y-85.095 I-4.348 J-52.264
G1 X-11.269 Y-84.793
G3 X-12.728 Y-84.848 I-0.203 J-14.134
G1 X-13.158 Y-84.886
X-13.326 Y-84.895
X-13.563 Y-84.899
G3 X-15.131 Y-86.436 I0.026 J-1.595
G1 X-15.139 Y-86.66
X-15.152 Y-86.828
X-15.179 Y-87.08
G3 X-15.195 Y-88.921 I9.082 J-1
G1 X-15.168 Y-89.216
X-15.159 Y-89.402
X-15.155 Y-89.688
G3 X-13.69 Y-91.197 I1.526 J0.017
G1 X-13.369 Y-91.21
X-13.2 Y-91.223
X-12.742 Y-91.274
G3 X-11.253 Y-91.367 I1.683 J14.954
G1 X11.295 Y-91.658
G3 X12.702 Y-91.605 I0.18 J13.968
G1 X13.285 Y-91.554
G2 X13.547 Y-91.544 I0.225 J-2.549
G1 X14.348 Y-91.556
G3 X15.576 Y-90.348 I0.017 J1.21
G1 X15.578 Y-89.62
G2 X15.594 Y-89.346 I2.466 J-0.006
G1 X15.642 Y-88.926
G3 X15.665 Y-87.071 I-9.146 J1.044
G1 X15.632 Y-86.699
G2 X15.623 Y-86.407 I2.591 J0.229
G1 X15.644 Y-85.544
G3 X14.46 Y-84.331 I-1.184 J0.029
G1 X13.612 Y-84.334
G2 X13.319 Y-84.318 I-0.009 J2.576
G1 X12.675 Y-84.247
G3 X11.321 Y-84.163 I-1.534 J-13.827
G1 X-11.208 Y-83.873
G3 X-12.789 Y-83.927 I-0.217 J-16.866
G2 X-14.166 Y-83.982 I-1.364 J16.815
G1 X-14.903 Y-83.981
X-15.003 Y-83.977
X-15.087 Y-83.974
G3 X-16.036 Y-84.989 I0 J-0.952
G1 X-16.034 Y-85.106
X-16.057 Y-86.082
G2 X-16.112 Y-86.963 I-11.354 J0.272
G1 X-16.116 Y-86.994
G3 X-16.136 Y-89.008 I10.938 J-1.117
G2 X-16.1 Y-90.046 I-10.981 J-0.898
G1 X-16.112 Y-90.949
X-16.115 Y-91.031
X-16.122 Y-91.13
G3 X-15.129 Y-92.144 I0.945 J-0.068
G1 X-15.004 Y-92.137
X-14.902 Y-92.136
X-14.176 Y-92.151
G2 X-12.78 Y-92.236 I-0.372 J-17.697
G3 X-11.216 Y-92.323 I1.768 J17.61
G1 X11.263 Y-92.583
G3 X12.735 Y-92.54 I0.21 J18.143
G2 X14.22 Y-92.498 I1.262 J-18.1
G1 X14.901 Y-92.506
X15.005 Y-92.51
X15.667 Y-92.554
G3 X16.574 Y-91.666 I0.057 J0.85
G1 X16.545 Y-91.035
X16.543 Y-90.948
X16.544 Y-90.083
G2 X16.597 Y-88.971 I12.13 J-0.019
G3 X16.622 Y-87.027 I-12.06 J1.13
G2 X16.596 Y-86.022 I12.144 J0.821
G1 X16.61 Y-85.102
X16.615 Y-84.992
X16.668 Y-84.217
G3 X15.782 Y-83.316 I-0.841 J0.058
G1 X15.015 Y-83.357
X14.89 Y-83.359
X14.23 Y-83.354
G2 X12.726 Y-83.28 I0.168 J18.846
G3 X11.271 Y-83.207 I-1.672 J-18.773
G1 X-11.277 Y-82.946
G3 X-12.722 Y-82.98 I-0.239 J-20.687
G2 X-14.232 Y-83.013 I-1.206 J20.653
G1 X-14.883 Y-83.003
X-15.022 Y-82.998
X-16.216 Y-82.914
G3 X-17.099 Y-83.784 I-0.058 J-0.824
G1 X-17.032 Y-84.965
X-17.028 Y-85.13
X-17.036 Y-86.022
G2 X-17.081 Y-87.024 I-14.198 J0.131
G3 X-17.102 Y-88.977 I14.126 J-1.132
G2 X-17.081 Y-90.076 I-14.163 J-0.821
G1 X-17.098 Y-90.922
X-17.104 Y-91.058
X-17.198 Y-92.371
G3 X-16.37 Y-93.216 I0.787 J-0.057
G1 X-15.035 Y-93.146
X-14.87 Y-93.143
X-14.216 Y-93.149
G2 X-12.739 Y-93.214 I-0.237 J-22.535
G3 X-11.259 Y-93.278 I1.715 J22.471
G1 X11.265 Y-93.514
G3 X12.734 Y-93.486 I0.261 J24.909
G1 X12.757 Y-93.485
G2 X14.197 Y-93.458 I1.171 J-24.113
G1 X14.856 Y-93.465
X15.049 Y-93.473
X16.882 Y-93.609
G3 X17.624 Y-92.881 I0.051 J0.69
G1 X17.525 Y-91.078
X17.52 Y-90.901
X17.523 Y-90.082
G2 X17.564 Y-88.971 I16.912 J-0.058
G3 X17.586 Y-87.028 I-16.859 J1.168
G2 X17.57 Y-86.023 I16.967 J0.783
G1 X17.581 Y-85.147
X17.59 Y-84.948
X17.736 Y-82.992
G3 X17.007 Y-82.25 I-0.69 J0.052
G1 X15.059 Y-82.362
X14.846 Y-82.367
X14.155 Y-82.361
G2 X12.799 Y-82.311 I0.21 J24.132
G1 X12.726 Y-82.307
G3 X11.272 Y-82.252 I-1.734 J-26.669
G1 X-11.278 Y-82.016
G3 X-12.721 Y-82.035 I-0.317 J-30.252
G1 X-12.818 Y-82.039
G2 X-14.135 Y-82.055 I-0.982 J26.361
G1 X-14.839 Y-82.046
X-15.067 Y-82.036
X-17.422 Y-81.859
G3 X-18.152 Y-82.578 I-0.051 J-0.678
G1 X-18.013 Y-84.922
G2 X-18.006 Y-85.173 I-3.659 J-0.218
G1 X-18.014 Y-86.022
G2 X-18.047 Y-87.024 I-21.2 J0.191
G3 X-18.067 Y-88.977 I21.156 J-1.192
G2 X-18.055 Y-90.074 I-21.216 J-0.763
G1 X-18.068 Y-90.875
X-18.079 Y-91.104
X-18.268 Y-93.585
G3 X-17.584 Y-94.282 I0.647 J-0.049
G1 X-15.08 Y-94.139
G2 X-14.825 Y-94.133 I0.218 J-3.806
G1 X-14.053 Y-94.14
G2 X-12.901 Y-94.176 I-0.262 J-26.94
G1 X-12.739 Y-94.185
G3 X-11.26 Y-94.23 I1.81 J34.463
G1 X11.267 Y-94.446
G3 X12.733 Y-94.433 I0.382 J39.924
G1 X12.946 Y-94.427
G2 X14.007 Y-94.418 I0.773 J-28.475
G1 X14.811 Y-94.427
G2 X15.094 Y-94.439 I-0.043 J-4.257
G1 X18.065 Y-94.667
G3 X18.678 Y-94.064 I0.044 J0.569
G1 X18.505 Y-91.125
G2 X18.497 Y-90.854 I4.208 J0.248
G1 X18.502 Y-90.082
G2 X18.53 Y-88.971 I28.024 J-0.152
G3 X18.55 Y-87.029 I-27.988 J1.263
G2 X18.542 Y-86.34 I28.165 J0.688
X18.543 Y-86.024 I28.174 J0
G1 X18.553 Y-85.192
G2 X18.565 Y-84.903 I4.412 J-0.05
G1 X18.804 Y-81.8
G3 X18.199 Y-81.185 I-0.571 J0.044
G1 X15.104 Y-81.371
G2 X14.802 Y-81.378 I-0.264 J4.392
G1 X13.951 Y-81.371
G2 X13.002 Y-81.347 I0.253 J29.179
G1 X12.728 Y-81.336
G3 X11.272 Y-81.299 I-1.897 J-46.011
G1 X-11.281 Y-81.083
G3 X-12.719 Y-81.088 I-0.542 J-56.56
G1 X-13.049 Y-81.093
G2 X-13.904 Y-81.095 I-0.506 J31.92
G1 X-14.793 Y-81.085
G2 X-15.112 Y-81.071 I0.053 J4.851
G1 X-18.598 Y-80.804
G3 X-19.206 Y-81.402 I-0.043 J-0.564
G1 X-18.993 Y-84.878
G2 X-18.984 Y-85.217 I-4.824 J-0.296
G1 X-18.992 Y-86.15
G2 X-19.008 Y-86.897 I-31.361 J0.282
G1 X-19.012 Y-87.024
G3 X-19.031 Y-88.976 I42.016 J-1.379
G1 X-19.029 Y-89.116
G2 X-19.028 Y-89.935 I-31.931 J-0.435
G1 X-19.039 Y-90.826
G2 X-19.054 Y-91.154 I-4.965 J0.06
G1 X-19.337 Y-94.769
G3 X-18.768 Y-95.348 I0.536 J-0.042
G1 X-15.125 Y-95.129
G2 X-14.78 Y-95.12 I0.299 J-4.984
G1 X-13.807 Y-95.129
G2 X-13.146 Y-95.142 I-0.3 J-33.221
G1 X-12.742 Y-95.153
G3 X-11.258 Y-95.181 I2.136 J73.873
G1 X12 Y-95.386
X13.969 Y-95.383
G2 X15.935 Y-95.454 I-0.335 J-36.365
G1 X19.381 Y-95.672
X19.442 Y-95.682
X19.515 Y-95.701
G3 X19.701 Y-95.515 I0.039 J0.148
G1 X19.683 Y-95.444
X19.673 Y-95.378
X19.514 Y-91.886
G2 X19.479 Y-90.093 I33.692 J1.537
G1 X19.495 Y-88.97
G3 X19.514 Y-87.03 I-82.326 J1.736
G1 X19.521 Y-85.662
G2 X19.557 Y-84.434 I29.953 J-0.286
G1 X19.749 Y-80.651
X19.755 Y-80.596
X19.769 Y-80.542
X19.868 Y-80.229
X19.871 Y-80.196
X19.859 Y-80.164
X19.836 Y-80.141
X19.804 Y-80.129
X19.771 Y-80.132
X19.461 Y-80.23
X19.404 Y-80.244
X19.345 Y-80.25
X15.536 Y-80.375
G2 X14.369 Y-80.388 I-0.92 J28.18
G1 X7.048 Y-80.311
X-14.953 Y-80.121
X-19.167 Y-80.05
G2 X-19.6 Y-79.998 I0.036 J2.124
G1 X-19.882 Y-79.934
X-19.925 Y-79.921
X-19.965 Y-79.901
X-20.182 Y-79.772
X-20.203 Y-79.768
X-20.223 Y-79.777
X-20.232 Y-79.797
X-20.228 Y-79.818
X-20.099 Y-80.035
X-20.079 Y-80.075
X-20.066 Y-80.118
X-20.004 Y-80.389
G2 X-19.954 Y-80.841 I-2.002 J-0.452
G1 X-19.959 Y-85.047
X-20 Y-89.526
Y-95.382
G2 X-20.382 Y-96.382 I-1.5 J0
X-19.382 Y-96 I1 J-1.118
G1 X19.382
G2 X20.382 Y-96.382 I0 J-1.5
X20 Y-95.382 I1.118 J1
G1 Y-80.618
G2 X20.382 Y-79.618 I1.5 J0
X19.382 Y-80 I-1 J1.118
G1 X-19.382
G2 X-20.382 Y-79.618 I0 J1.5
X-20 Y-80.618 I-1.118 J-1
G1 Y-89.526
X-19.993 Y-89.572
X-19.972 Y-89.613
X-19.939 Y-89.646
X-19.898 Y-89.668
X-19.853 Y-89.676
X-19.807 Y-89.67
X-15.231 Y-88.281
X-10.76 Y-86.188
X-10.721 Y-86.162
X-10.692 Y-86.125
X-10.676 Y-86.082
X-10.674 Y-86.035
X-10.687 Y-85.99
G3 X-13.286 Y-87.16 Z-11.013 I-1.3 J-0.585 F333.3
X-10.687 Y-85.99 Z-11.17 I1.3 J0.585
X-13.286 Y-87.16 Z-11.326 I-1.3 J-0.585
X-10.687 Y-85.99 Z-11.482 I1.3 J0.585
X-13.286 Y-87.16 Z-11.639 I-1.3 J-0.585
X-10.687 Y-85.99 Z-11.795 I1.3 J0.585
X-13.286 Y-87.16 Z-11.951 I-1.3 J-0.585
X-10.687 Y-85.99 Z-12.108 I1.3 J0.585
X-13.286 Y-87.16 Z-12.264 I-1.3 J-0.585
X-10.687 Y-85.99 Z-12.42 I1.3 J0.585
X-13.286 Y-87.16 Z-12.577 I-1.3 J-0.585
X-10.687 Y-85.99 Z-12.733 I1.3 J0.585
X-13.286 Y-87.16 Z-12.889 I-1.3 J-0.585
X-10.687 Y-85.99 Z-13.046 I1.3 J0.585
X-13.286 Y-87.16 Z-13.202 I-1.3 J-0.585
X-10.687 Y-85.99 Z-13.358 I1.3 J0.585
X-13.286 Y-87.16 Z-13.515 I-1.3 J-0.585
X-12 Y-88 Z-13.571 I1.3 J0.585
G1 X11.849 Y-88.234 F1000
X11.972 Y-88.232
X12.094 Y-88.226
X12.135 Y-88.217
X12.172 Y-88.196
X12.201 Y-88.165
X12.219 Y-88.127
X12.226 Y-88.085
Y-88.009
G3 X11.985 Y-87.765 I-0.244 J0.001
G1 X-11.931 Y-87.53
G3 X-12.452 Y-88.046 I-0.005 J-0.516
G1 X-12.451 Y-88.177
G3 X-12.192 Y-88.461 I0.286 J0.001
X-11.677 Y-88.489 I0.643 J6.992
G1 X11.408 Y-88.911
G3 X12.371 Y-88.888 I0.212 J11.619
X12.897 Y-88.334 I-0.036 J0.561
G1 X12.9 Y-88.034
G3 X11.941 Y-87.045 I-0.977 J0.012
G1 X-10.969 Y-86.627
G3 X-12.667 Y-86.666 I-0.372 J-20.356
G1 X-12.792 Y-86.675
G3 X-13.332 Y-87.207 I0.038 J-0.577
X-13.352 Y-87.713 I6.772 J-0.525
G1 X-13.354 Y-88.524
G3 X-12.574 Y-89.379 I0.856 J-0.002
X-11.034 Y-89.461 I1.877 J20.92
G1 X10.641 Y-89.809
G3 X12.891 Y-89.758 I0.465 J28.956
G1 X13.112 Y-89.744
G3 X13.759 Y-89.107 I-0.043 J0.691
X13.793 Y-88.373 I-11.547 J0.906
G1 X13.805 Y-87.623
G3 X13.789 Y-86.931 I-9.314 J0.139
X13.07 Y-86.194 I-0.785 J-0.047
G1 X12.907 Y-86.181
G3 X10.469 Y-86.06 I-3.023 J-36.303
G1 X-10.25 Y-85.727
G3 X-13.105 Y-85.792 I-0.591 J-36.758
G1 X-13.442 Y-85.813
G3 X-14.201 Y-86.558 I0.05 J-0.811
G1 X-14.212 Y-86.684
G3 X-14.248 Y-87.523 I11.197 J-0.908
G1 X-14.254 Y-88.477
G3 X-14.233 Y-89.392 I15.67 J-0.097
G1 X-14.23 Y-89.453
G3 X-13.46 Y-90.25 I0.844 J0.044
G1 X-13.15 Y-90.277
G3 X-10.199 Y-90.428 I3.528 J40.07
G1 X9.956 Y-90.717
G3 X13.327 Y-90.637 I0.635 J44.308
G1 X13.779 Y-90.61
G3 X14.63 Y-89.772 I-0.056 J0.908
G1 X14.677 Y-89.184
G3 X14.7 Y-86.669 I-18.209 J1.427
G1 X14.669 Y-86.155
G3 X13.846 Y-85.312 I-0.898 J-0.054
G1 X13.341 Y-85.27
G3 X9.746 Y-85.095 I-4.348 J-52.264
G1 X-11.269 Y-84.793
G3 X-12.728 Y-84.848 I-0.203 J-14.134
G1 X-13.158 Y-84.886
X-13.326 Y-84.895
X-13.563 Y-84.899
G3 X-15.131 Y-86.436 I0.026 J-1.595
G1 X-15.139 Y-86.66
X-15.152 Y-86.828
X-15.179 Y-87.08
G3 X-15.195 Y-88.921 I9.082 J-1
G1 X-15.168 Y-89.216
X-15.159 Y-89.402
X-15.155 Y-89.688
G3 X-13.69 Y-91.197 I1.526 J0.017
G1 X-13.369 Y-91.21
X-13.2 Y-91.223
X-12.742 Y-91.274
G3 X-11.253 Y-91.367 I1.683 J14.954
G1 X11.295 Y-91.658
G3 X12.702 Y-91.605 I0.18 J13.968
G1 X13.285 Y-91.554
G2 X13.547 Y-91.544 I0.225 J-2.549
G1 X14.348 Y-91.556
G3 X15.576 Y-90.348 I0.017 J1.21
G1 X15.578 Y-89.62
G2 X15.594 Y-89.346 I2.466 J-0.006
G1 X15.642 Y-88.926
G3 X15.665 Y-87.071 I-9.146 J1.044
G1 X15.632 Y-86.699
G2 X15.623 Y-86.407 I2.591 J0.229
G1 X15.644 Y-85.544
G3 X14.46 Y-84.331 I-1.184 J0.029
G1 X13.612 Y-84.334
G2 X13.319 Y-84.318 I-0.009 J2.576
G1 X12.675 Y-84.247
G3 X11.321 Y-84.163 I-1.534 J-13.827
G1 X-11.208 Y-83.873
G3 X-12.789 Y-83.927 I-0.217 J-16.866
G2 X-14.166 Y-83.982 I-1.364 J16.815
G1 X-14.903 Y-83.981
X-15.003 Y-83.977
X-15.087 Y-83.974
G3 X-16.036 Y-84.989 I0 J-0.952
G1 X-16.034 Y-85.106
X-16.057 Y-86.082
G2 X-16.112 Y-86.963 I-11.354 J0.272
G1 X-16.116 Y-86.994
G3 X-16.136 Y-89.008 I10.938 J-1.117
G2 X-16.1 Y-90.046 I-10.981 J-0.898
G1 X-16.112 Y-90.949
X-16.115 Y-91.031
X-16.122 Y-91.13
G3 X-15.129 Y-92.144 I0.945 J-0.068
G1 X-15.004 Y-92.137
X-14.902 Y-92.136
X-14.176 Y-92.151
G2 X-12.78 Y-92.236 I-0.372 J-17.697
G3 X-11.216 Y-92.323 I1.768 J17.61
G1 X11.263 Y-92.583
G3 X12.735 Y-92.54 I0.21 J18.143
G2 X14.22 Y-92.498 I1.262 J-18.1
G1 X14.901 Y-92.506
X15.005 Y-92.51
X15.667 Y-92.554
G3 X16.574 Y-91.666 I0.057 J0.85
G1 X16.545 Y-91.035
X16.543 Y-90.948
X16.544 Y-90.083
G2 X16.597 Y-88.971 I12.13 J-0.019
G3 X16.622 Y-87.027 I-12.06 J1.13
G2 X16.596 Y-86.022 I12.144 J0.821
G1 X16.61 Y-85.102
X16.615 Y-84.992
X16.668 Y-84.217
G3 X15.782 Y-83.316 I-0.841 J0.058
G1 X15.015 Y-83.357
X14.89 Y-83.359
X14.23 Y-83.354
G2 X12.726 Y-83.28 I0.168 J18.846
G3 X11.271 Y-83.207 I-1.672 J-18.773
G1 X-11.277 Y-82.946
G3 X-12.722 Y-82.98 I-0.239 J-20.687
G2 X-14.232 Y-83.013 I-1.206 J20.653
G1 X-14.883 Y-83.003
X-15.022 Y-82.998
X-16.216 Y-82.914
G3 X-17.099 Y-83.784 I-0.058 J-0.824
G1 X-17.032 Y-84.965
X-17.028 Y-85.13
X-17.036 Y-86.022
G2 X-17.081 Y-87.024 I-14.198 J0.131
G3 X-17.102 Y-88.977 I14.126 J-1.132
G2 X-17.081 Y-90.076 I-14.163 J-0.821
G1 X-17.098 Y-90.922
X-17.104 Y-91.058
X-17.198 Y-92.371
G3 X-16.37 Y-93.216 I0.787 J-0.057
G1 X-15.035 Y-93.146
X-14.87 Y-93.143
X-14.216 Y-93.149
G2 X-12.739 Y-93.214 I-0.237 J-22.535
G3 X-11.259 Y-93.278 I1.715 J22.471
G1 X11.265 Y-93.514
G3 X12.734 Y-93.486 I0.261 J24.909
G1 X12.757 Y-93.485
G2 X14.197 Y-93.458 I1.171 J-24.113
G1 X14.856 Y-93.465
X15.049 Y-93.473
X16.882 Y-93.609
G3 X17.624 Y-92.881 I0.051 J0.69
G1 X17.525 Y-91.078
X17.52 Y-90.901
X17.523 Y-90.082
G2 X17.564 Y-88.971 I16.912 J-0.058
G3 X17.586 Y-87.028 I-16.859 J1.168
G2 X17.57 Y-86.023 I16.967 J0.783
G1 X17.581 Y-85.147
X17.59 Y-84.948
X17.736 Y-82.992
G3 X17.007 Y-82.25 I-0.69 J0.052
G1 X15.059 Y-82.362
X14.846 Y-82.367
X14.155 Y-82.361
G2 X12.799 Y-82.311 I0.21 J24.132
G1 X12.726 Y-82.307
G3 X11.272 Y-82.252 I-1.734 J-26.669
G1 X-11.278 Y-82.016
G3 X-12.721 Y-82.035 I-0.317 J-30.252
G1 X-12.818 Y-82.039
G2 X-14.135 Y-82.055 I-0.982 J26.361
G1 X-14.839 Y-82.046
X-15.067 Y-82.036
X-17.422 Y-81.859
G3 X-18.152 Y-82.578 I-0.051 J-0.678
G1 X-18.013 Y-84.922
G2 X-18.006 Y-85.173 I-3.659 J-0.218
G1 X-18.014 Y-86.022
G2 X-18.047 Y-87.024 I-21.2 J0.191
G3 X-18.067 Y-88.977 I21.156 J-1.192
G2 X-18.055 Y-90.074 I-21.216 J-0.763
G1 X-18.068 Y-90.875
X-18.079 Y-91.104
X-18.268 Y-93.585
G3 X-17.584 Y-94.282 I0.647 J-0.049
G1 X-15.08 Y-94.139
G2 X-14.825 Y-94.133 I0.218 J-3.806
G1 X-14.053 Y-94.14
G2 X-12.901 Y-94.176 I-0.262 J-26.94
G1 X-12.739 Y-94.185
G3 X-11.26 Y-94.23 I1.81 J34.463
G1 X11.267 Y-94.446
G3 X12.733 Y-94.433 I0.382 J39.924
G1 X12.946 Y-94.427
G2 X14.007 Y-94.418 I0.773 J-28.475
G1 X14.811 Y-94.427
G2 X15.094 Y-94.439 I-0.043 J-4.257
G1 X18.065 Y-94.667
G3 X18.678 Y-94.064 I0.044 J0.569
G1 X18.505 Y-91.125
G2 X18.497 Y-90.854 I4.208 J0.248
G1 X18.502 Y-90.082
G2 X18.53 Y-88.971 I28.024 J-0.152
G3 X18.55 Y-87.029 I-27.988 J1.263
G2 X18.542 Y-86.34 I28.165 J0.688
X18.543 Y-86.024 I28.174 J0
G1 X18.553 Y-85.192
G2 X18.565 Y-84.903 I4.412 J-0.05
G1 X18.804 Y-81.8
G3 X18.199 Y-81.185 I-0.571 J0.044
G1 X15.104 Y-81.371
G2 X14.802 Y-81.378 I-0.264 J4.392
G1 X13.951 Y-81.371
G2 X13.002 Y-81.347 I0.253 J29.179
G1 X12.728 Y-81.336
G3 X11.272 Y-81.299 I-1.897 J-46.011
G1 X-11.281 Y-81.083
G3 X-12.719 Y-81.088 I-0.542 J-56.56
G1 X-13.049 Y-81.093
G2 X-13.904 Y-81.095 I-0.506 J31.92
G1 X-14.793 Y-81.085
G2 X-15.112 Y-81.071 I0.053 J4.851
G1 X-18.598 Y-80.804
G3 X-19.206 Y-81.402 I-0.043 J-0.564
G1 X-18.993 Y-84.878
G2 X-18.984 Y-85.217 I-4.824 J-0.296
G1 X-18.992 Y-86.15
G2 X-19.008 Y-86.897 I-31.361 J0.282
G1 X-19.012 Y-87.024
G3 X-19.031 Y-88.976 I42.016 J-1.379
G1 X-19.029 Y-89.116
G2 X-19.028 Y-89.935 I-31.931 J-0.435
G1 X-19.039 Y-90.826
G2 X-19.054 Y-91.154 I-4.965 J0.06
G1 X-19.337 Y-94.769
G3 X-18.768 Y-95.348 I0.536 J-0.042
G1 X-15.125 Y-95.129
G2 X-14.78 Y-95.12 I0.299 J-4.984
G1 X-13.807 Y-95.129
G2 X-13.146 Y-95.142 I-0.3 J-33.221
G1 X-12.742 Y-95.153
G3 X-11.258 Y-95.181 I2.136 J73.873
G1 X12 Y-95.386
X13.969 Y-95.383
G2 X15.935 Y-95.454 I-0.335 J-36.365
G1 X19.381 Y-95.672
X19.442 Y-95.682
X19.515 Y-95.701
G3 X19.701 Y-95.515 I0.039 J0.148
G1 X19.683 Y-95.444
X19.673 Y-95.378
X19.514 Y-91.886
G2 X19.479 Y-90.093 I33.692 J1.537
G1 X19.495 Y-88.97
G3 X19.514 Y-87.03 I-82.326 J1.736
G1 X19.521 Y-85.662
G2 X19.557 Y-84.434 I29.953 J-0.286
G1 X19.749 Y-80.651
X19.755 Y-80.596
X19.769 Y-80.542
X19.868 Y-80.229
X19.871 Y-80.196
X19.859 Y-80.164
X19.836 Y-80.141
X19.804 Y-80.129
X19.771 Y-80.132
X19.461 Y-80.23
X19.404 Y-80.244
X19.345 Y-80.25
X15.536 Y-80.375
G2 X14.369 Y-80.388 I-0.92 J28.18
G1 X7.048 Y-80.311
X-14.953 Y-80.121
X-19.167 Y-80.05
G2 X-19.6 Y-79.998 I0.036 J2.124
G1 X-19.882 Y-79.934
X-19.925 Y-79.921
X-19.965 Y-79.901
X-20.182 Y-79.772
X-20.203 Y-79.768
X-20.223 Y-79.777
X-20.232 Y-79.797
X-20.228 Y-79.818
X-20.099 Y-80.035
X-20.079 Y-80.075
X-20.066 Y-80.118
X-20.004 Y-80.389
G2 X-19.954 Y-80.841 I-2.002 J-0.452
G1 X-19.959 Y-85.047
X-20 Y-89.526
Y-95.382
G2 X-20.382 Y-96.382 I-1.5 J0
X-19.382 Y-96 I1 J-1.118
G1 X19.382
G2 X20.382 Y-96.382 I0 J-1.5
X20 Y-95.382 I1.118 J1
G1 Y-80.618
G2 X20.382 Y-79.618 I1.5 J0
X19.382 Y-80 I-1 J1.118
G1 X-19.382
G2 X-20.382 Y-79.618 I0 J1.5
X-20 Y-80.618 I-1.118 J-1
G1 Y-89.526
X-19.993 Y-89.572
X-19.972 Y-89.613
X-19.939 Y-89.646
X-19.898 Y-89.668
X-19.853 Y-89.676
X-19.807 Y-89.67
X-15.231 Y-88.281
X-10.76 Y-86.188
X-10.721 Y-86.162
X-10.692 Y-86.125
X-10.676 Y-86.082
X-10.674 Y-86.035
X-10.687 Y-85.99
G3 X-13.286 Y-87.16 Z-13.728 I-1.3 J-0.585 F333.3
X-10.687 Y-85.99 Z-13.884 I1.3 J0.585
X-13.286 Y-87.16 Z-14.04 I-1.3 J-0.585
X-10.687 Y-85.99 Z-14.197 I1.3 J0.585
X-13.286 Y-87.16 Z-14.353 I-1.3 J-0.585
X-10.687 Y-85.99 Z-14.509 I1.3 J0.585
X-13.286 Y-87.16 Z-14.666 I-1.3 J-0.585
X-10.687 Y-85.99 Z-14.822 I1.3 J0.585
X-13.286 Y-87.16 Z-14.978 I-1.3 J-0.585
X-10.687 Y-85.99 Z-15.135 I1.3 J0.585
X-13.286 Y-87.16 Z-15.291 I-1.3 J-0.585
X-10.687 Y-85.99 Z-15.447 I1.3 J0.585
X-13.286 Y-87.16 Z-15.604 I-1.3 J-0.585
X-10.687 Y-85.99 Z-15.76 I1.3 J0.585
X-13.286 Y-87.16 Z-15.916 I-1.3 J-0.585
X-10.687 Y-85.99 Z-16.073 I1.3 J0.585
X-13.286 Y-87.16 Z-16.229 I-1.3 J-0.585
X-12 Y-88 Z-16.286 I1.3 J0.585
G1 X11.849 Y-88.234 F1000
X11.972 Y-88.232
X12.094 Y-88.226
X12.135 Y-88.217
X12.172 Y-88.196
X12.201 Y-88.165
X12.219 Y-88.127
X12.226 Y-88.085
Y-88.009
G3 X11.985 Y-87.765 I-0.244 J0.001
G1 X-11.931 Y-87.53
G3 X-12.452 Y-88.046 I-0.005 J-0.516
G1 X-12.451 Y-88.177
G3 X-12.192 Y-88.461 I0.286 J0.001
X-11.677 Y-88.489 I0.643 J6.992
G1 X11.408 Y-88.911
G3 X12.371 Y-88.888 I0.212 J11.619
X12.897 Y-88.334 I-0.036 J0.561
G1 X12.9 Y-88.034
G3 X11.941 Y-87.045 I-0.977 J0.012
G1 X-10.969 Y-86.627
G3 X-12.667 Y-86.666 I-0.372 J-20.356
G1 X-12.792 Y-86.675
G3 X-13.332 Y-87.207 I0.038 J-0.577
X-13.352 Y-87.713 I6.772 J-0.525
G1 X-13.354 Y-88.524
G3 X-12.574 Y-89.379 I0.856 J-0.002
X-11.034 Y-89.461 I1.877 J20.92
G1 X10.641 Y-89.809
G3 X12.891 Y-89.758 I0.465 J28.956
G1 X13.112 Y-89.744
G3 X13.759 Y-89.107 I-0.043 J0.691
X13.793 Y-88.373 I-11.547 J0.906
G1 X13.805 Y-87.623
G3 X13.789 Y-86.931 I-9.314 J0.139
X13.07 Y-86.194 I-0.785 J-0.047
G1 X12.907 Y-86.181
G3 X10.469 Y-86.06 I-3.023 J-36.303
G1 X-10.25 Y-85.727
G3 X-13.105 Y-85.792 I-0.591 J-36.758
G1 X-13.442 Y-85.813
G3 X-14.201 Y-86.558 I0.05 J-0.811
G1 X-14.212 Y-86.684
G3 X-14.248 Y-87.523 I11.197 J-0.908
G1 X-14.254 Y-88.477
G3 X-14.233 Y-89.392 I15.67 J-0.097
G1 X-14.23 Y-89.453
G3 X-13.46 Y-90.25 I0.844 J0.044
G1 X-13.15 Y-90.277
G3 X-10.199 Y-90.428 I3.528 J40.07
G1 X9.956 Y-90.717
G3 X13.327 Y-90.637 I0.635 J44.308
G1 X13.779 Y-90.61
G3 X14.63 Y-89.772 I-0.056 J0.908
G1 X14.677 Y-89.184
G3 X14.7 Y-86.669 I-18.209 J1.427
G1 X14.669 Y-86.155
G3 X13.846 Y-85.312 I-0.898 J-0.054
G1 X13.341 Y-85.27
G3 X9.746 Y-85.095 I-4.348 J-52.264
G1 X-11.269 Y-84.793
G3 X-12.728 Y-84.848 I-0.203 J-14.134
G1 X-13.158 Y-84.886
X-13.326 Y-84.895
X-13.563 Y-84.899
G3 X-15.131 Y-86.436 I0.026 J-1.595
G1 X-15.139 Y-86.66
X-15.152 Y-86.828
X-15.179 Y-87.08
G3 X-15.195 Y-88.921 I9.082 J-1
G1 X-15.168 Y-89.216
X-15.159 Y-89.402
X-15.155 Y-89.688
G3 X-13.69 Y-91.197 I1.526 J0.017
G1 X-13.369 Y-91.21
X-13.2 Y-91.223
X-12.742 Y-91.274
G3 X-11.253 Y-91.367 I1.683 J14.954
G1 X11.295 Y-91.658
G3 X12.702 Y-91.605 I0.18 J13.968
G1 X13.285 Y-91.554
G2 X13.547 Y-91.544 I0.225 J-2.549
G1 X14.348 Y-91.556
G3 X15.576 Y-90.348 I0.017 J1.21
G1 X15.578 Y-89.62
G2 X15.594 Y-89.346 I2.466 J-0.006
G1 X15.642 Y-88.926
G3 X15.665 Y-87.071 I-9.146 J1.044
G1 X15.632 Y-86.699
G2 X15.623 Y-86.407 I2.591 J0.229
G1 X15.644 Y-85.544
G3 X14.46 Y-84.331 I-1.184 J0.029
G1 X13.612 Y-84.334
G2 X13.319 Y-84.318 I-0.009 J2.576
G1 X12.675 Y-84.247
G3 X11.321 Y-84.163 I-1.534 J-13.827
G1 X-11.208 Y-83.873
G3 X-12.789 Y-83.927 I-0.217 J-16.866
G2 X-14.166 Y-83.982 I-1.364 J16.815
G1 X-14.903 Y-83.981
X-15.003 Y-83.977
X-15.087 Y-83.974
G3 X-16.036 Y-84.989 I0 J-0.952
G1 X-16.034 Y-85.106
X-16.057 Y-86.082
G2 X-16.112 Y-86.963 I-11.354 J0.272
G1 X-16.116 Y-86.994
G3 X-16.136 Y-89.008 I10.938 J-1.117
G2 X-16.1 Y-90.046 I-10.981 J-0.898
G1 X-16.112 Y-90.949
X-16.115 Y-91.031
X-16.122 Y-91.13
G3 X-15.129 Y-92.144 I0.945 J-0.068
G1 X-15.004 Y-92.137
X-14.902 Y-92.136
X-14.176 Y-92.151
G2 X-12.78 Y-92.236 I-0.372 J-17.697
G3 X-11.216 Y-92.323 I1.768 J17.61
G1 X11.263 Y-92.583
G3 X12.735 Y-92.54 I0.21 J18.143
G2 X14.22 Y-92.498 I1.262 J-18.1
G1 X14.901 Y-92.506
X15.005 Y-92.51
X15.667 Y-92.554
G3 X16.574 Y-91.666 I0.057 J0.85
G1 X16.545 Y-91.035
X16.543 Y-90.948
X16.544 Y-90.083
G2 X16.597 Y-88.971 I12.13 J-0.019
G3 X16.622 Y-87.027 I-12.06 J1.13
G2 X16.596 Y-86.022 I12.144 J0.821
G1 X16.61 Y-85.102
X16.615 Y-84.992
X16.668 Y-84.217
G3 X15.782 Y-83.316 I-0.841 J0.058
G1 X15.015 Y-83.357
X14.89 Y-83.359
X14.23 Y-83.354
G2 X12.726 Y-83.28 I0.168 J18.846
G3 X11.271 Y-83.207 I-1.672 J-18.773
G1 X-11.277 Y-82.946
G3 X-12.722 Y-82.98 I-0.239 J-20.687
G2 X-14.232 Y-83.013 I-1.206 J20.653
G1 X-14.883 Y-83.003
X-15.022 Y-82.998
X-16.216 Y-82.914
G3 X-17.099 Y-83.784 I-0.058 J-0.824
G1 X-17.032 Y-84.965
X-17.028 Y-85.13
X-17.036 Y-86.022
G2 X-17.081 Y-87.024 I-14.198 J0.131
G3 X-17.102 Y-88.977 I14.126 J-1.132
G2 X-17.081 Y-90.076 I-14.163 J-0.821
G1 X-17.098 Y-90.922
X-17.104 Y-91.058
X-17.198 Y-92.371
G3 X-16.37 Y-93.216 I0.787 J-0.057
G1 X-15.035 Y-93.146
X-14.87 Y-93.143
X-14.216 Y-93.149
G2 X-12.739 Y-93.214 I-0.237 J-22.535
G3 X-11.259 Y-93.278 I1.715 J22.471
G1 X11.265 Y-93.514
G3 X12.734 Y-93.486 I0.261 J24.909
G1 X12.757 Y-93.485
G2 X14.197 Y-93.458 I1.171 J-24.113
G1 X14.856 Y-93.465
X15.049 Y-93.473
X16.882 Y-93.609
G3 X17.624 Y-92.881 I0.051 J0.69
G1 X17.525 Y-91.078
X17.52 Y-90.901
X17.523 Y-90.082
G2 X17.564 Y-88.971 I16.912 J-0.058
G3 X17.586 Y-87.028 I-16.859 J1.168
G2 X17.57 Y-86.023 I16.967 J0.783
G1 X17.581 Y-85.147
X17.59 Y-84.948
X17.736 Y-82.992
G3 X17.007 Y-82.25 I-0.69 J0.052
G1 X15.059 Y-82.362
X14.846 Y-82.367
X14.155 Y-82.361
G2 X12.799 Y-82.311 I0.21 J24.132
G1 X12.726 Y-82.307
G3 X11.272 Y-82.252 I-1.734 J-26.669
G1 X-11.278 Y-82.016
G3 X-12.721 Y-82.035 I-0.317 J-30.252
G1 X-12.818 Y-82.039
G2 X-14.135 Y-82.055 I-0.982 J26.361
G1 X-14.839 Y-82.046
X-15.067 Y-82.036
X-17.422 Y-81.859
G3 X-18.152 Y-82.578 I-0.051 J-0.678
G1 X-18.013 Y-84.922
G2 X-18.006 Y-85.173 I-3.659 J-0.218
G1 X-18.014 Y-86.022
G2 X-18.047 Y-87.024 I-21.2 J0.191
G3 X-18.067 Y-88.977 I21.156 J-1.192
G2 X-18.055 Y-90.074 I-21.216 J-0.763
G1 X-18.068 Y-90.875
X-18.079 Y-91.104
X-18.268 Y-93.585
G3 X-17.584 Y-94.282 I0.647 J-0.049
G1 X-15.08 Y-94.139
G2 X-14.825 Y-94.133 I0.218 J-3.806
G1 X-14.053 Y-94.14
G2 X-12.901 Y-94.176 I-0.262 J-26.94
G1 X-12.739 Y-94.185
G3 X-11.26 Y-94.23 I1.81 J34.463
G1 X11.267 Y-94.446
G3 X12.733 Y-94.433 I0.382 J39.924
G1 X12.946 Y-94.427
G2 X14.007 Y-94.418 I0.773 J-28.475
G1 X14.811 Y-94.427
G2 X15.094 Y-94.439 I-0.043 J-4.257
G1 X18.065 Y-94.667
G3 X18.678 Y-94.064 I0.044 J0.569
G1 X18.505 Y-91.125
G2 X18.497 Y-90.854 I4.208 J0.248
G1 X18.502 Y-90.082
G2 X18.53 Y-88.971 I28.024 J-0.152
G3 X18.55 Y-87.029 I-27.988 J1.263
G2 X18.542 Y-86.34 I28.165 J0.688
X18.543 Y-86.024 I28.174 J0
G1 X18.553 Y-85.192
G2 X18.565 Y-84.903 I4.412 J-0.05
G1 X18.804 Y-81.8
G3 X18.199 Y-81.185 I-0.571 J0.044
G1 X15.104 Y-81.371
G2 X14.802 Y-81.378 I-0.264 J4.392
G1 X13.951 Y-81.371
G2 X13.002 Y-81.347 I0.253 J29.179
G1 X12.728 Y-81.336
G3 X11.272 Y-81.299 I-1.897 J-46.011
G1 X-11.281 Y-81.083
G3 X-12.719 Y-81.088 I-0.542 J-56.56
G1 X-13.049 Y-81.093
G2 X-13.904 Y-81.095 I-0.506 J31.92
G1 X-14.793 Y-81.085
G2 X-15.112 Y-81.071 I0.053 J4.851
G1 X-18.598 Y-80.804
G3 X-19.206 Y-81.402 I-0.043 J-0.564
G1 X-18.993 Y-84.878
G2 X-18.984 Y-85.217 I-4.824 J-0.296
G1 X-18.992 Y-86.15
G2 X-19.008 Y-86.897 I-31.361 J0.282
G1 X-19.012 Y-87.024
G3 X-19.031 Y-88.976 I42.016 J-1.379
G1 X-19.029 Y-89.116
G2 X-19.028 Y-89.935 I-31.931 J-0.435
G1 X-19.039 Y-90.826
G2 X-19.054 Y-91.154 I-4.965 J0.06
G1 X-19.337 Y-94.769
G3 X-18.768 Y-95.348 I0.536 J-0.042
G1 X-15.125 Y-95.129
G2 X-14.78 Y-95.12 I0.299 J-4.984
G1 X-13.807 Y-95.129
G2 X-13.146 Y-95.142 I-0.3 J-33.221
G1 X-12.742 Y-95.153
G3 X-11.258 Y-95.181 I2.136 J73.873
G1 X12 Y-95.386
X13.969 Y-95.383
G2 X15.935 Y-95.454 I-0.335 J-36.365
G1 X19.381 Y-95.672
X19.442 Y-95.682
X19.515 Y-95.701
G3 X19.701 Y-95.515 I0.039 J0.148
G1 X19.683 Y-95.444
X19.673 Y-95.378
X19.514 Y-91.886
G2 X19.479 Y-90.093 I33.692 J1.537
G1 X19.495 Y-88.97
G3 X19.514 Y-87.03 I-82.326 J1.736
G1 X19.521 Y-85.662
G2 X19.557 Y-84.434 I29.953 J-0.286
G1 X19.749 Y-80.651
X19.755 Y-80.596
X19.769 Y-80.542
X19.868 Y-80.229
X19.871 Y-80.196
X19.859 Y-80.164
X19.836 Y-80.141
X19.804 Y-80.129
X19.771 Y-80.132
X19.461 Y-80.23
X19.404 Y-80.244
X19.345 Y-80.25
X15.536 Y-80.375
G2 X14.369 Y-80.388 I-0.92 J28.18
G1 X7.048 Y-80.311
X-14.953 Y-80.121
X-19.167 Y-80.05
G2 X-19.6 Y-79.998 I0.036 J2.124
G1 X-19.882 Y-79.934
X-19.925 Y-79.921
X-19.965 Y-79.901
X-20.182 Y-79.772
X-20.203 Y-79.768
X-20.223 Y-79.777
X-20.232 Y-79.797
X-20.228 Y-79.818
X-20.099 Y-80.035
X-20.079 Y-80.075
X-20.066 Y-80.118
X-20.004 Y-80.389
G2 X-19.954 Y-80.841 I-2.002 J-0.452
G1 X-19.959 Y-85.047
X-20 Y-89.526
Y-95.382
G2 X-20.382 Y-96.382 I-1.5 J0
X-19.382 Y-96 I1 J-1.118
G1 X19.382
G2 X20.382 Y-96.382 I0 J-1.5
X20 Y-95.382 I1.118 J1
G1 Y-80.618
G2 X20.382 Y-79.618 I1.5 J0
X19.382 Y-80 I-1 J1.118
G1 X-19.382
G2 X-20.382 Y-79.618 I0 J1.5
X-20 Y-80.618 I-1.118 J-1
G1 Y-89.526
X-19.993 Y-89.572
X-19.972 Y-89.613
X-19.939 Y-89.646
X-19.898 Y-89.668
X-19.853 Y-89.676
X-19.807 Y-89.67
X-15.231 Y-88.281
X-10.76 Y-86.188
X-10.721 Y-86.162
X-10.692 Y-86.125
X-10.676 Y-86.082
X-10.674 Y-86.035
X-10.687 Y-85.99
G3 X-10.838 Y-85.731 Z-16.296 I-1.3 J-0.585 F333.3
X-13.134 Y-87.419 Z-16.453 I-1.148 J-0.844
X-10.838 Y-85.731 Z-16.609 I1.148 J0.844
X-13.134 Y-87.419 Z-16.765 I-1.148 J-0.844
X-10.838 Y-85.731 Z-16.922 I1.148 J0.844
X-13.134 Y-87.419 Z-17.078 I-1.148 J-0.844
X-10.838 Y-85.731 Z-17.234 I1.148 J0.844
X-13.134 Y-87.419 Z-17.391 I-1.148 J-0.844
X-10.838 Y-85.731 Z-17.547 I1.148 J0.844
X-13.134 Y-87.419 Z-17.703 I-1.148 J-0.844
X-10.838 Y-85.731 Z-17.86 I1.148 J0.844
X-13.134 Y-87.419 Z-18.016 I-1.148 J-0.844
X-10.838 Y-85.731 Z-18.172 I1.148 J0.844
X-13.134 Y-87.419 Z-18.329 I-1.148 J-0.844
X-10.838 Y-85.731 Z-18.485 I1.148 J0.844
X-13.134 Y-87.419 Z-18.641 I-1.148 J-0.844
X-10.838 Y-85.731 Z-18.798 I1.148 J0.844
X-13.134 Y-87.419 Z-18.954 I-1.148 J-0.844
X-12 Y-88 Z-19 I1.148 J0.844
G1 X11.849 Y-88.234 F1000
X11.972 Y-88.232
X12.094 Y-88.226
X12.135 Y-88.217
X12.172 Y-88.196
X12.201 Y-88.165
X12.219 Y-88.127
X12.226 Y-88.085
Y-88.009
G3 X11.985 Y-87.765 I-0.244 J0.001
G1 X-11.931 Y-87.53
G3 X-12.452 Y-88.046 I-0.005 J-0.516
G1 X-12.451 Y-88.177
G3 X-12.192 Y-88.461 I0.286 J0.001
X-11.677 Y-88.489 I0.643 J6.992
G1 X11.408 Y-88.911
G3 X12.371 Y-88.888 I0.212 J11.619
X12.897 Y-88.334 I-0.036 J0.561
G1 X12.9 Y-88.034
G3 X11.941 Y-87.045 I-0.977 J0.012
G1 X-10.969 Y-86.627
G3 X-12.667 Y-86.666 I-0.372 J-20.356
G1 X-12.792 Y-86.675
G3 X-13.332 Y-87.207 I0.038 J-0.577
X-13.352 Y-87.713 I6.772 J-0.525
G1 X-13.354 Y-88.524
G3 X-12.574 Y-89.379 I0.856 J-0.002
X-11.034 Y-89.461 I1.877 J20.92
G1 X10.641 Y-89.809
G3 X12.891 Y-89.758 I0.465 J28.956
G1 X13.112 Y-89.744
G3 X13.759 Y-89.107 I-0.043 J0.691
X13.793 Y-88.373 I-11.547 J0.906
G1 X13.805 Y-87.623
G3 X13.789 Y-86.931 I-9.314 J0.139
X13.07 Y-86.194 I-0.785 J-0.047
G1 X12.907 Y-86.181
G3 X10.469 Y-86.06 I-3.023 J-36.303
G1 X-10.25 Y-85.727
G3 X-13.105 Y-85.792 I-0.591 J-36.758
G1 X-13.442 Y-85.813
G3 X-14.201 Y-86.558 I0.05 J-0.811
G1 X-14.212 Y-86.684
G3 X-14.248 Y-87.523 I11.197 J-0.908
G1 X-14.254 Y-88.477
G3 X-14.233 Y-89.392 I15.67 J-0.097
G1 X-14.23 Y-89.453
G3 X-13.46 Y-90.25 I0.844 J0.044
G1 X-13.15 Y-90.277
G3 X-10.199 Y-90.428 I3.528 J40.07
G1 X9.956 Y-90.717
G3 X13.327 Y-90.637 I0.635 J44.308
G1 X13.779 Y-90.61
G3 X14.63 Y-89.772 I-0.056 J0.908
G1 X14.677 Y-89.184
G3 X14.7 Y-86.669 I-18.209 J1.427
G1 X14.669 Y-86.155
G3 X13.846 Y-85.312 I-0.898 J-0.054
G1 X13.341 Y-85.27
G3 X9.746 Y-85.095 I-4.348 J-52.264
G1 X-11.269 Y-84.793
G3 X-12.728 Y-84.848 I-0.203 J-14.134
G1 X-13.158 Y-84.886
X-13.326 Y-84.895
X-13.563 Y-84.899
G3 X-15.131 Y-86.436 I0.026 J-1.595
G1 X-15.139 Y-86.66
X-15.152 Y-86.828
X-15.179 Y-87.08
G3 X-15.195 Y-88.921 I9.082 J-1
G1 X-15.168 Y-89.216
X-15.159 Y-89.402
X-15.155 Y-89.688
G3 X-13.69 Y-91.197 I1.526 J0.017
G1 X-13.369 Y-91.21
X-13.2 Y-91.223
X-12.742 Y-91.274
G3 X-11.253 Y-91.367 I1.683 J14.954
G1 X11.295 Y-91.658
G3 X12.702 Y-91.605 I0.18 J13.968
G1 X13.285 Y-91.554
G2 X13.547 Y-91.544 I0.225 J-2.549
G1 X14.348 Y-91.556
G3 X15.576 Y-90.348 I0.017 J1.21
G1 X15.578 Y-89.62
G2 X15.594 Y-89.346 I2.466 J-0.006
G1 X15.642 Y-88.926
G3 X15.665 Y-87.071 I-9.146 J1.044
G1 X15.632 Y-86.699
G2 X15.623 Y-86.407 I2.591 J0.229
G1 X15.644 Y-85.544
G3 X14.46 Y-84.331 I-1.184 J0.029
G1 X13.612 Y-84.334
G2 X13.319 Y-84.318 I-0.009 J2.576
G1 X12.675 Y-84.247
G3 X11.321 Y-84.163 I-1.534 J-13.827
G1 X-11.208 Y-83.873
G3 X-12.789 Y-83.927 I-0.217 J-16.866
G2 X-14.166 Y-83.982 I-1.364 J16.815
G1 X-14.903 Y-83.981
X-15.003 Y-83.977
X-15.087 Y-83.974
G3 X-16.036 Y-84.989 I0 J-0.952
G1 X-16.034 Y-85.106
X-16.057 Y-86.082
G2 X-16.112 Y-86.963 I-11.354 J0.272
G1 X-16.116 Y-86.994
G3 X-16.136 Y-89.008 I10.938 J-1.117
G2 X-16.1 Y-90.046 I-10.981 J-0.898
G1 X-16.112 Y-90.949
X-16.115 Y-91.031
X-16.122 Y-91.13
G3 X-15.129 Y-92.144 I0.945 J-0.068
G1 X-15.004 Y-92.137
X-14.902 Y-92.136
X-14.176 Y-92.151
G2 X-12.78 Y-92.236 I-0.372 J-17.697
G3 X-11.216 Y-92.323 I1.768 J17.61
G1 X11.263 Y-92.583
G3 X12.735 Y-92.54 I0.21 J18.143
G2 X14.22 Y-92.498 I1.262 J-18.1
G1 X14.901 Y-92.506
X15.005 Y-92.51
X15.667 Y-92.554
G3 X16.574 Y-91.666 I0.057 J0.85
G1 X16.545 Y-91.035
X16.543 Y-90.948
X16.544 Y-90.083
G2 X16.597 Y-88.971 I12.13 J-0.019
G3 X16.622 Y-87.027 I-12.06 J1.13
G2 X16.596 Y-86.022 I12.144 J0.821
G1 X16.61 Y-85.102
X16.615 Y-84.992
X16.668 Y-84.217
G3 X15.782 Y-83.316 I-0.841 J0.058
G1 X15.015 Y-83.357
X14.89 Y-83.359
X14.23 Y-83.354
G2 X12.726 Y-83.28 I0.168 J18.846
G3 X11.271 Y-83.207 I-1.672 J-18.773
G1 X-11.277 Y-82.946
G3 X-12.722 Y-82.98 I-0.239 J-20.687
G2 X-14.232 Y-83.013 I-1.206 J20.653
G1 X-14.883 Y-83.003
X-15.022 Y-82.998
X-16.216 Y-82.914
G3 X-17.099 Y-83.784 I-0.058 J-0.824
G1 X-17.032 Y-84.965
X-17.028 Y-85.13
X-17.036 Y-86.022
G2 X-17.081 Y-87.024 I-14.198 J0.131
G3 X-17.102 Y-88.977 I14.126 J-1.132
G2 X-17.081 Y-90.076 I-14.163 J-0.821
G1 X-17.098 Y-90.922
X-17.104 Y-91.058
X-17.198 Y-92.371
G3 X-16.37 Y-93.216 I0.787 J-0.057
G1 X-15.035 Y-93.146
X-14.87 Y-93.143
X-14.216 Y-93.149
G2 X-12.739 Y-93.214 I-0.237 J-22.535
G3 X-11.259 Y-93.278 I1.715 J22.471
G1 X11.265 Y-93.514
G3 X12.734 Y-93.486 I0.261 J24.909
G1 X12.757 Y-93.485
G2 X14.197 Y-93.458 I1.171 J-24.113
G1 X14.856 Y-93.465
X15.049 Y-93.473
X16.882 Y-93.609
G3 X17.624 Y-92.881 I0.051 J0.69
G1 X17.525 Y-91.078
X17.52 Y-90.901
X17.523 Y-90.082
G2 X17.564 Y-88.971 I16.912 J-0.058
G3 X17.586 Y-87.028 I-16.859 J1.168
G2 X17.57 Y-86.023 I16.967 J0.783
G1 X17.581 Y-85.147
X17.59 Y-84.948
X17.736 Y-82.992
G3 X17.007 Y-82.25 I-0.69 J0.052
G1 X15.059 Y-82.362
X14.846 Y-82.367
X14.155 Y-82.361
G2 X12.799 Y-82.311 I0.21 J24.132
G1 X12.726 Y-82.307
G3 X11.272 Y-82.252 I-1.734 J-26.669
G1 X-11.278 Y-82.016
G3 X-12.721 Y-82.035 I-0.317 J-30.252
G1 X-12.818 Y-82.039
G2 X-14.135 Y-82.055 I-0.982 J26.361
G1 X-14.839 Y-82.046
X-15.067 Y-82.036
X-17.422 Y-81.859
G3 X-18.152 Y-82.578 I-0.051 J-0.678
G1 X-18.013 Y-84.922
G2 X-18.006 Y-85.173 I-3.659 J-0.218
G1 X-18.014 Y-86.022
G2 X-18.047 Y-87.024 I-21.2 J0.191
G3 X-18.067 Y-88.977 I21.156 J-1.192
G2 X-18.055 Y-90.074 I-21.216 J-0.763
G1 X-18.068 Y-90.875
X-18.079 Y-91.104
X-18.268 Y-93.585
G3 X-17.584 Y-94.282 I0.647 J-0.049
G1 X-15.08 Y-94.139
G2 X-14.825 Y-94.133 I0.218 J-3.806
G1 X-14.053 Y-94.14
G2 X-12.901 Y-94.176 I-0.262 J-26.94
G1 X-12.739 Y-94.185
G3 X-11.26 Y-94.23 I1.81 J34.463
G1 X11.267 Y-94.446
G3 X12.733 Y-94.433 I0.382 J39.924
G1 X12.946 Y-94.427
G2 X14.007 Y-94.418 I0.773 J-28.475
G1 X14.811 Y-94.427
G2 X15.094 Y-94.439 I-0.043 J-4.257
G1 X18.065 Y-94.667
G3 X18.678 Y-94.064 I0.044 J0.569
G1 X18.505 Y-91.125
G2 X18.497 Y-90.854 I4.208 J0.248
G1 X18.502 Y-90.082
G2 X18.53 Y-88.971 I28.024 J-0.152
G3 X18.55 Y-87.029 I-27.988 J1.263
G2 X18.542 Y-86.34 I28.165 J0.688
X18.543 Y-86.024 I28.174 J0
G1 X18.553 Y-85.192
G2 X18.565 Y-84.903 I4.412 J-0.05
G1 X18.804 Y-81.8
G3 X18.199 Y-81.185 I-0.571 J0.044
G1 X15.104 Y-81.371
G2 X14.802 Y-81.378 I-0.264 J4.392
G1 X13.951 Y-81.371
G2 X13.002 Y-81.347 I0.253 J29.179
G1 X12.728 Y-81.336
G3 X11.272 Y-81.299 I-1.897 J-46.011
G1 X-11.281 Y-81.083
G3 X-12.719 Y-81.088 I-0.542 J-56.56
G1 X-13.049 Y-81.093
G2 X-13.904 Y-81.095 I-0.506 J31.92
G1 X-14.793 Y-81.085
G2 X-15.112 Y-81.071 I0.053 J4.851
G1 X-18.598 Y-80.804
G3 X-19.206 Y-81.402 I-0.043 J-0.564
G1 X-18.993 Y-84.878
G2 X-18.984 Y-85.217 I-4.824 J-0.296
G1 X-18.992 Y-86.15
G2 X-19.008 Y-86.897 I-31.361 J0.282
G1 X-19.012 Y-87.024
G3 X-19.031 Y-88.976 I42.016 J-1.379
G1 X-19.029 Y-89.116
G2 X-19.028 Y-89.935 I-31.931 J-0.435
G1 X-19.039 Y-90.826
G2 X-19.054 Y-91.154 I-4.965 J0.06
G1 X-19.337 Y-94.769
G3 X-18.768 Y-95.348 I0.536 J-0.042
G1 X-15.125 Y-95.129
G2 X-14.78 Y-95.12 I0.299 J-4.984
G1 X-13.807 Y-95.129
G2 X-13.146 Y-95.142 I-0.3 J-33.221
G1 X-12.742 Y-95.153
G3 X-11.258 Y-95.181 I2.136 J73.873
G1 X12 Y-95.386
X13.969 Y-95.383
G2 X15.935 Y-95.454 I-0.335 J-36.365
G1 X19.381 Y-95.672
X19.442 Y-95.682
X19.515 Y-95.701
G3 X19.701 Y-95.515 I0.039 J0.148
G1 X19.683 Y-95.444
X19.673 Y-95.378
X19.514 Y-91.886
G2 X19.479 Y-90.093 I33.692 J1.537
G1 X19.495 Y-88.97
G3 X19.514 Y-87.03 I-82.326 J1.736
G1 X19.521 Y-85.662
G2 X19.557 Y-84.434 I29.953 J-0.286
G1 X19.749 Y-80.651
X19.755 Y-80.596
X19.769 Y-80.542
X19.868 Y-80.229
X19.871 Y-80.196
X19.859 Y-80.164
X19.836 Y-80.141
X19.804 Y-80.129
X19.771 Y-80.132
X19.461 Y-80.23
X19.404 Y-80.244
X19.345 Y-80.25
X15.536 Y-80.375
G2 X14.369 Y-80.388 I-0.92 J28.18
G1 X7.048 Y-80.311
X-14.953 Y-80.121
X-19.167 Y-80.05
G2 X-19.6 Y-79.998 I0.036 J2.124
G1 X-19.882 Y-79.934
X-19.925 Y-79.921
X-19.965 Y-79.901
X-20.182 Y-79.772
X-20.203 Y-79.768
X-20.223 Y-79.777
X-20.232 Y-79.797
X-20.228 Y-79.818
X-20.099 Y-80.035
X-20.079 Y-80.075
X-20.066 Y-80.118
X-20.004 Y-80.389
G2 X-19.954 Y-80.841 I-2.002 J-0.452
G1 X-19.959 Y-85.047
X-20 Y-89.526
Y-95.382
G2 X-20.382 Y-96.382 I-1.5 J0
X-19.382 Y-96 I1 J-1.118
G1 X19.382
G2 X20.382 Y-96.382 I0 J-1.5
X20 Y-95.382 I1.118 J1
G1 Y-80.618
G2 X20.382 Y-79.618 I1.5 J0
X19.382 Y-80 I-1 J1.118
G1 X-19.382
G2 X-20.382 Y-79.618 I0 J1.5
X-20 Y-80.618 I-1.118 J-1
G1 Y-89.526
X-19.995 Y-89.583 Z-18.989
X-19.978 Y-89.638 Z-18.977
X-19.957 Y-89.681 Z-18.945
X-19.928 Y-89.721 Z-18.912
X-19.881 Y-89.765 Z-18.815
X-19.862 Y-89.778 Z-18.7
G0 Z15

(2D Pocket5 4)
X51.741 Y98.934
Z15
Z5
G1 Z2.8 F333.3
X51.74 Y98.973 Z2.653
X51.73 Y99.078 Z2.544
X51.703 Y99.221 Z2.5
G3 X48.931 Y98.558 Z2.344 I-1.386 J-0.331
X51.703 Y99.221 Z2.187 I1.386 J0.331
X48.931 Y98.558 Z2.031 I-1.386 J-0.331
X51.703 Y99.221 Z1.875 I1.386 J0.331
X48.931 Y98.558 Z1.718 I-1.386 J-0.331
X51.703 Y99.221 Z1.562 I1.386 J0.331
X48.931 Y98.558 Z1.406 I-1.386 J-0.331
X51.703 Y99.221 Z1.249 I1.386 J0.331
X48.931 Y98.558 Z1.093 I-1.386 J-0.331
X51.703 Y99.221 Z0.937 I1.386 J0.331
X48.931 Y98.558 Z0.78 I-1.386 J-0.331
X51.703 Y99.221 Z0.624 I1.386 J0.331
X48.931 Y98.558 Z0.468 I-1.386 J-0.331
X51.703 Y99.221 Z0.311 I1.386 J0.331
X48.931 Y98.558 Z0.155 I-1.386 J-0.331
X51.703 Y99.221 Z-0.001 I1.386 J0.331
X48.931 Y98.558 Z-0.158 I-1.386 J-0.331
X51.703 Y99.221 Z-0.314 I1.386 J0.331
X48.931 Y98.558 Z-0.47 I-1.386 J-0.331
X51.703 Y99.221 Z-0.627 I1.386 J0.331
X48.931 Y98.558 Z-0.783 I-1.386 J-0.331
X51.703 Y99.221 Z-0.939 I1.386 J0.331
X48.931 Y98.558 Z-1.096 I-1.386 J-0.331
X51.703 Y99.221 Z-1.252 I1.386 J0.331
X48.931 Y98.558 Z-1.408 I-1.386 J-0.331
X51.703 Y99.221 Z-1.565 I1.386 J0.331
X48.931 Y98.558 Z-1.721 I-1.386 J-0.331
X51.703 Y99.221 Z-1.877 I1.386 J0.331
X48.931 Y98.558 Z-2.034 I-1.386 J-0.331
X51.703 Y99.221 Z-2.19 I1.386 J0.331
X48.931 Y98.558 Z-2.346 I-1.386 J-0.331
X51.703 Y99.221 Z-2.503 I1.386 J0.331
X48.931 Y98.558 Z-2.659 I-1.386 J-0.331
X50 Y97.5 Z-2.714 I1.386 J0.331
G1 X50.046 Y97.49 F1000
X50.07 Y97.479
X50.089 Y97.461
X50.101 Y97.438
X50.114 Y97.397
X50.122 Y97.355
X50.119 Y97.312
X50.107 Y97.27
X50.1 Y97.255
X50.077 Y97.213
X50.047 Y97.177
X50.009 Y97.147
X49.984 Y97.132
X49.93 Y97.105
X49.871 Y97.088
X49.811 Y97.082
X49.795
X49.733 Y97.087
X49.673 Y97.101
X49.616 Y97.126
X49.563 Y97.16
X49.504 Y97.205
G2 X49.281 Y97.572 I0.36 J0.47
G1 X49.274 Y97.612
G2 X49.364 Y98.097 I0.689 J0.122
G1 X49.395 Y98.147
G2 X49.858 Y98.516 I0.732 J-0.444
G1 X49.912 Y98.534
G2 X50.604 Y98.512 I0.316 J-0.96
G1 X50.656 Y98.491
G2 X51.248 Y97.965 I-0.433 J-1.082
G1 X51.274 Y97.916
G2 X51.409 Y97.035 I-1.16 J-0.629
G1 X51.399 Y96.981
G2 X50.893 Y96.129 I-1.446 J0.282
G1 X50.851 Y96.094
G2 X49.826 Y95.72 I-1.038 J1.252
G1 X49.713 Y95.719
G2 X48.118 Y96.595 I-0.015 J1.862
G1 X48.112 Y96.605
G2 X47.809 Y97.488 I1.761 J1.099
G1 X47.806 Y97.512
G2 X47.926 Y98.485 I2.169 J0.226
G1 X47.935 Y98.508
G2 X48.494 Y99.369 I2.148 J-0.783
G1 X48.512 Y99.386
G2 X49.431 Y99.939 I1.661 J-1.719
G1 X49.454 Y99.947
G2 X50.569 Y100.047 I0.774 J-2.373
G1 X50.593 Y100.043
G2 X51.683 Y99.629 I-0.355 J-2.576
G1 X51.703 Y99.616
G2 X52.534 Y98.734 I-1.503 J-2.249
G1 X52.546 Y98.713
G2 X52.923 Y97.512 I-2.425 J-1.42
G1 X52.925 Y97.488
G2 X52.733 Y96.197 I-2.906 J-0.227
G1 X52.724 Y96.175
G2 X51.962 Y95.059 I-2.812 J1.102
G1 X51.944 Y95.042
G2 X50.732 Y94.347 I-2.121 J2.295
G1 X50.709 Y94.34
G2 X49.268 Y94.24 I-0.939 J3.09
G1 X49.244 Y94.244
G2 X47.861 Y94.799 I0.518 J3.294
G1 X47.841 Y94.812
G2 X46.807 Y95.949 I1.961 J2.825
G1 X46.795 Y95.97
G2 X46.346 Y97.488 I3.087 J1.74
G1 X46.344 Y97.512
G2 X46.608 Y99.12 I3.641 J0.228
G1 X46.617 Y99.142
G2 X47.582 Y100.513 I3.474 J-1.42
G1 X47.6 Y100.529
G2 X49.105 Y101.366 I2.579 J-2.868
G1 X49.128 Y101.373
G2 X50.895 Y101.473 I1.103 J-3.806
G1 X50.918 Y101.469
G2 X52.595 Y100.773 I-0.681 J-4.009
G1 X52.614 Y100.759
G2 X53.852 Y99.368 I-2.419 J-3.399
G1 X53.864 Y99.347
G2 X54.386 Y97.512 I-3.748 J-2.058
G1 X54.387 Y97.488
G2 X54.051 Y95.562 I-4.375 J-0.228
G1 X54.042 Y95.54
G2 X52.874 Y93.915 I-4.135 J1.738
G1 X52.743 Y93.799
G2 X48.406 Y92.843 I-3.032 J3.436
G1 X48.371 Y92.853
G2 X47.355 Y93.284 I1.4 J4.715
X46.445 Y93.941 I2.437 J4.333
X45.697 Y94.793 I3.378 J3.72
X45.152 Y95.801 I4.166 J2.903
X44.843 Y96.916 I4.758 J1.921
X44.778 Y97.736 I5.12 J0.82
X44.789 Y98.084 I5.185 J0
X45 Y99.247 I5.227 J-0.346
X45.469 Y100.344 I5.069 J-1.518
X46.177 Y101.318 I4.65 J-2.636
X47.095 Y102.118 I3.984 J-3.642
X48.177 Y102.699 I3.102 J-4.483
X49.374 Y103.027 I2.045 J-5.111
X50.236 Y103.095 I0.862 J-5.491
X50.626 Y103.081 I0 J-5.558
X51.87 Y102.852 I-0.387 J-5.598
X53.042 Y102.347 I-1.641 J-5.422
X54.082 Y101.586 I-2.835 J-4.966
X54.934 Y100.604 I-3.906 J-4.248
X55.551 Y99.446 I-4.799 J-3.301
G1 X55.571 Y99.395
G2 X55.89 Y98.215 I-5.07 J-2.006
G1 X56 Y97.5
G3 X44 Y97.5 I-6 J0
X56 Y97.5 I6 J0
G1 X55.994 Y97.543
X55.975 Y97.583
X55.946 Y97.615
X55.909 Y97.638
X55.866 Y97.649
X51.672 Y98.114
X51.632 Y98.132
X51.599 Y98.161
X51.576 Y98.198
X51.565 Y98.24
X51.566 Y98.283
X51.712 Y99.127
X51.715 Y99.156
X51.711 Y99.184
G3 X48.923 Y98.595 Z-2.871 I-1.394 J-0.295 F333.3
X51.711 Y99.184 Z-3.027 I1.394 J0.295
X48.923 Y98.595 Z-3.183 I-1.394 J-0.295
X51.711 Y99.184 Z-3.34 I1.394 J0.295
X48.923 Y98.595 Z-3.496 I-1.394 J-0.295
X51.711 Y99.184 Z-3.652 I1.394 J0.295
X48.923 Y98.595 Z-3.809 I-1.394 J-0.295
X51.711 Y99.184 Z-3.965 I1.394 J0.295
X48.923 Y98.595 Z-4.121 I-1.394 J-0.295
X51.711 Y99.184 Z-4.278 I1.394 J0.295
X48.923 Y98.595 Z-4.434 I-1.394 J-0.295
X51.711 Y99.184 Z-4.59 I1.394 J0.295
X48.923 Y98.595 Z-4.747 I-1.394 J-0.295
X51.711 Y99.184 Z-4.903 I1.394 J0.295
X48.923 Y98.595 Z-5.059 I-1.394 J-0.295
X51.711 Y99.184 Z-5.216 I1.394 J0.295
X48.923 Y98.595 Z-5.372 I-1.394 J-0.295
X50 Y97.5 Z-5.429 I1.394 J0.295
G1 X50.046 Y97.49 F1000
X50.07 Y97.479
X50.089 Y97.461
X50.101 Y97.438
X50.114 Y97.397
X50.122 Y97.355
X50.119 Y97.312
X50.107 Y97.27
X50.1 Y97.255
X50.077 Y97.213
X50.047 Y97.177
X50.009 Y97.147
X49.984 Y97.132
X49.93 Y97.105
X49.871 Y97.088
X49.811 Y97.082
X49.795
X49.733 Y97.087
X49.673 Y97.101
X49.616 Y97.126
X49.563 Y97.16
X49.504 Y97.205
G2 X49.281 Y97.572 I0.36 J0.47
G1 X49.274 Y97.612
G2 X49.364 Y98.097 I0.689 J0.122
G1 X49.395 Y98.147
G2 X49.858 Y98.516 I0.732 J-0.444
G1 X49.912 Y98.534
G2 X50.604 Y98.512 I0.316 J-0.96
G1 X50.656 Y98.491
G2 X51.248 Y97.965 I-0.433 J-1.082
G1 X51.274 Y97.916
G2 X51.409 Y97.035 I-1.16 J-0.629
G1 X51.399 Y96.981
G2 X50.893 Y96.129 I-1.446 J0.282
G1 X50.851 Y96.094
G2 X49.826 Y95.72 I-1.038 J1.252
G1 X49.713 Y95.719
G2 X48.118 Y96.595 I-0.015 J1.862
G1 X48.112 Y96.605
G2 X47.809 Y97.488 I1.761 J1.099
G1 X47.806 Y97.512
G2 X47.926 Y98.485 I2.169 J0.226
G1 X47.935 Y98.508
G2 X48.494 Y99.369 I2.148 J-0.783
G1 X48.512 Y99.386
G2 X49.431 Y99.939 I1.661 J-1.719
G1 X49.454 Y99.947
G2 X50.569 Y100.047 I0.774 J-2.373
G1 X50.593 Y100.043
G2 X51.683 Y99.629 I-0.355 J-2.576
G1 X51.703 Y99.616
G2 X52.534 Y98.734 I-1.503 J-2.249
G1 X52.546 Y98.713
G2 X52.923 Y97.512 I-2.425 J-1.42
G1 X52.925 Y97.488
G2 X52.733 Y96.197 I-2.906 J-0.227
G1 X52.724 Y96.175
G2 X51.962 Y95.059 I-2.812 J1.102
G1 X51.944 Y95.042
G2 X50.732 Y94.347 I-2.121 J2.295
G1 X50.709 Y94.34
G2 X49.268 Y94.24 I-0.939 J3.09
G1 X49.244 Y94.244
G2 X47.861 Y94.799 I0.518 J3.294
G1 X47.841 Y94.812
G2 X46.807 Y95.949 I1.961 J2.825
G1 X46.795 Y95.97
G2 X46.346 Y97.488 I3.087 J1.74
G1 X46.344 Y97.512
G2 X46.608 Y99.12 I3.641 J0.228
G1 X46.617 Y99.142
G2 X47.582 Y100.513 I3.474 J-1.42
G1 X47.6 Y100.529
G2 X49.105 Y101.366 I2.579 J-2.868
G1 X49.128 Y101.373
G2 X50.895 Y101.473 I1.103 J-3.806
G1 X50.918 Y101.469
G2 X52.595 Y100.773 I-0.681 J-4.009
G1 X52.614 Y100.759
G2 X53.852 Y99.368 I-2.419 J-3.399
G1 X53.864 Y99.347
G2 X54.386 Y97.512 I-3.748 J-2.058
G1 X54.387 Y97.488
G2 X54.051 Y95.562 I-4.375 J-0.228
G1 X54.042 Y95.54
G2 X52.874 Y93.915 I-4.135 J1.738
G1 X52.743 Y93.799
G2 X48.406 Y92.843 I-3.032 J3.436
G1 X48.371 Y92.853
G2 X47.355 Y93.284 I1.4 J4.715
X46.445 Y93.941 I2.437 J4.333
X45.697 Y94.793 I3.378 J3.72
X45.152 Y95.801 I4.166 J2.903
X44.843 Y96.916 I4.758 J1.921
X44.778 Y97.736 I5.12 J0.82
X44.789 Y98.084 I5.185 J0
X45 Y99.247 I5.227 J-0.346
X45.469 Y100.344 I5.069 J-1.518
X46.177 Y101.318 I4.65 J-2.636
X47.095 Y102.118 I3.984 J-3.642
X48.177 Y102.699 I3.102 J-4.483
X49.374 Y103.027 I2.045 J-5.111
X50.236 Y103.095 I0.862 J-5.491
X50.626 Y103.081 I0 J-5.558
X51.87 Y102.852 I-0.387 J-5.598
X53.042 Y102.347 I-1.641 J-5.422
X54.082 Y101.586 I-2.835 J-4.966
X54.934 Y100.604 I-3.906 J-4.248
X55.551 Y99.446 I-4.799 J-3.301
G1 X55.571 Y99.395
G2 X55.89 Y98.215 I-5.07 J-2.006
G1 X56 Y97.5
G3 X44 Y97.5 I-6 J0
X56 Y97.5 I6 J0
G1 X55.994 Y97.543
X55.975 Y97.583
X55.946 Y97.615
X55.909 Y97.638
X55.866 Y97.649
X51.672 Y98.114
X51.632 Y98.132
X51.599 Y98.161
X51.576 Y98.198
X51.565 Y98.24
X51.566 Y98.283
X51.712 Y99.127
X51.715 Y99.156
X51.711 Y99.184
G3 X48.923 Y98.595 Z-5.585 I-1.394 J-0.295 F333.3
X51.711 Y99.184 Z-5.741 I1.394 J0.295
X48.923 Y98.595 Z-5.898 I-1.394 J-0.295
X51.711 Y99.184 Z-6.054 I1.394 J0.295
X48.923 Y98.595 Z-6.21 I-1.394 J-0.295
X51.711 Y99.184 Z-6.367 I1.394 J0.295
X48.923 Y98.595 Z-6.523 I-1.394 J-0.295
X51.711 Y99.184 Z-6.679 I1.394 J0.295
X48.923 Y98.595 Z-6.836 I-1.394 J-0.295
X51.711 Y99.184 Z-6.992 I1.394 J0.295
X48.923 Y98.595 Z-7.148 I-1.394 J-0.295
X51.711 Y99.184 Z-7.305 I1.394 J0.295
X48.923 Y98.595 Z-7.461 I-1.394 J-0.295
X51.711 Y99.184 Z-7.617 I1.394 J0.295
X48.923 Y98.595 Z-7.774 I-1.394 J-0.295
X51.711 Y99.184 Z-7.93 I1.394 J0.295
X48.923 Y98.595 Z-8.086 I-1.394 J-0.295
X50 Y97.5 Z-8.143 I1.394 J0.295
G1 X50.046 Y97.49 F1000
X50.07 Y97.479
X50.089 Y97.461
X50.101 Y97.438
X50.114 Y97.397
X50.122 Y97.355
X50.119 Y97.312
X50.107 Y97.27
X50.1 Y97.255
X50.077 Y97.213
X50.047 Y97.177
X50.009 Y97.147
X49.984 Y97.132
X49.93 Y97.105
X49.871 Y97.088
X49.811 Y97.082
X49.795
X49.733 Y97.087
X49.673 Y97.101
X49.616 Y97.126
X49.563 Y97.16
X49.504 Y97.205
G2 X49.281 Y97.572 I0.36 J0.47
G1 X49.274 Y97.612
G2 X49.364 Y98.097 I0.689 J0.122
G1 X49.395 Y98.147
G2 X49.858 Y98.516 I0.732 J-0.444
G1 X49.912 Y98.534
G2 X50.604 Y98.512 I0.316 J-0.96
G1 X50.656 Y98.491
G2 X51.248 Y97.965 I-0.433 J-1.082
G1 X51.274 Y97.916
G2 X51.409 Y97.035 I-1.16 J-0.629
G1 X51.399 Y96.981
G2 X50.893 Y96.129 I-1.446 J0.282
G1 X50.851 Y96.094
G2 X49.826 Y95.72 I-1.038 J1.252
G1 X49.713 Y95.719
G2 X48.118 Y96.595 I-0.015 J1.862
G1 X48.112 Y96.605
G2 X47.809 Y97.488 I1.761 J1.099
G1 X47.806 Y97.512
G2 X47.926 Y98.485 I2.169 J0.226
G1 X47.935 Y98.508
G2 X48.494 Y99.369 I2.148 J-0.783
G1 X48.512 Y99.386
G2 X49.431 Y99.939 I1.661 J-1.719
G1 X49.454 Y99.947
G2 X50.569 Y100.047 I0.774 J-2.373
G1 X50.593 Y100.043
G2 X51.683 Y99.629 I-0.355 J-2.576
G1 X51.703 Y99.616
G2 X52.534 Y98.734 I-1.503 J-2.249
G1 X52.546 Y98.713
G2 X52.923 Y97.512 I-2.425 J-1.42
G1 X52.925 Y97.488
G2 X52.733 Y96.197 I-2.906 J-0.227
G1 X52.724 Y96.175
G2 X51.962 Y95.059 I-2.812 J1.102
G1 X51.944 Y95.042
G2 X50.732 Y94.347 I-2.121 J2.295
G1 X50.709 Y94.34
G2 X49.268 Y94.24 I-0.939 J3.09
G1 X49.244 Y94.244
G2 X47.861 Y94.799 I0.518 J3.294
G1 X47.841 Y94.812
G2 X46.807 Y95.949 I1.961 J2.825
G1 X46.795 Y95.97
G2 X46.346 Y97.488 I3.087 J1.74
G1 X46.344 Y97.512
G2 X46.608 Y99.12 I3.641 J0.228
G1 X46.617 Y99.142
G2 X47.582 Y100.513 I3.474 J-1.42
G1 X47.6 Y100.529
G2 X49.105 Y101.366 I2.579 J-2.868
G1 X49.128 Y101.373
G2 X50.895 Y101.473 I1.103 J-3.806
G1 X50.918 Y101.469
G2 X52.595 Y100.773 I-0.681 J-4.009
G1 X52.614 Y100.759
G2 X53.852 Y99.368 I-2.419 J-3.399
G1 X53.864 Y99.347
G2 X54.386 Y97.512 I-3.748 J-2.058
G1 X54.387 Y97.488
G2 X54.051 Y95.562 I-4.375 J-0.228
G1 X54.042 Y95.54
G2 X52.874 Y93.915 I-4.135 J1.738
G1 X52.743 Y93.799
G2 X48.406 Y92.843 I-3.032 J3.436
G1 X48.371 Y92.853
G2 X47.355 Y93.284 I1.4 J4.715
X46.445 Y93.941 I2.437 J4.333
X45.697 Y94.793 I3.378 J3.72
X45.152 Y95.801 I4.166 J2.903
X44.843 Y96.916 I4.758 J1.921
X44.778 Y97.736 I5.12 J0.82
X44.789 Y98.084 I5.185 J0
X45 Y99.247 I5.227 J-0.346
X45.469 Y100.344 I5.069 J-1.518
X46.177 Y101.318 I4.65 J-2.636
X47.095 Y102.118 I3.984 J-3.642
X48.177 Y102.699 I3.102 J-4.483
X49.374 Y103.027 I2.045 J-5.111
X50.236 Y103.095 I0.862 J-5.491
X50.626 Y103.081 I0 J-5.558
X51.87 Y102.852 I-0.387 J-5.598
X53.042 Y102.347 I-1.641 J-5.422
X54.082 Y101.586 I-2.835 J-4.966
X54.934 Y100.604 I-3.906 J-4.248
X55.551 Y99.446 I-4.799 J-3.301
G1 X55.571 Y99.395
G2 X55.89 Y98.215 I-5.07 J-2.006
G1 X56 Y97.5
G3 X44 Y97.5 I-6 J0
X56 Y97.5 I6 J0
G1 X55.994 Y97.543
X55.975 Y97.583
X55.946 Y97.615
X55.909 Y97.638
X55.866 Y97.649
X51.672 Y98.114
X51.632 Y98.132
X51.599 Y98.161
X51.576 Y98.198
X51.565 Y98.24
X51.566 Y98.283
X51.712 Y99.127
X51.715 Y99.156
X51.711 Y99.184
G3 X48.923 Y98.595 Z-8.299 I-1.394 J-0.295 F333.3
X51.711 Y99.184 Z-8.456 I1.394 J0.295
X48.923 Y98.595 Z-8.612 I-1.394 J-0.295
X51.711 Y99.184 Z-8.768 I1.394 J0.295
X48.923 Y98.595 Z-8.925 I-1.394 J-0.295
X51.711 Y99.184 Z-9.081 I1.394 J0.295
X48.923 Y98.595 Z-9.237 I-1.394 J-0.295
X51.711 Y99.184 Z-9.394 I1.394 J0.295
X48.923 Y98.595 Z-9.55 I-1.394 J-0.295
X51.711 Y99.184 Z-9.706 I1.394 J0.295
X48.923 Y98.595 Z-9.863 I-1.394 J-0.295
X51.711 Y99.184 Z-10.019 I1.394 J0.295
X48.923 Y98.595 Z-10.175 I-1.394 J-0.295
X51.711 Y99.184 Z-10.332 I1.394 J0.295
X48.923 Y98.595 Z-10.488 I-1.394 J-0.295
X51.711 Y99.184 Z-10.644 I1.394 J0.295
X48.923 Y98.595 Z-10.801 I-1.394 J-0.295
X50 Y97.5 Z-10.857 I1.394 J0.295
G1 X50.046 Y97.49 F1000
X50.07 Y97.479
X50.089 Y97.461
X50.101 Y97.438
X50.114 Y97.397
X50.122 Y97.355
X50.119 Y97.312
X50.107 Y97.27
X50.1 Y97.255
X50.077 Y97.213
X50.047 Y97.177
X50.009 Y97.147
X49.984 Y97.132
X49.93 Y97.105
X49.871 Y97.088
X49.811 Y97.082
X49.795
X49.733 Y97.087
X49.673 Y97.101
X49.616 Y97.126
X49.563 Y97.16
X49.504 Y97.205
G2 X49.281 Y97.572 I0.36 J0.47
G1 X49.274 Y97.612
G2 X49.364 Y98.097 I0.689 J0.122
G1 X49.395 Y98.147
G2 X49.858 Y98.516 I0.732 J-0.444
G1 X49.912 Y98.534
G2 X50.604 Y98.512 I0.316 J-0.96
G1 X50.656 Y98.491
G2 X51.248 Y97.965 I-0.433 J-1.082
G1 X51.274 Y97.916
G2 X51.409 Y97.035 I-1.16 J-0.629
G1 X51.399 Y96.981
G2 X50.893 Y96.129 I-1.446 J0.282
G1 X50.851 Y96.094
G2 X49.826 Y95.72 I-1.038 J1.252
G1 X49.713 Y95.719
G2 X48.118 Y96.595 I-0.015 J1.862
G1 X48.112 Y96.605
G2 X47.809 Y97.488 I1.761 J1.099
G1 X47.806 Y97.512
G2 X47.926 Y98.485 I2.169 J0.226
G1 X47.935 Y98.508
G2 X48.494 Y99.369 I2.148 J-0.783
G1 X48.512 Y99.386
G2 X49.431 Y99.939 I1.661 J-1.719
G1 X49.454 Y99.947
G2 X50.569 Y100.047 I0.774 J-2.373
G1 X50.593 Y100.043
G2 X51.683 Y99.629 I-0.355 J-2.576
G1 X51.703 Y99.616
G2 X52.534 Y98.734 I-1.503 J-2.249
G1 X52.546 Y98.713
G2 X52.923 Y97.512 I-2.425 J-1.42
G1 X52.925 Y97.488
G2 X52.733 Y96.197 I-2.906 J-0.227
G1 X52.724 Y96.175
G2 X51.962 Y95.059 I-2.812 J1.102
G1 X51.944 Y95.042
G2 X50.732 Y94.347 I-2.121 J2.295
G1 X50.709 Y94.34
G2 X49.268 Y94.24 I-0.939 J3.09
G1 X49.244 Y94.244
G2 X47.861 Y94.799 I0.518 J3.294
G1 X47.841 Y94.812
G2 X46.807 Y95.949 I1.961 J2.825
G1 X46.795 Y95.97
G2 X46.346 Y97.488 I3.087 J1.74
G1 X46.344 Y97.512
G2 X46.608 Y99.12 I3.641 J0.228
G1 X46.617 Y99.142
G2 X47.582 Y100.513 I3.474 J-1.42
G1 X47.6 Y100.529
G2 X49.105 Y101.366 I2.579 J-2.868
G1 X49.128 Y101.373
G2 X50.895 Y101.473 I1.103 J-3.806
G1 X50.918 Y101.469
G2 X52.595 Y100.773 I-0.681 J-4.009
G1 X52.614 Y100.759
G2 X53.852 Y99.368 I-2.419 J-3.399
G1 X53.864 Y99.347
G2 X54.386 Y97.512 I-3.748 J-2.058
G1 X54.387 Y97.488
G2 X54.051 Y95.562 I-4.375 J-0.228
G1 X54.042 Y95.54
G2 X52.874 Y93.915 I-4.135 J1.738
G1 X52.743 Y93.799
G2 X48.406 Y92.843 I-3.032 J3.436
G1 X48.371 Y92.853
G2 X47.355 Y93.284 I1.4 J4.715
X46.445 Y93.941 I2.437 J4.333
X45.697 Y94.793 I3.378 J3.72
X45.152 Y95.801 I4.166 J2.903
X44.843 Y96.916 I4.758 J1.921
X44.778 Y97.736 I5.12 J0.82
X44.789 Y98.084 I5.185 J0
X45 Y99.247 I5.227 J-0.346
X45.469 Y100.344 I5.069 J-1.518
X46.177 Y101.318 I4.65 J-2.636
X47.095 Y102.118 I3.984 J-3.642
X48.177 Y102.699 I3.102 J-4.483
X49.374 Y103.027 I2.045 J-5.111
X50.236 Y103.095 I0.862 J-5.491
X50.626 Y103.081 I0 J-5.558
X51.87 Y102.852 I-0.387 J-5.598
X53.042 Y102.347 I-1.641 J-5.422
X54.082 Y101.586 I-2.835 J-4.966
X54.934 Y100.604 I-3.906 J-4.248
X55.551 Y99.446 I-4.799 J-3.301
G1 X55.571 Y99.395
G2 X55.89 Y98.215 I-5.07 J-2.006
G1 X56 Y97.5
G3 X44 Y97.5 I-6 J0
X56 Y97.5 I6 J0
G1 X55.994 Y97.543
X55.975 Y97.583
X55.946 Y97.615
X55.909 Y97.638
X55.866 Y97.649
X51.672 Y98.114
X51.632 Y98.132
X51.599 Y98.161
X51.576 Y98.198
X51.565 Y98.24
X51.566 Y98.283
X51.712 Y99.127
X51.715 Y99.156
X51.711 Y99.184
G3 X48.923 Y98.595 Z-11.013 I-1.394 J-0.295 F333.3
X51.711 Y99.184 Z-11.17 I1.394 J0.295
X48.923 Y98.595 Z-11.326 I-1.394 J-0.295
X51.711 Y99.184 Z-11.482 I1.394 J0.295
X48.923 Y98.595 Z-11.639 I-1.394 J-0.295
X51.711 Y99.184 Z-11.795 I1.394 J0.295
X48.923 Y98.595 Z-11.951 I-1.394 J-0.295
X51.711 Y99.184 Z-12.108 I1.394 J0.295
X48.923 Y98.595 Z-12.264 I-1.394 J-0.295
X51.711 Y99.184 Z-12.42 I1.394 J0.295
X48.923 Y98.595 Z-12.577 I-1.394 J-0.295
X51.711 Y99.184 Z-12.733 I1.394 J0.295
X48.923 Y98.595 Z-12.889 I-1.394 J-0.295
X51.711 Y99.184 Z-13.046 I1.394 J0.295
X48.923 Y98.595 Z-13.202 I-1.394 J-0.295
X51.711 Y99.184 Z-13.358 I1.394 J0.295
X48.923 Y98.595 Z-13.515 I-1.394 J-0.295
X50 Y97.5 Z-13.571 I1.394 J0.295
G1 X50.046 Y97.49 F1000
X50.07 Y97.479
X50.089 Y97.461
X50.101 Y97.438
X50.114 Y97.397
X50.122 Y97.355
X50.119 Y97.312
X50.107 Y97.27
X50.1 Y97.255
X50.077 Y97.213
X50.047 Y97.177
X50.009 Y97.147
X49.984 Y97.132
X49.93 Y97.105
X49.871 Y97.088
X49.811 Y97.082
X49.795
X49.733 Y97.087
X49.673 Y97.101
X49.616 Y97.126
X49.563 Y97.16
X49.504 Y97.205
G2 X49.281 Y97.572 I0.36 J0.47
G1 X49.274 Y97.612
G2 X49.364 Y98.097 I0.689 J0.122
G1 X49.395 Y98.147
G2 X49.858 Y98.516 I0.732 J-0.444
G1 X49.912 Y98.534
G2 X50.604 Y98.512 I0.316 J-0.96
G1 X50.656 Y98.491
G2 X51.248 Y97.965 I-0.433 J-1.082
G1 X51.274 Y97.916
G2 X51.409 Y97.035 I-1.16 J-0.629
G1 X51.399 Y96.981
G2 X50.893 Y96.129 I-1.446 J0.282
G1 X50.851 Y96.094
G2 X49.826 Y95.72 I-1.038 J1.252
G1 X49.713 Y95.719
G2 X48.118 Y96.595 I-0.015 J1.862
G1 X48.112 Y96.605
G2 X47.809 Y97.488 I1.761 J1.099
G1 X47.806 Y97.512
G2 X47.926 Y98.485 I2.169 J0.226
G1 X47.935 Y98.508
G2 X48.494 Y99.369 I2.148 J-0.783
G1 X48.512 Y99.386
G2 X49.431 Y99.939 I1.661 J-1.719
G1 X49.454 Y99.947
G2 X50.569 Y100.047 I0.774 J-2.373
G1 X50.593 Y100.043
G2 X51.683 Y99.629 I-0.355 J-2.576
G1 X51.703 Y99.616
G2 X52.534 Y98.734 I-1.503 J-2.249
G1 X52.546 Y98.713
G2 X52.923 Y97.512 I-2.425 J-1.42
G1 X52.925 Y97.488
G2 X52.733 Y96.197 I-2.906 J-0.227
G1 X52.724 Y96.175
G2 X51.962 Y95.059 I-2.812 J1.102
G1 X51.944 Y95.042
G2 X50.732 Y94.347 I-2.121 J2.295
G1 X50.709 Y94.34
G2 X49.268 Y94.24 I-0.939 J3.09
G1 X49.244 Y94.244
G2 X47.861 Y94.799 I0.518 J3.294
G1 X47.841 Y94.812
G2 X46.807 Y95.949 I1.961 J2.825
G1 X46.795 Y95.97
G2 X46.346 Y97.488 I3.087 J1.74
G1 X46.344 Y97.512
G2 X46.608 Y99.12 I3.641 J0.228
G1 X46.617 Y99.142
G2 X47.582 Y100.513 I3.474 J-1.42
G1 X47.6 Y100.529
G2 X49.105 Y101.366 I2.579 J-2.868
G1 X49.128 Y101.373
G2 X50.895 Y101.473 I1.103 J-3.806
G1 X50.918 Y101.469
G2 X52.595 Y100.773 I-0.681 J-4.009
G1 X52.614 Y100.759
G2 X53.852 Y99.368 I-2.419 J-3.399
G1 X53.864 Y99.347
G2 X54.386 Y97.512 I-3.748 J-2.058
G1 X54.387 Y97.488
G2 X54.051 Y95.562 I-4.375 J-0.228
G1 X54.042 Y95.54
G2 X52.874 Y93.915 I-4.135 J1.738
G1 X52.743 Y93.799
G2 X48.406 Y92.843 I-3.032 J3.436
G1 X48.371 Y92.853
G2 X47.355 Y93.284 I1.4 J4.715
X46.445 Y93.941 I2.437 J4.333
X45.697 Y94.793 I3.378 J3.72
X45.152 Y95.801 I4.166 J2.903
X44.843 Y96.916 I4.758 J1.921
X44.778 Y97.736 I5.12 J0.82
X44.789 Y98.084 I5.185 J0
X45 Y99.247 I5.227 J-0.346
X45.469 Y100.344 I5.069 J-1.518
X46.177 Y101.318 I4.65 J-2.636
X47.095 Y102.118 I3.984 J-3.642
X48.177 Y102.699 I3.102 J-4.483
X49.374 Y103.027 I2.045 J-5.111
X50.236 Y103.095 I0.862 J-5.491
X50.626 Y103.081 I0 J-5.558
X51.87 Y102.852 I-0.387 J-5.598
X53.042 Y102.347 I-1.641 J-5.422
X54.082 Y101.586 I-2.835 J-4.966
X54.934 Y100.604 I-3.906 J-4.248
X55.551 Y99.446 I-4.799 J-3.301
G1 X55.571 Y99.395
G2 X55.89 Y98.215 I-5.07 J-2.006
G1 X56 Y97.5
G3 X44 Y97.5 I-6 J0
X56 Y97.5 I6 J0
G1 X55.994 Y97.543
X55.975 Y97.583
X55.946 Y97.615
X55.909 Y97.638
X55.866 Y97.649
X51.672 Y98.114
X51.632 Y98.132
X51.599 Y98.161
X51.576 Y98.198
X51.565 Y98.24
X51.566 Y98.283
X51.712 Y99.127
X51.715 Y99.156
X51.711 Y99.184
G3 X48.923 Y98.595 Z-13.728 I-1.394 J-0.295 F333.3
X51.711 Y99.184 Z-13.884 I1.394 J0.295
X48.923 Y98.595 Z-14.04 I-1.394 J-0.295
X51.711 Y99.184 Z-14.197 I1.394 J0.295
X48.923 Y98.595 Z-14.353 I-1.394 J-0.295
X51.711 Y99.184 Z-14.509 I1.394 J0.295
X48.923 Y98.595 Z-14.666 I-1.394 J-0.295
X51.711 Y99.184 Z-14.822 I1.394 J0.295
X48.923 Y98.595 Z-14.978 I-1.394 J-0.295
X51.711 Y99.184 Z-15.135 I1.394 J0.295
X48.923 Y98.595 Z-15.291 I-1.394 J-0.295
X51.711 Y99.184 Z-15.447 I1.394 J0.295
X48.923 Y98.595 Z-15.604 I-1.394 J-0.295
X51.711 Y99.184 Z-15.76 I1.394 J0.295
X48.923 Y98.595 Z-15.916 I-1.394 J-0.295
X51.711 Y99.184 Z-16.073 I1.394 J0.295
X48.923 Y98.595 Z-16.229 I-1.394 J-0.295
X50 Y97.5 Z-16.286 I1.394 J0.295
G1 X50.046 Y97.49 F1000
X50.07 Y97.479
X50.089 Y97.461
X50.101 Y97.438
X50.114 Y97.397
X50.122 Y97.355
X50.119 Y97.312
X50.107 Y97.27
X50.1 Y97.255
X50.077 Y97.213
X50.047 Y97.177
X50.009 Y97.147
X49.984 Y97.132
X49.93 Y97.105
X49.871 Y97.088
X49.811 Y97.082
X49.795
X49.733 Y97.087
X49.673 Y97.101
X49.616 Y97.126
X49.563 Y97.16
X49.504 Y97.205
G2 X49.281 Y97.572 I0.36 J0.47
G1 X49.274 Y97.612
G2 X49.364 Y98.097 I0.689 J0.122
G1 X49.395 Y98.147
G2 X49.858 Y98.516 I0.732 J-0.444
G1 X49.912 Y98.534
G2 X50.604 Y98.512 I0.316 J-0.96
G1 X50.656 Y98.491
G2 X51.248 Y97.965 I-0.433 J-1.082
G1 X51.274 Y97.916
G2 X51.409 Y97.035 I-1.16 J-0.629
G1 X51.399 Y96.981
G2 X50.893 Y96.129 I-1.446 J0.282
G1 X50.851 Y96.094
G2 X49.826 Y95.72 I-1.038 J1.252
G1 X49.713 Y95.719
G2 X48.118 Y96.595 I-0.015 J1.862
G1 X48.112 Y96.605
G2 X47.809 Y97.488 I1.761 J1.099
G1 X47.806 Y97.512
G2 X47.926 Y98.485 I2.169 J0.226
G1 X47.935 Y98.508
G2 X48.494 Y99.369 I2.148 J-0.783
G1 X48.512 Y99.386
G2 X49.431 Y99.939 I1.661 J-1.719
G1 X49.454 Y99.947
G2 X50.569 Y100.047 I0.774 J-2.373
G1 X50.593 Y100.043
G2 X51.683 Y99.629 I-0.355 J-2.576
G1 X51.703 Y99.616
G2 X52.534 Y98.734 I-1.503 J-2.249
G1 X52.546 Y98.713
G2 X52.923 Y97.512 I-2.425 J-1.42
G1 X52.925 Y97.488
G2 X52.733 Y96.197 I-2.906 J-0.227
G1 X52.724 Y96.175
G2 X51.962 Y95.059 I-2.812 J1.102
G1 X51.944 Y95.042
G2 X50.732 Y94.347 I-2.121 J2.295
G1 X50.709 Y94.34
G2 X49.268 Y94.24 I-0.939 J3.09
G1 X49.244 Y94.244
G2 X47.861 Y94.799 I0.518 J3.294
G1 X47.841 Y94.812
G2 X46.807 Y95.949 I1.961 J2.825
G1 X46.795 Y95.97
G2 X46.346 Y97.488 I3.087 J1.74
G1 X46.344 Y97.512
G2 X46.608 Y99.12 I3.641 J0.228
G1 X46.617 Y99.142
G2 X47.582 Y100.513 I3.474 J-1.42
G1 X47.6 Y100.529
G2 X49.105 Y101.366 I2.579 J-2.868
G1 X49.128 Y101.373
G2 X50.895 Y101.473 I1.103 J-3.806
G1 X50.918 Y101.469
G2 X52.595 Y100.773 I-0.681 J-4.009
G1 X52.614 Y100.759
G2 X53.852 Y99.368 I-2.419 J-3.399
G1 X53.864 Y99.347
G2 X54.386 Y97.512 I-3.748 J-2.058
G1 X54.387 Y97.488
G2 X54.051 Y95.562 I-4.375 J-0.228
G1 X54.042 Y95.54
G2 X52.874 Y93.915 I-4.135 J1.738
G1 X52.743 Y93.799
G2 X48.406 Y92.843 I-3.032 J3.436
G1 X48.371 Y92.853
G2 X47.355 Y93.284 I1.4 J4.715
X46.445 Y93.941 I2.437 J4.333
X45.697 Y94.793 I3.378 J3.72
X45.152 Y95.801 I4.166 J2.903
X44.843 Y96.916 I4.758 J1.921
X44.778 Y97.736 I5.12 J0.82
X44.789 Y98.084 I5.185 J0
X45 Y99.247 I5.227 J-0.346
X45.469 Y100.344 I5.069 J-1.518
X46.177 Y101.318 I4.65 J-2.636
X47.095 Y102.118 I3.984 J-3.642
X48.177 Y102.699 I3.102 J-4.483
X49.374 Y103.027 I2.045 J-5.111
X50.236 Y103.095 I0.862 J-5.491
X50.626 Y103.081 I0 J-5.558
X51.87 Y102.852 I-0.387 J-5.598
X53.042 Y102.347 I-1.641 J-5.422
X54.082 Y101.586 I-2.835 J-4.966
X54.934 Y100.604 I-3.906 J-4.248
X55.551 Y99.446 I-4.799 J-3.301
G1 X55.571 Y99.395
G2 X55.89 Y98.215 I-5.07 J-2.006
G1 X56 Y97.5
G3 X44 Y97.5 I-6 J0
X56 Y97.5 I6 J0
G1 X55.994 Y97.543
X55.975 Y97.583
X55.946 Y97.615
X55.909 Y97.638
X55.866 Y97.649
X51.672 Y98.114
X51.632 Y98.132
X51.599 Y98.161
X51.576 Y98.198
X51.565 Y98.24
X51.566 Y98.283
X51.712 Y99.127
X51.715 Y99.156
X51.711 Y99.184
G3 X51.619 Y99.469 Z-16.296 I-1.394 J-0.295 F333.3
X49.015 Y98.309 Z-16.453 I-1.302 J-0.58
X51.619 Y99.469 Z-16.609 I1.302 J0.58
X49.015 Y98.309 Z-16.765 I-1.302 J-0.58
X51.619 Y99.469 Z-16.922 I1.302 J0.58
X49.015 Y98.309 Z-17.078 I-1.302 J-0.58
X51.619 Y99.469 Z-17.234 I1.302 J0.58
X49.015 Y98.309 Z-17.391 I-1.302 J-0.58
X51.619 Y99.469 Z-17.547 I1.302 J0.58
X49.015 Y98.309 Z-17.703 I-1.302 J-0.58
X51.619 Y99.469 Z-17.86 I1.302 J0.58
X49.015 Y98.309 Z-18.016 I-1.302 J-0.58
X51.619 Y99.469 Z-18.172 I1.302 J0.58
X49.015 Y98.309 Z-18.329 I-1.302 J-0.58
X51.619 Y99.469 Z-18.485 I1.302 J0.58
X49.015 Y98.309 Z-18.641 I-1.302 J-0.58
X51.619 Y99.469 Z-18.798 I1.302 J0.58
X49.015 Y98.309 Z-18.954 I-1.302 J-0.58
X50 Y97.5 Z-19 I1.302 J0.58
G1 X50.046 Y97.49 F1000
X50.07 Y97.479
X50.089 Y97.461
X50.101 Y97.438
X50.114 Y97.397
X50.122 Y97.355
X50.119 Y97.312
X50.107 Y97.27
X50.1 Y97.255
X50.077 Y97.213
X50.047 Y97.177
X50.009 Y97.147
X49.984 Y97.132
X49.93 Y97.105
X49.871 Y97.088
X49.811 Y97.082
X49.795
X49.733 Y97.087
X49.673 Y97.101
X49.616 Y97.126
X49.563 Y97.16
X49.504 Y97.205
G2 X49.281 Y97.572 I0.36 J0.47
G1 X49.274 Y97.612
G2 X49.364 Y98.097 I0.689 J0.122
G1 X49.395 Y98.147
G2 X49.858 Y98.516 I0.732 J-0.444
G1 X49.912 Y98.534
G2 X50.604 Y98.512 I0.316 J-0.96
G1 X50.656 Y98.491
G2 X51.248 Y97.965 I-0.433 J-1.082
G1 X51.274 Y97.916
G2 X51.409 Y97.035 I-1.16 J-0.629
G1 X51.399 Y96.981
G2 X50.893 Y96.129 I-1.446 J0.282
G1 X50.851 Y96.094
G2 X49.826 Y95.72 I-1.038 J1.252
G1 X49.713 Y95.719
G2 X48.118 Y96.595 I-0.015 J1.862
G1 X48.112 Y96.605
G2 X47.809 Y97.488 I1.761 J1.099
G1 X47.806 Y97.512
G2 X47.926 Y98.485 I2.169 J0.226
G1 X47.935 Y98.508
G2 X48.494 Y99.369 I2.148 J-0.783
G1 X48.512 Y99.386
G2 X49.431 Y99.939 I1.661 J-1.719
G1 X49.454 Y99.947
G2 X50.569 Y100.047 I0.774 J-2.373
G1 X50.593 Y100.043
G2 X51.683 Y99.629 I-0.355 J-2.576
G1 X51.703 Y99.616
G2 X52.534 Y98.734 I-1.503 J-2.249
G1 X52.546 Y98.713
G2 X52.923 Y97.512 I-2.425 J-1.42
G1 X52.925 Y97.488
G2 X52.733 Y96.197 I-2.906 J-0.227
G1 X52.724 Y96.175
G2 X51.962 Y95.059 I-2.812 J1.102
G1 X51.944 Y95.042
G2 X50.732 Y94.347 I-2.121 J2.295
G1 X50.709 Y94.34
G2 X49.268 Y94.24 I-0.939 J3.09
G1 X49.244 Y94.244
G2 X47.861 Y94.799 I0.518 J3.294
G1 X47.841 Y94.812
G2 X46.807 Y95.949 I1.961 J2.825
G1 X46.795 Y95.97
G2 X46.346 Y97.488 I3.087 J1.74
G1 X46.344 Y97.512
G2 X46.608 Y99.12 I3.641 J0.228
G1 X46.617 Y99.142
G2 X47.582 Y100.513 I3.474 J-1.42
G1 X47.6 Y100.529
G2 X49.105 Y101.366 I2.579 J-2.868
G1 X49.128 Y101.373
G2 X50.895 Y101.473 I1.103 J-3.806
G1 X50.918 Y101.469
G2 X52.595 Y100.773 I-0.681 J-4.009
G1 X52.614 Y100.759
G2 X53.852 Y99.368 I-2.419 J-3.399
G1 X53.864 Y99.347
G2 X54.386 Y97.512 I-3.748 J-2.058
G1 X54.387 Y97.488
G2 X54.051 Y95.562 I-4.375 J-0.228
G1 X54.042 Y95.54
G2 X52.874 Y93.915 I-4.135 J1.738
G1 X52.743 Y93.799
G2 X48.406 Y92.843 I-3.032 J3.436
G1 X48.371 Y92.853
G2 X47.355 Y93.284 I1.4 J4.715
X46.445 Y93.941 I2.437 J4.333
X45.697 Y94.793 I3.378 J3.72
X45.152 Y95.801 I4.166 J2.903
X44.843 Y96.916 I4.758 J1.921
X44.778 Y97.736 I5.12 J0.82
X44.789 Y98.084 I5.185 J0
X45 Y99.247 I5.227 J-0.346
X45.469 Y100.344 I5.069 J-1.518
X46.177 Y101.318 I4.65 J-2.636
X47.095 Y102.118 I3.984 J-3.642
X48.177 Y102.699 I3.102 J-4.483
X49.374 Y103.027 I2.045 J-5.111
X50.236 Y103.095 I0.862 J-5.491
X50.626 Y103.081 I0 J-5.558
X51.87 Y102.852 I-0.387 J-5.598
X53.042 Y102.347 I-1.641 J-5.422
X54.082 Y101.586 I-2.835 J-4.966
X54.934 Y100.604 I-3.906 J-4.248
X55.551 Y99.446 I-4.799 J-3.301
G1 X55.571 Y99.395
G2 X55.89 Y98.215 I-5.07 J-2.006
G1 X56 Y97.5
G3 X44 Y97.5 I-6 J0
X56 Y97.5 I6 J0
G1 X55.995 Y97.557 Z-18.989
X55.978 Y97.612 Z-18.977
X55.957 Y97.655 Z-18.945
X55.928 Y97.695 Z-18.912
X55.881 Y97.739 Z-18.815
X55.862 Y97.752 Z-18.7
G0 Z5
X-48.259 Y98.934
G1 Z2.8 F333.3
X-48.26 Y98.973 Z2.653
X-48.27 Y99.078 Z2.544
X-48.297 Y99.221 Z2.5
G3 X-51.069 Y98.558 Z2.344 I-1.386 J-0.331
X-48.297 Y99.221 Z2.187 I1.386 J0.331
X-51.069 Y98.558 Z2.031 I-1.386 J-0.331
X-48.297 Y99.221 Z1.875 I1.386 J0.331
X-51.069 Y98.558 Z1.718 I-1.386 J-0.331
X-48.297 Y99.221 Z1.562 I1.386 J0.331
X-51.069 Y98.558 Z1.406 I-1.386 J-0.331
X-48.297 Y99.221 Z1.249 I1.386 J0.331
X-51.069 Y98.558 Z1.093 I-1.386 J-0.331
X-48.297 Y99.221 Z0.937 I1.386 J0.331
X-51.069 Y98.558 Z0.78 I-1.386 J-0.331
X-48.297 Y99.221 Z0.624 I1.386 J0.331
X-51.069 Y98.558 Z0.468 I-1.386 J-0.331
X-48.297 Y99.221 Z0.311 I1.386 J0.331
X-51.069 Y98.558 Z0.155 I-1.386 J-0.331
X-48.297 Y99.221 Z-0.001 I1.386 J0.331
X-51.069 Y98.558 Z-0.158 I-1.386 J-0.331
X-48.297 Y99.221 Z-0.314 I1.386 J0.331
X-51.069 Y98.558 Z-0.47 I-1.386 J-0.331
X-48.297 Y99.221 Z-0.627 I1.386 J0.331
X-51.069 Y98.558 Z-0.783 I-1.386 J-0.331
X-48.297 Y99.221 Z-0.939 I1.386 J0.331
X-51.069 Y98.558 Z-1.096 I-1.386 J-0.331
X-48.297 Y99.221 Z-1.252 I1.386 J0.331
X-51.069 Y98.558 Z-1.408 I-1.386 J-0.331
X-48.297 Y99.221 Z-1.565 I1.386 J0.331
X-51.069 Y98.558 Z-1.721 I-1.386 J-0.331
X-48.297 Y99.221 Z-1.877 I1.386 J0.331
X-51.069 Y98.558 Z-2.034 I-1.386 J-0.331
X-48.297 Y99.221 Z-2.19 I1.386 J0.331
X-51.069 Y98.558 Z-2.346 I-1.386 J-0.331
X-48.297 Y99.221 Z-2.503 I1.386 J0.331
X-51.069 Y98.558 Z-2.659 I-1.386 J-0.331
X-50 Y97.5 Z-2.714 I1.386 J0.331
G1 X-49.954 Y97.49 F1000
X-49.93 Y97.479
X-49.911 Y97.461
X-49.899 Y97.438
X-49.886 Y97.397
X-49.878 Y97.355
X-49.881 Y97.312
X-49.893 Y97.27
X-49.9 Y97.255
X-49.923 Y97.213
X-49.953 Y97.177
X-49.991 Y97.147
X-50.016 Y97.132
X-50.07 Y97.105
X-50.129 Y97.088
X-50.189 Y97.082
X-50.205
X-50.267 Y97.087
X-50.327 Y97.101
X-50.384 Y97.126
X-50.437 Y97.16
X-50.496 Y97.205
G2 X-50.719 Y97.572 I0.36 J0.47
G1 X-50.726 Y97.612
G2 X-50.636 Y98.097 I0.689 J0.122
G1 X-50.605 Y98.147
G2 X-50.142 Y98.516 I0.732 J-0.444
G1 X-50.088 Y98.534
G2 X-49.396 Y98.512 I0.316 J-0.96
G1 X-49.344 Y98.491
G2 X-48.752 Y97.965 I-0.433 J-1.082
G1 X-48.726 Y97.916
G2 X-48.591 Y97.035 I-1.16 J-0.629
G1 X-48.601 Y96.981
G2 X-49.107 Y96.129 I-1.446 J0.282
G1 X-49.149 Y96.094
G2 X-50.174 Y95.72 I-1.038 J1.252
G1 X-50.287 Y95.719
G2 X-51.882 Y96.595 I-0.015 J1.862
G1 X-51.888 Y96.605
G2 X-52.191 Y97.488 I1.761 J1.099
G1 X-52.194 Y97.512
G2 X-52.074 Y98.485 I2.169 J0.226
G1 X-52.065 Y98.508
G2 X-51.506 Y99.369 I2.148 J-0.783
G1 X-51.488 Y99.386
G2 X-50.569 Y99.939 I1.661 J-1.719
G1 X-50.546 Y99.947
G2 X-49.431 Y100.047 I0.774 J-2.373
G1 X-49.407 Y100.043
G2 X-48.317 Y99.629 I-0.355 J-2.576
G1 X-48.297 Y99.616
G2 X-47.466 Y98.734 I-1.503 J-2.249
G1 X-47.454 Y98.713
G2 X-47.077 Y97.512 I-2.425 J-1.42
G1 X-47.075 Y97.488
G2 X-47.267 Y96.197 I-2.906 J-0.227
G1 X-47.276 Y96.175
G2 X-48.038 Y95.059 I-2.812 J1.102
G1 X-48.056 Y95.042
G2 X-49.268 Y94.347 I-2.121 J2.295
G1 X-49.291 Y94.34
G2 X-50.732 Y94.24 I-0.939 J3.09
G1 X-50.756 Y94.244
G2 X-52.139 Y94.799 I0.518 J3.294
G1 X-52.159 Y94.812
G2 X-53.193 Y95.949 I1.961 J2.825
G1 X-53.205 Y95.97
G2 X-53.654 Y97.488 I3.087 J1.74
G1 X-53.656 Y97.512
G2 X-53.392 Y99.12 I3.641 J0.228
G1 X-53.383 Y99.142
G2 X-52.418 Y100.513 I3.474 J-1.42
G1 X-52.4 Y100.529
G2 X-50.895 Y101.366 I2.579 J-2.868
G1 X-50.872 Y101.373
G2 X-49.105 Y101.473 I1.103 J-3.806
G1 X-49.082 Y101.469
G2 X-47.405 Y100.773 I-0.681 J-4.009
G1 X-47.386 Y100.759
G2 X-46.148 Y99.368 I-2.419 J-3.399
G1 X-46.136 Y99.347
G2 X-45.614 Y97.512 I-3.748 J-2.058
G1 X-45.613 Y97.488
G2 X-45.949 Y95.562 I-4.375 J-0.228
G1 X-45.958 Y95.54
G2 X-47.126 Y93.915 I-4.135 J1.738
G1 X-47.257 Y93.799
G2 X-51.594 Y92.843 I-3.032 J3.436
G1 X-51.629 Y92.853
G2 X-52.645 Y93.284 I1.4 J4.715
X-53.555 Y93.941 I2.437 J4.333
X-54.303 Y94.793 I3.378 J3.72
X-54.848 Y95.801 I4.166 J2.903
X-55.157 Y96.916 I4.758 J1.921
X-55.222 Y97.736 I5.12 J0.82
X-55.211 Y98.084 I5.185 J0
X-55 Y99.247 I5.227 J-0.346
X-54.531 Y100.344 I5.069 J-1.518
X-53.823 Y101.318 I4.65 J-2.636
X-52.905 Y102.118 I3.984 J-3.642
X-51.823 Y102.699 I3.102 J-4.483
X-50.626 Y103.027 I2.045 J-5.111
X-49.764 Y103.095 I0.862 J-5.491
X-49.374 Y103.081 I0 J-5.558
X-48.13 Y102.852 I-0.387 J-5.598
X-46.958 Y102.347 I-1.641 J-5.422
X-45.918 Y101.586 I-2.835 J-4.966
X-45.066 Y100.604 I-3.906 J-4.248
X-44.449 Y99.446 I-4.799 J-3.301
G1 X-44.429 Y99.395
G2 X-44.11 Y98.215 I-5.07 J-2.006
G1 X-44 Y97.5
G3 X-56 Y97.5 I-6 J0
X-44 Y97.5 I6 J0
G1 X-44.006 Y97.543
X-44.025 Y97.583
X-44.054 Y97.615
X-44.091 Y97.638
X-44.134 Y97.649
X-48.328 Y98.114
X-48.368 Y98.132
X-48.401 Y98.161
X-48.424 Y98.198
X-48.435 Y98.24
X-48.434 Y98.283
X-48.288 Y99.127
X-48.285 Y99.156
X-48.289 Y99.184
G3 X-51.077 Y98.595 Z-2.871 I-1.394 J-0.295 F333.3
X-48.289 Y99.184 Z-3.027 I1.394 J0.295
X-51.077 Y98.595 Z-3.183 I-1.394 J-0.295
X-48.289 Y99.184 Z-3.34 I1.394 J0.295
X-51.077 Y98.595 Z-3.496 I-1.394 J-0.295
X-48.289 Y99.184 Z-3.652 I1.394 J0.295
X-51.077 Y98.595 Z-3.809 I-1.394 J-0.295
X-48.289 Y99.184 Z-3.965 I1.394 J0.295
X-51.077 Y98.595 Z-4.121 I-1.394 J-0.295
X-48.289 Y99.184 Z-4.278 I1.394 J0.295
X-51.077 Y98.595 Z-4.434 I-1.394 J-0.295
X-48.289 Y99.184 Z-4.59 I1.394 J0.295
X-51.077 Y98.595 Z-4.747 I-1.394 J-0.295
X-48.289 Y99.184 Z-4.903 I1.394 J0.295
X-51.077 Y98.595 Z-5.059 I-1.394 J-0.295
X-48.289 Y99.184 Z-5.216 I1.394 J0.295
X-51.077 Y98.595 Z-5.372 I-1.394 J-0.295
X-50 Y97.5 Z-5.429 I1.394 J0.295
G1 X-49.954 Y97.49 F1000
X-49.93 Y97.479
X-49.911 Y97.461
X-49.899 Y97.438
X-49.886 Y97.397
X-49.878 Y97.355
X-49.881 Y97.312
X-49.893 Y97.27
X-49.9 Y97.255
X-49.923 Y97.213
X-49.953 Y97.177
X-49.991 Y97.147
X-50.016 Y97.132
X-50.07 Y97.105
X-50.129 Y97.088
X-50.189 Y97.082
X-50.205
X-50.267 Y97.087
X-50.327 Y97.101
X-50.384 Y97.126
X-50.437 Y97.16
X-50.496 Y97.205
G2 X-50.719 Y97.572 I0.36 J0.47
G1 X-50.726 Y97.612
G2 X-50.636 Y98.097 I0.689 J0.122
G1 X-50.605 Y98.147
G2 X-50.142 Y98.516 I0.732 J-0.444
G1 X-50.088 Y98.534
G2 X-49.396 Y98.512 I0.316 J-0.96
G1 X-49.344 Y98.491
G2 X-48.752 Y97.965 I-0.433 J-1.082
G1 X-48.726 Y97.916
G2 X-48.591 Y97.035 I-1.16 J-0.629
G1 X-48.601 Y96.981
G2 X-49.107 Y96.129 I-1.446 J0.282
G1 X-49.149 Y96.094
G2 X-50.174 Y95.72 I-1.038 J1.252
G1 X-50.287 Y95.719
G2 X-51.882 Y96.595 I-0.015 J1.862
G1 X-51.888 Y96.605
G2 X-52.191 Y97.488 I1.761 J1.099
G1 X-52.194 Y97.512
G2 X-52.074 Y98.485 I2.169 J0.226
G1 X-52.065 Y98.508
G2 X-51.506 Y99.369 I2.148 J-0.783
G1 X-51.488 Y99.386
G2 X-50.569 Y99.939 I1.661 J-1.719
G1 X-50.546 Y99.947
G2 X-49.431 Y100.047 I0.774 J-2.373
G1 X-49.407 Y100.043
G2 X-48.317 Y99.629 I-0.355 J-2.576
G1 X-48.297 Y99.616
G2 X-47.466 Y98.734 I-1.503 J-2.249
G1 X-47.454 Y98.713
G2 X-47.077 Y97.512 I-2.425 J-1.42
G1 X-47.075 Y97.488
G2 X-47.267 Y96.197 I-2.906 J-0.227
G1 X-47.276 Y96.175
G2 X-48.038 Y95.059 I-2.812 J1.102
G1 X-48.056 Y95.042
G2 X-49.268 Y94.347 I-2.121 J2.295
G1 X-49.291 Y94.34
G2 X-50.732 Y94.24 I-0.939 J3.09
G1 X-50.756 Y94.244
G2 X-52.139 Y94.799 I0.518 J3.294
G1 X-52.159 Y94.812
G2 X-53.193 Y95.949 I1.961 J2.825
G1 X-53.205 Y95.97
G2 X-53.654 Y97.488 I3.087 J1.74
G1 X-53.656 Y97.512
G2 X-53.392 Y99.12 I3.641 J0.228
G1 X-53.383 Y99.142
G2 X-52.418 Y100.513 I3.474 J-1.42
G1 X-52.4 Y100.529
G2 X-50.895 Y101.366 I2.579 J-2.868
G1 X-50.872 Y101.373
G2 X-49.105 Y101.473 I1.103 J-3.806
G1 X-49.082 Y101.469
G2 X-47.405 Y100.773 I-0.681 J-4.009
