(TinyCNCZLiftRechts)
(T3  D=3 CR=0 - ZMIN=-19 - flat end mill)
G90 G94
G17
G21

(2D Pocket25)
T3
S5000 M3
G54
M8
G0 X182.39 Y18.655
Z15
Z5
G1 Z-0.3 F333.3
G18 G3 X182.09 Z-0.6 I-0.3 K0 F1000
G1 X181.396
X-1.397
G17 G3 X-1.597 Y18.455 I0 J-0.2
G1 Y17.155
G3 X-1.397 Y16.955 I0.2 J0
G1 X181.395
G2 X181.595 Y16.747 I0 J-0.2
G1 X181.544 Y15.442
G2 X181.345 Y15.25 I-0.2 J0.008
G1 X0
X-1.386
X-1.432 Y15.254
X-2.081 Y15.356
X-2.147 Y15.367 Z-0.592
X-2.209 Y15.377 Z-0.57
X-2.265 Y15.386 Z-0.535
X-2.312 Y15.393 Z-0.487
X-2.348 Y15.399 Z-0.43
X-2.369 Y15.402 Z-0.367
X-2.377 Y15.403 Z-0.3
G0 Z5
X-2.405 Y19.345
G1 Z-0.3 F333.3
G18 G2 X-2.105 Z-0.6 I0.3 K0 F1000
G1 X-1.396
X181.397
G17 G3 X181.597 Y19.545 I0 J0.2
G1 Y20.845
G3 X181.397 Y21.045 I-0.2 J0
G1 X-1.395
G2 X-1.595 Y21.245 I0 J0.2
G1 X-1.597 Y22.55
G2 X-1.397 Y22.75 I0.2 J0
G1 X180
X181.386
X181.432 Y22.746
X182.081 Y22.644
X182.147 Y22.633 Z-0.592
X182.209 Y22.623 Z-0.57
X182.265 Y22.614 Z-0.535
X182.312 Y22.607 Z-0.487
X182.348 Y22.601 Z-0.43
X182.369 Y22.598 Z-0.367
X182.377 Y22.597 Z-0.3
G0 Z15
X-2.405 Y79.345
Z5
G1 Z-0.3 F333.3
G18 G2 X-2.105 Z-0.6 I0.3 K0 F1000
G1 X-1.396
X181.397
G17 G3 X181.597 Y79.545 I0 J0.2
G1 Y80.845
G3 X181.397 Y81.045 I-0.2 J0
G1 X-1.395
G2 X-1.595 Y81.245 I0 J0.2
G1 X-1.597 Y82.55
G2 X-1.397 Y82.75 I0.2 J0
G1 X180
X181.386
X181.432 Y82.746
X182.081 Y82.644
X182.147 Y82.633 Z-0.592
X182.209 Y82.623 Z-0.57
X182.265 Y82.614 Z-0.535
X182.312 Y82.607 Z-0.487
X182.348 Y82.601 Z-0.43
X182.369 Y82.598 Z-0.367
X182.377 Y82.597 Z-0.3
G0 Z5
X182.39 Y78.655
G1 Z-0.3 F333.3
G18 G3 X182.09 Z-0.6 I-0.3 K0 F1000
G1 X181.396
X-1.397
G17 G3 X-1.597 Y78.455 I0 J-0.2
G1 Y77.155
G3 X-1.397 Y76.955 I0.2 J0
G1 X181.395
G2 X181.595 Y76.755 I0 J-0.2
G1 X181.597 Y75.45
G2 X181.397 Y75.25 I-0.2 J0
G1 X0
X-1.386
X-1.432 Y75.254
X-2.081 Y75.356
X-2.147 Y75.367 Z-0.592
X-2.209 Y75.377 Z-0.57
X-2.265 Y75.386 Z-0.535
X-2.312 Y75.393 Z-0.487
X-2.348 Y75.399 Z-0.43
X-2.369 Y75.402 Z-0.367
X-2.377 Y75.403 Z-0.3
G0 Z15

(2D Contour15)
X-2.4 Y89.7
Z15
Z5
G1 Z-6.2 F333.3
G18 G2 X-2.1 Z-6.5 I0.3 K0 F1000
G1 X-1.8
G17 G3 X-1.5 Y90 I0 J0.3
G1 Y97
G2 X0 Y98.5 I1.5 J0
G1 X75
G3 X88.5 Y112 I0 J13.5
G1 Y179
G2 X90 Y180.5 I1.5 J0
G1 X180
G2 X181.5 Y179 I0 J-1.5
G1 Y16
G2 X165 Y-0.5 I-16.5 J0
G1 X0
G2 X-1.5 Y1 I0 J1.5
G1 Y90
G3 X-1.8 Y90.3 I-0.3 J0
G1 X-2.1
G18 G3 X-2.4 Z-6.2 I0 K0.3
G1 Y89.7
Z-12.7 F333.3
G2 X-2.1 Z-13 I0.3 K0 F1000
G1 X-1.8
G17 G3 X-1.5 Y90 I0 J0.3
G1 Y97
G2 X0 Y98.5 I1.5 J0
G1 X75
G3 X88.5 Y112 I0 J13.5
G1 Y179
G2 X90 Y180.5 I1.5 J0
G1 X180
G2 X181.5 Y179 I0 J-1.5
G1 Y16
G2 X165 Y-0.5 I-16.5 J0
G1 X0
G2 X-1.5 Y1 I0 J1.5
G1 Y90
G3 X-1.8 Y90.3 I-0.3 J0
G1 X-2.1
G18 G3 X-2.4 Z-12.7 I0 K0.3
G1 Y89.7
Z-18.7 F333.3
G2 X-2.1 Z-19 I0.3 K0 F1000
G1 X-1.8
G17 G3 X-1.5 Y90 I0 J0.3
G1 Y97
G2 X0 Y98.5 I1.5 J0
G1 X75
G3 X88.5 Y112 I0 J13.5
G1 Y179
G2 X90 Y180.5 I1.5 J0
G1 X180
G2 X181.5 Y179 I0 J-1.5
G1 Y16
G2 X165 Y-0.5 I-16.5 J0
G1 X0
G2 X-1.5 Y1 I0 J1.5
G1 Y90
G3 X-1.8 Y90.3 I-0.3 J0
G1 X-2.1
G18 G3 X-2.4 Z-18.7 I0 K0.3
G0 Z15
G17
M9
M5
M30
