(TinyCNCCarrier)
(T3  D=3 CR=0 - ZMIN=-19 - flat end mill)
G90 G94
G17
G21

(Circular1)
T3
S5000 M3
G54
M8
G0 X11.773 Y53.275
Z15
Z-2
G1 Z-3.7 F1000
G18 G2 X12.073 Z-4 I0.3 K0
G1 X12.223
G17 G3 X12.523 Y53.575 I0 J0.3
X11.023 Y53.575 I-0.75 J0
X12.523 Y53.575 I0.75 J0
X12.223 Y53.875 I-0.3 J0
G1 X12.073
G18 G3 X11.773 Z-3.7 I0 K0.3
G0 Z5
Y53.275
Z-6
G1 Z-7.7 F1000
G2 X12.073 Z-8 I0.3 K0
G1 X12.223
G17 G3 X12.523 Y53.575 I0 J0.3
X11.023 Y53.575 I-0.75 J0
X12.523 Y53.575 I0.75 J0
X12.223 Y53.875 I-0.3 J0
G1 X12.073
G18 G3 X11.773 Z-7.7 I0 K0.3
G0 Z5
Y53.275
Z-10
G1 Z-11.7 F1000
G2 X12.073 Z-12 I0.3 K0
G1 X12.223
G17 G3 X12.523 Y53.575 I0 J0.3
X11.023 Y53.575 I-0.75 J0
X12.523 Y53.575 I0.75 J0
X12.223 Y53.875 I-0.3 J0
G1 X12.073
G18 G3 X11.773 Z-11.7 I0 K0.3
G0 Z5
Y53.275
Z-13.5
G1 Z-15.2 F1000
G2 X12.073 Z-15.5 I0.3 K0
G1 X12.223
G17 G3 X12.523 Y53.575 I0 J0.3
X11.023 Y53.575 I-0.75 J0
X12.523 Y53.575 I0.75 J0
X12.223 Y53.875 I-0.3 J0
G1 X12.073
G18 G3 X11.773 Z-15.2 I0 K0.3
G0 Z5
Y53.275
Z-17
G1 Z-18.7 F1000
G2 X12.073 Z-19 I0.3 K0
G1 X12.223
G17 G3 X12.523 Y53.575 I0 J0.3
X11.023 Y53.575 I-0.75 J0
X12.523 Y53.575 I0.75 J0
X12.223 Y53.875 I-0.3 J0
G1 X12.073
G18 G3 X11.773 Z-18.7 I0 K0.3
G0 Z5
X24.25 Y58.025
Z-2
G1 Z-3.7 F1000
G2 X24.55 Z-4 I0.3 K0
G1 X24.7
G17 G3 X25 Y58.325 I0 J0.3
X15 Y58.325 I-5 J0
X25 Y58.325 I5 J0
X24.7 Y58.625 I-0.3 J0
G1 X24.55
G18 G3 X24.25 Z-3.7 I0 K0.3
G0 Z5
Y58.025
Z-6
G1 Z-7.7 F1000
G2 X24.55 Z-8 I0.3 K0
G1 X24.7
G17 G3 X25 Y58.325 I0 J0.3
X15 Y58.325 I-5 J0
X25 Y58.325 I5 J0
X24.7 Y58.625 I-0.3 J0
G1 X24.55
G18 G3 X24.25 Z-7.7 I0 K0.3
G0 Z5
Y58.025
Z-10
G1 Z-11.7 F1000
G2 X24.55 Z-12 I0.3 K0
G1 X24.7
G17 G3 X25 Y58.325 I0 J0.3
X15 Y58.325 I-5 J0
X25 Y58.325 I5 J0
X24.7 Y58.625 I-0.3 J0
G1 X24.55
G18 G3 X24.25 Z-11.7 I0 K0.3
G0 Z5
Y58.025
Z-13.5
G1 Z-15.2 F1000
G2 X24.55 Z-15.5 I0.3 K0
G1 X24.7
G17 G3 X25 Y58.325 I0 J0.3
X15 Y58.325 I-5 J0
X25 Y58.325 I5 J0
X24.7 Y58.625 I-0.3 J0
G1 X24.55
G18 G3 X24.25 Z-15.2 I0 K0.3
G0 Z5
Y58.025
Z-17
G1 Z-18.7 F1000
G2 X24.55 Z-19 I0.3 K0
G1 X24.7
G17 G3 X25 Y58.325 I0 J0.3
X15 Y58.325 I-5 J0
X25 Y58.325 I5 J0
X24.7 Y58.625 I-0.3 J0
G1 X24.55
G18 G3 X24.25 Z-18.7 I0 K0.3
G0 Z5
X28.227 Y53.275
Z-2
G1 Z-3.7 F1000
G2 X28.527 Z-4 I0.3 K0
G1 X28.677
G17 G3 X28.977 Y53.575 I0 J0.3
X27.477 Y53.575 I-0.75 J0
X28.977 Y53.575 I0.75 J0
X28.677 Y53.875 I-0.3 J0
G1 X28.527
G18 G3 X28.227 Z-3.7 I0 K0.3
G0 Z5
Y53.275
Z-6
G1 Z-7.7 F1000
G2 X28.527 Z-8 I0.3 K0
G1 X28.677
G17 G3 X28.977 Y53.575 I0 J0.3
X27.477 Y53.575 I-0.75 J0
X28.977 Y53.575 I0.75 J0
X28.677 Y53.875 I-0.3 J0
G1 X28.527
G18 G3 X28.227 Z-7.7 I0 K0.3
G0 Z5
Y53.275
Z-10
G1 Z-11.7 F1000
G2 X28.527 Z-12 I0.3 K0
G1 X28.677
G17 G3 X28.977 Y53.575 I0 J0.3
X27.477 Y53.575 I-0.75 J0
X28.977 Y53.575 I0.75 J0
X28.677 Y53.875 I-0.3 J0
G1 X28.527
G18 G3 X28.227 Z-11.7 I0 K0.3
G0 Z5
Y53.275
Z-13.5
G1 Z-15.2 F1000
G2 X28.527 Z-15.5 I0.3 K0
G1 X28.677
G17 G3 X28.977 Y53.575 I0 J0.3
X27.477 Y53.575 I-0.75 J0
X28.977 Y53.575 I0.75 J0
X28.677 Y53.875 I-0.3 J0
G1 X28.527
G18 G3 X28.227 Z-15.2 I0 K0.3
G0 Z5
Y53.275
Z-17
G1 Z-18.7 F1000
G2 X28.527 Z-19 I0.3 K0
G1 X28.677
G17 G3 X28.977 Y53.575 I0 J0.3
X27.477 Y53.575 I-0.75 J0
X28.977 Y53.575 I0.75 J0
X28.677 Y53.875 I-0.3 J0
G1 X28.527
G18 G3 X28.227 Z-18.7 I0 K0.3
G0 Z5
X20 Y67.525
Z-2
G1 Z-3.7 F1000
G2 X20.3 Z-4 I0.3 K0
G1 X20.45
G17 G3 X20.75 Y67.825 I0 J0.3
X19.25 Y67.825 I-0.75 J0
X20.75 Y67.825 I0.75 J0
X20.45 Y68.125 I-0.3 J0
G1 X20.3
G18 G3 X20 Z-3.7 I0 K0.3
G0 Z5
Y67.525
Z-6
G1 Z-7.7 F1000
G2 X20.3 Z-8 I0.3 K0
G1 X20.45
G17 G3 X20.75 Y67.825 I0 J0.3
X19.25 Y67.825 I-0.75 J0
X20.75 Y67.825 I0.75 J0
X20.45 Y68.125 I-0.3 J0
G1 X20.3
G18 G3 X20 Z-7.7 I0 K0.3
G0 Z5
Y67.525
Z-10
G1 Z-11.7 F1000
G2 X20.3 Z-12 I0.3 K0
G1 X20.45
G17 G3 X20.75 Y67.825 I0 J0.3
X19.25 Y67.825 I-0.75 J0
X20.75 Y67.825 I0.75 J0
X20.45 Y68.125 I-0.3 J0
G1 X20.3
G18 G3 X20 Z-11.7 I0 K0.3
G0 Z5
Y67.525
Z-13.5
G1 Z-15.2 F1000
G2 X20.3 Z-15.5 I0.3 K0
G1 X20.45
G17 G3 X20.75 Y67.825 I0 J0.3
X19.25 Y67.825 I-0.75 J0
X20.75 Y67.825 I0.75 J0
X20.45 Y68.125 I-0.3 J0
G1 X20.3
G18 G3 X20 Z-15.2 I0 K0.3
G0 Z5
Y67.525
Z-17
G1 Z-18.7 F1000
G2 X20.3 Z-19 I0.3 K0
G1 X20.45
G17 G3 X20.75 Y67.825 I0 J0.3
X19.25 Y67.825 I-0.75 J0
X20.75 Y67.825 I0.75 J0
X20.45 Y68.125 I-0.3 J0
G1 X20.3
G18 G3 X20 Z-18.7 I0 K0.3
G0 Z15
G17

(2D Contour7)
G0 X8.1 Y3.875
Z15
Z5
G1 Z-4.7 F333.3
G18 G2 X8.4 Z-5 I0.3 K0 F1000
G1 X8.7
G17 G3 X9 Y4.175 I0 J0.3
G1 Y27.731
G3 X3.432 Y49.024 I-43.5 J0
G2 X36.568 Y67.626 I16.568 J9.301
X36.568 Y49.024 I-16.568 J-9.301
G3 X31 Y27.731 I37.932 J-21.293
G1 Y4.175
G2 X29.5 Y2.675 I-1.5 J0
G1 X10.5
G2 X9 Y4.175 I0 J1.5
G3 X8.7 Y4.475 I-0.3 J0
G1 X8.4
G18 G3 X8.1 Z-4.7 I0 K0.3
G1 Y3.875
Z-9.7 F333.3
G2 X8.4 Z-10 I0.3 K0 F1000
G1 X8.7
G17 G3 X9 Y4.175 I0 J0.3
G1 Y27.731
G3 X3.432 Y49.024 I-43.5 J0
G2 X36.568 Y67.626 I16.568 J9.301
X36.568 Y49.024 I-16.568 J-9.301
G3 X31 Y27.731 I37.932 J-21.293
G1 Y4.175
G2 X29.5 Y2.675 I-1.5 J0
G1 X10.5
G2 X9 Y4.175 I0 J1.5
G3 X8.7 Y4.475 I-0.3 J0
G1 X8.4
G18 G3 X8.1 Z-9.7 I0 K0.3
G1 Y3.875
Z-14.7 F333.3
G2 X8.4 Z-15 I0.3 K0 F1000
G1 X8.7
G17 G3 X9 Y4.175 I0 J0.3
G1 Y27.731
G3 X3.432 Y49.024 I-43.5 J0
G2 X36.568 Y67.626 I16.568 J9.301
X36.568 Y49.024 I-16.568 J-9.301
G3 X31 Y27.731 I37.932 J-21.293
G1 Y4.175
G2 X29.5 Y2.675 I-1.5 J0
G1 X10.5
G2 X9 Y4.175 I0 J1.5
G3 X8.7 Y4.475 I-0.3 J0
G1 X8.4
G18 G3 X8.1 Z-14.7 I0 K0.3
G1 Y3.875
Z-18.7 F333.3
G2 X8.4 Z-19 I0.3 K0 F1000
G1 X8.7
G17 G3 X9 Y4.175 I0 J0.3
G1 Y27.731
G3 X3.432 Y49.024 I-43.5 J0
G2 X36.568 Y67.626 I16.568 J9.301
X36.568 Y49.024 I-16.568 J-9.301
G3 X31 Y27.731 I37.932 J-21.293
G1 Y4.175
G2 X29.5 Y2.675 I-1.5 J0
G1 X10.5
G2 X9 Y4.175 I0 J1.5
G3 X8.7 Y4.475 I-0.3 J0
G1 X8.4
G18 G3 X8.1 Z-18.7 I0 K0.3
G0 Z15
G17
M9
M5
M30
