(TinyCNCZLiftLinks)
(T3  D=3 CR=0 - ZMIN=-19 - flat end mill)
G90 G94
G17
G21

(2D Pocket26)
T3
S5000 M3
G54
M8
G0 X183.39 Y18.655
Z15
Z5
G1 Z-0.3 F333.3
G18 G3 X183.09 Z-0.6 I-0.3 K0 F1000
G1 X182.396
X-0.397
G17 G3 X-0.597 Y18.455 I0 J-0.2
G1 Y17.155
G3 X-0.397 Y16.955 I0.2 J0
G1 X182.395
G2 X182.595 Y16.755 I0 J-0.2
G1 X182.597 Y15.45
G2 X182.397 Y15.25 I-0.2 J0
G1 X-0.335
X-0.382 Y15.254
X-1.03 Y15.356
X-1.096 Y15.367 Z-0.592
X-1.159 Y15.377 Z-0.57
X-1.215 Y15.386 Z-0.535
X-1.262 Y15.393 Z-0.487
X-1.297 Y15.399 Z-0.43
X-1.319 Y15.402 Z-0.367
X-1.326 Y15.403 Z-0.3
G0 Z5
X-1.405 Y19.345
G1 Z-0.3 F333.3
G18 G2 X-1.105 Z-0.6 I0.3 K0 F1000
G1 X-0.396
X182.397
G17 G3 X182.597 Y19.545 I0 J0.2
G1 Y20.845
G3 X182.397 Y21.045 I-0.2 J0
G1 X-0.395
G2 X-0.595 Y21.245 I0 J0.2
G1 X-0.597 Y22.55
G2 X-0.397 Y22.75 I0.2 J0
G1 X181
X182.386
X182.432 Y22.746
X183.081 Y22.644
X183.147 Y22.633 Z-0.592
X183.209 Y22.623 Z-0.57
X183.265 Y22.614 Z-0.535
X183.312 Y22.607 Z-0.487
X183.348 Y22.601 Z-0.43
X183.369 Y22.598 Z-0.367
X183.377 Y22.597 Z-0.3
G0 Z15
X-1.405 Y79.345
Z5
G1 Z-0.3 F333.3
G18 G2 X-1.105 Z-0.6 I0.3 K0 F1000
G1 X-0.396
X182.397
G17 G3 X182.597 Y79.545 I0 J0.2
G1 Y80.845
G3 X182.397 Y81.045 I-0.2 J0
G1 X-0.395
G2 X-0.595 Y81.245 I0 J0.2
G1 X-0.597 Y82.55
G2 X-0.397 Y82.75 I0.2 J0
G1 X181
X182.386
X182.432 Y82.746
X183.081 Y82.644
X183.147 Y82.633 Z-0.592
X183.209 Y82.623 Z-0.57
X183.265 Y82.614 Z-0.535
X183.312 Y82.607 Z-0.487
X183.348 Y82.601 Z-0.43
X183.369 Y82.598 Z-0.367
X183.377 Y82.597 Z-0.3
G0 Z5
X183.39 Y78.655
G1 Z-0.3 F333.3
G18 G3 X183.09 Z-0.6 I-0.3 K0 F1000
G1 X182.396
X-0.397
G17 G3 X-0.597 Y78.455 I0 J-0.2
G1 Y77.155
G3 X-0.397 Y76.955 I0.2 J0
G1 X182.395
G2 X182.595 Y76.755 I0 J-0.2
G1 X182.597 Y75.45
G2 X182.397 Y75.25 I-0.2 J0
G1 X1
X-0.386
X-0.432 Y75.254
X-1.081 Y75.356
X-1.147 Y75.367 Z-0.592
X-1.209 Y75.377 Z-0.57
X-1.265 Y75.386 Z-0.535
X-1.312 Y75.393 Z-0.487
X-1.348 Y75.399 Z-0.43
X-1.369 Y75.402 Z-0.367
X-1.377 Y75.403 Z-0.3
G0 Z15

(2D Contour16)
X183.4 Y97.3
Z15
Z5
G1 Z-6.2 F333.3
G18 G3 X183.1 Z-6.5 I-0.3 K0 F1000
G1 X182.8
G17 G3 X182.5 Y97 I0 J-0.3
G1 Y1
G2 X181 Y-0.5 I-1.5 J0
G1 X16
G2 X-0.5 Y16 I0 J16.5
G1 Y179
G2 X1 Y180.5 I1.5 J0
G1 X91
G2 X92.5 Y179 I0 J-1.5
G1 Y112
G3 X106 Y98.5 I13.5 J0
G1 X181
G2 X182.5 Y97 I0 J-1.5
G3 X182.8 Y96.7 I0.3 J0
G1 X183.1
G18 G2 X183.4 Z-6.2 I0 K0.3
G1 Y97.3
Z-12.7 F333.3
G3 X183.1 Z-13 I-0.3 K0 F1000
G1 X182.8
G17 G3 X182.5 Y97 I0 J-0.3
G1 Y1
G2 X181 Y-0.5 I-1.5 J0
G1 X16
G2 X-0.5 Y16 I0 J16.5
G1 Y179
G2 X1 Y180.5 I1.5 J0
G1 X91
G2 X92.5 Y179 I0 J-1.5
G1 Y112
G3 X106 Y98.5 I13.5 J0
G1 X181
G2 X182.5 Y97 I0 J-1.5
G3 X182.8 Y96.7 I0.3 J0
G1 X183.1
G18 G2 X183.4 Z-12.7 I0 K0.3
G1 Y97.3
Z-18.7 F333.3
G3 X183.1 Z-19 I-0.3 K0 F1000
G1 X182.8
G17 G3 X182.5 Y97 I0 J-0.3
G1 Y1
G2 X181 Y-0.5 I-1.5 J0
G1 X16
G2 X-0.5 Y16 I0 J16.5
G1 Y179
G2 X1 Y180.5 I1.5 J0
G1 X91
G2 X92.5 Y179 I0 J-1.5
G1 Y112
G3 X106 Y98.5 I13.5 J0
G1 X181
G2 X182.5 Y97 I0 J-1.5
G3 X182.8 Y96.7 I0.3 J0
G1 X183.1
G18 G2 X183.4 Z-18.7 I0 K0.3
G0 Z15
G17
M9
M5
M30
