(TinyCNCStepperFlansch)
(T3  D=3 CR=0 - ZMIN=-19 - flat end mill)
G90 G94
G17
G21

(2D Pocket6)
T3
S5000 M3
G54
M8
G0 X20.118 Y43.295
Z15
Z5
G1 Z2.8 F333.3
X20.128 Y43.258 Z2.653
X20.162 Y43.157 Z2.544
X20.219 Y43.024 Z2.5
G3 X22.776 Y44.283 Z2.344 I1.278 J0.63
X20.219 Y43.024 Z2.187 I-1.278 J-0.63
X22.776 Y44.283 Z2.031 I1.278 J0.63
X20.219 Y43.024 Z1.875 I-1.278 J-0.63
X22.776 Y44.283 Z1.718 I1.278 J0.63
X20.219 Y43.024 Z1.562 I-1.278 J-0.63
X22.776 Y44.283 Z1.406 I1.278 J0.63
X20.219 Y43.024 Z1.249 I-1.278 J-0.63
X22.776 Y44.283 Z1.093 I1.278 J0.63
X20.219 Y43.024 Z0.937 I-1.278 J-0.63
X22.776 Y44.283 Z0.78 I1.278 J0.63
X20.219 Y43.024 Z0.624 I-1.278 J-0.63
X22.776 Y44.283 Z0.468 I1.278 J0.63
X20.219 Y43.024 Z0.311 I-1.278 J-0.63
X22.776 Y44.283 Z0.155 I1.278 J0.63
X20.219 Y43.024 Z-0.001 I-1.278 J-0.63
X22.776 Y44.283 Z-0.158 I1.278 J0.63
X20.219 Y43.024 Z-0.314 I-1.278 J-0.63
X22.776 Y44.283 Z-0.47 I1.278 J0.63
X20.219 Y43.024 Z-0.627 I-1.278 J-0.63
X22.776 Y44.283 Z-0.783 I1.278 J0.63
X20.219 Y43.024 Z-0.939 I-1.278 J-0.63
X22.776 Y44.283 Z-1.096 I1.278 J0.63
X20.219 Y43.024 Z-1.252 I-1.278 J-0.63
X22.776 Y44.283 Z-1.408 I1.278 J0.63
X20.219 Y43.024 Z-1.565 I-1.278 J-0.63
X22.776 Y44.283 Z-1.721 I1.278 J0.63
X20.219 Y43.024 Z-1.877 I-1.278 J-0.63
X22.776 Y44.283 Z-2.034 I1.278 J0.63
X20.219 Y43.024 Z-2.19 I-1.278 J-0.63
X22.776 Y44.283 Z-2.346 I1.278 J0.63
X20.219 Y43.024 Z-2.503 I-1.278 J-0.63
X22.776 Y44.283 Z-2.659 I1.278 J0.63
X20.219 Y43.024 Z-2.815 I-1.278 J-0.63
X22.776 Y44.283 Z-2.972 I1.278 J0.63
X20.219 Y43.024 Z-3.128 I-1.278 J-0.63
X22.776 Y44.283 Z-3.284 I1.278 J0.63
X20.219 Y43.024 Z-3.441 I-1.278 J-0.63
X22.776 Y44.283 Z-3.597 I1.278 J0.63
X20.219 Y43.024 Z-3.753 I-1.278 J-0.63
X21.25 Y42.25 Z-3.8 I1.278 J0.63
G1 X21.289 Y42.243 F1000
X21.301 Y42.238
X21.329 Y42.214
X21.359 Y42.183
X21.379 Y42.145
X21.389 Y42.103
X21.387 Y42.061
X21.375 Y42.019
X21.357 Y41.98
X21.323 Y41.923
X21.276 Y41.876
X21.22 Y41.84
X21.189 Y41.826
X21.133 Y41.804
X21.073 Y41.791
X21.013 Y41.788
X20.953 Y41.795
X20.91 Y41.803
G2 X20.641 Y41.946 I0.097 J0.507
G1 X20.612 Y41.976
G2 X20.435 Y42.303 I0.463 J0.461
G1 X20.427 Y42.343
G2 X20.46 Y42.781 I0.775 J0.162
G1 X20.473 Y42.818
G2 X20.774 Y43.228 I0.871 J-0.324
G1 X20.786 Y43.237
G2 X21.364 Y43.442 I0.597 J-0.768
G1 X21.466 Y43.444
G2 X22.31 Y43.144 I0.024 J-1.267
G1 X22.338 Y43.119
G2 X22.806 Y42.282 I-0.884 J-1.044
G1 X22.822 Y42.178
G2 X22.083 Y40.55 I-1.619 J-0.247
G1 X22.036 Y40.52
G2 X21.091 Y40.226 I-1.012 J1.588
G1 X21.054 Y40.225
G2 X20.023 Y40.466 I-0.071 J2.016
G1 X19.991 Y40.484
G2 X19.174 Y41.262 I1.024 J1.893
G1 X19.155 Y41.293
G2 X18.824 Y42.444 I1.957 J1.185
G1 Y42.481
G2 X19.136 Y43.708 I2.423 J0.037
G1 X19.154 Y43.74
G2 X20.092 Y44.691 I2.227 J-1.257
G1 X20.123 Y44.71
G2 X21.479 Y45.077 I1.358 J-2.325
G1 X21.516
G2 X22.939 Y44.694 I0.002 J-2.827
G1 X22.971 Y44.676
G2 X24.057 Y43.579 I-1.489 J-2.56
G1 X24.074 Y43.547
G2 X24.479 Y41.986 I-2.692 J-1.53
G1 X24.478 Y41.949
G2 X24.024 Y40.33 I-3.231 J0.033
G1 X24.005 Y40.299
G2 X22.749 Y39.078 I-2.892 J1.721
G1 X22.641 Y39.019
G2 X18.792 Y39.258 I-1.738 J3.125
G1 X18.753 Y39.286
G2 X17.82 Y40.26 I2.283 J3.121
G1 X17.811 Y40.274
G2 X17.256 Y41.538 I3.292 J2.198
G1 X17.252 Y41.553
G2 X17.164 Y42.962 I3.935 J0.955
G1 X17.165 Y42.978
G2 X17.575 Y44.363 I4.114 J-0.464
G1 X17.582 Y44.377
G2 X18.46 Y45.562 I3.787 J-1.889
G1 X18.472 Y45.573
G2 X19.73 Y46.402 I2.971 J-3.14
G1 X19.745 Y46.409
G2 X21.242 Y46.763 I1.749 J-4.053
G1 X21.258 Y46.764
G2 X22.817 Y46.579 I0.258 J-4.499
G1 X22.833 Y46.574
G2 X24.262 Y45.852 I-1.328 J-4.401
G1 X24.275 Y45.842
G2 X25.391 Y44.65 I-2.812 J-3.752
G1 X25.4 Y44.637
G2 X26.052 Y43.105 I-4.005 J-2.61
G1 X26.056 Y43.089
G2 X26.145 Y41.395 I-4.746 J-1.099
G1 X26.143 Y41.379
G2 X25.636 Y39.727 I-4.925 J0.607
G1 X25.629 Y39.713
G2 X24.567 Y38.309 I-4.5 J2.3
G1 X24.555 Y38.298
G2 X23.051 Y37.327 I-3.501 J3.771
G1 X23.036 Y37.32
G2 X21.258 Y36.916 I-2.031 J4.826
G1 X21.242
G2 X19.402 Y37.15 I-0.258 J5.322
G1 X19.387 Y37.154
G2 X17.711 Y38.019 I1.609 J5.175
G1 X17.698 Y38.029
G2 X16.398 Y39.439 I3.34 J4.382
G1 X16.389 Y39.453
G2 X15.64 Y41.253 I4.717 J3.021
G1 X15.636 Y41.268
G2 X15.547 Y43.247 I5.556 J1.242
G1 X15.549 Y43.263
G2 X16.153 Y45.183 I5.735 J-0.749
G1 X16.161 Y45.198
G2 X17.405 Y46.82 I5.212 J-2.711
G1 X17.417 Y46.831
G2 X19.169 Y47.945 I4.029 J-4.401
G1 X19.184 Y47.951
G2 X21.242 Y48.404 I2.313 J-5.599
G1 X21.258 Y48.405
G2 X23.379 Y48.122 I0.258 J-6.144
G1 X23.394 Y48.117
G2 X25.317 Y47.109 I-1.89 J-5.947
G1 X25.33 Y47.1
G2 X26.813 Y45.471 I-3.869 J-5.012
G1 X26.821 Y45.457
G2 X27.669 Y43.39 I-5.429 J-3.433
G1 X27.672 Y43.374
G2 X27.761 Y41.11 I-6.366 J-1.385
G1 X27.759 Y41.094
G2 X27.058 Y38.906 I-6.545 J0.892
G1 X27.05 Y38.892
G2 X25.622 Y37.052 I-5.924 J3.122
G1 X25.611 Y37.041
G2 X23.612 Y35.784 I-4.558 J5.03
G1 X23.597 Y35.778
G2 X21.258 Y35.275 I-2.594 J6.372
G1 X21.242 Y35.274
G2 X18.841 Y35.607 I-0.258 J6.966
G1 X18.825 Y35.612
G2 X16.655 Y36.762 I2.171 J6.72
G1 X16.643 Y36.772
G2 X14.976 Y38.619 I4.397 J5.642
G1 X14.968 Y38.632
G2 X14.023 Y40.968 I6.141 J3.844
G1 X14.02 Y40.983
G2 X13.93 Y43.532 I7.175 J1.527
G1 X13.933 Y43.548
G2 X14.731 Y46.004 I7.354 J-1.035
G1 X14.739 Y46.018
G2 X16.35 Y48.077 I6.636 J-3.533
G1 X16.362 Y48.088
G2 X18.607 Y49.487 I5.086 J-5.66
G1 X18.622 Y49.493
G2 X21.242 Y50.046 I2.875 J-7.144
G1 X21.258
G2 X23.94 Y49.664 I0.258 J-7.788
G1 X23.955 Y49.659
G2 X26.372 Y48.367 I-2.452 J-7.492
G1 X26.385 Y48.357
G2 X28.234 Y46.292 I-4.925 J-6.272
G1 X28.243 Y46.278
G2 X29.285 Y43.675 I-6.852 J-4.254
G1 X29.289 Y43.659
G2 X29.378 Y40.825 I-7.984 J-1.67
G1 X29.376 Y40.809
G2 X28.479 Y38.085 I-8.164 J1.177
G1 X28.472 Y38.071
G2 X26.678 Y35.794 I-7.348 J3.944
G1 X26.666 Y35.783
G2 X24.173 Y34.242 I-5.614 J6.289
G1 X23.958 Y34.156
G2 X17.523 Y34.243 I-3.112 J7.806
X16.159 Y34.976 I3.483 J8.112
X14.941 Y35.938 I4.869 J7.419
X13.903 Y37.103 I6.116 J6.494
X13.079 Y38.438 I7.188 J5.36
X12.497 Y39.903 I8.052 J4.05
X12.176 Y41.454 I8.677 J2.602
X12.13 Y43.046 I9.043 J1.06
X12.362 Y44.629 I9.136 J-0.531
X12.869 Y46.156 I8.949 J-2.121
X13.636 Y47.579 I8.487 J-3.662
X14.645 Y48.852 I7.76 J-5.107
X15.865 Y49.937 I6.788 J-6.409
X17.262 Y50.797 I5.598 J-7.529
X18.795 Y51.404 I4.225 J-8.428
X20.418 Y51.737 I2.709 J-9.078
X22.082 Y51.784 I1.096 J-9.457
X23.737 Y51.539 I-0.567 J-9.549
X25.332 Y51.008 I-2.229 J-9.35
X26.817 Y50.204 I-3.838 J-8.863
X28.146 Y49.149 I-5.345 J-8.1
X29.277 Y47.873 I-6.703 J-7.081
X30.173 Y46.413 I-7.869 J-5.836
X30.805 Y44.812 I-8.805 J-4.401
G1 X30.822 Y44.754
G2 X31.144 Y43.175 I-8.856 J-2.628
G1 X31.25 Y42.25
G3 X11.25 Y42.25 I-10 J0
X31.25 Y42.25 I10 J0
G1 X31.242 Y42.298
X31.219 Y42.341
X31.184 Y42.374
X31.14 Y42.394
X31.092 Y42.4
X29.612 Y42.323
X20.594 Y43.125
X20.271 Y43.155
X20.243 Y43.151
X20.219 Y43.137
X20.202 Y43.113
X20.197 Y43.086
X20.203 Y43.058
G3 X22.792 Y44.249 Z-3.956 I1.295 J0.596 F333.3
X20.203 Y43.058 Z-4.113 I-1.295 J-0.596
X22.792 Y44.249 Z-4.269 I1.295 J0.596
X20.203 Y43.058 Z-4.425 I-1.295 J-0.596
X22.792 Y44.249 Z-4.582 I1.295 J0.596
X20.203 Y43.058 Z-4.738 I-1.295 J-0.596
X22.792 Y44.249 Z-4.894 I1.295 J0.596
X20.203 Y43.058 Z-5.051 I-1.295 J-0.596
X22.792 Y44.249 Z-5.207 I1.295 J0.596
X20.203 Y43.058 Z-5.363 I-1.295 J-0.596
X22.792 Y44.249 Z-5.52 I1.295 J0.596
X20.203 Y43.058 Z-5.676 I-1.295 J-0.596
X22.792 Y44.249 Z-5.832 I1.295 J0.596
X20.203 Y43.058 Z-5.989 I-1.295 J-0.596
X22.792 Y44.249 Z-6.145 I1.295 J0.596
X20.203 Y43.058 Z-6.301 I-1.295 J-0.596
X22.792 Y44.249 Z-6.458 I1.295 J0.596
X20.203 Y43.058 Z-6.614 I-1.295 J-0.596
X22.792 Y44.249 Z-6.77 I1.295 J0.596
X20.203 Y43.058 Z-6.927 I-1.295 J-0.596
X22.792 Y44.249 Z-7.083 I1.295 J0.596
X20.203 Y43.058 Z-7.239 I-1.295 J-0.596
X22.792 Y44.249 Z-7.396 I1.295 J0.596
X20.203 Y43.058 Z-7.552 I-1.295 J-0.596
X21.25 Y42.25 Z-7.6 I1.295 J0.596
G1 X21.289 Y42.243 F1000
X21.301 Y42.238
X21.329 Y42.214
X21.359 Y42.183
X21.379 Y42.145
X21.389 Y42.103
X21.387 Y42.061
X21.375 Y42.019
X21.357 Y41.98
X21.323 Y41.923
X21.276 Y41.876
X21.22 Y41.84
X21.189 Y41.826
X21.133 Y41.804
X21.073 Y41.791
X21.013 Y41.788
X20.953 Y41.795
X20.91 Y41.803
G2 X20.641 Y41.946 I0.097 J0.507
G1 X20.612 Y41.976
G2 X20.435 Y42.303 I0.463 J0.461
G1 X20.427 Y42.343
G2 X20.46 Y42.781 I0.775 J0.162
G1 X20.473 Y42.818
G2 X20.774 Y43.228 I0.871 J-0.324
G1 X20.786 Y43.237
G2 X21.364 Y43.442 I0.597 J-0.768
G1 X21.466 Y43.444
G2 X22.31 Y43.144 I0.024 J-1.267
G1 X22.338 Y43.119
G2 X22.806 Y42.282 I-0.884 J-1.044
G1 X22.822 Y42.178
G2 X22.083 Y40.55 I-1.619 J-0.247
G1 X22.036 Y40.52
G2 X21.091 Y40.226 I-1.012 J1.588
G1 X21.054 Y40.225
G2 X20.023 Y40.466 I-0.071 J2.016
G1 X19.991 Y40.484
G2 X19.174 Y41.262 I1.024 J1.893
G1 X19.155 Y41.293
G2 X18.824 Y42.444 I1.957 J1.185
G1 Y42.481
G2 X19.136 Y43.708 I2.423 J0.037
G1 X19.154 Y43.74
G2 X20.092 Y44.691 I2.227 J-1.257
G1 X20.123 Y44.71
G2 X21.479 Y45.077 I1.358 J-2.325
G1 X21.516
G2 X22.939 Y44.694 I0.002 J-2.827
G1 X22.971 Y44.676
G2 X24.057 Y43.579 I-1.489 J-2.56
G1 X24.074 Y43.547
G2 X24.479 Y41.986 I-2.692 J-1.53
G1 X24.478 Y41.949
G2 X24.024 Y40.33 I-3.231 J0.033
G1 X24.005 Y40.299
G2 X22.749 Y39.078 I-2.892 J1.721
G1 X22.641 Y39.019
G2 X18.792 Y39.258 I-1.738 J3.125
G1 X18.753 Y39.286
G2 X17.82 Y40.26 I2.283 J3.121
G1 X17.811 Y40.274
G2 X17.256 Y41.538 I3.292 J2.198
G1 X17.252 Y41.553
G2 X17.164 Y42.962 I3.935 J0.955
G1 X17.165 Y42.978
G2 X17.575 Y44.363 I4.114 J-0.464
G1 X17.582 Y44.377
G2 X18.46 Y45.562 I3.787 J-1.889
G1 X18.472 Y45.573
G2 X19.73 Y46.402 I2.971 J-3.14
G1 X19.745 Y46.409
G2 X21.242 Y46.763 I1.749 J-4.053
G1 X21.258 Y46.764
G2 X22.817 Y46.579 I0.258 J-4.499
G1 X22.833 Y46.574
G2 X24.262 Y45.852 I-1.328 J-4.401
G1 X24.275 Y45.842
G2 X25.391 Y44.65 I-2.812 J-3.752
G1 X25.4 Y44.637
G2 X26.052 Y43.105 I-4.005 J-2.61
G1 X26.056 Y43.089
G2 X26.145 Y41.395 I-4.746 J-1.099
G1 X26.143 Y41.379
G2 X25.636 Y39.727 I-4.925 J0.607
G1 X25.629 Y39.713
G2 X24.567 Y38.309 I-4.5 J2.3
G1 X24.555 Y38.298
G2 X23.051 Y37.327 I-3.501 J3.771
G1 X23.036 Y37.32
G2 X21.258 Y36.916 I-2.031 J4.826
G1 X21.242
G2 X19.402 Y37.15 I-0.258 J5.322
G1 X19.387 Y37.154
G2 X17.711 Y38.019 I1.609 J5.175
G1 X17.698 Y38.029
G2 X16.398 Y39.439 I3.34 J4.382
G1 X16.389 Y39.453
G2 X15.64 Y41.253 I4.717 J3.021
G1 X15.636 Y41.268
G2 X15.547 Y43.247 I5.556 J1.242
G1 X15.549 Y43.263
G2 X16.153 Y45.183 I5.735 J-0.749
G1 X16.161 Y45.198
G2 X17.405 Y46.82 I5.212 J-2.711
G1 X17.417 Y46.831
G2 X19.169 Y47.945 I4.029 J-4.401
G1 X19.184 Y47.951
G2 X21.242 Y48.404 I2.313 J-5.599
G1 X21.258 Y48.405
G2 X23.379 Y48.122 I0.258 J-6.144
G1 X23.394 Y48.117
G2 X25.317 Y47.109 I-1.89 J-5.947
G1 X25.33 Y47.1
G2 X26.813 Y45.471 I-3.869 J-5.012
G1 X26.821 Y45.457
G2 X27.669 Y43.39 I-5.429 J-3.433
G1 X27.672 Y43.374
G2 X27.761 Y41.11 I-6.366 J-1.385
G1 X27.759 Y41.094
G2 X27.058 Y38.906 I-6.545 J0.892
G1 X27.05 Y38.892
G2 X25.622 Y37.052 I-5.924 J3.122
G1 X25.611 Y37.041
G2 X23.612 Y35.784 I-4.558 J5.03
G1 X23.597 Y35.778
G2 X21.258 Y35.275 I-2.594 J6.372
G1 X21.242 Y35.274
G2 X18.841 Y35.607 I-0.258 J6.966
G1 X18.825 Y35.612
G2 X16.655 Y36.762 I2.171 J6.72
G1 X16.643 Y36.772
G2 X14.976 Y38.619 I4.397 J5.642
G1 X14.968 Y38.632
G2 X14.023 Y40.968 I6.141 J3.844
G1 X14.02 Y40.983
G2 X13.93 Y43.532 I7.175 J1.527
G1 X13.933 Y43.548
G2 X14.731 Y46.004 I7.354 J-1.035
G1 X14.739 Y46.018
G2 X16.35 Y48.077 I6.636 J-3.533
G1 X16.362 Y48.088
G2 X18.607 Y49.487 I5.086 J-5.66
G1 X18.622 Y49.493
G2 X21.242 Y50.046 I2.875 J-7.144
G1 X21.258
G2 X23.94 Y49.664 I0.258 J-7.788
G1 X23.955 Y49.659
G2 X26.372 Y48.367 I-2.452 J-7.492
G1 X26.385 Y48.357
G2 X28.234 Y46.292 I-4.925 J-6.272
G1 X28.243 Y46.278
G2 X29.285 Y43.675 I-6.852 J-4.254
G1 X29.289 Y43.659
G2 X29.378 Y40.825 I-7.984 J-1.67
G1 X29.376 Y40.809
G2 X28.479 Y38.085 I-8.164 J1.177
G1 X28.472 Y38.071
G2 X26.678 Y35.794 I-7.348 J3.944
G1 X26.666 Y35.783
G2 X24.173 Y34.242 I-5.614 J6.289
G1 X23.958 Y34.156
G2 X17.523 Y34.243 I-3.112 J7.806
X16.159 Y34.976 I3.483 J8.112
X14.941 Y35.938 I4.869 J7.419
X13.903 Y37.103 I6.116 J6.494
X13.079 Y38.438 I7.188 J5.36
X12.497 Y39.903 I8.052 J4.05
X12.176 Y41.454 I8.677 J2.602
X12.13 Y43.046 I9.043 J1.06
X12.362 Y44.629 I9.136 J-0.531
X12.869 Y46.156 I8.949 J-2.121
X13.636 Y47.579 I8.487 J-3.662
X14.645 Y48.852 I7.76 J-5.107
X15.865 Y49.937 I6.788 J-6.409
X17.262 Y50.797 I5.598 J-7.529
X18.795 Y51.404 I4.225 J-8.428
X20.418 Y51.737 I2.709 J-9.078
X22.082 Y51.784 I1.096 J-9.457
X23.737 Y51.539 I-0.567 J-9.549
X25.332 Y51.008 I-2.229 J-9.35
X26.817 Y50.204 I-3.838 J-8.863
X28.146 Y49.149 I-5.345 J-8.1
X29.277 Y47.873 I-6.703 J-7.081
X30.173 Y46.413 I-7.869 J-5.836
X30.805 Y44.812 I-8.805 J-4.401
G1 X30.822 Y44.754
G2 X31.144 Y43.175 I-8.856 J-2.628
G1 X31.25 Y42.25
G3 X11.25 Y42.25 I-10 J0
X31.25 Y42.25 I10 J0
G1 X31.242 Y42.298
X31.219 Y42.341
X31.184 Y42.374
X31.14 Y42.394
X31.092 Y42.4
X29.612 Y42.323
X20.594 Y43.125
X20.271 Y43.155
X20.243 Y43.151
X20.219 Y43.137
X20.202 Y43.113
X20.197 Y43.086
X20.203 Y43.058
G3 X22.792 Y44.249 Z-7.756 I1.295 J0.596 F333.3
X20.203 Y43.058 Z-7.913 I-1.295 J-0.596
X22.792 Y44.249 Z-8.069 I1.295 J0.596
X20.203 Y43.058 Z-8.225 I-1.295 J-0.596
X22.792 Y44.249 Z-8.382 I1.295 J0.596
X20.203 Y43.058 Z-8.538 I-1.295 J-0.596
X22.792 Y44.249 Z-8.694 I1.295 J0.596
X20.203 Y43.058 Z-8.851 I-1.295 J-0.596
X22.792 Y44.249 Z-9.007 I1.295 J0.596
X20.203 Y43.058 Z-9.163 I-1.295 J-0.596
X22.792 Y44.249 Z-9.32 I1.295 J0.596
X20.203 Y43.058 Z-9.476 I-1.295 J-0.596
X22.792 Y44.249 Z-9.632 I1.295 J0.596
X20.203 Y43.058 Z-9.789 I-1.295 J-0.596
X22.792 Y44.249 Z-9.945 I1.295 J0.596
X20.203 Y43.058 Z-10.101 I-1.295 J-0.596
X22.792 Y44.249 Z-10.258 I1.295 J0.596
X20.203 Y43.058 Z-10.414 I-1.295 J-0.596
X22.792 Y44.249 Z-10.57 I1.295 J0.596
X20.203 Y43.058 Z-10.727 I-1.295 J-0.596
X22.792 Y44.249 Z-10.883 I1.295 J0.596
X20.203 Y43.058 Z-11.039 I-1.295 J-0.596
X22.792 Y44.249 Z-11.196 I1.295 J0.596
X20.203 Y43.058 Z-11.352 I-1.295 J-0.596
X21.25 Y42.25 Z-11.4 I1.295 J0.596
G1 X21.289 Y42.243 F1000
X21.301 Y42.238
X21.329 Y42.214
X21.359 Y42.183
X21.379 Y42.145
X21.389 Y42.103
X21.387 Y42.061
X21.375 Y42.019
X21.357 Y41.98
X21.323 Y41.923
X21.276 Y41.876
X21.22 Y41.84
X21.189 Y41.826
X21.133 Y41.804
X21.073 Y41.791
X21.013 Y41.788
X20.953 Y41.795
X20.91 Y41.803
G2 X20.641 Y41.946 I0.097 J0.507
G1 X20.612 Y41.976
G2 X20.435 Y42.303 I0.463 J0.461
G1 X20.427 Y42.343
G2 X20.46 Y42.781 I0.775 J0.162
G1 X20.473 Y42.818
G2 X20.774 Y43.228 I0.871 J-0.324
G1 X20.786 Y43.237
G2 X21.364 Y43.442 I0.597 J-0.768
G1 X21.466 Y43.444
G2 X22.31 Y43.144 I0.024 J-1.267
G1 X22.338 Y43.119
G2 X22.806 Y42.282 I-0.884 J-1.044
G1 X22.822 Y42.178
G2 X22.083 Y40.55 I-1.619 J-0.247
G1 X22.036 Y40.52
G2 X21.091 Y40.226 I-1.012 J1.588
G1 X21.054 Y40.225
G2 X20.023 Y40.466 I-0.071 J2.016
G1 X19.991 Y40.484
G2 X19.174 Y41.262 I1.024 J1.893
G1 X19.155 Y41.293
G2 X18.824 Y42.444 I1.957 J1.185
G1 Y42.481
G2 X19.136 Y43.708 I2.423 J0.037
G1 X19.154 Y43.74
G2 X20.092 Y44.691 I2.227 J-1.257
G1 X20.123 Y44.71
G2 X21.479 Y45.077 I1.358 J-2.325
G1 X21.516
G2 X22.939 Y44.694 I0.002 J-2.827
G1 X22.971 Y44.676
G2 X24.057 Y43.579 I-1.489 J-2.56
G1 X24.074 Y43.547
G2 X24.479 Y41.986 I-2.692 J-1.53
G1 X24.478 Y41.949
G2 X24.024 Y40.33 I-3.231 J0.033
G1 X24.005 Y40.299
G2 X22.749 Y39.078 I-2.892 J1.721
G1 X22.641 Y39.019
G2 X18.792 Y39.258 I-1.738 J3.125
G1 X18.753 Y39.286
G2 X17.82 Y40.26 I2.283 J3.121
G1 X17.811 Y40.274
G2 X17.256 Y41.538 I3.292 J2.198
G1 X17.252 Y41.553
G2 X17.164 Y42.962 I3.935 J0.955
G1 X17.165 Y42.978
G2 X17.575 Y44.363 I4.114 J-0.464
G1 X17.582 Y44.377
G2 X18.46 Y45.562 I3.787 J-1.889
G1 X18.472 Y45.573
G2 X19.73 Y46.402 I2.971 J-3.14
G1 X19.745 Y46.409
G2 X21.242 Y46.763 I1.749 J-4.053
G1 X21.258 Y46.764
G2 X22.817 Y46.579 I0.258 J-4.499
G1 X22.833 Y46.574
G2 X24.262 Y45.852 I-1.328 J-4.401
G1 X24.275 Y45.842
G2 X25.391 Y44.65 I-2.812 J-3.752
G1 X25.4 Y44.637
G2 X26.052 Y43.105 I-4.005 J-2.61
G1 X26.056 Y43.089
G2 X26.145 Y41.395 I-4.746 J-1.099
G1 X26.143 Y41.379
G2 X25.636 Y39.727 I-4.925 J0.607
G1 X25.629 Y39.713
G2 X24.567 Y38.309 I-4.5 J2.3
G1 X24.555 Y38.298
G2 X23.051 Y37.327 I-3.501 J3.771
G1 X23.036 Y37.32
G2 X21.258 Y36.916 I-2.031 J4.826
G1 X21.242
G2 X19.402 Y37.15 I-0.258 J5.322
G1 X19.387 Y37.154
G2 X17.711 Y38.019 I1.609 J5.175
G1 X17.698 Y38.029
G2 X16.398 Y39.439 I3.34 J4.382
G1 X16.389 Y39.453
G2 X15.64 Y41.253 I4.717 J3.021
G1 X15.636 Y41.268
G2 X15.547 Y43.247 I5.556 J1.242
G1 X15.549 Y43.263
G2 X16.153 Y45.183 I5.735 J-0.749
G1 X16.161 Y45.198
G2 X17.405 Y46.82 I5.212 J-2.711
G1 X17.417 Y46.831
G2 X19.169 Y47.945 I4.029 J-4.401
G1 X19.184 Y47.951
G2 X21.242 Y48.404 I2.313 J-5.599
G1 X21.258 Y48.405
G2 X23.379 Y48.122 I0.258 J-6.144
G1 X23.394 Y48.117
G2 X25.317 Y47.109 I-1.89 J-5.947
G1 X25.33 Y47.1
G2 X26.813 Y45.471 I-3.869 J-5.012
G1 X26.821 Y45.457
G2 X27.669 Y43.39 I-5.429 J-3.433
G1 X27.672 Y43.374
G2 X27.761 Y41.11 I-6.366 J-1.385
G1 X27.759 Y41.094
G2 X27.058 Y38.906 I-6.545 J0.892
G1 X27.05 Y38.892
G2 X25.622 Y37.052 I-5.924 J3.122
G1 X25.611 Y37.041
G2 X23.612 Y35.784 I-4.558 J5.03
G1 X23.597 Y35.778
G2 X21.258 Y35.275 I-2.594 J6.372
G1 X21.242 Y35.274
G2 X18.841 Y35.607 I-0.258 J6.966
G1 X18.825 Y35.612
G2 X16.655 Y36.762 I2.171 J6.72
G1 X16.643 Y36.772
G2 X14.976 Y38.619 I4.397 J5.642
G1 X14.968 Y38.632
G2 X14.023 Y40.968 I6.141 J3.844
G1 X14.02 Y40.983
G2 X13.93 Y43.532 I7.175 J1.527
G1 X13.933 Y43.548
G2 X14.731 Y46.004 I7.354 J-1.035
G1 X14.739 Y46.018
G2 X16.35 Y48.077 I6.636 J-3.533
G1 X16.362 Y48.088
G2 X18.607 Y49.487 I5.086 J-5.66
G1 X18.622 Y49.493
G2 X21.242 Y50.046 I2.875 J-7.144
G1 X21.258
G2 X23.94 Y49.664 I0.258 J-7.788
G1 X23.955 Y49.659
G2 X26.372 Y48.367 I-2.452 J-7.492
G1 X26.385 Y48.357
G2 X28.234 Y46.292 I-4.925 J-6.272
G1 X28.243 Y46.278
G2 X29.285 Y43.675 I-6.852 J-4.254
G1 X29.289 Y43.659
G2 X29.378 Y40.825 I-7.984 J-1.67
G1 X29.376 Y40.809
G2 X28.479 Y38.085 I-8.164 J1.177
G1 X28.472 Y38.071
G2 X26.678 Y35.794 I-7.348 J3.944
G1 X26.666 Y35.783
G2 X24.173 Y34.242 I-5.614 J6.289
G1 X23.958 Y34.156
G2 X17.523 Y34.243 I-3.112 J7.806
X16.159 Y34.976 I3.483 J8.112
X14.941 Y35.938 I4.869 J7.419
X13.903 Y37.103 I6.116 J6.494
X13.079 Y38.438 I7.188 J5.36
X12.497 Y39.903 I8.052 J4.05
X12.176 Y41.454 I8.677 J2.602
X12.13 Y43.046 I9.043 J1.06
X12.362 Y44.629 I9.136 J-0.531
X12.869 Y46.156 I8.949 J-2.121
X13.636 Y47.579 I8.487 J-3.662
X14.645 Y48.852 I7.76 J-5.107
X15.865 Y49.937 I6.788 J-6.409
X17.262 Y50.797 I5.598 J-7.529
X18.795 Y51.404 I4.225 J-8.428
X20.418 Y51.737 I2.709 J-9.078
X22.082 Y51.784 I1.096 J-9.457
X23.737 Y51.539 I-0.567 J-9.549
X25.332 Y51.008 I-2.229 J-9.35
X26.817 Y50.204 I-3.838 J-8.863
X28.146 Y49.149 I-5.345 J-8.1
X29.277 Y47.873 I-6.703 J-7.081
X30.173 Y46.413 I-7.869 J-5.836
X30.805 Y44.812 I-8.805 J-4.401
G1 X30.822 Y44.754
G2 X31.144 Y43.175 I-8.856 J-2.628
G1 X31.25 Y42.25
G3 X11.25 Y42.25 I-10 J0
X31.25 Y42.25 I10 J0
G1 X31.242 Y42.298
X31.219 Y42.341
X31.184 Y42.374
X31.14 Y42.394
X31.092 Y42.4
X29.612 Y42.323
X20.594 Y43.125
X20.271 Y43.155
X20.243 Y43.151
X20.219 Y43.137
X20.202 Y43.113
X20.197 Y43.086
X20.203 Y43.058
G3 X22.792 Y44.249 Z-11.556 I1.295 J0.596 F333.3
X20.203 Y43.058 Z-11.713 I-1.295 J-0.596
X22.792 Y44.249 Z-11.869 I1.295 J0.596
X20.203 Y43.058 Z-12.025 I-1.295 J-0.596
X22.792 Y44.249 Z-12.182 I1.295 J0.596
X20.203 Y43.058 Z-12.338 I-1.295 J-0.596
X22.792 Y44.249 Z-12.494 I1.295 J0.596
X20.203 Y43.058 Z-12.651 I-1.295 J-0.596
X22.792 Y44.249 Z-12.807 I1.295 J0.596
X20.203 Y43.058 Z-12.963 I-1.295 J-0.596
X22.792 Y44.249 Z-13.12 I1.295 J0.596
X20.203 Y43.058 Z-13.276 I-1.295 J-0.596
X22.792 Y44.249 Z-13.432 I1.295 J0.596
X20.203 Y43.058 Z-13.589 I-1.295 J-0.596
X22.792 Y44.249 Z-13.745 I1.295 J0.596
X20.203 Y43.058 Z-13.901 I-1.295 J-0.596
X22.792 Y44.249 Z-14.058 I1.295 J0.596
X20.203 Y43.058 Z-14.214 I-1.295 J-0.596
X22.792 Y44.249 Z-14.37 I1.295 J0.596
X20.203 Y43.058 Z-14.527 I-1.295 J-0.596
X22.792 Y44.249 Z-14.683 I1.295 J0.596
X20.203 Y43.058 Z-14.839 I-1.295 J-0.596
X22.792 Y44.249 Z-14.996 I1.295 J0.596
X20.203 Y43.058 Z-15.152 I-1.295 J-0.596
X21.25 Y42.25 Z-15.2 I1.295 J0.596
G1 X21.289 Y42.243 F1000
X21.301 Y42.238
X21.329 Y42.214
X21.359 Y42.183
X21.379 Y42.145
X21.389 Y42.103
X21.387 Y42.061
X21.375 Y42.019
X21.357 Y41.98
X21.323 Y41.923
X21.276 Y41.876
X21.22 Y41.84
X21.189 Y41.826
X21.133 Y41.804
X21.073 Y41.791
X21.013 Y41.788
X20.953 Y41.795
X20.91 Y41.803
G2 X20.641 Y41.946 I0.097 J0.507
G1 X20.612 Y41.976
G2 X20.435 Y42.303 I0.463 J0.461
G1 X20.427 Y42.343
G2 X20.46 Y42.781 I0.775 J0.162
G1 X20.473 Y42.818
G2 X20.774 Y43.228 I0.871 J-0.324
G1 X20.786 Y43.237
G2 X21.364 Y43.442 I0.597 J-0.768
G1 X21.466 Y43.444
G2 X22.31 Y43.144 I0.024 J-1.267
G1 X22.338 Y43.119
G2 X22.806 Y42.282 I-0.884 J-1.044
G1 X22.822 Y42.178
G2 X22.083 Y40.55 I-1.619 J-0.247
G1 X22.036 Y40.52
G2 X21.091 Y40.226 I-1.012 J1.588
G1 X21.054 Y40.225
G2 X20.023 Y40.466 I-0.071 J2.016
G1 X19.991 Y40.484
G2 X19.174 Y41.262 I1.024 J1.893
G1 X19.155 Y41.293
G2 X18.824 Y42.444 I1.957 J1.185
G1 Y42.481
G2 X19.136 Y43.708 I2.423 J0.037
G1 X19.154 Y43.74
G2 X20.092 Y44.691 I2.227 J-1.257
G1 X20.123 Y44.71
G2 X21.479 Y45.077 I1.358 J-2.325
G1 X21.516
G2 X22.939 Y44.694 I0.002 J-2.827
G1 X22.971 Y44.676
G2 X24.057 Y43.579 I-1.489 J-2.56
G1 X24.074 Y43.547
G2 X24.479 Y41.986 I-2.692 J-1.53
G1 X24.478 Y41.949
G2 X24.024 Y40.33 I-3.231 J0.033
G1 X24.005 Y40.299
G2 X22.749 Y39.078 I-2.892 J1.721
G1 X22.641 Y39.019
G2 X18.792 Y39.258 I-1.738 J3.125
G1 X18.753 Y39.286
G2 X17.82 Y40.26 I2.283 J3.121
G1 X17.811 Y40.274
G2 X17.256 Y41.538 I3.292 J2.198
G1 X17.252 Y41.553
G2 X17.164 Y42.962 I3.935 J0.955
G1 X17.165 Y42.978
G2 X17.575 Y44.363 I4.114 J-0.464
G1 X17.582 Y44.377
G2 X18.46 Y45.562 I3.787 J-1.889
G1 X18.472 Y45.573
G2 X19.73 Y46.402 I2.971 J-3.14
G1 X19.745 Y46.409
G2 X21.242 Y46.763 I1.749 J-4.053
G1 X21.258 Y46.764
G2 X22.817 Y46.579 I0.258 J-4.499
G1 X22.833 Y46.574
G2 X24.262 Y45.852 I-1.328 J-4.401
G1 X24.275 Y45.842
G2 X25.391 Y44.65 I-2.812 J-3.752
G1 X25.4 Y44.637
G2 X26.052 Y43.105 I-4.005 J-2.61
G1 X26.056 Y43.089
G2 X26.145 Y41.395 I-4.746 J-1.099
G1 X26.143 Y41.379
G2 X25.636 Y39.727 I-4.925 J0.607
G1 X25.629 Y39.713
G2 X24.567 Y38.309 I-4.5 J2.3
G1 X24.555 Y38.298
G2 X23.051 Y37.327 I-3.501 J3.771
G1 X23.036 Y37.32
G2 X21.258 Y36.916 I-2.031 J4.826
G1 X21.242
G2 X19.402 Y37.15 I-0.258 J5.322
G1 X19.387 Y37.154
G2 X17.711 Y38.019 I1.609 J5.175
G1 X17.698 Y38.029
G2 X16.398 Y39.439 I3.34 J4.382
G1 X16.389 Y39.453
G2 X15.64 Y41.253 I4.717 J3.021
G1 X15.636 Y41.268
G2 X15.547 Y43.247 I5.556 J1.242
G1 X15.549 Y43.263
G2 X16.153 Y45.183 I5.735 J-0.749
G1 X16.161 Y45.198
G2 X17.405 Y46.82 I5.212 J-2.711
G1 X17.417 Y46.831
G2 X19.169 Y47.945 I4.029 J-4.401
G1 X19.184 Y47.951
G2 X21.242 Y48.404 I2.313 J-5.599
G1 X21.258 Y48.405
G2 X23.379 Y48.122 I0.258 J-6.144
G1 X23.394 Y48.117
G2 X25.317 Y47.109 I-1.89 J-5.947
G1 X25.33 Y47.1
G2 X26.813 Y45.471 I-3.869 J-5.012
G1 X26.821 Y45.457
G2 X27.669 Y43.39 I-5.429 J-3.433
G1 X27.672 Y43.374
G2 X27.761 Y41.11 I-6.366 J-1.385
G1 X27.759 Y41.094
G2 X27.058 Y38.906 I-6.545 J0.892
G1 X27.05 Y38.892
G2 X25.622 Y37.052 I-5.924 J3.122
G1 X25.611 Y37.041
G2 X23.612 Y35.784 I-4.558 J5.03
G1 X23.597 Y35.778
G2 X21.258 Y35.275 I-2.594 J6.372
G1 X21.242 Y35.274
G2 X18.841 Y35.607 I-0.258 J6.966
G1 X18.825 Y35.612
G2 X16.655 Y36.762 I2.171 J6.72
G1 X16.643 Y36.772
G2 X14.976 Y38.619 I4.397 J5.642
G1 X14.968 Y38.632
G2 X14.023 Y40.968 I6.141 J3.844
G1 X14.02 Y40.983
G2 X13.93 Y43.532 I7.175 J1.527
G1 X13.933 Y43.548
G2 X14.731 Y46.004 I7.354 J-1.035
G1 X14.739 Y46.018
G2 X16.35 Y48.077 I6.636 J-3.533
G1 X16.362 Y48.088
G2 X18.607 Y49.487 I5.086 J-5.66
G1 X18.622 Y49.493
G2 X21.242 Y50.046 I2.875 J-7.144
G1 X21.258
G2 X23.94 Y49.664 I0.258 J-7.788
G1 X23.955 Y49.659
G2 X26.372 Y48.367 I-2.452 J-7.492
G1 X26.385 Y48.357
G2 X28.234 Y46.292 I-4.925 J-6.272
G1 X28.243 Y46.278
G2 X29.285 Y43.675 I-6.852 J-4.254
G1 X29.289 Y43.659
G2 X29.378 Y40.825 I-7.984 J-1.67
G1 X29.376 Y40.809
G2 X28.479 Y38.085 I-8.164 J1.177
G1 X28.472 Y38.071
G2 X26.678 Y35.794 I-7.348 J3.944
G1 X26.666 Y35.783
G2 X24.173 Y34.242 I-5.614 J6.289
G1 X23.958 Y34.156
G2 X17.523 Y34.243 I-3.112 J7.806
X16.159 Y34.976 I3.483 J8.112
X14.941 Y35.938 I4.869 J7.419
X13.903 Y37.103 I6.116 J6.494
X13.079 Y38.438 I7.188 J5.36
X12.497 Y39.903 I8.052 J4.05
X12.176 Y41.454 I8.677 J2.602
X12.13 Y43.046 I9.043 J1.06
X12.362 Y44.629 I9.136 J-0.531
X12.869 Y46.156 I8.949 J-2.121
X13.636 Y47.579 I8.487 J-3.662
X14.645 Y48.852 I7.76 J-5.107
X15.865 Y49.937 I6.788 J-6.409
X17.262 Y50.797 I5.598 J-7.529
X18.795 Y51.404 I4.225 J-8.428
X20.418 Y51.737 I2.709 J-9.078
X22.082 Y51.784 I1.096 J-9.457
X23.737 Y51.539 I-0.567 J-9.549
X25.332 Y51.008 I-2.229 J-9.35
X26.817 Y50.204 I-3.838 J-8.863
X28.146 Y49.149 I-5.345 J-8.1
X29.277 Y47.873 I-6.703 J-7.081
X30.173 Y46.413 I-7.869 J-5.836
X30.805 Y44.812 I-8.805 J-4.401
G1 X30.822 Y44.754
G2 X31.144 Y43.175 I-8.856 J-2.628
G1 X31.25 Y42.25
G3 X11.25 Y42.25 I-10 J0
X31.25 Y42.25 I10 J0
G1 X31.242 Y42.298
X31.219 Y42.341
X31.184 Y42.374
X31.14 Y42.394
X31.092 Y42.4
X29.612 Y42.323
X20.594 Y43.125
X20.271 Y43.155
X20.243 Y43.151
X20.219 Y43.137
X20.202 Y43.113
X20.197 Y43.086
X20.203 Y43.058
G3 X22.792 Y44.249 Z-15.356 I1.295 J0.596 F333.3
X20.203 Y43.058 Z-15.513 I-1.295 J-0.596
X22.792 Y44.249 Z-15.669 I1.295 J0.596
X20.203 Y43.058 Z-15.825 I-1.295 J-0.596
X22.792 Y44.249 Z-15.982 I1.295 J0.596
X20.203 Y43.058 Z-16.138 I-1.295 J-0.596
X22.792 Y44.249 Z-16.294 I1.295 J0.596
X20.203 Y43.058 Z-16.451 I-1.295 J-0.596
X22.792 Y44.249 Z-16.607 I1.295 J0.596
X20.203 Y43.058 Z-16.763 I-1.295 J-0.596
X22.792 Y44.249 Z-16.92 I1.295 J0.596
X20.203 Y43.058 Z-17.076 I-1.295 J-0.596
X22.792 Y44.249 Z-17.232 I1.295 J0.596
X20.203 Y43.058 Z-17.389 I-1.295 J-0.596
X22.792 Y44.249 Z-17.545 I1.295 J0.596
X20.203 Y43.058 Z-17.701 I-1.295 J-0.596
X22.792 Y44.249 Z-17.858 I1.295 J0.596
X20.203 Y43.058 Z-18.014 I-1.295 J-0.596
X22.792 Y44.249 Z-18.17 I1.295 J0.596
X20.203 Y43.058 Z-18.327 I-1.295 J-0.596
X22.792 Y44.249 Z-18.483 I1.295 J0.596
X20.203 Y43.058 Z-18.639 I-1.295 J-0.596
X22.792 Y44.249 Z-18.796 I1.295 J0.596
X20.203 Y43.058 Z-18.952 I-1.295 J-0.596
X21.25 Y42.25 Z-19 I1.295 J0.596
G1 X21.289 Y42.243 F1000
X21.301 Y42.238
X21.329 Y42.214
X21.359 Y42.183
X21.379 Y42.145
X21.389 Y42.103
X21.387 Y42.061
X21.375 Y42.019
X21.357 Y41.98
X21.323 Y41.923
X21.276 Y41.876
X21.22 Y41.84
X21.189 Y41.826
X21.133 Y41.804
X21.073 Y41.791
X21.013 Y41.788
X20.953 Y41.795
X20.91 Y41.803
G2 X20.641 Y41.946 I0.097 J0.507
G1 X20.612 Y41.976
G2 X20.435 Y42.303 I0.463 J0.461
G1 X20.427 Y42.343
G2 X20.46 Y42.781 I0.775 J0.162
G1 X20.473 Y42.818
G2 X20.774 Y43.228 I0.871 J-0.324
G1 X20.786 Y43.237
G2 X21.364 Y43.442 I0.597 J-0.768
G1 X21.466 Y43.444
G2 X22.31 Y43.144 I0.024 J-1.267
G1 X22.338 Y43.119
G2 X22.806 Y42.282 I-0.884 J-1.044
G1 X22.822 Y42.178
G2 X22.083 Y40.55 I-1.619 J-0.247
G1 X22.036 Y40.52
G2 X21.091 Y40.226 I-1.012 J1.588
G1 X21.054 Y40.225
G2 X20.023 Y40.466 I-0.071 J2.016
G1 X19.991 Y40.484
G2 X19.174 Y41.262 I1.024 J1.893
G1 X19.155 Y41.293
G2 X18.824 Y42.444 I1.957 J1.185
G1 Y42.481
G2 X19.136 Y43.708 I2.423 J0.037
G1 X19.154 Y43.74
G2 X20.092 Y44.691 I2.227 J-1.257
G1 X20.123 Y44.71
G2 X21.479 Y45.077 I1.358 J-2.325
G1 X21.516
G2 X22.939 Y44.694 I0.002 J-2.827
G1 X22.971 Y44.676
G2 X24.057 Y43.579 I-1.489 J-2.56
G1 X24.074 Y43.547
G2 X24.479 Y41.986 I-2.692 J-1.53
G1 X24.478 Y41.949
G2 X24.024 Y40.33 I-3.231 J0.033
G1 X24.005 Y40.299
G2 X22.749 Y39.078 I-2.892 J1.721
G1 X22.641 Y39.019
G2 X18.792 Y39.258 I-1.738 J3.125
G1 X18.753 Y39.286
G2 X17.82 Y40.26 I2.283 J3.121
G1 X17.811 Y40.274
G2 X17.256 Y41.538 I3.292 J2.198
G1 X17.252 Y41.553
G2 X17.164 Y42.962 I3.935 J0.955
G1 X17.165 Y42.978
G2 X17.575 Y44.363 I4.114 J-0.464
G1 X17.582 Y44.377
G2 X18.46 Y45.562 I3.787 J-1.889
G1 X18.472 Y45.573
G2 X19.73 Y46.402 I2.971 J-3.14
G1 X19.745 Y46.409
G2 X21.242 Y46.763 I1.749 J-4.053
G1 X21.258 Y46.764
G2 X22.817 Y46.579 I0.258 J-4.499
G1 X22.833 Y46.574
G2 X24.262 Y45.852 I-1.328 J-4.401
G1 X24.275 Y45.842
G2 X25.391 Y44.65 I-2.812 J-3.752
G1 X25.4 Y44.637
G2 X26.052 Y43.105 I-4.005 J-2.61
G1 X26.056 Y43.089
G2 X26.145 Y41.395 I-4.746 J-1.099
G1 X26.143 Y41.379
G2 X25.636 Y39.727 I-4.925 J0.607
G1 X25.629 Y39.713
G2 X24.567 Y38.309 I-4.5 J2.3
G1 X24.555 Y38.298
G2 X23.051 Y37.327 I-3.501 J3.771
G1 X23.036 Y37.32
G2 X21.258 Y36.916 I-2.031 J4.826
G1 X21.242
G2 X19.402 Y37.15 I-0.258 J5.322
G1 X19.387 Y37.154
G2 X17.711 Y38.019 I1.609 J5.175
G1 X17.698 Y38.029
G2 X16.398 Y39.439 I3.34 J4.382
G1 X16.389 Y39.453
G2 X15.64 Y41.253 I4.717 J3.021
G1 X15.636 Y41.268
G2 X15.547 Y43.247 I5.556 J1.242
G1 X15.549 Y43.263
G2 X16.153 Y45.183 I5.735 J-0.749
G1 X16.161 Y45.198
G2 X17.405 Y46.82 I5.212 J-2.711
G1 X17.417 Y46.831
G2 X19.169 Y47.945 I4.029 J-4.401
G1 X19.184 Y47.951
G2 X21.242 Y48.404 I2.313 J-5.599
G1 X21.258 Y48.405
G2 X23.379 Y48.122 I0.258 J-6.144
G1 X23.394 Y48.117
G2 X25.317 Y47.109 I-1.89 J-5.947
G1 X25.33 Y47.1
G2 X26.813 Y45.471 I-3.869 J-5.012
G1 X26.821 Y45.457
G2 X27.669 Y43.39 I-5.429 J-3.433
G1 X27.672 Y43.374
G2 X27.761 Y41.11 I-6.366 J-1.385
G1 X27.759 Y41.094
G2 X27.058 Y38.906 I-6.545 J0.892
G1 X27.05 Y38.892
G2 X25.622 Y37.052 I-5.924 J3.122
G1 X25.611 Y37.041
G2 X23.612 Y35.784 I-4.558 J5.03
G1 X23.597 Y35.778
G2 X21.258 Y35.275 I-2.594 J6.372
G1 X21.242 Y35.274
G2 X18.841 Y35.607 I-0.258 J6.966
G1 X18.825 Y35.612
G2 X16.655 Y36.762 I2.171 J6.72
G1 X16.643 Y36.772
G2 X14.976 Y38.619 I4.397 J5.642
G1 X14.968 Y38.632
G2 X14.023 Y40.968 I6.141 J3.844
G1 X14.02 Y40.983
G2 X13.93 Y43.532 I7.175 J1.527
G1 X13.933 Y43.548
G2 X14.731 Y46.004 I7.354 J-1.035
G1 X14.739 Y46.018
G2 X16.35 Y48.077 I6.636 J-3.533
G1 X16.362 Y48.088
G2 X18.607 Y49.487 I5.086 J-5.66
G1 X18.622 Y49.493
G2 X21.242 Y50.046 I2.875 J-7.144
G1 X21.258
G2 X23.94 Y49.664 I0.258 J-7.788
G1 X23.955 Y49.659
G2 X26.372 Y48.367 I-2.452 J-7.492
G1 X26.385 Y48.357
G2 X28.234 Y46.292 I-4.925 J-6.272
G1 X28.243 Y46.278
G2 X29.285 Y43.675 I-6.852 J-4.254
G1 X29.289 Y43.659
G2 X29.378 Y40.825 I-7.984 J-1.67
G1 X29.376 Y40.809
G2 X28.479 Y38.085 I-8.164 J1.177
G1 X28.472 Y38.071
G2 X26.678 Y35.794 I-7.348 J3.944
G1 X26.666 Y35.783
G2 X24.173 Y34.242 I-5.614 J6.289
G1 X23.958 Y34.156
G2 X17.523 Y34.243 I-3.112 J7.806
X16.159 Y34.976 I3.483 J8.112
X14.941 Y35.938 I4.869 J7.419
X13.903 Y37.103 I6.116 J6.494
X13.079 Y38.438 I7.188 J5.36
X12.497 Y39.903 I8.052 J4.05
X12.176 Y41.454 I8.677 J2.602
X12.13 Y43.046 I9.043 J1.06
X12.362 Y44.629 I9.136 J-0.531
X12.869 Y46.156 I8.949 J-2.121
X13.636 Y47.579 I8.487 J-3.662
X14.645 Y48.852 I7.76 J-5.107
X15.865 Y49.937 I6.788 J-6.409
X17.262 Y50.797 I5.598 J-7.529
X18.795 Y51.404 I4.225 J-8.428
X20.418 Y51.737 I2.709 J-9.078
X22.082 Y51.784 I1.096 J-9.457
X23.737 Y51.539 I-0.567 J-9.549
X25.332 Y51.008 I-2.229 J-9.35
X26.817 Y50.204 I-3.838 J-8.863
X28.146 Y49.149 I-5.345 J-8.1
X29.277 Y47.873 I-6.703 J-7.081
X30.173 Y46.413 I-7.869 J-5.836
X30.805 Y44.812 I-8.805 J-4.401
G1 X30.822 Y44.754
G2 X31.144 Y43.175 I-8.856 J-2.628
G1 X31.25 Y42.25
G3 X11.25 Y42.25 I-10 J0
X31.25 Y42.25 I10 J0
G1 X31.245 Y42.307 Z-18.989
X31.228 Y42.362 Z-18.977
X31.207 Y42.405 Z-18.945
X31.178 Y42.445 Z-18.912
X31.131 Y42.489 Z-18.815
X31.112 Y42.502 Z-18.7
G0 Z5
X36.806 Y27.748
G1 Z2.8 F333.3
X36.768 Y27.75 Z2.653
X36.662 Y27.746 Z2.544
X36.59 Y27.737 Z2.522
X36.519 Y27.723 Z2.5
G3 X36.981 Y25.777 Z2.39 I0.231 J-0.973
X36.519 Y27.723 Z2.281 I-0.231 J0.973
X36.981 Y25.777 Z2.171 I0.231 J-0.973
X36.519 Y27.723 Z2.061 I-0.231 J0.973
X36.981 Y25.777 Z1.951 I0.231 J-0.973
X36.519 Y27.723 Z1.842 I-0.231 J0.973
X36.981 Y25.777 Z1.732 I0.231 J-0.973
X36.519 Y27.723 Z1.622 I-0.231 J0.973
X36.981 Y25.777 Z1.513 I0.231 J-0.973
X36.519 Y27.723 Z1.403 I-0.231 J0.973
X36.981 Y25.777 Z1.293 I0.231 J-0.973
X36.519 Y27.723 Z1.184 I-0.231 J0.973
X36.981 Y25.777 Z1.074 I0.231 J-0.973
X36.519 Y27.723 Z0.964 I-0.231 J0.973
X36.981 Y25.777 Z0.854 I0.231 J-0.973
X36.519 Y27.723 Z0.745 I-0.231 J0.973
X36.981 Y25.777 Z0.635 I0.231 J-0.973
X36.519 Y27.723 Z0.525 I-0.231 J0.973
X36.981 Y25.777 Z0.416 I0.231 J-0.973
X36.519 Y27.723 Z0.306 I-0.231 J0.973
X36.981 Y25.777 Z0.196 I0.231 J-0.973
X36.519 Y27.723 Z0.086 I-0.231 J0.973
X36.981 Y25.777 Z-0.023 I0.231 J-0.973
X36.519 Y27.723 Z-0.133 I-0.231 J0.973
X36.981 Y25.777 Z-0.243 I0.231 J-0.973
X36.519 Y27.723 Z-0.352 I-0.231 J0.973
X36.981 Y25.777 Z-0.462 I0.231 J-0.973
X36.519 Y27.723 Z-0.572 I-0.231 J0.973
X36.981 Y25.777 Z-0.681 I0.231 J-0.973
X36.519 Y27.723 Z-0.791 I-0.231 J0.973
X36.981 Y25.777 Z-0.901 I0.231 J-0.973
X36.519 Y27.723 Z-1.011 I-0.231 J0.973
X36.981 Y25.777 Z-1.12 I0.231 J-0.973
X36.519 Y27.723 Z-1.23 I-0.231 J0.973
X36.981 Y25.777 Z-1.34 I0.231 J-0.973
X36.519 Y27.723 Z-1.449 I-0.231 J0.973
X36.981 Y25.777 Z-1.559 I0.231 J-0.973
X36.519 Y27.723 Z-1.669 I-0.231 J0.973
X36.981 Y25.777 Z-1.779 I0.231 J-0.973
X36.519 Y27.723 Z-1.888 I-0.231 J0.973
X36.981 Y25.777 Z-1.998 I0.231 J-0.973
X36.519 Y27.723 Z-2.108 I-0.231 J0.973
X36.981 Y25.777 Z-2.217 I0.231 J-0.973
X36.519 Y27.723 Z-2.327 I-0.231 J0.973
X36.981 Y25.777 Z-2.437 I0.231 J-0.973
X36.519 Y27.723 Z-2.547 I-0.231 J0.973
X36.981 Y25.777 Z-2.656 I0.231 J-0.973
X36.519 Y27.723 Z-2.766 I-0.231 J0.973
X36.981 Y25.777 Z-2.876 I0.231 J-0.973
X36.519 Y27.723 Z-2.985 I-0.231 J0.973
X36.981 Y25.777 Z-3.095 I0.231 J-0.973
X36.519 Y27.723 Z-3.205 I-0.231 J0.973
X36.981 Y25.777 Z-3.314 I0.231 J-0.973
X36.519 Y27.723 Z-3.424 I-0.231 J0.973
X36.981 Y25.777 Z-3.534 I0.231 J-0.973
X36.519 Y27.723 Z-3.644 I-0.231 J0.973
X36.981 Y25.777 Z-3.753 I0.231 J-0.973
X37.75 Y26.75 Z-3.8 I-0.231 J0.973
X35.75 Y26.75 I-1 J0 F1000
X37.75 Y26.75 I1 J0
X35.75 Y26.75 Z-3.91 I-1 J0 F333.3
X37.75 Y26.75 Z-4.019 I1 J0
X35.75 Y26.75 Z-4.129 I-1 J0
X37.75 Y26.75 Z-4.239 I1 J0
X35.75 Y26.75 Z-4.349 I-1 J0
X37.75 Y26.75 Z-4.458 I1 J0
X35.75 Y26.75 Z-4.568 I-1 J0
X37.75 Y26.75 Z-4.678 I1 J0
X35.75 Y26.75 Z-4.787 I-1 J0
X37.75 Y26.75 Z-4.897 I1 J0
X35.75 Y26.75 Z-5.007 I-1 J0
X37.75 Y26.75 Z-5.116 I1 J0
X35.75 Y26.75 Z-5.226 I-1 J0
X37.75 Y26.75 Z-5.336 I1 J0
X35.75 Y26.75 Z-5.446 I-1 J0
X37.75 Y26.75 Z-5.555 I1 J0
X35.75 Y26.75 Z-5.665 I-1 J0
X37.75 Y26.75 Z-5.775 I1 J0
X35.75 Y26.75 Z-5.884 I-1 J0
X37.75 Y26.75 Z-5.994 I1 J0
X35.75 Y26.75 Z-6.104 I-1 J0
X37.75 Y26.75 Z-6.214 I1 J0
X35.75 Y26.75 Z-6.323 I-1 J0
X37.75 Y26.75 Z-6.433 I1 J0
X35.75 Y26.75 Z-6.543 I-1 J0
X37.75 Y26.75 Z-6.652 I1 J0
X35.75 Y26.75 Z-6.762 I-1 J0
X37.75 Y26.75 Z-6.872 I1 J0
X35.75 Y26.75 Z-6.981 I-1 J0
X37.75 Y26.75 Z-7.091 I1 J0
X35.75 Y26.75 Z-7.201 I-1 J0
X37.75 Y26.75 Z-7.311 I1 J0
X35.75 Y26.75 Z-7.42 I-1 J0
X37.75 Y26.75 Z-7.53 I1 J0
X36.331 Y27.658 Z-7.6 I-1 J0
X37.169 Y25.842 I0.419 J-0.908 F1000
X36.331 Y27.658 I-0.419 J0.908
X37.169 Y25.842 Z-7.71 I0.419 J-0.908 F333.3
X36.331 Y27.658 Z-7.819 I-0.419 J0.908
X37.169 Y25.842 Z-7.929 I0.419 J-0.908
X36.331 Y27.658 Z-8.039 I-0.419 J0.908
X37.169 Y25.842 Z-8.149 I0.419 J-0.908
X36.331 Y27.658 Z-8.258 I-0.419 J0.908
X37.169 Y25.842 Z-8.368 I0.419 J-0.908
X36.331 Y27.658 Z-8.478 I-0.419 J0.908
X37.169 Y25.842 Z-8.587 I0.419 J-0.908
X36.331 Y27.658 Z-8.697 I-0.419 J0.908
X37.169 Y25.842 Z-8.807 I0.419 J-0.908
X36.331 Y27.658 Z-8.916 I-0.419 J0.908
X37.169 Y25.842 Z-9.026 I0.419 J-0.908
X36.331 Y27.658 Z-9.136 I-0.419 J0.908
X37.169 Y25.842 Z-9.246 I0.419 J-0.908
X36.331 Y27.658 Z-9.355 I-0.419 J0.908
X37.169 Y25.842 Z-9.465 I0.419 J-0.908
X36.331 Y27.658 Z-9.575 I-0.419 J0.908
X37.169 Y25.842 Z-9.684 I0.419 J-0.908
X36.331 Y27.658 Z-9.794 I-0.419 J0.908
X37.169 Y25.842 Z-9.904 I0.419 J-0.908
X36.331 Y27.658 Z-10.014 I-0.419 J0.908
X37.169 Y25.842 Z-10.123 I0.419 J-0.908
X36.331 Y27.658 Z-10.233 I-0.419 J0.908
X37.169 Y25.842 Z-10.343 I0.419 J-0.908
X36.331 Y27.658 Z-10.452 I-0.419 J0.908
X37.169 Y25.842 Z-10.562 I0.419 J-0.908
X36.331 Y27.658 Z-10.672 I-0.419 J0.908
X37.169 Y25.842 Z-10.781 I0.419 J-0.908
X36.331 Y27.658 Z-10.891 I-0.419 J0.908
X37.169 Y25.842 Z-11.001 I0.419 J-0.908
X36.331 Y27.658 Z-11.111 I-0.419 J0.908
X37.169 Y25.842 Z-11.22 I0.419 J-0.908
X36.331 Y27.658 Z-11.33 I-0.419 J0.908
X36.102 Y25.988 Z-11.4 I0.419 J-0.908
X37.398 Y27.512 I0.648 J0.762 F1000
X36.102 Y25.988 I-0.648 J-0.762
X37.398 Y27.512 Z-11.51 I0.648 J0.762 F333.3
X36.102 Y25.988 Z-11.619 I-0.648 J-0.762
X37.398 Y27.512 Z-11.729 I0.648 J0.762
X36.102 Y25.988 Z-11.839 I-0.648 J-0.762
X37.398 Y27.512 Z-11.949 I0.648 J0.762
X36.102 Y25.988 Z-12.058 I-0.648 J-0.762
X37.398 Y27.512 Z-12.168 I0.648 J0.762
X36.102 Y25.988 Z-12.278 I-0.648 J-0.762
X37.398 Y27.512 Z-12.387 I0.648 J0.762
X36.102 Y25.988 Z-12.497 I-0.648 J-0.762
X37.398 Y27.512 Z-12.607 I0.648 J0.762
X36.102 Y25.988 Z-12.716 I-0.648 J-0.762
X37.398 Y27.512 Z-12.826 I0.648 J0.762
X36.102 Y25.988 Z-12.936 I-0.648 J-0.762
X37.398 Y27.512 Z-13.046 I0.648 J0.762
X36.102 Y25.988 Z-13.155 I-0.648 J-0.762
X37.398 Y27.512 Z-13.265 I0.648 J0.762
X36.102 Y25.988 Z-13.375 I-0.648 J-0.762
X37.398 Y27.512 Z-13.484 I0.648 J0.762
X36.102 Y25.988 Z-13.594 I-0.648 J-0.762
X37.398 Y27.512 Z-13.704 I0.648 J0.762
X36.102 Y25.988 Z-13.814 I-0.648 J-0.762
X37.398 Y27.512 Z-13.923 I0.648 J0.762
X36.102 Y25.988 Z-14.033 I-0.648 J-0.762
X37.398 Y27.512 Z-14.143 I0.648 J0.762
X36.102 Y25.988 Z-14.252 I-0.648 J-0.762
X37.398 Y27.512 Z-14.362 I0.648 J0.762
X36.102 Y25.988 Z-14.472 I-0.648 J-0.762
X37.398 Y27.512 Z-14.581 I0.648 J0.762
X36.102 Y25.988 Z-14.691 I-0.648 J-0.762
X37.398 Y27.512 Z-14.801 I0.648 J0.762
X36.102 Y25.988 Z-14.911 I-0.648 J-0.762
X37.398 Y27.512 Z-15.02 I0.648 J0.762
X36.102 Y25.988 Z-15.13 I-0.648 J-0.762
X37.713 Y26.481 Z-15.2 I0.648 J0.762
X35.787 Y27.019 I-0.963 J0.269 F1000
X37.713 Y26.481 I0.963 J-0.269
X35.787 Y27.019 Z-15.31 I-0.963 J0.269 F333.3
X37.713 Y26.481 Z-15.419 I0.963 J-0.269
X35.787 Y27.019 Z-15.529 I-0.963 J0.269
X37.713 Y26.481 Z-15.639 I0.963 J-0.269
X35.787 Y27.019 Z-15.749 I-0.963 J0.269
X37.713 Y26.481 Z-15.858 I0.963 J-0.269
X35.787 Y27.019 Z-15.968 I-0.963 J0.269
X37.713 Y26.481 Z-16.078 I0.963 J-0.269
X35.787 Y27.019 Z-16.187 I-0.963 J0.269
X37.713 Y26.481 Z-16.297 I0.963 J-0.269
X35.787 Y27.019 Z-16.407 I-0.963 J0.269
X37.713 Y26.481 Z-16.516 I0.963 J-0.269
X35.787 Y27.019 Z-16.626 I-0.963 J0.269
X37.713 Y26.481 Z-16.736 I0.963 J-0.269
X35.787 Y27.019 Z-16.846 I-0.963 J0.269
X37.713 Y26.481 Z-16.955 I0.963 J-0.269
X35.787 Y27.019 Z-17.065 I-0.963 J0.269
X37.713 Y26.481 Z-17.175 I0.963 J-0.269
X35.787 Y27.019 Z-17.284 I-0.963 J0.269
X37.713 Y26.481 Z-17.394 I0.963 J-0.269
X35.787 Y27.019 Z-17.504 I-0.963 J0.269
X37.713 Y26.481 Z-17.614 I0.963 J-0.269
X35.787 Y27.019 Z-17.723 I-0.963 J0.269
X37.713 Y26.481 Z-17.833 I0.963 J-0.269
X35.787 Y27.019 Z-17.943 I-0.963 J0.269
X37.713 Y26.481 Z-18.052 I0.963 J-0.269
X35.787 Y27.019 Z-18.162 I-0.963 J0.269
X37.713 Y26.481 Z-18.272 I0.963 J-0.269
X35.787 Y27.019 Z-18.381 I-0.963 J0.269
X37.713 Y26.481 Z-18.491 I0.963 J-0.269
X35.787 Y27.019 Z-18.601 I-0.963 J0.269
X37.713 Y26.481 Z-18.711 I0.963 J-0.269
X35.787 Y27.019 Z-18.82 I-0.963 J0.269
X37.713 Y26.481 Z-18.93 I0.963 J-0.269
X36.59 Y27.737 Z-19 I-0.963 J0.269
X36.91 Y25.763 I0.16 J-0.987 F1000
X36.59 Y27.737 I-0.16 J0.987
G1 X36.535 Y27.723 Z-18.989
X36.483 Y27.698 Z-18.977
X36.444 Y27.669 Z-18.945
X36.409 Y27.635 Z-18.912
X36.373 Y27.581 Z-18.815
X36.363 Y27.561 Z-18.7
G0 Z5
X35.752 Y57.806
G1 Z2.8 F333.3
X35.75 Y57.768 Z2.653
X35.754 Y57.662 Z2.544
X35.763 Y57.59 Z2.522
X35.777 Y57.519 Z2.5
G3 X37.723 Y57.981 Z2.39 I0.973 J0.231
X35.777 Y57.519 Z2.281 I-0.973 J-0.231
X37.723 Y57.981 Z2.171 I0.973 J0.231
X35.777 Y57.519 Z2.061 I-0.973 J-0.231
X37.723 Y57.981 Z1.951 I0.973 J0.231
X35.777 Y57.519 Z1.842 I-0.973 J-0.231
X37.723 Y57.981 Z1.732 I0.973 J0.231
X35.777 Y57.519 Z1.622 I-0.973 J-0.231
X37.723 Y57.981 Z1.513 I0.973 J0.231
X35.777 Y57.519 Z1.403 I-0.973 J-0.231
X37.723 Y57.981 Z1.293 I0.973 J0.231
X35.777 Y57.519 Z1.184 I-0.973 J-0.231
X37.723 Y57.981 Z1.074 I0.973 J0.231
X35.777 Y57.519 Z0.964 I-0.973 J-0.231
X37.723 Y57.981 Z0.854 I0.973 J0.231
X35.777 Y57.519 Z0.745 I-0.973 J-0.231
X37.723 Y57.981 Z0.635 I0.973 J0.231
X35.777 Y57.519 Z0.525 I-0.973 J-0.231
X37.723 Y57.981 Z0.416 I0.973 J0.231
X35.777 Y57.519 Z0.306 I-0.973 J-0.231
X37.723 Y57.981 Z0.196 I0.973 J0.231
X35.777 Y57.519 Z0.086 I-0.973 J-0.231
X37.723 Y57.981 Z-0.023 I0.973 J0.231
X35.777 Y57.519 Z-0.133 I-0.973 J-0.231
X37.723 Y57.981 Z-0.243 I0.973 J0.231
X35.777 Y57.519 Z-0.352 I-0.973 J-0.231
X37.723 Y57.981 Z-0.462 I0.973 J0.231
X35.777 Y57.519 Z-0.572 I-0.973 J-0.231
X37.723 Y57.981 Z-0.681 I0.973 J0.231
X35.777 Y57.519 Z-0.791 I-0.973 J-0.231
X37.723 Y57.981 Z-0.901 I0.973 J0.231
X35.777 Y57.519 Z-1.011 I-0.973 J-0.231
X37.723 Y57.981 Z-1.12 I0.973 J0.231
X35.777 Y57.519 Z-1.23 I-0.973 J-0.231
X37.723 Y57.981 Z-1.34 I0.973 J0.231
X35.777 Y57.519 Z-1.449 I-0.973 J-0.231
X37.723 Y57.981 Z-1.559 I0.973 J0.231
X35.777 Y57.519 Z-1.669 I-0.973 J-0.231
X37.723 Y57.981 Z-1.779 I0.973 J0.231
X35.777 Y57.519 Z-1.888 I-0.973 J-0.231
X37.723 Y57.981 Z-1.998 I0.973 J0.231
X35.777 Y57.519 Z-2.108 I-0.973 J-0.231
X37.723 Y57.981 Z-2.217 I0.973 J0.231
X35.777 Y57.519 Z-2.327 I-0.973 J-0.231
X37.723 Y57.981 Z-2.437 I0.973 J0.231
X35.777 Y57.519 Z-2.547 I-0.973 J-0.231
X37.723 Y57.981 Z-2.656 I0.973 J0.231
X35.777 Y57.519 Z-2.766 I-0.973 J-0.231
X37.723 Y57.981 Z-2.876 I0.973 J0.231
X35.777 Y57.519 Z-2.985 I-0.973 J-0.231
X37.723 Y57.981 Z-3.095 I0.973 J0.231
X35.777 Y57.519 Z-3.205 I-0.973 J-0.231
X37.723 Y57.981 Z-3.314 I0.973 J0.231
X35.777 Y57.519 Z-3.424 I-0.973 J-0.231
X37.723 Y57.981 Z-3.534 I0.973 J0.231
X35.777 Y57.519 Z-3.644 I-0.973 J-0.231
X37.723 Y57.981 Z-3.753 I0.973 J0.231
X36.75 Y58.75 Z-3.8 I-0.973 J-0.231
X36.75 Y56.75 I0 J-1 F1000
X36.75 Y58.75 I0 J1
X36.75 Y56.75 Z-3.91 I0 J-1 F333.3
X36.75 Y58.75 Z-4.019 I0 J1
X36.75 Y56.75 Z-4.129 I0 J-1
X36.75 Y58.75 Z-4.239 I0 J1
X36.75 Y56.75 Z-4.349 I0 J-1
X36.75 Y58.75 Z-4.458 I0 J1
X36.75 Y56.75 Z-4.568 I0 J-1
X36.75 Y58.75 Z-4.678 I0 J1
X36.75 Y56.75 Z-4.787 I0 J-1
X36.75 Y58.75 Z-4.897 I0 J1
X36.75 Y56.75 Z-5.007 I0 J-1
X36.75 Y58.75 Z-5.116 I0 J1
X36.75 Y56.75 Z-5.226 I0 J-1
X36.75 Y58.75 Z-5.336 I0 J1
X36.75 Y56.75 Z-5.446 I0 J-1
X36.75 Y58.75 Z-5.555 I0 J1
X36.75 Y56.75 Z-5.665 I0 J-1
X36.75 Y58.75 Z-5.775 I0 J1
X36.75 Y56.75 Z-5.884 I0 J-1
X36.75 Y58.75 Z-5.994 I0 J1
X36.75 Y56.75 Z-6.104 I0 J-1
X36.75 Y58.75 Z-6.214 I0 J1
X36.75 Y56.75 Z-6.323 I0 J-1
X36.75 Y58.75 Z-6.433 I0 J1
X36.75 Y56.75 Z-6.543 I0 J-1
X36.75 Y58.75 Z-6.652 I0 J1
X36.75 Y56.75 Z-6.762 I0 J-1
X36.75 Y58.75 Z-6.872 I0 J1
X36.75 Y56.75 Z-6.981 I0 J-1
X36.75 Y58.75 Z-7.091 I0 J1
X36.75 Y56.75 Z-7.201 I0 J-1
X36.75 Y58.75 Z-7.311 I0 J1
X36.75 Y56.75 Z-7.42 I0 J-1
X36.75 Y58.75 Z-7.53 I0 J1
X35.842 Y57.331 Z-7.6 I0 J-1
X37.658 Y58.169 I0.908 J0.419 F1000
X35.842 Y57.331 I-0.908 J-0.419
X37.658 Y58.169 Z-7.71 I0.908 J0.419 F333.3
X35.842 Y57.331 Z-7.819 I-0.908 J-0.419
X37.658 Y58.169 Z-7.929 I0.908 J0.419
X35.842 Y57.331 Z-8.039 I-0.908 J-0.419
X37.658 Y58.169 Z-8.149 I0.908 J0.419
X35.842 Y57.331 Z-8.258 I-0.908 J-0.419
X37.658 Y58.169 Z-8.368 I0.908 J0.419
X35.842 Y57.331 Z-8.478 I-0.908 J-0.419
X37.658 Y58.169 Z-8.587 I0.908 J0.419
X35.842 Y57.331 Z-8.697 I-0.908 J-0.419
X37.658 Y58.169 Z-8.807 I0.908 J0.419
X35.842 Y57.331 Z-8.916 I-0.908 J-0.419
X37.658 Y58.169 Z-9.026 I0.908 J0.419
X35.842 Y57.331 Z-9.136 I-0.908 J-0.419
X37.658 Y58.169 Z-9.246 I0.908 J0.419
X35.842 Y57.331 Z-9.355 I-0.908 J-0.419
X37.658 Y58.169 Z-9.465 I0.908 J0.419
X35.842 Y57.331 Z-9.575 I-0.908 J-0.419
X37.658 Y58.169 Z-9.684 I0.908 J0.419
X35.842 Y57.331 Z-9.794 I-0.908 J-0.419
X37.658 Y58.169 Z-9.904 I0.908 J0.419
X35.842 Y57.331 Z-10.014 I-0.908 J-0.419
X37.658 Y58.169 Z-10.123 I0.908 J0.419
X35.842 Y57.331 Z-10.233 I-0.908 J-0.419
X37.658 Y58.169 Z-10.343 I0.908 J0.419
X35.842 Y57.331 Z-10.452 I-0.908 J-0.419
X37.658 Y58.169 Z-10.562 I0.908 J0.419
X35.842 Y57.331 Z-10.672 I-0.908 J-0.419
X37.658 Y58.169 Z-10.781 I0.908 J0.419
X35.842 Y57.331 Z-10.891 I-0.908 J-0.419
X37.658 Y58.169 Z-11.001 I0.908 J0.419
X35.842 Y57.331 Z-11.111 I-0.908 J-0.419
X37.658 Y58.169 Z-11.22 I0.908 J0.419
X35.842 Y57.331 Z-11.33 I-0.908 J-0.419
X37.512 Y57.102 Z-11.4 I0.908 J0.419
X35.988 Y58.398 I-0.762 J0.648 F1000
X37.512 Y57.102 I0.762 J-0.648
X35.988 Y58.398 Z-11.51 I-0.762 J0.648 F333.3
X37.512 Y57.102 Z-11.619 I0.762 J-0.648
X35.988 Y58.398 Z-11.729 I-0.762 J0.648
X37.512 Y57.102 Z-11.839 I0.762 J-0.648
X35.988 Y58.398 Z-11.949 I-0.762 J0.648
X37.512 Y57.102 Z-12.058 I0.762 J-0.648
X35.988 Y58.398 Z-12.168 I-0.762 J0.648
X37.512 Y57.102 Z-12.278 I0.762 J-0.648
X35.988 Y58.398 Z-12.387 I-0.762 J0.648
X37.512 Y57.102 Z-12.497 I0.762 J-0.648
X35.988 Y58.398 Z-12.607 I-0.762 J0.648
X37.512 Y57.102 Z-12.716 I0.762 J-0.648
X35.988 Y58.398 Z-12.826 I-0.762 J0.648
X37.512 Y57.102 Z-12.936 I0.762 J-0.648
X35.988 Y58.398 Z-13.046 I-0.762 J0.648
X37.512 Y57.102 Z-13.155 I0.762 J-0.648
X35.988 Y58.398 Z-13.265 I-0.762 J0.648
X37.512 Y57.102 Z-13.375 I0.762 J-0.648
X35.988 Y58.398 Z-13.484 I-0.762 J0.648
X37.512 Y57.102 Z-13.594 I0.762 J-0.648
X35.988 Y58.398 Z-13.704 I-0.762 J0.648
X37.512 Y57.102 Z-13.814 I0.762 J-0.648
X35.988 Y58.398 Z-13.923 I-0.762 J0.648
X37.512 Y57.102 Z-14.033 I0.762 J-0.648
X35.988 Y58.398 Z-14.143 I-0.762 J0.648
X37.512 Y57.102 Z-14.252 I0.762 J-0.648
X35.988 Y58.398 Z-14.362 I-0.762 J0.648
X37.512 Y57.102 Z-14.472 I0.762 J-0.648
X35.988 Y58.398 Z-14.581 I-0.762 J0.648
X37.512 Y57.102 Z-14.691 I0.762 J-0.648
X35.988 Y58.398 Z-14.801 I-0.762 J0.648
X37.512 Y57.102 Z-14.911 I0.762 J-0.648
X35.988 Y58.398 Z-15.02 I-0.762 J0.648
X37.512 Y57.102 Z-15.13 I0.762 J-0.648
X37.019 Y58.713 Z-15.2 I-0.762 J0.648
X36.481 Y56.787 I-0.269 J-0.963 F1000
X37.019 Y58.713 I0.269 J0.963
X36.481 Y56.787 Z-15.31 I-0.269 J-0.963 F333.3
X37.019 Y58.713 Z-15.419 I0.269 J0.963
X36.481 Y56.787 Z-15.529 I-0.269 J-0.963
X37.019 Y58.713 Z-15.639 I0.269 J0.963
X36.481 Y56.787 Z-15.749 I-0.269 J-0.963
X37.019 Y58.713 Z-15.858 I0.269 J0.963
X36.481 Y56.787 Z-15.968 I-0.269 J-0.963
X37.019 Y58.713 Z-16.078 I0.269 J0.963
X36.481 Y56.787 Z-16.187 I-0.269 J-0.963
X37.019 Y58.713 Z-16.297 I0.269 J0.963
X36.481 Y56.787 Z-16.407 I-0.269 J-0.963
X37.019 Y58.713 Z-16.516 I0.269 J0.963
X36.481 Y56.787 Z-16.626 I-0.269 J-0.963
X37.019 Y58.713 Z-16.736 I0.269 J0.963
X36.481 Y56.787 Z-16.846 I-0.269 J-0.963
X37.019 Y58.713 Z-16.955 I0.269 J0.963
X36.481 Y56.787 Z-17.065 I-0.269 J-0.963
X37.019 Y58.713 Z-17.175 I0.269 J0.963
X36.481 Y56.787 Z-17.284 I-0.269 J-0.963
X37.019 Y58.713 Z-17.394 I0.269 J0.963
X36.481 Y56.787 Z-17.504 I-0.269 J-0.963
X37.019 Y58.713 Z-17.614 I0.269 J0.963
X36.481 Y56.787 Z-17.723 I-0.269 J-0.963
X37.019 Y58.713 Z-17.833 I0.269 J0.963
X36.481 Y56.787 Z-17.943 I-0.269 J-0.963
X37.019 Y58.713 Z-18.052 I0.269 J0.963
X36.481 Y56.787 Z-18.162 I-0.269 J-0.963
X37.019 Y58.713 Z-18.272 I0.269 J0.963
X36.481 Y56.787 Z-18.381 I-0.269 J-0.963
X37.019 Y58.713 Z-18.491 I0.269 J0.963
X36.481 Y56.787 Z-18.601 I-0.269 J-0.963
X37.019 Y58.713 Z-18.711 I0.269 J0.963
X36.481 Y56.787 Z-18.82 I-0.269 J-0.963
X37.019 Y58.713 Z-18.93 I0.269 J0.963
X35.763 Y57.59 Z-19 I-0.269 J-0.963
X37.737 Y57.91 I0.987 J0.16 F1000
X35.763 Y57.59 I-0.987 J-0.16
G1 X35.777 Y57.535 Z-18.989
X35.802 Y57.483 Z-18.977
X35.831 Y57.444 Z-18.945
X35.865 Y57.409 Z-18.912
X35.919 Y57.373 Z-18.815
X35.939 Y57.363 Z-18.7
G0 Z5
X6.748 Y57.694
G1 Z2.8 F333.3
X6.75 Y57.732 Z2.653
X6.746 Y57.838 Z2.544
X6.737 Y57.91 Z2.522
X6.723 Y57.981 Z2.5
G3 X4.777 Y57.519 Z2.39 I-0.973 J-0.231
X6.723 Y57.981 Z2.281 I0.973 J0.231
X4.777 Y57.519 Z2.171 I-0.973 J-0.231
X6.723 Y57.981 Z2.061 I0.973 J0.231
X4.777 Y57.519 Z1.951 I-0.973 J-0.231
X6.723 Y57.981 Z1.842 I0.973 J0.231
X4.777 Y57.519 Z1.732 I-0.973 J-0.231
X6.723 Y57.981 Z1.622 I0.973 J0.231
X4.777 Y57.519 Z1.513 I-0.973 J-0.231
X6.723 Y57.981 Z1.403 I0.973 J0.231
X4.777 Y57.519 Z1.293 I-0.973 J-0.231
X6.723 Y57.981 Z1.184 I0.973 J0.231
X4.777 Y57.519 Z1.074 I-0.973 J-0.231
X6.723 Y57.981 Z0.964 I0.973 J0.231
X4.777 Y57.519 Z0.854 I-0.973 J-0.231
X6.723 Y57.981 Z0.745 I0.973 J0.231
X4.777 Y57.519 Z0.635 I-0.973 J-0.231
X6.723 Y57.981 Z0.525 I0.973 J0.231
X4.777 Y57.519 Z0.416 I-0.973 J-0.231
X6.723 Y57.981 Z0.306 I0.973 J0.231
X4.777 Y57.519 Z0.196 I-0.973 J-0.231
X6.723 Y57.981 Z0.086 I0.973 J0.231
X4.777 Y57.519 Z-0.023 I-0.973 J-0.231
X6.723 Y57.981 Z-0.133 I0.973 J0.231
X4.777 Y57.519 Z-0.243 I-0.973 J-0.231
X6.723 Y57.981 Z-0.352 I0.973 J0.231
X4.777 Y57.519 Z-0.462 I-0.973 J-0.231
X6.723 Y57.981 Z-0.572 I0.973 J0.231
X4.777 Y57.519 Z-0.681 I-0.973 J-0.231
X6.723 Y57.981 Z-0.791 I0.973 J0.231
X4.777 Y57.519 Z-0.901 I-0.973 J-0.231
X6.723 Y57.981 Z-1.011 I0.973 J0.231
X4.777 Y57.519 Z-1.12 I-0.973 J-0.231
X6.723 Y57.981 Z-1.23 I0.973 J0.231
X4.777 Y57.519 Z-1.34 I-0.973 J-0.231
X6.723 Y57.981 Z-1.449 I0.973 J0.231
X4.777 Y57.519 Z-1.559 I-0.973 J-0.231
X6.723 Y57.981 Z-1.669 I0.973 J0.231
X4.777 Y57.519 Z-1.779 I-0.973 J-0.231
X6.723 Y57.981 Z-1.888 I0.973 J0.231
X4.777 Y57.519 Z-1.998 I-0.973 J-0.231
X6.723 Y57.981 Z-2.108 I0.973 J0.231
X4.777 Y57.519 Z-2.217 I-0.973 J-0.231
X6.723 Y57.981 Z-2.327 I0.973 J0.231
X4.777 Y57.519 Z-2.437 I-0.973 J-0.231
X6.723 Y57.981 Z-2.547 I0.973 J0.231
X4.777 Y57.519 Z-2.656 I-0.973 J-0.231
X6.723 Y57.981 Z-2.766 I0.973 J0.231
X4.777 Y57.519 Z-2.876 I-0.973 J-0.231
X6.723 Y57.981 Z-2.985 I0.973 J0.231
X4.777 Y57.519 Z-3.095 I-0.973 J-0.231
X6.723 Y57.981 Z-3.205 I0.973 J0.231
X4.777 Y57.519 Z-3.314 I-0.973 J-0.231
X6.723 Y57.981 Z-3.424 I0.973 J0.231
X4.777 Y57.519 Z-3.534 I-0.973 J-0.231
X6.723 Y57.981 Z-3.644 I0.973 J0.231
X4.777 Y57.519 Z-3.753 I-0.973 J-0.231
X5.75 Y56.75 Z-3.8 I0.973 J0.231
X5.75 Y58.75 I0 J1 F1000
X5.75 Y56.75 I0 J-1
X5.75 Y58.75 Z-3.91 I0 J1 F333.3
X5.75 Y56.75 Z-4.019 I0 J-1
X5.75 Y58.75 Z-4.129 I0 J1
X5.75 Y56.75 Z-4.239 I0 J-1
X5.75 Y58.75 Z-4.349 I0 J1
X5.75 Y56.75 Z-4.458 I0 J-1
X5.75 Y58.75 Z-4.568 I0 J1
X5.75 Y56.75 Z-4.678 I0 J-1
X5.75 Y58.75 Z-4.787 I0 J1
X5.75 Y56.75 Z-4.897 I0 J-1
X5.75 Y58.75 Z-5.007 I0 J1
X5.75 Y56.75 Z-5.116 I0 J-1
X5.75 Y58.75 Z-5.226 I0 J1
X5.75 Y56.75 Z-5.336 I0 J-1
X5.75 Y58.75 Z-5.446 I0 J1
X5.75 Y56.75 Z-5.555 I0 J-1
X5.75 Y58.75 Z-5.665 I0 J1
X5.75 Y56.75 Z-5.775 I0 J-1
X5.75 Y58.75 Z-5.884 I0 J1
X5.75 Y56.75 Z-5.994 I0 J-1
X5.75 Y58.75 Z-6.104 I0 J1
X5.75 Y56.75 Z-6.214 I0 J-1
X5.75 Y58.75 Z-6.323 I0 J1
X5.75 Y56.75 Z-6.433 I0 J-1
X5.75 Y58.75 Z-6.543 I0 J1
X5.75 Y56.75 Z-6.652 I0 J-1
X5.75 Y58.75 Z-6.762 I0 J1
X5.75 Y56.75 Z-6.872 I0 J-1
X5.75 Y58.75 Z-6.981 I0 J1
X5.75 Y56.75 Z-7.091 I0 J-1
X5.75 Y58.75 Z-7.201 I0 J1
X5.75 Y56.75 Z-7.311 I0 J-1
X5.75 Y58.75 Z-7.42 I0 J1
X5.75 Y56.75 Z-7.53 I0 J-1
X6.658 Y58.169 Z-7.6 I0 J1
X4.842 Y57.331 I-0.908 J-0.419 F1000
X6.658 Y58.169 I0.908 J0.419
X4.842 Y57.331 Z-7.71 I-0.908 J-0.419 F333.3
X6.658 Y58.169 Z-7.819 I0.908 J0.419
X4.842 Y57.331 Z-7.929 I-0.908 J-0.419
X6.658 Y58.169 Z-8.039 I0.908 J0.419
X4.842 Y57.331 Z-8.149 I-0.908 J-0.419
X6.658 Y58.169 Z-8.258 I0.908 J0.419
X4.842 Y57.331 Z-8.368 I-0.908 J-0.419
X6.658 Y58.169 Z-8.478 I0.908 J0.419
X4.842 Y57.331 Z-8.587 I-0.908 J-0.419
X6.658 Y58.169 Z-8.697 I0.908 J0.419
X4.842 Y57.331 Z-8.807 I-0.908 J-0.419
X6.658 Y58.169 Z-8.916 I0.908 J0.419
X4.842 Y57.331 Z-9.026 I-0.908 J-0.419
X6.658 Y58.169 Z-9.136 I0.908 J0.419
X4.842 Y57.331 Z-9.246 I-0.908 J-0.419
X6.658 Y58.169 Z-9.355 I0.908 J0.419
X4.842 Y57.331 Z-9.465 I-0.908 J-0.419
X6.658 Y58.169 Z-9.575 I0.908 J0.419
X4.842 Y57.331 Z-9.684 I-0.908 J-0.419
X6.658 Y58.169 Z-9.794 I0.908 J0.419
X4.842 Y57.331 Z-9.904 I-0.908 J-0.419
X6.658 Y58.169 Z-10.014 I0.908 J0.419
X4.842 Y57.331 Z-10.123 I-0.908 J-0.419
X6.658 Y58.169 Z-10.233 I0.908 J0.419
X4.842 Y57.331 Z-10.343 I-0.908 J-0.419
X6.658 Y58.169 Z-10.452 I0.908 J0.419
X4.842 Y57.331 Z-10.562 I-0.908 J-0.419
X6.658 Y58.169 Z-10.672 I0.908 J0.419
X4.842 Y57.331 Z-10.781 I-0.908 J-0.419
X6.658 Y58.169 Z-10.891 I0.908 J0.419
X4.842 Y57.331 Z-11.001 I-0.908 J-0.419
X6.658 Y58.169 Z-11.111 I0.908 J0.419
X4.842 Y57.331 Z-11.22 I-0.908 J-0.419
X6.658 Y58.169 Z-11.33 I0.908 J0.419
X4.988 Y58.398 Z-11.4 I-0.908 J-0.419
X6.512 Y57.102 I0.762 J-0.648 F1000
X4.988 Y58.398 I-0.762 J0.648
X6.512 Y57.102 Z-11.51 I0.762 J-0.648 F333.3
X4.988 Y58.398 Z-11.619 I-0.762 J0.648
X6.512 Y57.102 Z-11.729 I0.762 J-0.648
X4.988 Y58.398 Z-11.839 I-0.762 J0.648
X6.512 Y57.102 Z-11.949 I0.762 J-0.648
X4.988 Y58.398 Z-12.058 I-0.762 J0.648
X6.512 Y57.102 Z-12.168 I0.762 J-0.648
X4.988 Y58.398 Z-12.278 I-0.762 J0.648
X6.512 Y57.102 Z-12.387 I0.762 J-0.648
X4.988 Y58.398 Z-12.497 I-0.762 J0.648
X6.512 Y57.102 Z-12.607 I0.762 J-0.648
X4.988 Y58.398 Z-12.716 I-0.762 J0.648
X6.512 Y57.102 Z-12.826 I0.762 J-0.648
X4.988 Y58.398 Z-12.936 I-0.762 J0.648
X6.512 Y57.102 Z-13.046 I0.762 J-0.648
X4.988 Y58.398 Z-13.155 I-0.762 J0.648
X6.512 Y57.102 Z-13.265 I0.762 J-0.648
X4.988 Y58.398 Z-13.375 I-0.762 J0.648
X6.512 Y57.102 Z-13.484 I0.762 J-0.648
X4.988 Y58.398 Z-13.594 I-0.762 J0.648
X6.512 Y57.102 Z-13.704 I0.762 J-0.648
X4.988 Y58.398 Z-13.814 I-0.762 J0.648
X6.512 Y57.102 Z-13.923 I0.762 J-0.648
X4.988 Y58.398 Z-14.033 I-0.762 J0.648
X6.512 Y57.102 Z-14.143 I0.762 J-0.648
X4.988 Y58.398 Z-14.252 I-0.762 J0.648
X6.512 Y57.102 Z-14.362 I0.762 J-0.648
X4.988 Y58.398 Z-14.472 I-0.762 J0.648
X6.512 Y57.102 Z-14.581 I0.762 J-0.648
X4.988 Y58.398 Z-14.691 I-0.762 J0.648
X6.512 Y57.102 Z-14.801 I0.762 J-0.648
X4.988 Y58.398 Z-14.911 I-0.762 J0.648
X6.512 Y57.102 Z-15.02 I0.762 J-0.648
X4.988 Y58.398 Z-15.13 I-0.762 J0.648
X5.481 Y56.787 Z-15.2 I0.762 J-0.648
X6.019 Y58.713 I0.269 J0.963 F1000
X5.481 Y56.787 I-0.269 J-0.963
X6.019 Y58.713 Z-15.31 I0.269 J0.963 F333.3
X5.481 Y56.787 Z-15.419 I-0.269 J-0.963
X6.019 Y58.713 Z-15.529 I0.269 J0.963
X5.481 Y56.787 Z-15.639 I-0.269 J-0.963
X6.019 Y58.713 Z-15.749 I0.269 J0.963
X5.481 Y56.787 Z-15.858 I-0.269 J-0.963
X6.019 Y58.713 Z-15.968 I0.269 J0.963
X5.481 Y56.787 Z-16.078 I-0.269 J-0.963
X6.019 Y58.713 Z-16.187 I0.269 J0.963
X5.481 Y56.787 Z-16.297 I-0.269 J-0.963
X6.019 Y58.713 Z-16.407 I0.269 J0.963
X5.481 Y56.787 Z-16.516 I-0.269 J-0.963
X6.019 Y58.713 Z-16.626 I0.269 J0.963
X5.481 Y56.787 Z-16.736 I-0.269 J-0.963
X6.019 Y58.713 Z-16.846 I0.269 J0.963
X5.481 Y56.787 Z-16.955 I-0.269 J-0.963
X6.019 Y58.713 Z-17.065 I0.269 J0.963
X5.481 Y56.787 Z-17.175 I-0.269 J-0.963
X6.019 Y58.713 Z-17.284 I0.269 J0.963
X5.481 Y56.787 Z-17.394 I-0.269 J-0.963
X6.019 Y58.713 Z-17.504 I0.269 J0.963
X5.481 Y56.787 Z-17.614 I-0.269 J-0.963
X6.019 Y58.713 Z-17.723 I0.269 J0.963
X5.481 Y56.787 Z-17.833 I-0.269 J-0.963
X6.019 Y58.713 Z-17.943 I0.269 J0.963
X5.481 Y56.787 Z-18.052 I-0.269 J-0.963
X6.019 Y58.713 Z-18.162 I0.269 J0.963
X5.481 Y56.787 Z-18.272 I-0.269 J-0.963
X6.019 Y58.713 Z-18.381 I0.269 J0.963
X5.481 Y56.787 Z-18.491 I-0.269 J-0.963
X6.019 Y58.713 Z-18.601 I0.269 J0.963
X5.481 Y56.787 Z-18.711 I-0.269 J-0.963
X6.019 Y58.713 Z-18.82 I0.269 J0.963
X5.481 Y56.787 Z-18.93 I-0.269 J-0.963
X6.737 Y57.91 Z-19 I0.269 J0.963
X4.763 Y57.59 I-0.987 J-0.16 F1000
X6.737 Y57.91 I0.987 J0.16
G1 X6.723 Y57.965 Z-18.989
X6.698 Y58.017 Z-18.977
X6.669 Y58.056 Z-18.945
X6.635 Y58.091 Z-18.912
X6.581 Y58.127 Z-18.815
X6.561 Y58.137 Z-18.7
G0 Z5
X5.694 Y25.752
G1 Z2.8 F333.3
X5.732 Y25.75 Z2.653
X5.838 Y25.754 Z2.544
X5.91 Y25.763 Z2.522
X5.981 Y25.777 Z2.5
G3 X5.519 Y27.723 Z2.39 I-0.231 J0.973
X5.981 Y25.777 Z2.281 I0.231 J-0.973
X5.519 Y27.723 Z2.171 I-0.231 J0.973
X5.981 Y25.777 Z2.061 I0.231 J-0.973
X5.519 Y27.723 Z1.951 I-0.231 J0.973
X5.981 Y25.777 Z1.842 I0.231 J-0.973
X5.519 Y27.723 Z1.732 I-0.231 J0.973
X5.981 Y25.777 Z1.622 I0.231 J-0.973
X5.519 Y27.723 Z1.513 I-0.231 J0.973
X5.981 Y25.777 Z1.403 I0.231 J-0.973
X5.519 Y27.723 Z1.293 I-0.231 J0.973
X5.981 Y25.777 Z1.184 I0.231 J-0.973
X5.519 Y27.723 Z1.074 I-0.231 J0.973
X5.981 Y25.777 Z0.964 I0.231 J-0.973
X5.519 Y27.723 Z0.854 I-0.231 J0.973
X5.981 Y25.777 Z0.745 I0.231 J-0.973
X5.519 Y27.723 Z0.635 I-0.231 J0.973
X5.981 Y25.777 Z0.525 I0.231 J-0.973
X5.519 Y27.723 Z0.416 I-0.231 J0.973
X5.981 Y25.777 Z0.306 I0.231 J-0.973
X5.519 Y27.723 Z0.196 I-0.231 J0.973
X5.981 Y25.777 Z0.086 I0.231 J-0.973
X5.519 Y27.723 Z-0.023 I-0.231 J0.973
X5.981 Y25.777 Z-0.133 I0.231 J-0.973
X5.519 Y27.723 Z-0.243 I-0.231 J0.973
X5.981 Y25.777 Z-0.352 I0.231 J-0.973
X5.519 Y27.723 Z-0.462 I-0.231 J0.973
X5.981 Y25.777 Z-0.572 I0.231 J-0.973
X5.519 Y27.723 Z-0.681 I-0.231 J0.973
X5.981 Y25.777 Z-0.791 I0.231 J-0.973
X5.519 Y27.723 Z-0.901 I-0.231 J0.973
X5.981 Y25.777 Z-1.011 I0.231 J-0.973
X5.519 Y27.723 Z-1.12 I-0.231 J0.973
X5.981 Y25.777 Z-1.23 I0.231 J-0.973
X5.519 Y27.723 Z-1.34 I-0.231 J0.973
X5.981 Y25.777 Z-1.449 I0.231 J-0.973
X5.519 Y27.723 Z-1.559 I-0.231 J0.973
X5.981 Y25.777 Z-1.669 I0.231 J-0.973
X5.519 Y27.723 Z-1.779 I-0.231 J0.973
X5.981 Y25.777 Z-1.888 I0.231 J-0.973
X5.519 Y27.723 Z-1.998 I-0.231 J0.973
X5.981 Y25.777 Z-2.108 I0.231 J-0.973
X5.519 Y27.723 Z-2.217 I-0.231 J0.973
X5.981 Y25.777 Z-2.327 I0.231 J-0.973
X5.519 Y27.723 Z-2.437 I-0.231 J0.973
X5.981 Y25.777 Z-2.547 I0.231 J-0.973
X5.519 Y27.723 Z-2.656 I-0.231 J0.973
X5.981 Y25.777 Z-2.766 I0.231 J-0.973
X5.519 Y27.723 Z-2.876 I-0.231 J0.973
X5.981 Y25.777 Z-2.985 I0.231 J-0.973
X5.519 Y27.723 Z-3.095 I-0.231 J0.973
X5.981 Y25.777 Z-3.205 I0.231 J-0.973
X5.519 Y27.723 Z-3.314 I-0.231 J0.973
X5.981 Y25.777 Z-3.424 I0.231 J-0.973
X5.519 Y27.723 Z-3.534 I-0.231 J0.973
X5.981 Y25.777 Z-3.644 I0.231 J-0.973
X5.519 Y27.723 Z-3.753 I-0.231 J0.973
X4.75 Y26.75 Z-3.8 I0.231 J-0.973
X6.75 Y26.75 I1 J0 F1000
X4.75 Y26.75 I-1 J0
X6.75 Y26.75 Z-3.91 I1 J0 F333.3
X4.75 Y26.75 Z-4.019 I-1 J0
X6.75 Y26.75 Z-4.129 I1 J0
X4.75 Y26.75 Z-4.239 I-1 J0
X6.75 Y26.75 Z-4.349 I1 J0
X4.75 Y26.75 Z-4.458 I-1 J0
X6.75 Y26.75 Z-4.568 I1 J0
X4.75 Y26.75 Z-4.678 I-1 J0
X6.75 Y26.75 Z-4.787 I1 J0
X4.75 Y26.75 Z-4.897 I-1 J0
X6.75 Y26.75 Z-5.007 I1 J0
X4.75 Y26.75 Z-5.116 I-1 J0
X6.75 Y26.75 Z-5.226 I1 J0
X4.75 Y26.75 Z-5.336 I-1 J0
X6.75 Y26.75 Z-5.446 I1 J0
X4.75 Y26.75 Z-5.555 I-1 J0
X6.75 Y26.75 Z-5.665 I1 J0
X4.75 Y26.75 Z-5.775 I-1 J0
X6.75 Y26.75 Z-5.884 I1 J0
X4.75 Y26.75 Z-5.994 I-1 J0
X6.75 Y26.75 Z-6.104 I1 J0
X4.75 Y26.75 Z-6.214 I-1 J0
X6.75 Y26.75 Z-6.323 I1 J0
X4.75 Y26.75 Z-6.433 I-1 J0
X6.75 Y26.75 Z-6.543 I1 J0
X4.75 Y26.75 Z-6.652 I-1 J0
X6.75 Y26.75 Z-6.762 I1 J0
X4.75 Y26.75 Z-6.872 I-1 J0
X6.75 Y26.75 Z-6.981 I1 J0
X4.75 Y26.75 Z-7.091 I-1 J0
X6.75 Y26.75 Z-7.201 I1 J0
X4.75 Y26.75 Z-7.311 I-1 J0
X6.75 Y26.75 Z-7.42 I1 J0
X4.75 Y26.75 Z-7.53 I-1 J0
X6.169 Y25.842 Z-7.6 I1 J0
X5.331 Y27.658 I-0.419 J0.908 F1000
X6.169 Y25.842 I0.419 J-0.908
X5.331 Y27.658 Z-7.71 I-0.419 J0.908 F333.3
X6.169 Y25.842 Z-7.819 I0.419 J-0.908
X5.331 Y27.658 Z-7.929 I-0.419 J0.908
X6.169 Y25.842 Z-8.039 I0.419 J-0.908
X5.331 Y27.658 Z-8.149 I-0.419 J0.908
X6.169 Y25.842 Z-8.258 I0.419 J-0.908
X5.331 Y27.658 Z-8.368 I-0.419 J0.908
X6.169 Y25.842 Z-8.478 I0.419 J-0.908
X5.331 Y27.658 Z-8.587 I-0.419 J0.908
X6.169 Y25.842 Z-8.697 I0.419 J-0.908
X5.331 Y27.658 Z-8.807 I-0.419 J0.908
X6.169 Y25.842 Z-8.916 I0.419 J-0.908
X5.331 Y27.658 Z-9.026 I-0.419 J0.908
X6.169 Y25.842 Z-9.136 I0.419 J-0.908
X5.331 Y27.658 Z-9.246 I-0.419 J0.908
X6.169 Y25.842 Z-9.355 I0.419 J-0.908
X5.331 Y27.658 Z-9.465 I-0.419 J0.908
X6.169 Y25.842 Z-9.575 I0.419 J-0.908
X5.331 Y27.658 Z-9.684 I-0.419 J0.908
X6.169 Y25.842 Z-9.794 I0.419 J-0.908
X5.331 Y27.658 Z-9.904 I-0.419 J0.908
X6.169 Y25.842 Z-10.014 I0.419 J-0.908
X5.331 Y27.658 Z-10.123 I-0.419 J0.908
X6.169 Y25.842 Z-10.233 I0.419 J-0.908
X5.331 Y27.658 Z-10.343 I-0.419 J0.908
X6.169 Y25.842 Z-10.452 I0.419 J-0.908
X5.331 Y27.658 Z-10.562 I-0.419 J0.908
X6.169 Y25.842 Z-10.672 I0.419 J-0.908
X5.331 Y27.658 Z-10.781 I-0.419 J0.908
X6.169 Y25.842 Z-10.891 I0.419 J-0.908
X5.331 Y27.658 Z-11.001 I-0.419 J0.908
X6.169 Y25.842 Z-11.111 I0.419 J-0.908
X5.331 Y27.658 Z-11.22 I-0.419 J0.908
X6.169 Y25.842 Z-11.33 I0.419 J-0.908
X6.398 Y27.512 Z-11.4 I-0.419 J0.908
X5.102 Y25.988 I-0.648 J-0.762 F1000
X6.398 Y27.512 I0.648 J0.762
X5.102 Y25.988 Z-11.51 I-0.648 J-0.762 F333.3
X6.398 Y27.512 Z-11.619 I0.648 J0.762
X5.102 Y25.988 Z-11.729 I-0.648 J-0.762
X6.398 Y27.512 Z-11.839 I0.648 J0.762
X5.102 Y25.988 Z-11.949 I-0.648 J-0.762
X6.398 Y27.512 Z-12.058 I0.648 J0.762
X5.102 Y25.988 Z-12.168 I-0.648 J-0.762
X6.398 Y27.512 Z-12.278 I0.648 J0.762
X5.102 Y25.988 Z-12.387 I-0.648 J-0.762
X6.398 Y27.512 Z-12.497 I0.648 J0.762
X5.102 Y25.988 Z-12.607 I-0.648 J-0.762
X6.398 Y27.512 Z-12.716 I0.648 J0.762
X5.102 Y25.988 Z-12.826 I-0.648 J-0.762
X6.398 Y27.512 Z-12.936 I0.648 J0.762
X5.102 Y25.988 Z-13.046 I-0.648 J-0.762
X6.398 Y27.512 Z-13.155 I0.648 J0.762
X5.102 Y25.988 Z-13.265 I-0.648 J-0.762
X6.398 Y27.512 Z-13.375 I0.648 J0.762
X5.102 Y25.988 Z-13.484 I-0.648 J-0.762
X6.398 Y27.512 Z-13.594 I0.648 J0.762
X5.102 Y25.988 Z-13.704 I-0.648 J-0.762
X6.398 Y27.512 Z-13.814 I0.648 J0.762
X5.102 Y25.988 Z-13.923 I-0.648 J-0.762
X6.398 Y27.512 Z-14.033 I0.648 J0.762
X5.102 Y25.988 Z-14.143 I-0.648 J-0.762
X6.398 Y27.512 Z-14.252 I0.648 J0.762
X5.102 Y25.988 Z-14.362 I-0.648 J-0.762
X6.398 Y27.512 Z-14.472 I0.648 J0.762
X5.102 Y25.988 Z-14.581 I-0.648 J-0.762
X6.398 Y27.512 Z-14.691 I0.648 J0.762
X5.102 Y25.988 Z-14.801 I-0.648 J-0.762
X6.398 Y27.512 Z-14.911 I0.648 J0.762
X5.102 Y25.988 Z-15.02 I-0.648 J-0.762
X6.398 Y27.512 Z-15.13 I0.648 J0.762
X4.787 Y27.019 Z-15.2 I-0.648 J-0.762
X6.713 Y26.481 I0.963 J-0.269 F1000
X4.787 Y27.019 I-0.963 J0.269
X6.713 Y26.481 Z-15.31 I0.963 J-0.269 F333.3
X4.787 Y27.019 Z-15.419 I-0.963 J0.269
X6.713 Y26.481 Z-15.529 I0.963 J-0.269
X4.787 Y27.019 Z-15.639 I-0.963 J0.269
X6.713 Y26.481 Z-15.749 I0.963 J-0.269
X4.787 Y27.019 Z-15.858 I-0.963 J0.269
X6.713 Y26.481 Z-15.968 I0.963 J-0.269
X4.787 Y27.019 Z-16.078 I-0.963 J0.269
X6.713 Y26.481 Z-16.187 I0.963 J-0.269
X4.787 Y27.019 Z-16.297 I-0.963 J0.269
X6.713 Y26.481 Z-16.407 I0.963 J-0.269
X4.787 Y27.019 Z-16.516 I-0.963 J0.269
X6.713 Y26.481 Z-16.626 I0.963 J-0.269
X4.787 Y27.019 Z-16.736 I-0.963 J0.269
X6.713 Y26.481 Z-16.846 I0.963 J-0.269
X4.787 Y27.019 Z-16.955 I-0.963 J0.269
X6.713 Y26.481 Z-17.065 I0.963 J-0.269
X4.787 Y27.019 Z-17.175 I-0.963 J0.269
X6.713 Y26.481 Z-17.284 I0.963 J-0.269
X4.787 Y27.019 Z-17.394 I-0.963 J0.269
X6.713 Y26.481 Z-17.504 I0.963 J-0.269
X4.787 Y27.019 Z-17.614 I-0.963 J0.269
X6.713 Y26.481 Z-17.723 I0.963 J-0.269
X4.787 Y27.019 Z-17.833 I-0.963 J0.269
X6.713 Y26.481 Z-17.943 I0.963 J-0.269
X4.787 Y27.019 Z-18.052 I-0.963 J0.269
X6.713 Y26.481 Z-18.162 I0.963 J-0.269
X4.787 Y27.019 Z-18.272 I-0.963 J0.269
X6.713 Y26.481 Z-18.381 I0.963 J-0.269
X4.787 Y27.019 Z-18.491 I-0.963 J0.269
X6.713 Y26.481 Z-18.601 I0.963 J-0.269
X4.787 Y27.019 Z-18.711 I-0.963 J0.269
X6.713 Y26.481 Z-18.82 I0.963 J-0.269
X4.787 Y27.019 Z-18.93 I-0.963 J0.269
X5.91 Y25.763 Z-19 I0.963 J-0.269
X5.59 Y27.737 I-0.16 J0.987 F1000
X5.91 Y25.763 I0.16 J-0.987
G1 X5.965 Y25.777 Z-18.989
X6.017 Y25.802 Z-18.977
X6.056 Y25.831 Z-18.945
X6.091 Y25.865 Z-18.912
X6.127 Y25.919 Z-18.815
X6.137 Y25.939 Z-18.7
G0 Z15

(2D Contour4)
X-2.4 Y-0.3
Z15
Z5
G1 Z-3.7 F333.3
G18 G2 X-2.1 Z-4 I0.3 K0 F1000
G1 X-1.8
G17 G3 X-1.5 Y0 I0 J0.3
G1 Y59.5
G2 X4 Y65 I5.5 J0
G1 X38.5
G2 X44 Y59.5 I0 J-5.5
G1 Y0
G2 X42.5 Y-1.5 I-1.5 J0
G1 X0
G2 X-1.5 Y0 I0 J1.5
G3 X-1.8 Y0.3 I-0.3 J0
G1 X-2.1
G18 G3 X-2.4 Z-3.7 I0 K0.3
G0 Z5
Y-0.3
G1 Z1 F333.3
Z-7.7
G2 X-2.1 Z-8 I0.3 K0 F1000
G1 X-1.8
G17 G3 X-1.5 Y0 I0 J0.3
G1 Y59.5
G2 X4 Y65 I5.5 J0
G1 X38.5
G2 X44 Y59.5 I0 J-5.5
G1 Y0
G2 X42.5 Y-1.5 I-1.5 J0
G1 X0
G2 X-1.5 Y0 I0 J1.5
G3 X-1.8 Y0.3 I-0.3 J0
G1 X-2.1
G18 G3 X-2.4 Z-7.7 I0 K0.3
G0 Z5
Y-0.3
G1 Z-3 F333.3
Z-11.7
G2 X-2.1 Z-12 I0.3 K0 F1000
G1 X-1.8
G17 G3 X-1.5 Y0 I0 J0.3
G1 Y59.5
G2 X4 Y65 I5.5 J0
G1 X38.5
G2 X44 Y59.5 I0 J-5.5
G1 Y0
G2 X42.5 Y-1.5 I-1.5 J0
G1 X0
G2 X-1.5 Y0 I0 J1.5
G3 X-1.8 Y0.3 I-0.3 J0
G1 X-2.1
G18 G3 X-2.4 Z-11.7 I0 K0.3
G0 Z5
Y-0.3
G1 Z-7 F333.3
Z-15.7
G2 X-2.1 Z-16 I0.3 K0 F1000
G1 X-1.8
G17 G3 X-1.5 Y0 I0 J0.3
G1 Y59.5
G2 X4 Y65 I5.5 J0
G1 X38.5
G2 X44 Y59.5 I0 J-5.5
G1 Y0
G2 X42.5 Y-1.5 I-1.5 J0
G1 X0
G2 X-1.5 Y0 I0 J1.5
G3 X-1.8 Y0.3 I-0.3 J0
G1 X-2.1
G18 G3 X-2.4 Z-15.7 I0 K0.3
G0 Z5
Y-0.3
G1 Z-11 F333.3
Z-18.7
G2 X-2.1 Z-19 I0.3 K0 F1000
G1 X-1.8
G17 G3 X-1.5 Y0 I0 J0.3
G1 Y59.5
G2 X4 Y65 I5.5 J0
G1 X38.5
G2 X44 Y59.5 I0 J-5.5
G1 Y0
G2 X42.5 Y-1.5 I-1.5 J0
G1 X0
G2 X-1.5 Y0 I0 J1.5
G3 X-1.8 Y0.3 I-0.3 J0
G1 X-2.1
G18 G3 X-2.4 Z-18.7 I0 K0.3
G0 Z15
G17
M9
M5
M30
