(TinyCNCBasisplatte)
(T3  D=3 CR=0 - ZMIN=-19 - flat end mill)
G90 G94
G17
G21

(2D Contour1)
T3
S5000 M3
G54
M8
G0 X-11.035 Y3.453
Z15
Z5
G1 Z2.8 F333.3
G18 G3 X-11.335 Z2.5 I-0.3 K0 F1000
G1 X-11.635
G17 G3 X-11.935 Y3.152 I0 J-0.3
G1 Y-51.5 Z1.86 F333.3
X11.935 Z1.581
Y95.5 Z-0.14
X-11.935 Z-0.419
Y-51.5 Z-2.14
X11.935 Z-2.419
Y83.565 Z-4
Y95.5 F1000
X-11.935
Y-51.5
X11.935
Y83.565
Y95.5 Z-4.14 F333.3
X-11.935 Z-4.419
Y-51.5 Z-6.14
X11.935 Z-6.419
Y83.565 Z-8
Y95.5 F1000
X-11.935
Y-51.5
X11.935
Y83.565
Y95.5 Z-8.14 F333.3
X-11.935 Z-8.419
Y-51.5 Z-10.14
X11.935 Z-10.419
Y83.565 Z-12
Y95.5 F1000
X-11.935
Y-51.5
X11.935
Y83.565
Y95.5 Z-12.14 F333.3
X-11.935 Z-12.419
Y-51.5 Z-14.14
X11.935 Z-14.419
Y83.565 Z-16
Y95.5 F1000
X-11.935
Y-51.5
X11.935
Y83.565
Y95.5 Z-16.14 F333.3
X-11.935 Z-16.419
Y-51.5 Z-18.14
X11.935 Z-18.419
Y-1.87 Z-19
Y83.565 F1000
Y95.5
X-11.935
Y-51.5
X11.935
Y83.565
Y95.5
X-11.935
Y-51.5
X11.935
Y-1.87
G3 X11.635 Y-1.57 I-0.3 J0
G1 X11.335
G18 G3 X11.035 Z-18.7 I0 K0.3
G0 Z15
G17

(2D Pocket5 3)
G0 X-10.353 Y-85.979
Z15
Z5
G1 Z2.8 F333.3
X-10.363 Y-85.941 Z2.653
X-10.395 Y-85.841 Z2.544
X-10.451 Y-85.707 Z2.5
G3 X-13.019 Y-86.943 Z2.344 I-1.284 J-0.618
X-10.451 Y-85.707 Z2.187 I1.284 J0.618
X-13.019 Y-86.943 Z2.031 I-1.284 J-0.618
X-10.451 Y-85.707 Z1.875 I1.284 J0.618
X-13.019 Y-86.943 Z1.718 I-1.284 J-0.618
X-10.451 Y-85.707 Z1.562 I1.284 J0.618
X-13.019 Y-86.943 Z1.406 I-1.284 J-0.618
X-10.451 Y-85.707 Z1.249 I1.284 J0.618
X-13.019 Y-86.943 Z1.093 I-1.284 J-0.618
X-10.451 Y-85.707 Z0.937 I1.284 J0.618
X-13.019 Y-86.943 Z0.78 I-1.284 J-0.618
X-10.451 Y-85.707 Z0.624 I1.284 J0.618
X-13.019 Y-86.943 Z0.468 I-1.284 J-0.618
X-10.451 Y-85.707 Z0.311 I1.284 J0.618
X-13.019 Y-86.943 Z0.155 I-1.284 J-0.618
X-10.451 Y-85.707 Z-0.001 I1.284 J0.618
X-13.019 Y-86.943 Z-0.158 I-1.284 J-0.618
X-10.451 Y-85.707 Z-0.314 I1.284 J0.618
X-13.019 Y-86.943 Z-0.47 I-1.284 J-0.618
X-10.451 Y-85.707 Z-0.627 I1.284 J0.618
X-13.019 Y-86.943 Z-0.783 I-1.284 J-0.618
X-10.451 Y-85.707 Z-0.939 I1.284 J0.618
X-13.019 Y-86.943 Z-1.096 I-1.284 J-0.618
X-10.451 Y-85.707 Z-1.252 I1.284 J0.618
X-13.019 Y-86.943 Z-1.408 I-1.284 J-0.618
X-10.451 Y-85.707 Z-1.565 I1.284 J0.618
X-13.019 Y-86.943 Z-1.721 I-1.284 J-0.618
X-10.451 Y-85.707 Z-1.877 I1.284 J0.618
X-13.019 Y-86.943 Z-2.034 I-1.284 J-0.618
X-10.451 Y-85.707 Z-2.19 I1.284 J0.618
X-13.019 Y-86.943 Z-2.346 I-1.284 J-0.618
X-10.451 Y-85.707 Z-2.503 I1.284 J0.618
X-13.019 Y-86.943 Z-2.659 I-1.284 J-0.618
X-11.75 Y-87.75 Z-2.714 I1.284 J0.618
G1 X11.6 Y-87.991 F1000
X11.724 Y-87.99
X11.847 Y-87.983
X11.89 Y-87.973
X11.927 Y-87.951
X11.957 Y-87.92
X11.976 Y-87.88
X11.983 Y-87.837
Y-87.758
G3 X11.735 Y-87.507 I-0.251 J0.001
G1 X-11.68 Y-87.265
G3 X-12.216 Y-87.796 I-0.005 J-0.531
G1 X-12.215 Y-87.932
G3 X-11.948 Y-88.226 I0.295 J0.001
X-11.43 Y-88.255 I0.65 J6.855
G1 X11.162 Y-88.688
G3 X12.132 Y-88.665 I0.218 J11.368
X12.674 Y-88.093 I-0.038 J0.58
G1 X12.678 Y-87.781
G3 X11.693 Y-86.765 I-1.004 J0.012
G1 X-10.834 Y-86.333
G3 X-12.326 Y-86.369 I-0.332 J-17.309
X-13.143 Y-87.239 I0.059 J-0.873
G1 X-13.146 Y-88.289
G3 X-12.343 Y-89.173 I0.885 J-0.003
X-10.791 Y-89.258 I1.897 J20.506
G1 X10.441 Y-89.614
G3 X12.621 Y-89.563 I0.457 J27.276
G1 X12.927 Y-89.544
G3 X13.56 Y-88.923 I-0.043 J0.676
X13.599 Y-88.102 I-12.351 J1.009
G1 X13.61 Y-87.384
G3 X13.593 Y-86.621 I-9.994 J0.152
X12.879 Y-85.89 I-0.78 J-0.048
G1 X12.672 Y-85.872
G2 X12.344 Y-85.84 I1.076 J12.511
G3 X11.152 Y-85.763 I-1.403 J-12.47
G1 X-10.003 Y-85.408
G3 X-12.894 Y-85.476 I-0.605 J-36.084
G1 X-13.226 Y-85.497
G3 X-14.019 Y-86.274 I0.054 J-0.848
G1 X-14.026 Y-86.362
G3 X-14.068 Y-87.285 I11.997 J-1.004
G1 X-14.074 Y-88.199
G3 X-14.049 Y-89.228 I16.826 J-0.114
G1 Y-89.239
G3 X-13.246 Y-90.071 I0.882 J0.048
G1 X-12.884 Y-90.104
G2 X-12.516 Y-90.142 I-1.401 J-15.449
G3 X-10.979 Y-90.241 I1.768 J15.399
G1 X9.704 Y-90.549
G3 X13.125 Y-90.466 I0.652 J43.745
G1 X13.572 Y-90.438
G3 X14.46 Y-89.566 I-0.06 J0.95
G1 X14.507 Y-88.994
G3 X14.533 Y-86.372 I-18.336 J1.495
G1 X14.502 Y-85.86
G3 X13.641 Y-84.978 I-0.942 J-0.058
G1 X12.954 Y-84.919
G3 X9.691 Y-84.755 I-3.952 J-46.026
G1 X-10.973 Y-84.447
G3 X-12.524 Y-84.504 I-0.223 J-14.952
G1 X-12.952 Y-84.542
X-13.114 Y-84.551
X-13.374 Y-84.556
G3 X-14.975 Y-86.125 I0.034 J-1.636
G1 X-14.985 Y-86.37
X-14.998 Y-86.533
X-15.025 Y-86.783
G3 X-15.043 Y-88.719 I9.531 J-1.056
G1 X-15.017 Y-89.009
X-15.007 Y-89.191
X-15.003 Y-89.477
G3 X-13.478 Y-91.047 I1.595 J0.024
G1 X-13.161 Y-91.061
X-12.996 Y-91.074
X-12.537 Y-91.126
G3 X-10.958 Y-91.225 I1.79 J15.805
G1 X11.007 Y-91.518
G3 X12.49 Y-91.463 I0.196 J14.67
G1 X13.082 Y-91.411
G2 X13.343 Y-91.401 I0.232 J-2.63
G1 X14.156 Y-91.41
G3 X15.433 Y-90.156 I0.014 J1.262
G1 X15.438 Y-89.415
G2 X15.454 Y-89.142 I2.549 J-0.018
G1 X15.503 Y-88.719
G3 X15.528 Y-86.778 I-9.554 J1.096
G1 X15.495 Y-86.4
G2 X15.485 Y-86.108 I2.675 J0.236
G1 X15.503 Y-85.229
G3 X14.27 Y-83.97 I-1.234 J0.026
G1 X13.412 Y-83.969
G2 X13.119 Y-83.953 I0.002 J2.659
G1 X12.461 Y-83.879
G3 X11.034 Y-83.79 I-1.622 J-14.533
G1 X-10.919 Y-83.498
G3 X-12.579 Y-83.554 I-0.235 J-17.637
G2 X-13.976 Y-83.611 I-1.425 J17.585
G1 X-14.752 Y-83.613
X-14.853 Y-83.609
X-14.936 Y-83.605
G3 X-15.905 Y-84.638 I0 J-0.971
G1 X-15.903 Y-84.756
X-15.93 Y-85.778
G2 X-15.988 Y-86.667 I-11.834 J0.322
G1 X-15.992 Y-86.7
G3 X-16.014 Y-88.802 I11.392 J-1.172
G2 X-15.976 Y-89.847 I-11.439 J-0.932
G1 X-15.986 Y-90.796
X-15.989 Y-90.88
X-15.995 Y-90.966
G3 X-14.965 Y-92.019 I0.983 J-0.068
G1 X-14.855 Y-92.013
X-14.751 Y-92.012
X-13.988 Y-92.03
G2 X-12.568 Y-92.119 I-0.44 J-18.511
G3 X-10.928 Y-92.211 I1.86 J18.419
G1 X10.978 Y-92.472
G3 X12.52 Y-92.428 I0.226 J18.935
G2 X14.035 Y-92.383 I1.316 J-18.891
G1 X14.75 Y-92.391
X14.855 Y-92.395
X15.518 Y-92.437
G3 X16.458 Y-91.517 I0.057 J0.882
G1 X16.43 Y-90.884
X16.428 Y-90.801
X16.433 Y-89.886
G2 X16.488 Y-88.763 I12.631 J-0.062
G3 X16.516 Y-86.734 I-12.557 J1.183
G2 X16.488 Y-85.714 I12.639 J0.852
G1 X16.501 Y-84.753
X16.505 Y-84.642
X16.557 Y-83.859
G3 X15.64 Y-82.926 I-0.874 J0.058
G1 X14.866 Y-82.965
X14.739 Y-82.967
X14.045 Y-82.959
G2 X12.511 Y-82.882 I0.226 J19.715
G3 X10.986 Y-82.804 I-1.76 J-19.637
G1 X-10.992 Y-82.542
G3 X-12.507 Y-82.577 I-0.258 J-21.598
G2 X-14.047 Y-82.612 I-1.257 J21.563
G1 X-14.732 Y-82.603
X-14.873 Y-82.597
X-16.079 Y-82.516
G3 X-16.998 Y-83.422 I-0.058 J-0.859
G1 X-16.933 Y-84.613
X-16.929 Y-84.781
X-16.94 Y-85.714
G2 X-16.987 Y-86.732 I-14.779 J0.171
G3 X-17.011 Y-88.769 I14.708 J-1.187
G2 X-16.988 Y-89.879 I-14.748 J-0.851
G1 X-17.004 Y-90.768
X-17.01 Y-90.908
X-17.104 Y-92.248
G3 X-16.247 Y-93.122 I0.817 J-0.057
G1 X-14.887 Y-93.055
X-14.719 Y-93.052
X-14.031 Y-93.06
G2 X-12.524 Y-93.128 I-0.297 J-23.563
G3 X-10.974 Y-93.196 I1.804 J23.495
G1 X10.98 Y-93.432
G3 X12.519 Y-93.403 I0.28 J25.983
G1 X12.536 Y-93.402
G2 X14.017 Y-93.374 I1.23 J-25.359
G1 X14.705 Y-93.381
X14.901 Y-93.389
X16.772 Y-93.523
G3 X17.539 Y-92.771 I0.051 J0.715
G1 X17.443 Y-90.929
X17.438 Y-90.747
X17.443 Y-89.885
G2 X17.486 Y-88.763 I17.609 J-0.102
G3 X17.51 Y-86.735 I-17.553 J1.223
G2 X17.493 Y-85.715 I17.657 J0.812
G1 X17.503 Y-84.798
X17.512 Y-84.596
X17.657 Y-82.596
G3 X16.903 Y-81.828 I-0.715 J0.052
G1 X14.911 Y-81.938
X14.695 Y-81.942
X13.972 Y-81.935
G2 X12.582 Y-81.882 I0.268 J25.395
G1 X12.512 Y-81.877
G3 X10.987 Y-81.819 I-1.826 J-27.908
G1 X-10.994 Y-81.582
G3 X-12.506 Y-81.602 I-0.34 J-31.566
G1 X-12.598 Y-81.606
G2 X-13.955 Y-81.623 I-1.032 J27.769
G1 X-14.687 Y-81.615
X-14.918 Y-81.605
X-17.324 Y-81.43
G3 X-18.083 Y-82.177 I-0.051 J-0.707
G1 X-17.946 Y-84.57
G2 X-17.94 Y-84.825 I-3.76 J-0.215
G1 X-17.95 Y-85.715
G2 X-17.984 Y-86.732 I-22.067 J0.235
G3 X-18.005 Y-88.769 I22.021 J-1.251
G2 X-17.994 Y-89.877 I-22.092 J-0.79
G1 X-18.006 Y-90.721
X-18.016 Y-90.955
X-18.206 Y-93.5
G3 X-17.499 Y-94.221 I0.67 J-0.05
G1 X-14.932 Y-94.08
G2 X-14.674 Y-94.074 I0.215 J-3.917
G1 X-13.868 Y-94.083
G2 X-12.685 Y-94.121 I-0.315 J-28.383
G1 X-12.525 Y-94.13
G3 X-10.974 Y-94.178 I1.905 J36.052
G1 X10.982 Y-94.394
G3 X12.518 Y-94.381 I0.409 J41.611
G1 X12.73 Y-94.375
G2 X13.823 Y-94.365 I0.812 J-29.985
G1 X14.66 Y-94.373
G2 X14.945 Y-94.385 I-0.041 J-4.379
G1 X17.991 Y-94.613
G3 X18.625 Y-93.99 I0.044 J0.59
G1 X18.454 Y-90.976
G2 X18.448 Y-90.7 I4.331 J0.245
G1 X18.453 Y-89.885
G2 X18.483 Y-88.763 I29.178 J-0.202
G3 X18.504 Y-86.736 I-29.14 J1.324
G2 X18.495 Y-86.025 I29.307 J0.711
X18.497 Y-85.716 I29.315 J0
G1 X18.506 Y-84.844
G2 X18.519 Y-84.551 I4.543 J-0.048
G1 X18.758 Y-81.368
G3 X18.131 Y-80.73 I-0.592 J0.044
G1 X14.956 Y-80.914
G2 X14.65 Y-80.921 I-0.261 J4.522
G1 X13.764 Y-80.912
G2 X12.789 Y-80.887 I0.302 J30.773
G1 X12.513 Y-80.876
G3 X10.986 Y-80.837 I-2.001 J-48.19
G1 X-10.996 Y-80.621
G3 X-12.504 Y-80.625 I-0.579 J-58.931
G1 X-12.835 Y-80.63
G2 X-13.718 Y-80.633 I-0.531 J33.696
G1 X-14.642 Y-80.623
G2 X-14.963 Y-80.609 I0.052 J4.993
G1 X-18.54 Y-80.341
G3 X-19.169 Y-80.961 I-0.044 J-0.585
G1 X-18.958 Y-84.526
G2 X-18.95 Y-84.869 I-4.966 J-0.294
G1 X-18.959 Y-85.839
G2 X-18.976 Y-86.608 I-33.081 J0.328
G1 X-18.98 Y-86.732
G3 X-19 Y-88.769 I43.73 J-1.451
G1 X-18.998 Y-88.904
G2 X-18.998 Y-89.743 I-33.765 J-0.452
G1 X-19.008 Y-90.672
G2 X-19.023 Y-91.004 I-5.118 J0.059
G1 X-19.307 Y-94.722
G3 X-18.722 Y-95.319 I0.554 J-0.042
G1 X-14.976 Y-95.102
G2 X-14.629 Y-95.094 I0.297 J-5.135
G1 X-13.616 Y-95.104
G2 X-12.937 Y-95.117 I-0.344 J-35.126
G1 X-12.528 Y-95.129
G3 X-10.972 Y-95.159 I2.256 J77.414
G1 X11.75 Y-95.364
X13.725 Y-95.36
G2 X15.878 Y-95.438 I-0.357 J-39.439
G1 X19.385 Y-95.662
X19.44 Y-95.67
X19.475 Y-95.679
G3 X19.679 Y-95.475 I0.041 J0.163
G1 X19.671 Y-95.442
X19.662 Y-95.383
X19.499 Y-91.818
G2 X19.462 Y-89.857 I36.375 J1.661
G1 X19.479 Y-88.762
G3 X19.498 Y-86.738 I-85.711 J1.828
G1 X19.505 Y-85.342
G2 X19.544 Y-84.053 I31.308 J-0.297
G1 X19.742 Y-80.149
X19.748 Y-80.095
X19.761 Y-80.043
X19.852 Y-79.751
X19.856 Y-79.716
X19.843 Y-79.682
X19.818 Y-79.657
X19.784 Y-79.644
X19.749 Y-79.648
X19.46 Y-79.738
X19.405 Y-79.751
X19.348 Y-79.757
X15.415 Y-79.884
G2 X14.19 Y-79.899 I-0.953 J29.399
G1 X7.048 Y-79.821
X-14.803 Y-79.628
X-19.165 Y-79.553
G2 X-19.602 Y-79.5 I0.037 J2.131
G1 X-19.883 Y-79.436
X-19.925 Y-79.422
X-19.965 Y-79.403
X-20.175 Y-79.279
X-20.196 Y-79.274
X-20.216 Y-79.284
X-20.226 Y-79.304
X-20.221 Y-79.325
X-20.097 Y-79.535
X-20.078 Y-79.575
X-20.064 Y-79.617
X-20.003 Y-79.887
G2 X-19.951 Y-80.344 I-2.005 J-0.457
G1 X-19.957 Y-84.697
X-20 Y-89.324
Y-95.382
G2 X-20.382 Y-96.382 I-1.5 J0
X-19.382 Y-96 I1 J-1.118
G1 X19.382
G2 X20.382 Y-96.382 I0 J-1.5
X20 Y-95.382 I1.118 J1
G1 Y-80.118
G2 X20.382 Y-79.118 I1.5 J0
X19.382 Y-79.5 I-1 J1.118
G1 X-19.382
G2 X-20.382 Y-79.118 I0 J1.5
X-20 Y-80.118 I-1.118 J-1
G1 Y-89.324
X-19.993 Y-89.369
X-19.972 Y-89.411
X-19.94 Y-89.444
X-19.899 Y-89.465
X-19.853 Y-89.474
X-19.807 Y-89.467
X-15.103 Y-88.067
X-10.509 Y-85.939
X-10.471 Y-85.913
X-10.442 Y-85.876
X-10.425 Y-85.833
X-10.423 Y-85.786
X-10.435 Y-85.741
G3 X-13.035 Y-86.909 Z-2.871 I-1.3 J-0.584 F333.3
X-10.435 Y-85.741 Z-3.027 I1.3 J0.584
X-13.035 Y-86.909 Z-3.183 I-1.3 J-0.584
X-10.435 Y-85.741 Z-3.34 I1.3 J0.584
X-13.035 Y-86.909 Z-3.496 I-1.3 J-0.584
X-10.435 Y-85.741 Z-3.652 I1.3 J0.584
X-13.035 Y-86.909 Z-3.809 I-1.3 J-0.584
X-10.435 Y-85.741 Z-3.965 I1.3 J0.584
X-13.035 Y-86.909 Z-4.121 I-1.3 J-0.584
X-10.435 Y-85.741 Z-4.278 I1.3 J0.584
X-13.035 Y-86.909 Z-4.434 I-1.3 J-0.584
X-10.435 Y-85.741 Z-4.59 I1.3 J0.584
X-13.035 Y-86.909 Z-4.747 I-1.3 J-0.584
X-10.435 Y-85.741 Z-4.903 I1.3 J0.584
X-13.035 Y-86.909 Z-5.059 I-1.3 J-0.584
X-10.435 Y-85.741 Z-5.216 I1.3 J0.584
X-13.035 Y-86.909 Z-5.372 I-1.3 J-0.584
X-11.75 Y-87.75 Z-5.429 I1.3 J0.584
G1 X11.6 Y-87.991 F1000
X11.724 Y-87.99
X11.847 Y-87.983
X11.89 Y-87.973
X11.927 Y-87.951
X11.957 Y-87.92
X11.976 Y-87.88
X11.983 Y-87.837
Y-87.758
G3 X11.735 Y-87.507 I-0.251 J0.001
G1 X-11.68 Y-87.265
G3 X-12.216 Y-87.796 I-0.005 J-0.531
G1 X-12.215 Y-87.932
G3 X-11.948 Y-88.226 I0.295 J0.001
X-11.43 Y-88.255 I0.65 J6.855
G1 X11.162 Y-88.688
G3 X12.132 Y-88.665 I0.218 J11.368
X12.674 Y-88.093 I-0.038 J0.58
G1 X12.678 Y-87.781
G3 X11.693 Y-86.765 I-1.004 J0.012
G1 X-10.834 Y-86.333
G3 X-12.326 Y-86.369 I-0.332 J-17.309
X-13.143 Y-87.239 I0.059 J-0.873
G1 X-13.146 Y-88.289
G3 X-12.343 Y-89.173 I0.885 J-0.003
X-10.791 Y-89.258 I1.897 J20.506
G1 X10.441 Y-89.614
G3 X12.621 Y-89.563 I0.457 J27.276
G1 X12.927 Y-89.544
G3 X13.56 Y-88.923 I-0.043 J0.676
X13.599 Y-88.102 I-12.351 J1.009
G1 X13.61 Y-87.384
G3 X13.593 Y-86.621 I-9.994 J0.152
X12.879 Y-85.89 I-0.78 J-0.048
G1 X12.672 Y-85.872
G2 X12.344 Y-85.84 I1.076 J12.511
G3 X11.152 Y-85.763 I-1.403 J-12.47
G1 X-10.003 Y-85.408
G3 X-12.894 Y-85.476 I-0.605 J-36.084
G1 X-13.226 Y-85.497
G3 X-14.019 Y-86.274 I0.054 J-0.848
G1 X-14.026 Y-86.362
G3 X-14.068 Y-87.285 I11.997 J-1.004
G1 X-14.074 Y-88.199
G3 X-14.049 Y-89.228 I16.826 J-0.114
G1 Y-89.239
G3 X-13.246 Y-90.071 I0.882 J0.048
G1 X-12.884 Y-90.104
G2 X-12.516 Y-90.142 I-1.401 J-15.449
G3 X-10.979 Y-90.241 I1.768 J15.399
G1 X9.704 Y-90.549
G3 X13.125 Y-90.466 I0.652 J43.745
G1 X13.572 Y-90.438
G3 X14.46 Y-89.566 I-0.06 J0.95
G1 X14.507 Y-88.994
G3 X14.533 Y-86.372 I-18.336 J1.495
G1 X14.502 Y-85.86
G3 X13.641 Y-84.978 I-0.942 J-0.058
G1 X12.954 Y-84.919
G3 X9.691 Y-84.755 I-3.952 J-46.026
G1 X-10.973 Y-84.447
G3 X-12.524 Y-84.504 I-0.223 J-14.952
G1 X-12.952 Y-84.542
X-13.114 Y-84.551
X-13.374 Y-84.556
G3 X-14.975 Y-86.125 I0.034 J-1.636
G1 X-14.985 Y-86.37
X-14.998 Y-86.533
X-15.025 Y-86.783
G3 X-15.043 Y-88.719 I9.531 J-1.056
G1 X-15.017 Y-89.009
X-15.007 Y-89.191
X-15.003 Y-89.477
G3 X-13.478 Y-91.047 I1.595 J0.024
G1 X-13.161 Y-91.061
X-12.996 Y-91.074
X-12.537 Y-91.126
G3 X-10.958 Y-91.225 I1.79 J15.805
G1 X11.007 Y-91.518
G3 X12.49 Y-91.463 I0.196 J14.67
G1 X13.082 Y-91.411
G2 X13.343 Y-91.401 I0.232 J-2.63
G1 X14.156 Y-91.41
G3 X15.433 Y-90.156 I0.014 J1.262
G1 X15.438 Y-89.415
G2 X15.454 Y-89.142 I2.549 J-0.018
G1 X15.503 Y-88.719
G3 X15.528 Y-86.778 I-9.554 J1.096
G1 X15.495 Y-86.4
G2 X15.485 Y-86.108 I2.675 J0.236
G1 X15.503 Y-85.229
G3 X14.27 Y-83.97 I-1.234 J0.026
G1 X13.412 Y-83.969
G2 X13.119 Y-83.953 I0.002 J2.659
G1 X12.461 Y-83.879
G3 X11.034 Y-83.79 I-1.622 J-14.533
G1 X-10.919 Y-83.498
G3 X-12.579 Y-83.554 I-0.235 J-17.637
G2 X-13.976 Y-83.611 I-1.425 J17.585
G1 X-14.752 Y-83.613
X-14.853 Y-83.609
X-14.936 Y-83.605
G3 X-15.905 Y-84.638 I0 J-0.971
G1 X-15.903 Y-84.756
X-15.93 Y-85.778
G2 X-15.988 Y-86.667 I-11.834 J0.322
G1 X-15.992 Y-86.7
G3 X-16.014 Y-88.802 I11.392 J-1.172
G2 X-15.976 Y-89.847 I-11.439 J-0.932
G1 X-15.986 Y-90.796
X-15.989 Y-90.88
X-15.995 Y-90.966
G3 X-14.965 Y-92.019 I0.983 J-0.068
G1 X-14.855 Y-92.013
X-14.751 Y-92.012
X-13.988 Y-92.03
G2 X-12.568 Y-92.119 I-0.44 J-18.511
G3 X-10.928 Y-92.211 I1.86 J18.419
G1 X10.978 Y-92.472
G3 X12.52 Y-92.428 I0.226 J18.935
G2 X14.035 Y-92.383 I1.316 J-18.891
G1 X14.75 Y-92.391
X14.855 Y-92.395
X15.518 Y-92.437
G3 X16.458 Y-91.517 I0.057 J0.882
G1 X16.43 Y-90.884
X16.428 Y-90.801
X16.433 Y-89.886
G2 X16.488 Y-88.763 I12.631 J-0.062
G3 X16.516 Y-86.734 I-12.557 J1.183
G2 X16.488 Y-85.714 I12.639 J0.852
G1 X16.501 Y-84.753
X16.505 Y-84.642
X16.557 Y-83.859
G3 X15.64 Y-82.926 I-0.874 J0.058
G1 X14.866 Y-82.965
X14.739 Y-82.967
X14.045 Y-82.959
G2 X12.511 Y-82.882 I0.226 J19.715
G3 X10.986 Y-82.804 I-1.76 J-19.637
G1 X-10.992 Y-82.542
G3 X-12.507 Y-82.577 I-0.258 J-21.598
G2 X-14.047 Y-82.612 I-1.257 J21.563
G1 X-14.732 Y-82.603
X-14.873 Y-82.597
X-16.079 Y-82.516
G3 X-16.998 Y-83.422 I-0.058 J-0.859
G1 X-16.933 Y-84.613
X-16.929 Y-84.781
X-16.94 Y-85.714
G2 X-16.987 Y-86.732 I-14.779 J0.171
G3 X-17.011 Y-88.769 I14.708 J-1.187
G2 X-16.988 Y-89.879 I-14.748 J-0.851
G1 X-17.004 Y-90.768
X-17.01 Y-90.908
X-17.104 Y-92.248
G3 X-16.247 Y-93.122 I0.817 J-0.057
G1 X-14.887 Y-93.055
X-14.719 Y-93.052
X-14.031 Y-93.06
G2 X-12.524 Y-93.128 I-0.297 J-23.563
G3 X-10.974 Y-93.196 I1.804 J23.495
G1 X10.98 Y-93.432
G3 X12.519 Y-93.403 I0.28 J25.983
G1 X12.536 Y-93.402
G2 X14.017 Y-93.374 I1.23 J-25.359
G1 X14.705 Y-93.381
X14.901 Y-93.389
X16.772 Y-93.523
G3 X17.539 Y-92.771 I0.051 J0.715
G1 X17.443 Y-90.929
X17.438 Y-90.747
X17.443 Y-89.885
G2 X17.486 Y-88.763 I17.609 J-0.102
G3 X17.51 Y-86.735 I-17.553 J1.223
G2 X17.493 Y-85.715 I17.657 J0.812
G1 X17.503 Y-84.798
X17.512 Y-84.596
X17.657 Y-82.596
G3 X16.903 Y-81.828 I-0.715 J0.052
G1 X14.911 Y-81.938
X14.695 Y-81.942
X13.972 Y-81.935
G2 X12.582 Y-81.882 I0.268 J25.395
G1 X12.512 Y-81.877
G3 X10.987 Y-81.819 I-1.826 J-27.908
G1 X-10.994 Y-81.582
G3 X-12.506 Y-81.602 I-0.34 J-31.566
G1 X-12.598 Y-81.606
G2 X-13.955 Y-81.623 I-1.032 J27.769
G1 X-14.687 Y-81.615
X-14.918 Y-81.605
X-17.324 Y-81.43
G3 X-18.083 Y-82.177 I-0.051 J-0.707
G1 X-17.946 Y-84.57
G2 X-17.94 Y-84.825 I-3.76 J-0.215
G1 X-17.95 Y-85.715
G2 X-17.984 Y-86.732 I-22.067 J0.235
G3 X-18.005 Y-88.769 I22.021 J-1.251
G2 X-17.994 Y-89.877 I-22.092 J-0.79
G1 X-18.006 Y-90.721
X-18.016 Y-90.955
X-18.206 Y-93.5
G3 X-17.499 Y-94.221 I0.67 J-0.05
G1 X-14.932 Y-94.08
G2 X-14.674 Y-94.074 I0.215 J-3.917
G1 X-13.868 Y-94.083
G2 X-12.685 Y-94.121 I-0.315 J-28.383
G1 X-12.525 Y-94.13
G3 X-10.974 Y-94.178 I1.905 J36.052
G1 X10.982 Y-94.394
G3 X12.518 Y-94.381 I0.409 J41.611
G1 X12.73 Y-94.375
G2 X13.823 Y-94.365 I0.812 J-29.985
G1 X14.66 Y-94.373
G2 X14.945 Y-94.385 I-0.041 J-4.379
G1 X17.991 Y-94.613
G3 X18.625 Y-93.99 I0.044 J0.59
G1 X18.454 Y-90.976
G2 X18.448 Y-90.7 I4.331 J0.245
G1 X18.453 Y-89.885
G2 X18.483 Y-88.763 I29.178 J-0.202
G3 X18.504 Y-86.736 I-29.14 J1.324
G2 X18.495 Y-86.025 I29.307 J0.711
X18.497 Y-85.716 I29.315 J0
G1 X18.506 Y-84.844
G2 X18.519 Y-84.551 I4.543 J-0.048
G1 X18.758 Y-81.368
G3 X18.131 Y-80.73 I-0.592 J0.044
G1 X14.956 Y-80.914
G2 X14.65 Y-80.921 I-0.261 J4.522
G1 X13.764 Y-80.912
G2 X12.789 Y-80.887 I0.302 J30.773
G1 X12.513 Y-80.876
G3 X10.986 Y-80.837 I-2.001 J-48.19
G1 X-10.996 Y-80.621
G3 X-12.504 Y-80.625 I-0.579 J-58.931
G1 X-12.835 Y-80.63
G2 X-13.718 Y-80.633 I-0.531 J33.696
G1 X-14.642 Y-80.623
G2 X-14.963 Y-80.609 I0.052 J4.993
G1 X-18.54 Y-80.341
G3 X-19.169 Y-80.961 I-0.044 J-0.585
G1 X-18.958 Y-84.526
G2 X-18.95 Y-84.869 I-4.966 J-0.294
G1 X-18.959 Y-85.839
G2 X-18.976 Y-86.608 I-33.081 J0.328
G1 X-18.98 Y-86.732
G3 X-19 Y-88.769 I43.73 J-1.451
G1 X-18.998 Y-88.904
G2 X-18.998 Y-89.743 I-33.765 J-0.452
G1 X-19.008 Y-90.672
G2 X-19.023 Y-91.004 I-5.118 J0.059
G1 X-19.307 Y-94.722
G3 X-18.722 Y-95.319 I0.554 J-0.042
G1 X-14.976 Y-95.102
G2 X-14.629 Y-95.094 I0.297 J-5.135
G1 X-13.616 Y-95.104
G2 X-12.937 Y-95.117 I-0.344 J-35.126
G1 X-12.528 Y-95.129
G3 X-10.972 Y-95.159 I2.256 J77.414
G1 X11.75 Y-95.364
X13.725 Y-95.36
G2 X15.878 Y-95.438 I-0.357 J-39.439
G1 X19.385 Y-95.662
X19.44 Y-95.67
X19.475 Y-95.679
G3 X19.679 Y-95.475 I0.041 J0.163
G1 X19.671 Y-95.442
X19.662 Y-95.383
X19.499 Y-91.818
G2 X19.462 Y-89.857 I36.375 J1.661
G1 X19.479 Y-88.762
G3 X19.498 Y-86.738 I-85.711 J1.828
G1 X19.505 Y-85.342
G2 X19.544 Y-84.053 I31.308 J-0.297
G1 X19.742 Y-80.149
X19.748 Y-80.095
X19.761 Y-80.043
X19.852 Y-79.751
X19.856 Y-79.716
X19.843 Y-79.682
X19.818 Y-79.657
X19.784 Y-79.644
X19.749 Y-79.648
X19.46 Y-79.738
X19.405 Y-79.751
X19.348 Y-79.757
X15.415 Y-79.884
G2 X14.19 Y-79.899 I-0.953 J29.399
G1 X7.048 Y-79.821
X-14.803 Y-79.628
X-19.165 Y-79.553
G2 X-19.602 Y-79.5 I0.037 J2.131
G1 X-19.883 Y-79.436
X-19.925 Y-79.422
X-19.965 Y-79.403
X-20.175 Y-79.279
X-20.196 Y-79.274
X-20.216 Y-79.284
X-20.226 Y-79.304
X-20.221 Y-79.325
X-20.097 Y-79.535
X-20.078 Y-79.575
X-20.064 Y-79.617
X-20.003 Y-79.887
G2 X-19.951 Y-80.344 I-2.005 J-0.457
G1 X-19.957 Y-84.697
X-20 Y-89.324
Y-95.382
G2 X-20.382 Y-96.382 I-1.5 J0
X-19.382 Y-96 I1 J-1.118
G1 X19.382
G2 X20.382 Y-96.382 I0 J-1.5
X20 Y-95.382 I1.118 J1
G1 Y-80.118
G2 X20.382 Y-79.118 I1.5 J0
X19.382 Y-79.5 I-1 J1.118
G1 X-19.382
G2 X-20.382 Y-79.118 I0 J1.5
X-20 Y-80.118 I-1.118 J-1
G1 Y-89.324
X-19.993 Y-89.369
X-19.972 Y-89.411
X-19.94 Y-89.444
X-19.899 Y-89.465
X-19.853 Y-89.474
X-19.807 Y-89.467
X-15.103 Y-88.067
X-10.509 Y-85.939
X-10.471 Y-85.913
X-10.442 Y-85.876
X-10.425 Y-85.833
X-10.423 Y-85.786
X-10.435 Y-85.741
G3 X-13.035 Y-86.909 Z-5.585 I-1.3 J-0.584 F333.3
X-10.435 Y-85.741 Z-5.741 I1.3 J0.584
X-13.035 Y-86.909 Z-5.898 I-1.3 J-0.584
X-10.435 Y-85.741 Z-6.054 I1.3 J0.584
X-13.035 Y-86.909 Z-6.21 I-1.3 J-0.584
X-10.435 Y-85.741 Z-6.367 I1.3 J0.584
X-13.035 Y-86.909 Z-6.523 I-1.3 J-0.584
X-10.435 Y-85.741 Z-6.679 I1.3 J0.584
X-13.035 Y-86.909 Z-6.836 I-1.3 J-0.584
X-10.435 Y-85.741 Z-6.992 I1.3 J0.584
X-13.035 Y-86.909 Z-7.148 I-1.3 J-0.584
X-10.435 Y-85.741 Z-7.305 I1.3 J0.584
X-13.035 Y-86.909 Z-7.461 I-1.3 J-0.584
X-10.435 Y-85.741 Z-7.617 I1.3 J0.584
X-13.035 Y-86.909 Z-7.774 I-1.3 J-0.584
X-10.435 Y-85.741 Z-7.93 I1.3 J0.584
X-13.035 Y-86.909 Z-8.086 I-1.3 J-0.584
X-11.75 Y-87.75 Z-8.143 I1.3 J0.584
G1 X11.6 Y-87.991 F1000
X11.724 Y-87.99
X11.847 Y-87.983
X11.89 Y-87.973
X11.927 Y-87.951
X11.957 Y-87.92
X11.976 Y-87.88
X11.983 Y-87.837
Y-87.758
G3 X11.735 Y-87.507 I-0.251 J0.001
G1 X-11.68 Y-87.265
G3 X-12.216 Y-87.796 I-0.005 J-0.531
G1 X-12.215 Y-87.932
G3 X-11.948 Y-88.226 I0.295 J0.001
X-11.43 Y-88.255 I0.65 J6.855
G1 X11.162 Y-88.688
G3 X12.132 Y-88.665 I0.218 J11.368
X12.674 Y-88.093 I-0.038 J0.58
G1 X12.678 Y-87.781
G3 X11.693 Y-86.765 I-1.004 J0.012
G1 X-10.834 Y-86.333
G3 X-12.326 Y-86.369 I-0.332 J-17.309
X-13.143 Y-87.239 I0.059 J-0.873
G1 X-13.146 Y-88.289
G3 X-12.343 Y-89.173 I0.885 J-0.003
X-10.791 Y-89.258 I1.897 J20.506
G1 X10.441 Y-89.614
G3 X12.621 Y-89.563 I0.457 J27.276
G1 X12.927 Y-89.544
G3 X13.56 Y-88.923 I-0.043 J0.676
X13.599 Y-88.102 I-12.351 J1.009
G1 X13.61 Y-87.384
G3 X13.593 Y-86.621 I-9.994 J0.152
X12.879 Y-85.89 I-0.78 J-0.048
G1 X12.672 Y-85.872
G2 X12.344 Y-85.84 I1.076 J12.511
G3 X11.152 Y-85.763 I-1.403 J-12.47
G1 X-10.003 Y-85.408
G3 X-12.894 Y-85.476 I-0.605 J-36.084
G1 X-13.226 Y-85.497
G3 X-14.019 Y-86.274 I0.054 J-0.848
G1 X-14.026 Y-86.362
G3 X-14.068 Y-87.285 I11.997 J-1.004
G1 X-14.074 Y-88.199
G3 X-14.049 Y-89.228 I16.826 J-0.114
G1 Y-89.239
G3 X-13.246 Y-90.071 I0.882 J0.048
G1 X-12.884 Y-90.104
G2 X-12.516 Y-90.142 I-1.401 J-15.449
G3 X-10.979 Y-90.241 I1.768 J15.399
G1 X9.704 Y-90.549
G3 X13.125 Y-90.466 I0.652 J43.745
G1 X13.572 Y-90.438
G3 X14.46 Y-89.566 I-0.06 J0.95
G1 X14.507 Y-88.994
G3 X14.533 Y-86.372 I-18.336 J1.495
G1 X14.502 Y-85.86
G3 X13.641 Y-84.978 I-0.942 J-0.058
G1 X12.954 Y-84.919
G3 X9.691 Y-84.755 I-3.952 J-46.026
G1 X-10.973 Y-84.447
G3 X-12.524 Y-84.504 I-0.223 J-14.952
G1 X-12.952 Y-84.542
X-13.114 Y-84.551
X-13.374 Y-84.556
G3 X-14.975 Y-86.125 I0.034 J-1.636
G1 X-14.985 Y-86.37
X-14.998 Y-86.533
X-15.025 Y-86.783
G3 X-15.043 Y-88.719 I9.531 J-1.056
G1 X-15.017 Y-89.009
X-15.007 Y-89.191
X-15.003 Y-89.477
G3 X-13.478 Y-91.047 I1.595 J0.024
G1 X-13.161 Y-91.061
X-12.996 Y-91.074
X-12.537 Y-91.126
G3 X-10.958 Y-91.225 I1.79 J15.805
G1 X11.007 Y-91.518
G3 X12.49 Y-91.463 I0.196 J14.67
G1 X13.082 Y-91.411
G2 X13.343 Y-91.401 I0.232 J-2.63
G1 X14.156 Y-91.41
G3 X15.433 Y-90.156 I0.014 J1.262
G1 X15.438 Y-89.415
G2 X15.454 Y-89.142 I2.549 J-0.018
G1 X15.503 Y-88.719
G3 X15.528 Y-86.778 I-9.554 J1.096
G1 X15.495 Y-86.4
G2 X15.485 Y-86.108 I2.675 J0.236
G1 X15.503 Y-85.229
G3 X14.27 Y-83.97 I-1.234 J0.026
G1 X13.412 Y-83.969
G2 X13.119 Y-83.953 I0.002 J2.659
G1 X12.461 Y-83.879
G3 X11.034 Y-83.79 I-1.622 J-14.533
G1 X-10.919 Y-83.498
G3 X-12.579 Y-83.554 I-0.235 J-17.637
G2 X-13.976 Y-83.611 I-1.425 J17.585
G1 X-14.752 Y-83.613
X-14.853 Y-83.609
X-14.936 Y-83.605
G3 X-15.905 Y-84.638 I0 J-0.971
G1 X-15.903 Y-84.756
X-15.93 Y-85.778
G2 X-15.988 Y-86.667 I-11.834 J0.322
G1 X-15.992 Y-86.7
G3 X-16.014 Y-88.802 I11.392 J-1.172
G2 X-15.976 Y-89.847 I-11.439 J-0.932
G1 X-15.986 Y-90.796
X-15.989 Y-90.88
X-15.995 Y-90.966
G3 X-14.965 Y-92.019 I0.983 J-0.068
G1 X-14.855 Y-92.013
X-14.751 Y-92.012
X-13.988 Y-92.03
G2 X-12.568 Y-92.119 I-0.44 J-18.511
G3 X-10.928 Y-92.211 I1.86 J18.419
G1 X10.978 Y-92.472
G3 X12.52 Y-92.428 I0.226 J18.935
G2 X14.035 Y-92.383 I1.316 J-18.891
G1 X14.75 Y-92.391
X14.855 Y-92.395
X15.518 Y-92.437
G3 X16.458 Y-91.517 I0.057 J0.882
G1 X16.43 Y-90.884
X16.428 Y-90.801
X16.433 Y-89.886
G2 X16.488 Y-88.763 I12.631 J-0.062
G3 X16.516 Y-86.734 I-12.557 J1.183
G2 X16.488 Y-85.714 I12.639 J0.852
G1 X16.501 Y-84.753
X16.505 Y-84.642
X16.557 Y-83.859
G3 X15.64 Y-82.926 I-0.874 J0.058
G1 X14.866 Y-82.965
X14.739 Y-82.967
X14.045 Y-82.959
G2 X12.511 Y-82.882 I0.226 J19.715
G3 X10.986 Y-82.804 I-1.76 J-19.637
G1 X-10.992 Y-82.542
G3 X-12.507 Y-82.577 I-0.258 J-21.598
G2 X-14.047 Y-82.612 I-1.257 J21.563
G1 X-14.732 Y-82.603
X-14.873 Y-82.597
X-16.079 Y-82.516
G3 X-16.998 Y-83.422 I-0.058 J-0.859
G1 X-16.933 Y-84.613
X-16.929 Y-84.781
X-16.94 Y-85.714
G2 X-16.987 Y-86.732 I-14.779 J0.171
G3 X-17.011 Y-88.769 I14.708 J-1.187
G2 X-16.988 Y-89.879 I-14.748 J-0.851
G1 X-17.004 Y-90.768
X-17.01 Y-90.908
X-17.104 Y-92.248
G3 X-16.247 Y-93.122 I0.817 J-0.057
G1 X-14.887 Y-93.055
X-14.719 Y-93.052
X-14.031 Y-93.06
G2 X-12.524 Y-93.128 I-0.297 J-23.563
G3 X-10.974 Y-93.196 I1.804 J23.495
G1 X10.98 Y-93.432
G3 X12.519 Y-93.403 I0.28 J25.983
G1 X12.536 Y-93.402
G2 X14.017 Y-93.374 I1.23 J-25.359
G1 X14.705 Y-93.381
X14.901 Y-93.389
X16.772 Y-93.523
G3 X17.539 Y-92.771 I0.051 J0.715
G1 X17.443 Y-90.929
X17.438 Y-90.747
X17.443 Y-89.885
G2 X17.486 Y-88.763 I17.609 J-0.102
G3 X17.51 Y-86.735 I-17.553 J1.223
G2 X17.493 Y-85.715 I17.657 J0.812
G1 X17.503 Y-84.798
X17.512 Y-84.596
X17.657 Y-82.596
G3 X16.903 Y-81.828 I-0.715 J0.052
G1 X14.911 Y-81.938
X14.695 Y-81.942
X13.972 Y-81.935
G2 X12.582 Y-81.882 I0.268 J25.395
G1 X12.512 Y-81.877
G3 X10.987 Y-81.819 I-1.826 J-27.908
G1 X-10.994 Y-81.582
G3 X-12.506 Y-81.602 I-0.34 J-31.566
G1 X-12.598 Y-81.606
G2 X-13.955 Y-81.623 I-1.032 J27.769
G1 X-14.687 Y-81.615
X-14.918 Y-81.605
X-17.324 Y-81.43
G3 X-18.083 Y-82.177 I-0.051 J-0.707
G1 X-17.946 Y-84.57
G2 X-17.94 Y-84.825 I-3.76 J-0.215
G1 X-17.95 Y-85.715
G2 X-17.984 Y-86.732 I-22.067 J0.235
G3 X-18.005 Y-88.769 I22.021 J-1.251
G2 X-17.994 Y-89.877 I-22.092 J-0.79
G1 X-18.006 Y-90.721
X-18.016 Y-90.955
X-18.206 Y-93.5
G3 X-17.499 Y-94.221 I0.67 J-0.05
G1 X-14.932 Y-94.08
G2 X-14.674 Y-94.074 I0.215 J-3.917
G1 X-13.868 Y-94.083
G2 X-12.685 Y-94.121 I-0.315 J-28.383
G1 X-12.525 Y-94.13
G3 X-10.974 Y-94.178 I1.905 J36.052
G1 X10.982 Y-94.394
G3 X12.518 Y-94.381 I0.409 J41.611
G1 X12.73 Y-94.375
G2 X13.823 Y-94.365 I0.812 J-29.985
G1 X14.66 Y-94.373
G2 X14.945 Y-94.385 I-0.041 J-4.379
G1 X17.991 Y-94.613
G3 X18.625 Y-93.99 I0.044 J0.59
G1 X18.454 Y-90.976
G2 X18.448 Y-90.7 I4.331 J0.245
G1 X18.453 Y-89.885
G2 X18.483 Y-88.763 I29.178 J-0.202
G3 X18.504 Y-86.736 I-29.14 J1.324
G2 X18.495 Y-86.025 I29.307 J0.711
X18.497 Y-85.716 I29.315 J0
G1 X18.506 Y-84.844
G2 X18.519 Y-84.551 I4.543 J-0.048
G1 X18.758 Y-81.368
G3 X18.131 Y-80.73 I-0.592 J0.044
G1 X14.956 Y-80.914
G2 X14.65 Y-80.921 I-0.261 J4.522
G1 X13.764 Y-80.912
G2 X12.789 Y-80.887 I0.302 J30.773
G1 X12.513 Y-80.876
G3 X10.986 Y-80.837 I-2.001 J-48.19
G1 X-10.996 Y-80.621
G3 X-12.504 Y-80.625 I-0.579 J-58.931
G1 X-12.835 Y-80.63
G2 X-13.718 Y-80.633 I-0.531 J33.696
G1 X-14.642 Y-80.623
G2 X-14.963 Y-80.609 I0.052 J4.993
G1 X-18.54 Y-80.341
G3 X-19.169 Y-80.961 I-0.044 J-0.585
G1 X-18.958 Y-84.526
G2 X-18.95 Y-84.869 I-4.966 J-0.294
G1 X-18.959 Y-85.839
G2 X-18.976 Y-86.608 I-33.081 J0.328
G1 X-18.98 Y-86.732
G3 X-19 Y-88.769 I43.73 J-1.451
G1 X-18.998 Y-88.904
G2 X-18.998 Y-89.743 I-33.765 J-0.452
G1 X-19.008 Y-90.672
G2 X-19.023 Y-91.004 I-5.118 J0.059
G1 X-19.307 Y-94.722
G3 X-18.722 Y-95.319 I0.554 J-0.042
G1 X-14.976 Y-95.102
G2 X-14.629 Y-95.094 I0.297 J-5.135
G1 X-13.616 Y-95.104
G2 X-12.937 Y-95.117 I-0.344 J-35.126
G1 X-12.528 Y-95.129
G3 X-10.972 Y-95.159 I2.256 J77.414
G1 X11.75 Y-95.364
X13.725 Y-95.36
G2 X15.878 Y-95.438 I-0.357 J-39.439
G1 X19.385 Y-95.662
X19.44 Y-95.67
X19.475 Y-95.679
G3 X19.679 Y-95.475 I0.041 J0.163
G1 X19.671 Y-95.442
X19.662 Y-95.383
X19.499 Y-91.818
G2 X19.462 Y-89.857 I36.375 J1.661
G1 X19.479 Y-88.762
G3 X19.498 Y-86.738 I-85.711 J1.828
G1 X19.505 Y-85.342
G2 X19.544 Y-84.053 I31.308 J-0.297
G1 X19.742 Y-80.149
X19.748 Y-80.095
X19.761 Y-80.043
X19.852 Y-79.751
X19.856 Y-79.716
X19.843 Y-79.682
X19.818 Y-79.657
X19.784 Y-79.644
X19.749 Y-79.648
X19.46 Y-79.738
X19.405 Y-79.751
X19.348 Y-79.757
X15.415 Y-79.884
G2 X14.19 Y-79.899 I-0.953 J29.399
G1 X7.048 Y-79.821
X-14.803 Y-79.628
X-19.165 Y-79.553
G2 X-19.602 Y-79.5 I0.037 J2.131
G1 X-19.883 Y-79.436
X-19.925 Y-79.422
X-19.965 Y-79.403
X-20.175 Y-79.279
X-20.196 Y-79.274
X-20.216 Y-79.284
X-20.226 Y-79.304
X-20.221 Y-79.325
X-20.097 Y-79.535
X-20.078 Y-79.575
X-20.064 Y-79.617
X-20.003 Y-79.887
G2 X-19.951 Y-80.344 I-2.005 J-0.457
G1 X-19.957 Y-84.697
X-20 Y-89.324
Y-95.382
G2 X-20.382 Y-96.382 I-1.5 J0
X-19.382 Y-96 I1 J-1.118
G1 X19.382
G2 X20.382 Y-96.382 I0 J-1.5
X20 Y-95.382 I1.118 J1
G1 Y-80.118
G2 X20.382 Y-79.118 I1.5 J0
X19.382 Y-79.5 I-1 J1.118
G1 X-19.382
G2 X-20.382 Y-79.118 I0 J1.5
X-20 Y-80.118 I-1.118 J-1
G1 Y-89.324
X-19.993 Y-89.369
X-19.972 Y-89.411
X-19.94 Y-89.444
X-19.899 Y-89.465
X-19.853 Y-89.474
X-19.807 Y-89.467
X-15.103 Y-88.067
X-10.509 Y-85.939
X-10.471 Y-85.913
X-10.442 Y-85.876
X-10.425 Y-85.833
X-10.423 Y-85.786
X-10.435 Y-85.741
G3 X-13.035 Y-86.909 Z-8.299 I-1.3 J-0.584 F333.3
X-10.435 Y-85.741 Z-8.456 I1.3 J0.584
X-13.035 Y-86.909 Z-8.612 I-1.3 J-0.584
X-10.435 Y-85.741 Z-8.768 I1.3 J0.584
X-13.035 Y-86.909 Z-8.925 I-1.3 J-0.584
X-10.435 Y-85.741 Z-9.081 I1.3 J0.584
X-13.035 Y-86.909 Z-9.237 I-1.3 J-0.584
X-10.435 Y-85.741 Z-9.394 I1.3 J0.584
X-13.035 Y-86.909 Z-9.55 I-1.3 J-0.584
X-10.435 Y-85.741 Z-9.706 I1.3 J0.584
X-13.035 Y-86.909 Z-9.863 I-1.3 J-0.584
X-10.435 Y-85.741 Z-10.019 I1.3 J0.584
X-13.035 Y-86.909 Z-10.175 I-1.3 J-0.584
X-10.435 Y-85.741 Z-10.332 I1.3 J0.584
X-13.035 Y-86.909 Z-10.488 I-1.3 J-0.584
X-10.435 Y-85.741 Z-10.644 I1.3 J0.584
X-13.035 Y-86.909 Z-10.801 I-1.3 J-0.584
X-11.75 Y-87.75 Z-10.857 I1.3 J0.584
G1 X11.6 Y-87.991 F1000
X11.724 Y-87.99
X11.847 Y-87.983
X11.89 Y-87.973
X11.927 Y-87.951
X11.957 Y-87.92
X11.976 Y-87.88
X11.983 Y-87.837
Y-87.758
G3 X11.735 Y-87.507 I-0.251 J0.001
G1 X-11.68 Y-87.265
G3 X-12.216 Y-87.796 I-0.005 J-0.531
G1 X-12.215 Y-87.932
G3 X-11.948 Y-88.226 I0.295 J0.001
X-11.43 Y-88.255 I0.65 J6.855
G1 X11.162 Y-88.688
G3 X12.132 Y-88.665 I0.218 J11.368
X12.674 Y-88.093 I-0.038 J0.58
G1 X12.678 Y-87.781
G3 X11.693 Y-86.765 I-1.004 J0.012
G1 X-10.834 Y-86.333
G3 X-12.326 Y-86.369 I-0.332 J-17.309
X-13.143 Y-87.239 I0.059 J-0.873
G1 X-13.146 Y-88.289
G3 X-12.343 Y-89.173 I0.885 J-0.003
X-10.791 Y-89.258 I1.897 J20.506
G1 X10.441 Y-89.614
G3 X12.621 Y-89.563 I0.457 J27.276
G1 X12.927 Y-89.544
G3 X13.56 Y-88.923 I-0.043 J0.676
X13.599 Y-88.102 I-12.351 J1.009
G1 X13.61 Y-87.384
G3 X13.593 Y-86.621 I-9.994 J0.152
X12.879 Y-85.89 I-0.78 J-0.048
G1 X12.672 Y-85.872
G2 X12.344 Y-85.84 I1.076 J12.511
G3 X11.152 Y-85.763 I-1.403 J-12.47
G1 X-10.003 Y-85.408
G3 X-12.894 Y-85.476 I-0.605 J-36.084
G1 X-13.226 Y-85.497
G3 X-14.019 Y-86.274 I0.054 J-0.848
G1 X-14.026 Y-86.362
G3 X-14.068 Y-87.285 I11.997 J-1.004
G1 X-14.074 Y-88.199
G3 X-14.049 Y-89.228 I16.826 J-0.114
G1 Y-89.239
G3 X-13.246 Y-90.071 I0.882 J0.048
G1 X-12.884 Y-90.104
G2 X-12.516 Y-90.142 I-1.401 J-15.449
G3 X-10.979 Y-90.241 I1.768 J15.399
G1 X9.704 Y-90.549
G3 X13.125 Y-90.466 I0.652 J43.745
G1 X13.572 Y-90.438
G3 X14.46 Y-89.566 I-0.06 J0.95
G1 X14.507 Y-88.994
G3 X14.533 Y-86.372 I-18.336 J1.495
G1 X14.502 Y-85.86
G3 X13.641 Y-84.978 I-0.942 J-0.058
G1 X12.954 Y-84.919
G3 X9.691 Y-84.755 I-3.952 J-46.026
G1 X-10.973 Y-84.447
G3 X-12.524 Y-84.504 I-0.223 J-14.952
G1 X-12.952 Y-84.542
X-13.114 Y-84.551
X-13.374 Y-84.556
G3 X-14.975 Y-86.125 I0.034 J-1.636
G1 X-14.985 Y-86.37
X-14.998 Y-86.533
X-15.025 Y-86.783
G3 X-15.043 Y-88.719 I9.531 J-1.056
G1 X-15.017 Y-89.009
X-15.007 Y-89.191
X-15.003 Y-89.477
G3 X-13.478 Y-91.047 I1.595 J0.024
G1 X-13.161 Y-91.061
X-12.996 Y-91.074
X-12.537 Y-91.126
G3 X-10.958 Y-91.225 I1.79 J15.805
G1 X11.007 Y-91.518
G3 X12.49 Y-91.463 I0.196 J14.67
G1 X13.082 Y-91.411
G2 X13.343 Y-91.401 I0.232 J-2.63
G1 X14.156 Y-91.41
G3 X15.433 Y-90.156 I0.014 J1.262
G1 X15.438 Y-89.415
G2 X15.454 Y-89.142 I2.549 J-0.018
G1 X15.503 Y-88.719
G3 X15.528 Y-86.778 I-9.554 J1.096
G1 X15.495 Y-86.4
G2 X15.485 Y-86.108 I2.675 J0.236
G1 X15.503 Y-85.229
G3 X14.27 Y-83.97 I-1.234 J0.026
G1 X13.412 Y-83.969
G2 X13.119 Y-83.953 I0.002 J2.659
G1 X12.461 Y-83.879
G3 X11.034 Y-83.79 I-1.622 J-14.533
G1 X-10.919 Y-83.498
G3 X-12.579 Y-83.554 I-0.235 J-17.637
G2 X-13.976 Y-83.611 I-1.425 J17.585
G1 X-14.752 Y-83.613
X-14.853 Y-83.609
X-14.936 Y-83.605
G3 X-15.905 Y-84.638 I0 J-0.971
G1 X-15.903 Y-84.756
X-15.93 Y-85.778
G2 X-15.988 Y-86.667 I-11.834 J0.322
G1 X-15.992 Y-86.7
G3 X-16.014 Y-88.802 I11.392 J-1.172
G2 X-15.976 Y-89.847 I-11.439 J-0.932
G1 X-15.986 Y-90.796
X-15.989 Y-90.88
X-15.995 Y-90.966
G3 X-14.965 Y-92.019 I0.983 J-0.068
G1 X-14.855 Y-92.013
X-14.751 Y-92.012
X-13.988 Y-92.03
G2 X-12.568 Y-92.119 I-0.44 J-18.511
G3 X-10.928 Y-92.211 I1.86 J18.419
G1 X10.978 Y-92.472
G3 X12.52 Y-92.428 I0.226 J18.935
G2 X14.035 Y-92.383 I1.316 J-18.891
G1 X14.75 Y-92.391
X14.855 Y-92.395
X15.518 Y-92.437
G3 X16.458 Y-91.517 I0.057 J0.882
G1 X16.43 Y-90.884
X16.428 Y-90.801
X16.433 Y-89.886
G2 X16.488 Y-88.763 I12.631 J-0.062
G3 X16.516 Y-86.734 I-12.557 J1.183
G2 X16.488 Y-85.714 I12.639 J0.852
G1 X16.501 Y-84.753
X16.505 Y-84.642
X16.557 Y-83.859
G3 X15.64 Y-82.926 I-0.874 J0.058
G1 X14.866 Y-82.965
X14.739 Y-82.967
X14.045 Y-82.959
G2 X12.511 Y-82.882 I0.226 J19.715
G3 X10.986 Y-82.804 I-1.76 J-19.637
G1 X-10.992 Y-82.542
G3 X-12.507 Y-82.577 I-0.258 J-21.598
G2 X-14.047 Y-82.612 I-1.257 J21.563
G1 X-14.732 Y-82.603
X-14.873 Y-82.597
X-16.079 Y-82.516
G3 X-16.998 Y-83.422 I-0.058 J-0.859
G1 X-16.933 Y-84.613
X-16.929 Y-84.781
X-16.94 Y-85.714
G2 X-16.987 Y-86.732 I-14.779 J0.171
G3 X-17.011 Y-88.769 I14.708 J-1.187
G2 X-16.988 Y-89.879 I-14.748 J-0.851
G1 X-17.004 Y-90.768
X-17.01 Y-90.908
X-17.104 Y-92.248
G3 X-16.247 Y-93.122 I0.817 J-0.057
G1 X-14.887 Y-93.055
X-14.719 Y-93.052
X-14.031 Y-93.06
G2 X-12.524 Y-93.128 I-0.297 J-23.563
G3 X-10.974 Y-93.196 I1.804 J23.495
G1 X10.98 Y-93.432
G3 X12.519 Y-93.403 I0.28 J25.983
G1 X12.536 Y-93.402
G2 X14.017 Y-93.374 I1.23 J-25.359
G1 X14.705 Y-93.381
X14.901 Y-93.389
X16.772 Y-93.523
G3 X17.539 Y-92.771 I0.051 J0.715
G1 X17.443 Y-90.929
X17.438 Y-90.747
X17.443 Y-89.885
G2 X17.486 Y-88.763 I17.609 J-0.102
G3 X17.51 Y-86.735 I-17.553 J1.223
G2 X17.493 Y-85.715 I17.657 J0.812
G1 X17.503 Y-84.798
X17.512 Y-84.596
X17.657 Y-82.596
G3 X16.903 Y-81.828 I-0.715 J0.052
G1 X14.911 Y-81.938
X14.695 Y-81.942
X13.972 Y-81.935
G2 X12.582 Y-81.882 I0.268 J25.395
G1 X12.512 Y-81.877
G3 X10.987 Y-81.819 I-1.826 J-27.908
G1 X-10.994 Y-81.582
G3 X-12.506 Y-81.602 I-0.34 J-31.566
G1 X-12.598 Y-81.606
G2 X-13.955 Y-81.623 I-1.032 J27.769
G1 X-14.687 Y-81.615
X-14.918 Y-81.605
X-17.324 Y-81.43
G3 X-18.083 Y-82.177 I-0.051 J-0.707
G1 X-17.946 Y-84.57
G2 X-17.94 Y-84.825 I-3.76 J-0.215
G1 X-17.95 Y-85.715
G2 X-17.984 Y-86.732 I-22.067 J0.235
G3 X-18.005 Y-88.769 I22.021 J-1.251
G2 X-17.994 Y-89.877 I-22.092 J-0.79
G1 X-18.006 Y-90.721
X-18.016 Y-90.955
X-18.206 Y-93.5
G3 X-17.499 Y-94.221 I0.67 J-0.05
G1 X-14.932 Y-94.08
G2 X-14.674 Y-94.074 I0.215 J-3.917
G1 X-13.868 Y-94.083
G2 X-12.685 Y-94.121 I-0.315 J-28.383
G1 X-12.525 Y-94.13
G3 X-10.974 Y-94.178 I1.905 J36.052
G1 X10.982 Y-94.394
G3 X12.518 Y-94.381 I0.409 J41.611
G1 X12.73 Y-94.375
G2 X13.823 Y-94.365 I0.812 J-29.985
G1 X14.66 Y-94.373
G2 X14.945 Y-94.385 I-0.041 J-4.379
G1 X17.991 Y-94.613
G3 X18.625 Y-93.99 I0.044 J0.59
G1 X18.454 Y-90.976
G2 X18.448 Y-90.7 I4.331 J0.245
G1 X18.453 Y-89.885
G2 X18.483 Y-88.763 I29.178 J-0.202
G3 X18.504 Y-86.736 I-29.14 J1.324
G2 X18.495 Y-86.025 I29.307 J0.711
X18.497 Y-85.716 I29.315 J0
G1 X18.506 Y-84.844
G2 X18.519 Y-84.551 I4.543 J-0.048
G1 X18.758 Y-81.368
G3 X18.131 Y-80.73 I-0.592 J0.044
G1 X14.956 Y-80.914
G2 X14.65 Y-80.921 I-0.261 J4.522
G1 X13.764 Y-80.912
G2 X12.789 Y-80.887 I0.302 J30.773
G1 X12.513 Y-80.876
G3 X10.986 Y-80.837 I-2.001 J-48.19
G1 X-10.996 Y-80.621
G3 X-12.504 Y-80.625 I-0.579 J-58.931
G1 X-12.835 Y-80.63
G2 X-13.718 Y-80.633 I-0.531 J33.696
G1 X-14.642 Y-80.623
G2 X-14.963 Y-80.609 I0.052 J4.993
G1 X-18.54 Y-80.341
G3 X-19.169 Y-80.961 I-0.044 J-0.585
G1 X-18.958 Y-84.526
G2 X-18.95 Y-84.869 I-4.966 J-0.294
G1 X-18.959 Y-85.839
G2 X-18.976 Y-86.608 I-33.081 J0.328
G1 X-18.98 Y-86.732
G3 X-19 Y-88.769 I43.73 J-1.451
G1 X-18.998 Y-88.904
G2 X-18.998 Y-89.743 I-33.765 J-0.452
G1 X-19.008 Y-90.672
G2 X-19.023 Y-91.004 I-5.118 J0.059
G1 X-19.307 Y-94.722
G3 X-18.722 Y-95.319 I0.554 J-0.042
G1 X-14.976 Y-95.102
G2 X-14.629 Y-95.094 I0.297 J-5.135
G1 X-13.616 Y-95.104
G2 X-12.937 Y-95.117 I-0.344 J-35.126
G1 X-12.528 Y-95.129
G3 X-10.972 Y-95.159 I2.256 J77.414
G1 X11.75 Y-95.364
X13.725 Y-95.36
G2 X15.878 Y-95.438 I-0.357 J-39.439
G1 X19.385 Y-95.662
X19.44 Y-95.67
X19.475 Y-95.679
G3 X19.679 Y-95.475 I0.041 J0.163
G1 X19.671 Y-95.442
X19.662 Y-95.383
X19.499 Y-91.818
G2 X19.462 Y-89.857 I36.375 J1.661
G1 X19.479 Y-88.762
G3 X19.498 Y-86.738 I-85.711 J1.828
G1 X19.505 Y-85.342
G2 X19.544 Y-84.053 I31.308 J-0.297
G1 X19.742 Y-80.149
X19.748 Y-80.095
X19.761 Y-80.043
X19.852 Y-79.751
X19.856 Y-79.716
X19.843 Y-79.682
X19.818 Y-79.657
X19.784 Y-79.644
X19.749 Y-79.648
X19.46 Y-79.738
X19.405 Y-79.751
X19.348 Y-79.757
X15.415 Y-79.884
G2 X14.19 Y-79.899 I-0.953 J29.399
G1 X7.048 Y-79.821
X-14.803 Y-79.628
X-19.165 Y-79.553
G2 X-19.602 Y-79.5 I0.037 J2.131
G1 X-19.883 Y-79.436
X-19.925 Y-79.422
X-19.965 Y-79.403
X-20.175 Y-79.279
X-20.196 Y-79.274
X-20.216 Y-79.284
X-20.226 Y-79.304
X-20.221 Y-79.325
X-20.097 Y-79.535
X-20.078 Y-79.575
X-20.064 Y-79.617
X-20.003 Y-79.887
G2 X-19.951 Y-80.344 I-2.005 J-0.457
G1 X-19.957 Y-84.697
X-20 Y-89.324
Y-95.382
G2 X-20.382 Y-96.382 I-1.5 J0
X-19.382 Y-96 I1 J-1.118
G1 X19.382
G2 X20.382 Y-96.382 I0 J-1.5
X20 Y-95.382 I1.118 J1
G1 Y-80.118
G2 X20.382 Y-79.118 I1.5 J0
X19.382 Y-79.5 I-1 J1.118
G1 X-19.382
G2 X-20.382 Y-79.118 I0 J1.5
X-20 Y-80.118 I-1.118 J-1
G1 Y-89.324
X-19.993 Y-89.369
X-19.972 Y-89.411
X-19.94 Y-89.444
X-19.899 Y-89.465
X-19.853 Y-89.474
X-19.807 Y-89.467
X-15.103 Y-88.067
X-10.509 Y-85.939
X-10.471 Y-85.913
X-10.442 Y-85.876
X-10.425 Y-85.833
X-10.423 Y-85.786
X-10.435 Y-85.741
G3 X-13.035 Y-86.909 Z-11.013 I-1.3 J-0.584 F333.3
X-10.435 Y-85.741 Z-11.17 I1.3 J0.584
X-13.035 Y-86.909 Z-11.326 I-1.3 J-0.584
X-10.435 Y-85.741 Z-11.482 I1.3 J0.584
X-13.035 Y-86.909 Z-11.639 I-1.3 J-0.584
X-10.435 Y-85.741 Z-11.795 I1.3 J0.584
X-13.035 Y-86.909 Z-11.951 I-1.3 J-0.584
X-10.435 Y-85.741 Z-12.108 I1.3 J0.584
X-13.035 Y-86.909 Z-12.264 I-1.3 J-0.584
X-10.435 Y-85.741 Z-12.42 I1.3 J0.584
X-13.035 Y-86.909 Z-12.577 I-1.3 J-0.584
X-10.435 Y-85.741 Z-12.733 I1.3 J0.584
X-13.035 Y-86.909 Z-12.889 I-1.3 J-0.584
X-10.435 Y-85.741 Z-13.046 I1.3 J0.584
X-13.035 Y-86.909 Z-13.202 I-1.3 J-0.584
X-10.435 Y-85.741 Z-13.358 I1.3 J0.584
X-13.035 Y-86.909 Z-13.515 I-1.3 J-0.584
X-11.75 Y-87.75 Z-13.571 I1.3 J0.584
G1 X11.6 Y-87.991 F1000
X11.724 Y-87.99
X11.847 Y-87.983
X11.89 Y-87.973
X11.927 Y-87.951
X11.957 Y-87.92
X11.976 Y-87.88
X11.983 Y-87.837
Y-87.758
G3 X11.735 Y-87.507 I-0.251 J0.001
G1 X-11.68 Y-87.265
G3 X-12.216 Y-87.796 I-0.005 J-0.531
G1 X-12.215 Y-87.932
G3 X-11.948 Y-88.226 I0.295 J0.001
X-11.43 Y-88.255 I0.65 J6.855
G1 X11.162 Y-88.688
G3 X12.132 Y-88.665 I0.218 J11.368
X12.674 Y-88.093 I-0.038 J0.58
G1 X12.678 Y-87.781
G3 X11.693 Y-86.765 I-1.004 J0.012
G1 X-10.834 Y-86.333
G3 X-12.326 Y-86.369 I-0.332 J-17.309
X-13.143 Y-87.239 I0.059 J-0.873
G1 X-13.146 Y-88.289
G3 X-12.343 Y-89.173 I0.885 J-0.003
X-10.791 Y-89.258 I1.897 J20.506
G1 X10.441 Y-89.614
G3 X12.621 Y-89.563 I0.457 J27.276
G1 X12.927 Y-89.544
G3 X13.56 Y-88.923 I-0.043 J0.676
X13.599 Y-88.102 I-12.351 J1.009
G1 X13.61 Y-87.384
G3 X13.593 Y-86.621 I-9.994 J0.152
X12.879 Y-85.89 I-0.78 J-0.048
G1 X12.672 Y-85.872
G2 X12.344 Y-85.84 I1.076 J12.511
G3 X11.152 Y-85.763 I-1.403 J-12.47
G1 X-10.003 Y-85.408
G3 X-12.894 Y-85.476 I-0.605 J-36.084
G1 X-13.226 Y-85.497
G3 X-14.019 Y-86.274 I0.054 J-0.848
G1 X-14.026 Y-86.362
G3 X-14.068 Y-87.285 I11.997 J-1.004
G1 X-14.074 Y-88.199
G3 X-14.049 Y-89.228 I16.826 J-0.114
G1 Y-89.239
G3 X-13.246 Y-90.071 I0.882 J0.048
G1 X-12.884 Y-90.104
G2 X-12.516 Y-90.142 I-1.401 J-15.449
G3 X-10.979 Y-90.241 I1.768 J15.399
G1 X9.704 Y-90.549
G3 X13.125 Y-90.466 I0.652 J43.745
G1 X13.572 Y-90.438
G3 X14.46 Y-89.566 I-0.06 J0.95
G1 X14.507 Y-88.994
G3 X14.533 Y-86.372 I-18.336 J1.495
G1 X14.502 Y-85.86
G3 X13.641 Y-84.978 I-0.942 J-0.058
G1 X12.954 Y-84.919
G3 X9.691 Y-84.755 I-3.952 J-46.026
G1 X-10.973 Y-84.447
G3 X-12.524 Y-84.504 I-0.223 J-14.952
G1 X-12.952 Y-84.542
X-13.114 Y-84.551
X-13.374 Y-84.556
G3 X-14.975 Y-86.125 I0.034 J-1.636
G1 X-14.985 Y-86.37
X-14.998 Y-86.533
X-15.025 Y-86.783
G3 X-15.043 Y-88.719 I9.531 J-1.056
G1 X-15.017 Y-89.009
X-15.007 Y-89.191
X-15.003 Y-89.477
G3 X-13.478 Y-91.047 I1.595 J0.024
G1 X-13.161 Y-91.061
X-12.996 Y-91.074
X-12.537 Y-91.126
G3 X-10.958 Y-91.225 I1.79 J15.805
G1 X11.007 Y-91.518
G3 X12.49 Y-91.463 I0.196 J14.67
G1 X13.082 Y-91.411
G2 X13.343 Y-91.401 I0.232 J-2.63
G1 X14.156 Y-91.41
G3 X15.433 Y-90.156 I0.014 J1.262
G1 X15.438 Y-89.415
G2 X15.454 Y-89.142 I2.549 J-0.018
G1 X15.503 Y-88.719
G3 X15.528 Y-86.778 I-9.554 J1.096
G1 X15.495 Y-86.4
G2 X15.485 Y-86.108 I2.675 J0.236
G1 X15.503 Y-85.229
G3 X14.27 Y-83.97 I-1.234 J0.026
G1 X13.412 Y-83.969
G2 X13.119 Y-83.953 I0.002 J2.659
G1 X12.461 Y-83.879
G3 X11.034 Y-83.79 I-1.622 J-14.533
G1 X-10.919 Y-83.498
G3 X-12.579 Y-83.554 I-0.235 J-17.637
G2 X-13.976 Y-83.611 I-1.425 J17.585
G1 X-14.752 Y-83.613
X-14.853 Y-83.609
X-14.936 Y-83.605
G3 X-15.905 Y-84.638 I0 J-0.971
G1 X-15.903 Y-84.756
X-15.93 Y-85.778
G2 X-15.988 Y-86.667 I-11.834 J0.322
G1 X-15.992 Y-86.7
G3 X-16.014 Y-88.802 I11.392 J-1.172
G2 X-15.976 Y-89.847 I-11.439 J-0.932
G1 X-15.986 Y-90.796
X-15.989 Y-90.88
X-15.995 Y-90.966
G3 X-14.965 Y-92.019 I0.983 J-0.068
G1 X-14.855 Y-92.013
X-14.751 Y-92.012
X-13.988 Y-92.03
G2 X-12.568 Y-92.119 I-0.44 J-18.511
G3 X-10.928 Y-92.211 I1.86 J18.419
G1 X10.978 Y-92.472
G3 X12.52 Y-92.428 I0.226 J18.935
G2 X14.035 Y-92.383 I1.316 J-18.891
G1 X14.75 Y-92.391
X14.855 Y-92.395
X15.518 Y-92.437
G3 X16.458 Y-91.517 I0.057 J0.882
G1 X16.43 Y-90.884
X16.428 Y-90.801
X16.433 Y-89.886
G2 X16.488 Y-88.763 I12.631 J-0.062
G3 X16.516 Y-86.734 I-12.557 J1.183
G2 X16.488 Y-85.714 I12.639 J0.852
G1 X16.501 Y-84.753
X16.505 Y-84.642
X16.557 Y-83.859
G3 X15.64 Y-82.926 I-0.874 J0.058
G1 X14.866 Y-82.965
X14.739 Y-82.967
X14.045 Y-82.959
G2 X12.511 Y-82.882 I0.226 J19.715
G3 X10.986 Y-82.804 I-1.76 J-19.637
G1 X-10.992 Y-82.542
G3 X-12.507 Y-82.577 I-0.258 J-21.598
G2 X-14.047 Y-82.612 I-1.257 J21.563
G1 X-14.732 Y-82.603
X-14.873 Y-82.597
X-16.079 Y-82.516
G3 X-16.998 Y-83.422 I-0.058 J-0.859
G1 X-16.933 Y-84.613
X-16.929 Y-84.781
X-16.94 Y-85.714
G2 X-16.987 Y-86.732 I-14.779 J0.171
G3 X-17.011 Y-88.769 I14.708 J-1.187
G2 X-16.988 Y-89.879 I-14.748 J-0.851
G1 X-17.004 Y-90.768
X-17.01 Y-90.908
X-17.104 Y-92.248
G3 X-16.247 Y-93.122 I0.817 J-0.057
G1 X-14.887 Y-93.055
X-14.719 Y-93.052
X-14.031 Y-93.06
G2 X-12.524 Y-93.128 I-0.297 J-23.563
G3 X-10.974 Y-93.196 I1.804 J23.495
G1 X10.98 Y-93.432
G3 X12.519 Y-93.403 I0.28 J25.983
G1 X12.536 Y-93.402
G2 X14.017 Y-93.374 I1.23 J-25.359
G1 X14.705 Y-93.381
X14.901 Y-93.389
X16.772 Y-93.523
G3 X17.539 Y-92.771 I0.051 J0.715
G1 X17.443 Y-90.929
X17.438 Y-90.747
X17.443 Y-89.885
G2 X17.486 Y-88.763 I17.609 J-0.102
G3 X17.51 Y-86.735 I-17.553 J1.223
G2 X17.493 Y-85.715 I17.657 J0.812
G1 X17.503 Y-84.798
X17.512 Y-84.596
X17.657 Y-82.596
G3 X16.903 Y-81.828 I-0.715 J0.052
G1 X14.911 Y-81.938
X14.695 Y-81.942
X13.972 Y-81.935
G2 X12.582 Y-81.882 I0.268 J25.395
G1 X12.512 Y-81.877
G3 X10.987 Y-81.819 I-1.826 J-27.908
G1 X-10.994 Y-81.582
G3 X-12.506 Y-81.602 I-0.34 J-31.566
G1 X-12.598 Y-81.606
G2 X-13.955 Y-81.623 I-1.032 J27.769
G1 X-14.687 Y-81.615
X-14.918 Y-81.605
X-17.324 Y-81.43
G3 X-18.083 Y-82.177 I-0.051 J-0.707
G1 X-17.946 Y-84.57
G2 X-17.94 Y-84.825 I-3.76 J-0.215
G1 X-17.95 Y-85.715
G2 X-17.984 Y-86.732 I-22.067 J0.235
G3 X-18.005 Y-88.769 I22.021 J-1.251
G2 X-17.994 Y-89.877 I-22.092 J-0.79
G1 X-18.006 Y-90.721
X-18.016 Y-90.955
X-18.206 Y-93.5
G3 X-17.499 Y-94.221 I0.67 J-0.05
G1 X-14.932 Y-94.08
G2 X-14.674 Y-94.074 I0.215 J-3.917
G1 X-13.868 Y-94.083
G2 X-12.685 Y-94.121 I-0.315 J-28.383
G1 X-12.525 Y-94.13
G3 X-10.974 Y-94.178 I1.905 J36.052
G1 X10.982 Y-94.394
G3 X12.518 Y-94.381 I0.409 J41.611
G1 X12.73 Y-94.375
G2 X13.823 Y-94.365 I0.812 J-29.985
G1 X14.66 Y-94.373
G2 X14.945 Y-94.385 I-0.041 J-4.379
G1 X17.991 Y-94.613
G3 X18.625 Y-93.99 I0.044 J0.59
G1 X18.454 Y-90.976
G2 X18.448 Y-90.7 I4.331 J0.245
G1 X18.453 Y-89.885
G2 X18.483 Y-88.763 I29.178 J-0.202
G3 X18.504 Y-86.736 I-29.14 J1.324
G2 X18.495 Y-86.025 I29.307 J0.711
X18.497 Y-85.716 I29.315 J0
G1 X18.506 Y-84.844
G2 X18.519 Y-84.551 I4.543 J-0.048
G1 X18.758 Y-81.368
G3 X18.131 Y-80.73 I-0.592 J0.044
G1 X14.956 Y-80.914
G2 X14.65 Y-80.921 I-0.261 J4.522
G1 X13.764 Y-80.912
G2 X12.789 Y-80.887 I0.302 J30.773
G1 X12.513 Y-80.876
G3 X10.986 Y-80.837 I-2.001 J-48.19
G1 X-10.996 Y-80.621
G3 X-12.504 Y-80.625 I-0.579 J-58.931
G1 X-12.835 Y-80.63
G2 X-13.718 Y-80.633 I-0.531 J33.696
G1 X-14.642 Y-80.623
G2 X-14.963 Y-80.609 I0.052 J4.993
G1 X-18.54 Y-80.341
G3 X-19.169 Y-80.961 I-0.044 J-0.585
G1 X-18.958 Y-84.526
G2 X-18.95 Y-84.869 I-4.966 J-0.294
G1 X-18.959 Y-85.839
G2 X-18.976 Y-86.608 I-33.081 J0.328
G1 X-18.98 Y-86.732
G3 X-19 Y-88.769 I43.73 J-1.451
G1 X-18.998 Y-88.904
G2 X-18.998 Y-89.743 I-33.765 J-0.452
G1 X-19.008 Y-90.672
G2 X-19.023 Y-91.004 I-5.118 J0.059
G1 X-19.307 Y-94.722
G3 X-18.722 Y-95.319 I0.554 J-0.042
G1 X-14.976 Y-95.102
G2 X-14.629 Y-95.094 I0.297 J-5.135
G1 X-13.616 Y-95.104
G2 X-12.937 Y-95.117 I-0.344 J-35.126
G1 X-12.528 Y-95.129
G3 X-10.972 Y-95.159 I2.256 J77.414
G1 X11.75 Y-95.364
X13.725 Y-95.36
G2 X15.878 Y-95.438 I-0.357 J-39.439
G1 X19.385 Y-95.662
X19.44 Y-95.67
X19.475 Y-95.679
G3 X19.679 Y-95.475 I0.041 J0.163
G1 X19.671 Y-95.442
X19.662 Y-95.383
X19.499 Y-91.818
G2 X19.462 Y-89.857 I36.375 J1.661
G1 X19.479 Y-88.762
G3 X19.498 Y-86.738 I-85.711 J1.828
G1 X19.505 Y-85.342
G2 X19.544 Y-84.053 I31.308 J-0.297
G1 X19.742 Y-80.149
X19.748 Y-80.095
X19.761 Y-80.043
X19.852 Y-79.751
X19.856 Y-79.716
X19.843 Y-79.682
X19.818 Y-79.657
X19.784 Y-79.644
X19.749 Y-79.648
X19.46 Y-79.738
X19.405 Y-79.751
X19.348 Y-79.757
X15.415 Y-79.884
G2 X14.19 Y-79.899 I-0.953 J29.399
G1 X7.048 Y-79.821
X-14.803 Y-79.628
X-19.165 Y-79.553
G2 X-19.602 Y-79.5 I0.037 J2.131
G1 X-19.883 Y-79.436
X-19.925 Y-79.422
X-19.965 Y-79.403
X-20.175 Y-79.279
X-20.196 Y-79.274
X-20.216 Y-79.284
X-20.226 Y-79.304
X-20.221 Y-79.325
X-20.097 Y-79.535
X-20.078 Y-79.575
X-20.064 Y-79.617
X-20.003 Y-79.887
G2 X-19.951 Y-80.344 I-2.005 J-0.457
G1 X-19.957 Y-84.697
X-20 Y-89.324
Y-95.382
G2 X-20.382 Y-96.382 I-1.5 J0
X-19.382 Y-96 I1 J-1.118
G1 X19.382
G2 X20.382 Y-96.382 I0 J-1.5
X20 Y-95.382 I1.118 J1
G1 Y-80.118
G2 X20.382 Y-79.118 I1.5 J0
X19.382 Y-79.5 I-1 J1.118
G1 X-19.382
G2 X-20.382 Y-79.118 I0 J1.5
X-20 Y-80.118 I-1.118 J-1
G1 Y-89.324
X-19.993 Y-89.369
X-19.972 Y-89.411
X-19.94 Y-89.444
X-19.899 Y-89.465
X-19.853 Y-89.474
X-19.807 Y-89.467
X-15.103 Y-88.067
X-10.509 Y-85.939
X-10.471 Y-85.913
X-10.442 Y-85.876
X-10.425 Y-85.833
X-10.423 Y-85.786
X-10.435 Y-85.741
G3 X-13.035 Y-86.909 Z-13.728 I-1.3 J-0.584 F333.3
X-10.435 Y-85.741 Z-13.884 I1.3 J0.584
X-13.035 Y-86.909 Z-14.04 I-1.3 J-0.584
X-10.435 Y-85.741 Z-14.197 I1.3 J0.584
X-13.035 Y-86.909 Z-14.353 I-1.3 J-0.584
X-10.435 Y-85.741 Z-14.509 I1.3 J0.584
X-13.035 Y-86.909 Z-14.666 I-1.3 J-0.584
X-10.435 Y-85.741 Z-14.822 I1.3 J0.584
X-13.035 Y-86.909 Z-14.978 I-1.3 J-0.584
X-10.435 Y-85.741 Z-15.135 I1.3 J0.584
X-13.035 Y-86.909 Z-15.291 I-1.3 J-0.584
X-10.435 Y-85.741 Z-15.447 I1.3 J0.584
X-13.035 Y-86.909 Z-15.604 I-1.3 J-0.584
X-10.435 Y-85.741 Z-15.76 I1.3 J0.584
X-13.035 Y-86.909 Z-15.916 I-1.3 J-0.584
X-10.435 Y-85.741 Z-16.073 I1.3 J0.584
X-13.035 Y-86.909 Z-16.229 I-1.3 J-0.584
X-11.75 Y-87.75 Z-16.286 I1.3 J0.584
G1 X11.6 Y-87.991 F1000
X11.724 Y-87.99
X11.847 Y-87.983
X11.89 Y-87.973
X11.927 Y-87.951
X11.957 Y-87.92
X11.976 Y-87.88
X11.983 Y-87.837
Y-87.758
G3 X11.735 Y-87.507 I-0.251 J0.001
G1 X-11.68 Y-87.265
G3 X-12.216 Y-87.796 I-0.005 J-0.531
G1 X-12.215 Y-87.932
G3 X-11.948 Y-88.226 I0.295 J0.001
X-11.43 Y-88.255 I0.65 J6.855
G1 X11.162 Y-88.688
G3 X12.132 Y-88.665 I0.218 J11.368
X12.674 Y-88.093 I-0.038 J0.58
G1 X12.678 Y-87.781
G3 X11.693 Y-86.765 I-1.004 J0.012
G1 X-10.834 Y-86.333
G3 X-12.326 Y-86.369 I-0.332 J-17.309
X-13.143 Y-87.239 I0.059 J-0.873
G1 X-13.146 Y-88.289
G3 X-12.343 Y-89.173 I0.885 J-0.003
X-10.791 Y-89.258 I1.897 J20.506
G1 X10.441 Y-89.614
G3 X12.621 Y-89.563 I0.457 J27.276
G1 X12.927 Y-89.544
G3 X13.56 Y-88.923 I-0.043 J0.676
X13.599 Y-88.102 I-12.351 J1.009
G1 X13.61 Y-87.384
G3 X13.593 Y-86.621 I-9.994 J0.152
X12.879 Y-85.89 I-0.78 J-0.048
G1 X12.672 Y-85.872
G2 X12.344 Y-85.84 I1.076 J12.511
G3 X11.152 Y-85.763 I-1.403 J-12.47
G1 X-10.003 Y-85.408
G3 X-12.894 Y-85.476 I-0.605 J-36.084
G1 X-13.226 Y-85.497
G3 X-14.019 Y-86.274 I0.054 J-0.848
G1 X-14.026 Y-86.362
G3 X-14.068 Y-87.285 I11.997 J-1.004
G1 X-14.074 Y-88.199
G3 X-14.049 Y-89.228 I16.826 J-0.114
G1 Y-89.239
G3 X-13.246 Y-90.071 I0.882 J0.048
G1 X-12.884 Y-90.104
G2 X-12.516 Y-90.142 I-1.401 J-15.449
G3 X-10.979 Y-90.241 I1.768 J15.399
G1 X9.704 Y-90.549
G3 X13.125 Y-90.466 I0.652 J43.745
G1 X13.572 Y-90.438
G3 X14.46 Y-89.566 I-0.06 J0.95
G1 X14.507 Y-88.994
G3 X14.533 Y-86.372 I-18.336 J1.495
G1 X14.502 Y-85.86
G3 X13.641 Y-84.978 I-0.942 J-0.058
G1 X12.954 Y-84.919
G3 X9.691 Y-84.755 I-3.952 J-46.026
G1 X-10.973 Y-84.447
G3 X-12.524 Y-84.504 I-0.223 J-14.952
G1 X-12.952 Y-84.542
X-13.114 Y-84.551
X-13.374 Y-84.556
G3 X-14.975 Y-86.125 I0.034 J-1.636
G1 X-14.985 Y-86.37
X-14.998 Y-86.533
X-15.025 Y-86.783
G3 X-15.043 Y-88.719 I9.531 J-1.056
G1 X-15.017 Y-89.009
X-15.007 Y-89.191
X-15.003 Y-89.477
G3 X-13.478 Y-91.047 I1.595 J0.024
G1 X-13.161 Y-91.061
X-12.996 Y-91.074
X-12.537 Y-91.126
G3 X-10.958 Y-91.225 I1.79 J15.805
G1 X11.007 Y-91.518
G3 X12.49 Y-91.463 I0.196 J14.67
G1 X13.082 Y-91.411
G2 X13.343 Y-91.401 I0.232 J-2.63
G1 X14.156 Y-91.41
G3 X15.433 Y-90.156 I0.014 J1.262
G1 X15.438 Y-89.415
G2 X15.454 Y-89.142 I2.549 J-0.018
G1 X15.503 Y-88.719
G3 X15.528 Y-86.778 I-9.554 J1.096
G1 X15.495 Y-86.4
G2 X15.485 Y-86.108 I2.675 J0.236
G1 X15.503 Y-85.229
G3 X14.27 Y-83.97 I-1.234 J0.026
G1 X13.412 Y-83.969
G2 X13.119 Y-83.953 I0.002 J2.659
G1 X12.461 Y-83.879
G3 X11.034 Y-83.79 I-1.622 J-14.533
G1 X-10.919 Y-83.498
G3 X-12.579 Y-83.554 I-0.235 J-17.637
G2 X-13.976 Y-83.611 I-1.425 J17.585
G1 X-14.752 Y-83.613
X-14.853 Y-83.609
X-14.936 Y-83.605
G3 X-15.905 Y-84.638 I0 J-0.971
G1 X-15.903 Y-84.756
X-15.93 Y-85.778
G2 X-15.988 Y-86.667 I-11.834 J0.322
G1 X-15.992 Y-86.7
G3 X-16.014 Y-88.802 I11.392 J-1.172
G2 X-15.976 Y-89.847 I-11.439 J-0.932
G1 X-15.986 Y-90.796
X-15.989 Y-90.88
X-15.995 Y-90.966
G3 X-14.965 Y-92.019 I0.983 J-0.068
G1 X-14.855 Y-92.013
X-14.751 Y-92.012
X-13.988 Y-92.03
G2 X-12.568 Y-92.119 I-0.44 J-18.511
G3 X-10.928 Y-92.211 I1.86 J18.419
G1 X10.978 Y-92.472
G3 X12.52 Y-92.428 I0.226 J18.935
G2 X14.035 Y-92.383 I1.316 J-18.891
G1 X14.75 Y-92.391
X14.855 Y-92.395
X15.518 Y-92.437
G3 X16.458 Y-91.517 I0.057 J0.882
G1 X16.43 Y-90.884
X16.428 Y-90.801
X16.433 Y-89.886
G2 X16.488 Y-88.763 I12.631 J-0.062
G3 X16.516 Y-86.734 I-12.557 J1.183
G2 X16.488 Y-85.714 I12.639 J0.852
G1 X16.501 Y-84.753
X16.505 Y-84.642
X16.557 Y-83.859
G3 X15.64 Y-82.926 I-0.874 J0.058
G1 X14.866 Y-82.965
X14.739 Y-82.967
X14.045 Y-82.959
G2 X12.511 Y-82.882 I0.226 J19.715
G3 X10.986 Y-82.804 I-1.76 J-19.637
G1 X-10.992 Y-82.542
G3 X-12.507 Y-82.577 I-0.258 J-21.598
G2 X-14.047 Y-82.612 I-1.257 J21.563
G1 X-14.732 Y-82.603
X-14.873 Y-82.597
X-16.079 Y-82.516
G3 X-16.998 Y-83.422 I-0.058 J-0.859
G1 X-16.933 Y-84.613
X-16.929 Y-84.781
X-16.94 Y-85.714
G2 X-16.987 Y-86.732 I-14.779 J0.171
G3 X-17.011 Y-88.769 I14.708 J-1.187
G2 X-16.988 Y-89.879 I-14.748 J-0.851
G1 X-17.004 Y-90.768
X-17.01 Y-90.908
X-17.104 Y-92.248
G3 X-16.247 Y-93.122 I0.817 J-0.057
G1 X-14.887 Y-93.055
X-14.719 Y-93.052
X-14.031 Y-93.06
G2 X-12.524 Y-93.128 I-0.297 J-23.563
G3 X-10.974 Y-93.196 I1.804 J23.495
G1 X10.98 Y-93.432
G3 X12.519 Y-93.403 I0.28 J25.983
G1 X12.536 Y-93.402
G2 X14.017 Y-93.374 I1.23 J-25.359
G1 X14.705 Y-93.381
X14.901 Y-93.389
X16.772 Y-93.523
G3 X17.539 Y-92.771 I0.051 J0.715
G1 X17.443 Y-90.929
X17.438 Y-90.747
X17.443 Y-89.885
G2 X17.486 Y-88.763 I17.609 J-0.102
G3 X17.51 Y-86.735 I-17.553 J1.223
G2 X17.493 Y-85.715 I17.657 J0.812
G1 X17.503 Y-84.798
X17.512 Y-84.596
X17.657 Y-82.596
G3 X16.903 Y-81.828 I-0.715 J0.052
G1 X14.911 Y-81.938
X14.695 Y-81.942
X13.972 Y-81.935
G2 X12.582 Y-81.882 I0.268 J25.395
G1 X12.512 Y-81.877
G3 X10.987 Y-81.819 I-1.826 J-27.908
G1 X-10.994 Y-81.582
G3 X-12.506 Y-81.602 I-0.34 J-31.566
G1 X-12.598 Y-81.606
G2 X-13.955 Y-81.623 I-1.032 J27.769
G1 X-14.687 Y-81.615
X-14.918 Y-81.605
X-17.324 Y-81.43
G3 X-18.083 Y-82.177 I-0.051 J-0.707
G1 X-17.946 Y-84.57
G2 X-17.94 Y-84.825 I-3.76 J-0.215
G1 X-17.95 Y-85.715
G2 X-17.984 Y-86.732 I-22.067 J0.235
G3 X-18.005 Y-88.769 I22.021 J-1.251
G2 X-17.994 Y-89.877 I-22.092 J-0.79
G1 X-18.006 Y-90.721
X-18.016 Y-90.955
X-18.206 Y-93.5
G3 X-17.499 Y-94.221 I0.67 J-0.05
G1 X-14.932 Y-94.08
G2 X-14.674 Y-94.074 I0.215 J-3.917
G1 X-13.868 Y-94.083
G2 X-12.685 Y-94.121 I-0.315 J-28.383
G1 X-12.525 Y-94.13
G3 X-10.974 Y-94.178 I1.905 J36.052
G1 X10.982 Y-94.394
G3 X12.518 Y-94.381 I0.409 J41.611
G1 X12.73 Y-94.375
G2 X13.823 Y-94.365 I0.812 J-29.985
G1 X14.66 Y-94.373
G2 X14.945 Y-94.385 I-0.041 J-4.379
G1 X17.991 Y-94.613
G3 X18.625 Y-93.99 I0.044 J0.59
G1 X18.454 Y-90.976
G2 X18.448 Y-90.7 I4.331 J0.245
G1 X18.453 Y-89.885
G2 X18.483 Y-88.763 I29.178 J-0.202
G3 X18.504 Y-86.736 I-29.14 J1.324
G2 X18.495 Y-86.025 I29.307 J0.711
X18.497 Y-85.716 I29.315 J0
G1 X18.506 Y-84.844
G2 X18.519 Y-84.551 I4.543 J-0.048
G1 X18.758 Y-81.368
G3 X18.131 Y-80.73 I-0.592 J0.044
G1 X14.956 Y-80.914
G2 X14.65 Y-80.921 I-0.261 J4.522
G1 X13.764 Y-80.912
G2 X12.789 Y-80.887 I0.302 J30.773
G1 X12.513 Y-80.876
G3 X10.986 Y-80.837 I-2.001 J-48.19
G1 X-10.996 Y-80.621
G3 X-12.504 Y-80.625 I-0.579 J-58.931
G1 X-12.835 Y-80.63
G2 X-13.718 Y-80.633 I-0.531 J33.696
G1 X-14.642 Y-80.623
G2 X-14.963 Y-80.609 I0.052 J4.993
G1 X-18.54 Y-80.341
G3 X-19.169 Y-80.961 I-0.044 J-0.585
G1 X-18.958 Y-84.526
G2 X-18.95 Y-84.869 I-4.966 J-0.294
G1 X-18.959 Y-85.839
G2 X-18.976 Y-86.608 I-33.081 J0.328
G1 X-18.98 Y-86.732
G3 X-19 Y-88.769 I43.73 J-1.451
G1 X-18.998 Y-88.904
G2 X-18.998 Y-89.743 I-33.765 J-0.452
G1 X-19.008 Y-90.672
G2 X-19.023 Y-91.004 I-5.118 J0.059
G1 X-19.307 Y-94.722
G3 X-18.722 Y-95.319 I0.554 J-0.042
G1 X-14.976 Y-95.102
G2 X-14.629 Y-95.094 I0.297 J-5.135
G1 X-13.616 Y-95.104
G2 X-12.937 Y-95.117 I-0.344 J-35.126
G1 X-12.528 Y-95.129
G3 X-10.972 Y-95.159 I2.256 J77.414
G1 X11.75 Y-95.364
X13.725 Y-95.36
G2 X15.878 Y-95.438 I-0.357 J-39.439
G1 X19.385 Y-95.662
X19.44 Y-95.67
X19.475 Y-95.679
G3 X19.679 Y-95.475 I0.041 J0.163
G1 X19.671 Y-95.442
X19.662 Y-95.383
X19.499 Y-91.818
G2 X19.462 Y-89.857 I36.375 J1.661
G1 X19.479 Y-88.762
G3 X19.498 Y-86.738 I-85.711 J1.828
G1 X19.505 Y-85.342
G2 X19.544 Y-84.053 I31.308 J-0.297
G1 X19.742 Y-80.149
X19.748 Y-80.095
X19.761 Y-80.043
X19.852 Y-79.751
X19.856 Y-79.716
X19.843 Y-79.682
X19.818 Y-79.657
X19.784 Y-79.644
X19.749 Y-79.648
X19.46 Y-79.738
X19.405 Y-79.751
X19.348 Y-79.757
X15.415 Y-79.884
G2 X14.19 Y-79.899 I-0.953 J29.399
G1 X7.048 Y-79.821
X-14.803 Y-79.628
X-19.165 Y-79.553
G2 X-19.602 Y-79.5 I0.037 J2.131
G1 X-19.883 Y-79.436
X-19.925 Y-79.422
X-19.965 Y-79.403
X-20.175 Y-79.279
X-20.196 Y-79.274
X-20.216 Y-79.284
X-20.226 Y-79.304
X-20.221 Y-79.325
X-20.097 Y-79.535
X-20.078 Y-79.575
X-20.064 Y-79.617
X-20.003 Y-79.887
G2 X-19.951 Y-80.344 I-2.005 J-0.457
G1 X-19.957 Y-84.697
X-20 Y-89.324
Y-95.382
G2 X-20.382 Y-96.382 I-1.5 J0
X-19.382 Y-96 I1 J-1.118
G1 X19.382
G2 X20.382 Y-96.382 I0 J-1.5
X20 Y-95.382 I1.118 J1
G1 Y-80.118
G2 X20.382 Y-79.118 I1.5 J0
X19.382 Y-79.5 I-1 J1.118
G1 X-19.382
G2 X-20.382 Y-79.118 I0 J1.5
X-20 Y-80.118 I-1.118 J-1
G1 Y-89.324
X-19.993 Y-89.369
X-19.972 Y-89.411
X-19.94 Y-89.444
X-19.899 Y-89.465
X-19.853 Y-89.474
X-19.807 Y-89.467
X-15.103 Y-88.067
X-10.509 Y-85.939
X-10.471 Y-85.913
X-10.442 Y-85.876
X-10.425 Y-85.833
X-10.423 Y-85.786
X-10.435 Y-85.741
G3 X-13.035 Y-86.909 Z-16.442 I-1.3 J-0.584 F333.3
X-10.435 Y-85.741 Z-16.598 I1.3 J0.584
X-13.035 Y-86.909 Z-16.755 I-1.3 J-0.584
X-10.435 Y-85.741 Z-16.911 I1.3 J0.584
X-13.035 Y-86.909 Z-17.067 I-1.3 J-0.584
X-10.435 Y-85.741 Z-17.224 I1.3 J0.584
X-13.035 Y-86.909 Z-17.38 I-1.3 J-0.584
X-10.435 Y-85.741 Z-17.536 I1.3 J0.584
X-13.035 Y-86.909 Z-17.693 I-1.3 J-0.584
X-10.435 Y-85.741 Z-17.849 I1.3 J0.584
X-13.035 Y-86.909 Z-18.005 I-1.3 J-0.584
X-10.435 Y-85.741 Z-18.162 I1.3 J0.584
X-13.035 Y-86.909 Z-18.318 I-1.3 J-0.584
X-10.435 Y-85.741 Z-18.474 I1.3 J0.584
X-13.035 Y-86.909 Z-18.631 I-1.3 J-0.584
X-10.435 Y-85.741 Z-18.787 I1.3 J0.584
X-13.035 Y-86.909 Z-18.943 I-1.3 J-0.584
X-11.75 Y-87.75 Z-19 I1.3 J0.584
G1 X11.6 Y-87.991 F1000
X11.724 Y-87.99
X11.847 Y-87.983
X11.89 Y-87.973
X11.927 Y-87.951
X11.957 Y-87.92
X11.976 Y-87.88
X11.983 Y-87.837
Y-87.758
G3 X11.735 Y-87.507 I-0.251 J0.001
G1 X-11.68 Y-87.265
G3 X-12.216 Y-87.796 I-0.005 J-0.531
G1 X-12.215 Y-87.932
G3 X-11.948 Y-88.226 I0.295 J0.001
X-11.43 Y-88.255 I0.65 J6.855
G1 X11.162 Y-88.688
G3 X12.132 Y-88.665 I0.218 J11.368
X12.674 Y-88.093 I-0.038 J0.58
G1 X12.678 Y-87.781
G3 X11.693 Y-86.765 I-1.004 J0.012
G1 X-10.834 Y-86.333
G3 X-12.326 Y-86.369 I-0.332 J-17.309
X-13.143 Y-87.239 I0.059 J-0.873
G1 X-13.146 Y-88.289
G3 X-12.343 Y-89.173 I0.885 J-0.003
X-10.791 Y-89.258 I1.897 J20.506
G1 X10.441 Y-89.614
G3 X12.621 Y-89.563 I0.457 J27.276
G1 X12.927 Y-89.544
G3 X13.56 Y-88.923 I-0.043 J0.676
X13.599 Y-88.102 I-12.351 J1.009
G1 X13.61 Y-87.384
G3 X13.593 Y-86.621 I-9.994 J0.152
X12.879 Y-85.89 I-0.78 J-0.048
G1 X12.672 Y-85.872
G2 X12.344 Y-85.84 I1.076 J12.511
G3 X11.152 Y-85.763 I-1.403 J-12.47
G1 X-10.003 Y-85.408
G3 X-12.894 Y-85.476 I-0.605 J-36.084
G1 X-13.226 Y-85.497
G3 X-14.019 Y-86.274 I0.054 J-0.848
G1 X-14.026 Y-86.362
G3 X-14.068 Y-87.285 I11.997 J-1.004
G1 X-14.074 Y-88.199
G3 X-14.049 Y-89.228 I16.826 J-0.114
G1 Y-89.239
G3 X-13.246 Y-90.071 I0.882 J0.048
G1 X-12.884 Y-90.104
G2 X-12.516 Y-90.142 I-1.401 J-15.449
G3 X-10.979 Y-90.241 I1.768 J15.399
G1 X9.704 Y-90.549
G3 X13.125 Y-90.466 I0.652 J43.745
G1 X13.572 Y-90.438
G3 X14.46 Y-89.566 I-0.06 J0.95
G1 X14.507 Y-88.994
G3 X14.533 Y-86.372 I-18.336 J1.495
G1 X14.502 Y-85.86
G3 X13.641 Y-84.978 I-0.942 J-0.058
G1 X12.954 Y-84.919
G3 X9.691 Y-84.755 I-3.952 J-46.026
G1 X-10.973 Y-84.447
G3 X-12.524 Y-84.504 I-0.223 J-14.952
G1 X-12.952 Y-84.542
X-13.114 Y-84.551
X-13.374 Y-84.556
G3 X-14.975 Y-86.125 I0.034 J-1.636
G1 X-14.985 Y-86.37
X-14.998 Y-86.533
X-15.025 Y-86.783
G3 X-15.043 Y-88.719 I9.531 J-1.056
G1 X-15.017 Y-89.009
X-15.007 Y-89.191
X-15.003 Y-89.477
G3 X-13.478 Y-91.047 I1.595 J0.024
G1 X-13.161 Y-91.061
X-12.996 Y-91.074
X-12.537 Y-91.126
G3 X-10.958 Y-91.225 I1.79 J15.805
G1 X11.007 Y-91.518
G3 X12.49 Y-91.463 I0.196 J14.67
G1 X13.082 Y-91.411
G2 X13.343 Y-91.401 I0.232 J-2.63
G1 X14.156 Y-91.41
G3 X15.433 Y-90.156 I0.014 J1.262
G1 X15.438 Y-89.415
G2 X15.454 Y-89.142 I2.549 J-0.018
G1 X15.503 Y-88.719
G3 X15.528 Y-86.778 I-9.554 J1.096
G1 X15.495 Y-86.4
G2 X15.485 Y-86.108 I2.675 J0.236
G1 X15.503 Y-85.229
G3 X14.27 Y-83.97 I-1.234 J0.026
G1 X13.412 Y-83.969
G2 X13.119 Y-83.953 I0.002 J2.659
G1 X12.461 Y-83.879
G3 X11.034 Y-83.79 I-1.622 J-14.533
G1 X-10.919 Y-83.498
G3 X-12.579 Y-83.554 I-0.235 J-17.637
G2 X-13.976 Y-83.611 I-1.425 J17.585
G1 X-14.752 Y-83.613
X-14.853 Y-83.609
X-14.936 Y-83.605
G3 X-15.905 Y-84.638 I0 J-0.971
G1 X-15.903 Y-84.756
X-15.93 Y-85.778
G2 X-15.988 Y-86.667 I-11.834 J0.322
G1 X-15.992 Y-86.7
G3 X-16.014 Y-88.802 I11.392 J-1.172
G2 X-15.976 Y-89.847 I-11.439 J-0.932
G1 X-15.986 Y-90.796
X-15.989 Y-90.88
X-15.995 Y-90.966
G3 X-14.965 Y-92.019 I0.983 J-0.068
G1 X-14.855 Y-92.013
X-14.751 Y-92.012
X-13.988 Y-92.03
G2 X-12.568 Y-92.119 I-0.44 J-18.511
G3 X-10.928 Y-92.211 I1.86 J18.419
G1 X10.978 Y-92.472
G3 X12.52 Y-92.428 I0.226 J18.935
G2 X14.035 Y-92.383 I1.316 J-18.891
G1 X14.75 Y-92.391
X14.855 Y-92.395
X15.518 Y-92.437
G3 X16.458 Y-91.517 I0.057 J0.882
G1 X16.43 Y-90.884
X16.428 Y-90.801
X16.433 Y-89.886
G2 X16.488 Y-88.763 I12.631 J-0.062
G3 X16.516 Y-86.734 I-12.557 J1.183
G2 X16.488 Y-85.714 I12.639 J0.852
G1 X16.501 Y-84.753
X16.505 Y-84.642
X16.557 Y-83.859
G3 X15.64 Y-82.926 I-0.874 J0.058
G1 X14.866 Y-82.965
X14.739 Y-82.967
X14.045 Y-82.959
G2 X12.511 Y-82.882 I0.226 J19.715
G3 X10.986 Y-82.804 I-1.76 J-19.637
G1 X-10.992 Y-82.542
G3 X-12.507 Y-82.577 I-0.258 J-21.598
G2 X-14.047 Y-82.612 I-1.257 J21.563
G1 X-14.732 Y-82.603
X-14.873 Y-82.597
X-16.079 Y-82.516
G3 X-16.998 Y-83.422 I-0.058 J-0.859
G1 X-16.933 Y-84.613
X-16.929 Y-84.781
X-16.94 Y-85.714
G2 X-16.987 Y-86.732 I-14.779 J0.171
G3 X-17.011 Y-88.769 I14.708 J-1.187
G2 X-16.988 Y-89.879 I-14.748 J-0.851
G1 X-17.004 Y-90.768
X-17.01 Y-90.908
X-17.104 Y-92.248
G3 X-16.247 Y-93.122 I0.817 J-0.057
G1 X-14.887 Y-93.055
X-14.719 Y-93.052
X-14.031 Y-93.06
G2 X-12.524 Y-93.128 I-0.297 J-23.563
G3 X-10.974 Y-93.196 I1.804 J23.495
G1 X10.98 Y-93.432
G3 X12.519 Y-93.403 I0.28 J25.983
G1 X12.536 Y-93.402
G2 X14.017 Y-93.374 I1.23 J-25.359
G1 X14.705 Y-93.381
X14.901 Y-93.389
X16.772 Y-93.523
G3 X17.539 Y-92.771 I0.051 J0.715
G1 X17.443 Y-90.929
X17.438 Y-90.747
X17.443 Y-89.885
G2 X17.486 Y-88.763 I17.609 J-0.102
G3 X17.51 Y-86.735 I-17.553 J1.223
G2 X17.493 Y-85.715 I17.657 J0.812
G1 X17.503 Y-84.798
X17.512 Y-84.596
X17.657 Y-82.596
G3 X16.903 Y-81.828 I-0.715 J0.052
G1 X14.911 Y-81.938
X14.695 Y-81.942
X13.972 Y-81.935
G2 X12.582 Y-81.882 I0.268 J25.395
G1 X12.512 Y-81.877
G3 X10.987 Y-81.819 I-1.826 J-27.908
G1 X-10.994 Y-81.582
G3 X-12.506 Y-81.602 I-0.34 J-31.566
G1 X-12.598 Y-81.606
G2 X-13.955 Y-81.623 I-1.032 J27.769
G1 X-14.687 Y-81.615
X-14.918 Y-81.605
X-17.324 Y-81.43
G3 X-18.083 Y-82.177 I-0.051 J-0.707
G1 X-17.946 Y-84.57
G2 X-17.94 Y-84.825 I-3.76 J-0.215
G1 X-17.95 Y-85.715
G2 X-17.984 Y-86.732 I-22.067 J0.235
G3 X-18.005 Y-88.769 I22.021 J-1.251
G2 X-17.994 Y-89.877 I-22.092 J-0.79
G1 X-18.006 Y-90.721
X-18.016 Y-90.955
X-18.206 Y-93.5
G3 X-17.499 Y-94.221 I0.67 J-0.05
G1 X-14.932 Y-94.08
G2 X-14.674 Y-94.074 I0.215 J-3.917
G1 X-13.868 Y-94.083
G2 X-12.685 Y-94.121 I-0.315 J-28.383
G1 X-12.525 Y-94.13
G3 X-10.974 Y-94.178 I1.905 J36.052
G1 X10.982 Y-94.394
G3 X12.518 Y-94.381 I0.409 J41.611
G1 X12.73 Y-94.375
G2 X13.823 Y-94.365 I0.812 J-29.985
G1 X14.66 Y-94.373
G2 X14.945 Y-94.385 I-0.041 J-4.379
G1 X17.991 Y-94.613
G3 X18.625 Y-93.99 I0.044 J0.59
G1 X18.454 Y-90.976
G2 X18.448 Y-90.7 I4.331 J0.245
G1 X18.453 Y-89.885
G2 X18.483 Y-88.763 I29.178 J-0.202
G3 X18.504 Y-86.736 I-29.14 J1.324
G2 X18.495 Y-86.025 I29.307 J0.711
X18.497 Y-85.716 I29.315 J0
G1 X18.506 Y-84.844
G2 X18.519 Y-84.551 I4.543 J-0.048
G1 X18.758 Y-81.368
G3 X18.131 Y-80.73 I-0.592 J0.044
G1 X14.956 Y-80.914
G2 X14.65 Y-80.921 I-0.261 J4.522
G1 X13.764 Y-80.912
G2 X12.789 Y-80.887 I0.302 J30.773
G1 X12.513 Y-80.876
G3 X10.986 Y-80.837 I-2.001 J-48.19
G1 X-10.996 Y-80.621
G3 X-12.504 Y-80.625 I-0.579 J-58.931
G1 X-12.835 Y-80.63
G2 X-13.718 Y-80.633 I-0.531 J33.696
G1 X-14.642 Y-80.623
G2 X-14.963 Y-80.609 I0.052 J4.993
G1 X-18.54 Y-80.341
G3 X-19.169 Y-80.961 I-0.044 J-0.585
G1 X-18.958 Y-84.526
G2 X-18.95 Y-84.869 I-4.966 J-0.294
G1 X-18.959 Y-85.839
G2 X-18.976 Y-86.608 I-33.081 J0.328
G1 X-18.98 Y-86.732
G3 X-19 Y-88.769 I43.73 J-1.451
G1 X-18.998 Y-88.904
G2 X-18.998 Y-89.743 I-33.765 J-0.452
G1 X-19.008 Y-90.672
G2 X-19.023 Y-91.004 I-5.118 J0.059
G1 X-19.307 Y-94.722
G3 X-18.722 Y-95.319 I0.554 J-0.042
G1 X-14.976 Y-95.102
G2 X-14.629 Y-95.094 I0.297 J-5.135
G1 X-13.616 Y-95.104
G2 X-12.937 Y-95.117 I-0.344 J-35.126
G1 X-12.528 Y-95.129
G3 X-10.972 Y-95.159 I2.256 J77.414
G1 X11.75 Y-95.364
X13.725 Y-95.36
G2 X15.878 Y-95.438 I-0.357 J-39.439
G1 X19.385 Y-95.662
X19.44 Y-95.67
X19.475 Y-95.679
G3 X19.679 Y-95.475 I0.041 J0.163
G1 X19.671 Y-95.442
X19.662 Y-95.383
X19.499 Y-91.818
G2 X19.462 Y-89.857 I36.375 J1.661
G1 X19.479 Y-88.762
G3 X19.498 Y-86.738 I-85.711 J1.828
G1 X19.505 Y-85.342
G2 X19.544 Y-84.053 I31.308 J-0.297
G1 X19.742 Y-80.149
X19.748 Y-80.095
X19.761 Y-80.043
X19.852 Y-79.751
X19.856 Y-79.716
X19.843 Y-79.682
X19.818 Y-79.657
X19.784 Y-79.644
X19.749 Y-79.648
X19.46 Y-79.738
X19.405 Y-79.751
X19.348 Y-79.757
X15.415 Y-79.884
G2 X14.19 Y-79.899 I-0.953 J29.399
G1 X7.048 Y-79.821
X-14.803 Y-79.628
X-19.165 Y-79.553
G2 X-19.602 Y-79.5 I0.037 J2.131
G1 X-19.883 Y-79.436
X-19.925 Y-79.422
X-19.965 Y-79.403
X-20.175 Y-79.279
X-20.196 Y-79.274
X-20.216 Y-79.284
X-20.226 Y-79.304
X-20.221 Y-79.325
X-20.097 Y-79.535
X-20.078 Y-79.575
X-20.064 Y-79.617
X-20.003 Y-79.887
G2 X-19.951 Y-80.344 I-2.005 J-0.457
G1 X-19.957 Y-84.697
X-20 Y-89.324
Y-95.382
G2 X-20.382 Y-96.382 I-1.5 J0
X-19.382 Y-96 I1 J-1.118
G1 X19.382
G2 X20.382 Y-96.382 I0 J-1.5
X20 Y-95.382 I1.118 J1
G1 Y-80.118
G2 X20.382 Y-79.118 I1.5 J0
X19.382 Y-79.5 I-1 J1.118
G1 X-19.382
G2 X-20.382 Y-79.118 I0 J1.5
X-20 Y-80.118 I-1.118 J-1
G1 Y-89.324
X-19.995 Y-89.381 Z-18.989
X-19.978 Y-89.436 Z-18.977
X-19.957 Y-89.479 Z-18.945
X-19.928 Y-89.519 Z-18.912
X-19.881 Y-89.563 Z-18.815
X-19.862 Y-89.576 Z-18.7
G0 Z15

(2D Pocket5 4)
X51.741 Y98.934
Z15
Z5
G1 Z2.8 F333.3
X51.74 Y98.973 Z2.653
X51.73 Y99.078 Z2.544
X51.703 Y99.221 Z2.5
G3 X48.931 Y98.558 Z2.344 I-1.386 J-0.331
X51.703 Y99.221 Z2.187 I1.386 J0.331
X48.931 Y98.558 Z2.031 I-1.386 J-0.331
X51.703 Y99.221 Z1.875 I1.386 J0.331
X48.931 Y98.558 Z1.718 I-1.386 J-0.331
X51.703 Y99.221 Z1.562 I1.386 J0.331
X48.931 Y98.558 Z1.406 I-1.386 J-0.331
X51.703 Y99.221 Z1.249 I1.386 J0.331
X48.931 Y98.558 Z1.093 I-1.386 J-0.331
X51.703 Y99.221 Z0.937 I1.386 J0.331
X48.931 Y98.558 Z0.78 I-1.386 J-0.331
X51.703 Y99.221 Z0.624 I1.386 J0.331
X48.931 Y98.558 Z0.468 I-1.386 J-0.331
X51.703 Y99.221 Z0.311 I1.386 J0.331
X48.931 Y98.558 Z0.155 I-1.386 J-0.331
X51.703 Y99.221 Z-0.001 I1.386 J0.331
X48.931 Y98.558 Z-0.158 I-1.386 J-0.331
X51.703 Y99.221 Z-0.314 I1.386 J0.331
X48.931 Y98.558 Z-0.47 I-1.386 J-0.331
X51.703 Y99.221 Z-0.627 I1.386 J0.331
X48.931 Y98.558 Z-0.783 I-1.386 J-0.331
X51.703 Y99.221 Z-0.939 I1.386 J0.331
X48.931 Y98.558 Z-1.096 I-1.386 J-0.331
X51.703 Y99.221 Z-1.252 I1.386 J0.331
X48.931 Y98.558 Z-1.408 I-1.386 J-0.331
X51.703 Y99.221 Z-1.565 I1.386 J0.331
X48.931 Y98.558 Z-1.721 I-1.386 J-0.331
X51.703 Y99.221 Z-1.877 I1.386 J0.331
X48.931 Y98.558 Z-2.034 I-1.386 J-0.331
X51.703 Y99.221 Z-2.19 I1.386 J0.331
X48.931 Y98.558 Z-2.346 I-1.386 J-0.331
X51.703 Y99.221 Z-2.503 I1.386 J0.331
X48.931 Y98.558 Z-2.659 I-1.386 J-0.331
X50 Y97.5 Z-2.714 I1.386 J0.331
G1 X50.046 Y97.49 F1000
X50.07 Y97.479
X50.089 Y97.461
X50.101 Y97.438
X50.114 Y97.397
X50.122 Y97.355
X50.119 Y97.312
X50.107 Y97.27
X50.1 Y97.255
X50.077 Y97.213
X50.047 Y97.177
X50.009 Y97.147
X49.984 Y97.132
X49.93 Y97.105
X49.871 Y97.088
X49.811 Y97.082
X49.795
X49.733 Y97.087
X49.673 Y97.101
X49.616 Y97.126
X49.563 Y97.16
X49.504 Y97.205
G2 X49.281 Y97.572 I0.36 J0.47
G1 X49.274 Y97.612
G2 X49.364 Y98.097 I0.689 J0.122
G1 X49.395 Y98.147
G2 X49.858 Y98.516 I0.732 J-0.444
G1 X49.912 Y98.534
G2 X50.604 Y98.512 I0.316 J-0.96
G1 X50.656 Y98.491
G2 X51.248 Y97.965 I-0.433 J-1.082
G1 X51.274 Y97.916
G2 X51.409 Y97.035 I-1.16 J-0.629
G1 X51.399 Y96.981
G2 X50.893 Y96.129 I-1.446 J0.282
G1 X50.851 Y96.094
G2 X49.826 Y95.72 I-1.038 J1.252
G1 X49.713 Y95.719
G2 X48.118 Y96.595 I-0.015 J1.862
G1 X48.112 Y96.605
G2 X47.809 Y97.488 I1.761 J1.099
G1 X47.806 Y97.512
G2 X47.926 Y98.485 I2.169 J0.226
G1 X47.935 Y98.508
G2 X48.494 Y99.369 I2.148 J-0.783
G1 X48.512 Y99.386
G2 X49.431 Y99.939 I1.661 J-1.719
G1 X49.454 Y99.947
G2 X50.569 Y100.047 I0.774 J-2.373
G1 X50.593 Y100.043
G2 X51.683 Y99.629 I-0.355 J-2.576
G1 X51.703 Y99.616
G2 X52.534 Y98.734 I-1.503 J-2.249
G1 X52.546 Y98.713
G2 X52.923 Y97.512 I-2.425 J-1.42
G1 X52.925 Y97.488
G2 X52.733 Y96.197 I-2.906 J-0.227
G1 X52.724 Y96.175
G2 X51.962 Y95.059 I-2.812 J1.102
G1 X51.944 Y95.042
G2 X50.732 Y94.347 I-2.121 J2.295
G1 X50.709 Y94.34
G2 X49.268 Y94.24 I-0.939 J3.09
G1 X49.244 Y94.244
G2 X47.861 Y94.799 I0.518 J3.294
G1 X47.841 Y94.812
G2 X46.807 Y95.949 I1.961 J2.825
G1 X46.795 Y95.97
G2 X46.346 Y97.488 I3.087 J1.74
G1 X46.344 Y97.512
G2 X46.608 Y99.12 I3.641 J0.228
G1 X46.617 Y99.142
G2 X47.582 Y100.513 I3.474 J-1.42
G1 X47.6 Y100.529
G2 X49.105 Y101.366 I2.579 J-2.868
G1 X49.128 Y101.373
G2 X50.895 Y101.473 I1.103 J-3.806
G1 X50.918 Y101.469
G2 X52.595 Y100.773 I-0.681 J-4.009
G1 X52.614 Y100.759
G2 X53.852 Y99.368 I-2.419 J-3.399
G1 X53.864 Y99.347
G2 X54.386 Y97.512 I-3.748 J-2.058
G1 X54.387 Y97.488
G2 X54.051 Y95.562 I-4.375 J-0.228
G1 X54.042 Y95.54
G2 X52.874 Y93.915 I-4.135 J1.738
G1 X52.743 Y93.799
G2 X48.406 Y92.843 I-3.032 J3.436
G1 X48.371 Y92.853
G2 X47.355 Y93.284 I1.4 J4.715
X46.445 Y93.941 I2.437 J4.333
X45.697 Y94.793 I3.378 J3.72
X45.152 Y95.801 I4.166 J2.903
X44.843 Y96.916 I4.758 J1.921
X44.778 Y97.736 I5.12 J0.82
X44.789 Y98.084 I5.185 J0
X45 Y99.247 I5.227 J-0.346
X45.469 Y100.344 I5.069 J-1.518
X46.177 Y101.318 I4.65 J-2.636
X47.095 Y102.118 I3.984 J-3.642
X48.177 Y102.699 I3.102 J-4.483
X49.374 Y103.027 I2.045 J-5.111
X50.236 Y103.095 I0.862 J-5.491
X50.626 Y103.081 I0 J-5.558
X51.87 Y102.852 I-0.387 J-5.598
X53.042 Y102.347 I-1.641 J-5.422
X54.082 Y101.586 I-2.835 J-4.966
X54.934 Y100.604 I-3.906 J-4.248
X55.551 Y99.446 I-4.799 J-3.301
G1 X55.571 Y99.395
G2 X55.89 Y98.215 I-5.07 J-2.006
G1 X56 Y97.5
G3 X44 Y97.5 I-6 J0
X56 Y97.5 I6 J0
G1 X55.994 Y97.543
X55.975 Y97.583
X55.946 Y97.615
X55.909 Y97.638
X55.866 Y97.649
X51.672 Y98.114
X51.632 Y98.132
X51.599 Y98.161
X51.576 Y98.198
X51.565 Y98.24
X51.566 Y98.283
X51.712 Y99.127
X51.715 Y99.156
X51.711 Y99.184
G3 X48.923 Y98.595 Z-2.871 I-1.394 J-0.295 F333.3
X51.711 Y99.184 Z-3.027 I1.394 J0.295
X48.923 Y98.595 Z-3.183 I-1.394 J-0.295
X51.711 Y99.184 Z-3.34 I1.394 J0.295
X48.923 Y98.595 Z-3.496 I-1.394 J-0.295
X51.711 Y99.184 Z-3.652 I1.394 J0.295
X48.923 Y98.595 Z-3.809 I-1.394 J-0.295
X51.711 Y99.184 Z-3.965 I1.394 J0.295
X48.923 Y98.595 Z-4.121 I-1.394 J-0.295
X51.711 Y99.184 Z-4.278 I1.394 J0.295
X48.923 Y98.595 Z-4.434 I-1.394 J-0.295
X51.711 Y99.184 Z-4.59 I1.394 J0.295
X48.923 Y98.595 Z-4.747 I-1.394 J-0.295
X51.711 Y99.184 Z-4.903 I1.394 J0.295
X48.923 Y98.595 Z-5.059 I-1.394 J-0.295
X51.711 Y99.184 Z-5.216 I1.394 J0.295
X48.923 Y98.595 Z-5.372 I-1.394 J-0.295
X50 Y97.5 Z-5.429 I1.394 J0.295
G1 X50.046 Y97.49 F1000
X50.07 Y97.479
X50.089 Y97.461
X50.101 Y97.438
X50.114 Y97.397
X50.122 Y97.355
X50.119 Y97.312
X50.107 Y97.27
X50.1 Y97.255
X50.077 Y97.213
X50.047 Y97.177
X50.009 Y97.147
X49.984 Y97.132
X49.93 Y97.105
X49.871 Y97.088
X49.811 Y97.082
X49.795
X49.733 Y97.087
X49.673 Y97.101
X49.616 Y97.126
X49.563 Y97.16
X49.504 Y97.205
G2 X49.281 Y97.572 I0.36 J0.47
G1 X49.274 Y97.612
G2 X49.364 Y98.097 I0.689 J0.122
G1 X49.395 Y98.147
G2 X49.858 Y98.516 I0.732 J-0.444
G1 X49.912 Y98.534
G2 X50.604 Y98.512 I0.316 J-0.96
G1 X50.656 Y98.491
G2 X51.248 Y97.965 I-0.433 J-1.082
G1 X51.274 Y97.916
G2 X51.409 Y97.035 I-1.16 J-0.629
G1 X51.399 Y96.981
G2 X50.893 Y96.129 I-1.446 J0.282
G1 X50.851 Y96.094
G2 X49.826 Y95.72 I-1.038 J1.252
G1 X49.713 Y95.719
G2 X48.118 Y96.595 I-0.015 J1.862
G1 X48.112 Y96.605
G2 X47.809 Y97.488 I1.761 J1.099
G1 X47.806 Y97.512
G2 X47.926 Y98.485 I2.169 J0.226
G1 X47.935 Y98.508
G2 X48.494 Y99.369 I2.148 J-0.783
G1 X48.512 Y99.386
G2 X49.431 Y99.939 I1.661 J-1.719
G1 X49.454 Y99.947
G2 X50.569 Y100.047 I0.774 J-2.373
G1 X50.593 Y100.043
G2 X51.683 Y99.629 I-0.355 J-2.576
G1 X51.703 Y99.616
G2 X52.534 Y98.734 I-1.503 J-2.249
G1 X52.546 Y98.713
G2 X52.923 Y97.512 I-2.425 J-1.42
G1 X52.925 Y97.488
G2 X52.733 Y96.197 I-2.906 J-0.227
G1 X52.724 Y96.175
G2 X51.962 Y95.059 I-2.812 J1.102
G1 X51.944 Y95.042
G2 X50.732 Y94.347 I-2.121 J2.295
G1 X50.709 Y94.34
G2 X49.268 Y94.24 I-0.939 J3.09
G1 X49.244 Y94.244
G2 X47.861 Y94.799 I0.518 J3.294
G1 X47.841 Y94.812
G2 X46.807 Y95.949 I1.961 J2.825
G1 X46.795 Y95.97
G2 X46.346 Y97.488 I3.087 J1.74
G1 X46.344 Y97.512
G2 X46.608 Y99.12 I3.641 J0.228
G1 X46.617 Y99.142
G2 X47.582 Y100.513 I3.474 J-1.42
G1 X47.6 Y100.529
G2 X49.105 Y101.366 I2.579 J-2.868
G1 X49.128 Y101.373
G2 X50.895 Y101.473 I1.103 J-3.806
G1 X50.918 Y101.469
G2 X52.595 Y100.773 I-0.681 J-4.009
G1 X52.614 Y100.759
G2 X53.852 Y99.368 I-2.419 J-3.399
G1 X53.864 Y99.347
G2 X54.386 Y97.512 I-3.748 J-2.058
G1 X54.387 Y97.488
G2 X54.051 Y95.562 I-4.375 J-0.228
G1 X54.042 Y95.54
G2 X52.874 Y93.915 I-4.135 J1.738
G1 X52.743 Y93.799
G2 X48.406 Y92.843 I-3.032 J3.436
G1 X48.371 Y92.853
G2 X47.355 Y93.284 I1.4 J4.715
X46.445 Y93.941 I2.437 J4.333
X45.697 Y94.793 I3.378 J3.72
X45.152 Y95.801 I4.166 J2.903
X44.843 Y96.916 I4.758 J1.921
X44.778 Y97.736 I5.12 J0.82
X44.789 Y98.084 I5.185 J0
X45 Y99.247 I5.227 J-0.346
X45.469 Y100.344 I5.069 J-1.518
X46.177 Y101.318 I4.65 J-2.636
X47.095 Y102.118 I3.984 J-3.642
X48.177 Y102.699 I3.102 J-4.483
X49.374 Y103.027 I2.045 J-5.111
X50.236 Y103.095 I0.862 J-5.491
X50.626 Y103.081 I0 J-5.558
X51.87 Y102.852 I-0.387 J-5.598
X53.042 Y102.347 I-1.641 J-5.422
X54.082 Y101.586 I-2.835 J-4.966
X54.934 Y100.604 I-3.906 J-4.248
X55.551 Y99.446 I-4.799 J-3.301
G1 X55.571 Y99.395
G2 X55.89 Y98.215 I-5.07 J-2.006
G1 X56 Y97.5
G3 X44 Y97.5 I-6 J0
X56 Y97.5 I6 J0
G1 X55.994 Y97.543
X55.975 Y97.583
X55.946 Y97.615
X55.909 Y97.638
X55.866 Y97.649
X51.672 Y98.114
X51.632 Y98.132
X51.599 Y98.161
X51.576 Y98.198
X51.565 Y98.24
X51.566 Y98.283
X51.712 Y99.127
X51.715 Y99.156
X51.711 Y99.184
G3 X48.923 Y98.595 Z-5.585 I-1.394 J-0.295 F333.3
X51.711 Y99.184 Z-5.741 I1.394 J0.295
X48.923 Y98.595 Z-5.898 I-1.394 J-0.295
X51.711 Y99.184 Z-6.054 I1.394 J0.295
X48.923 Y98.595 Z-6.21 I-1.394 J-0.295
X51.711 Y99.184 Z-6.367 I1.394 J0.295
X48.923 Y98.595 Z-6.523 I-1.394 J-0.295
X51.711 Y99.184 Z-6.679 I1.394 J0.295
X48.923 Y98.595 Z-6.836 I-1.394 J-0.295
X51.711 Y99.184 Z-6.992 I1.394 J0.295
X48.923 Y98.595 Z-7.148 I-1.394 J-0.295
X51.711 Y99.184 Z-7.305 I1.394 J0.295
X48.923 Y98.595 Z-7.461 I-1.394 J-0.295
X51.711 Y99.184 Z-7.617 I1.394 J0.295
X48.923 Y98.595 Z-7.774 I-1.394 J-0.295
X51.711 Y99.184 Z-7.93 I1.394 J0.295
X48.923 Y98.595 Z-8.086 I-1.394 J-0.295
X50 Y97.5 Z-8.143 I1.394 J0.295
G1 X50.046 Y97.49 F1000
X50.07 Y97.479
X50.089 Y97.461
X50.101 Y97.438
X50.114 Y97.397
X50.122 Y97.355
X50.119 Y97.312
X50.107 Y97.27
X50.1 Y97.255
X50.077 Y97.213
X50.047 Y97.177
X50.009 Y97.147
X49.984 Y97.132
X49.93 Y97.105
X49.871 Y97.088
X49.811 Y97.082
X49.795
X49.733 Y97.087
X49.673 Y97.101
X49.616 Y97.126
X49.563 Y97.16
X49.504 Y97.205
G2 X49.281 Y97.572 I0.36 J0.47
G1 X49.274 Y97.612
G2 X49.364 Y98.097 I0.689 J0.122
G1 X49.395 Y98.147
G2 X49.858 Y98.516 I0.732 J-0.444
G1 X49.912 Y98.534
G2 X50.604 Y98.512 I0.316 J-0.96
G1 X50.656 Y98.491
G2 X51.248 Y97.965 I-0.433 J-1.082
G1 X51.274 Y97.916
G2 X51.409 Y97.035 I-1.16 J-0.629
G1 X51.399 Y96.981
G2 X50.893 Y96.129 I-1.446 J0.282
G1 X50.851 Y96.094
G2 X49.826 Y95.72 I-1.038 J1.252
G1 X49.713 Y95.719
G2 X48.118 Y96.595 I-0.015 J1.862
G1 X48.112 Y96.605
G2 X47.809 Y97.488 I1.761 J1.099
G1 X47.806 Y97.512
G2 X47.926 Y98.485 I2.169 J0.226
G1 X47.935 Y98.508
G2 X48.494 Y99.369 I2.148 J-0.783
G1 X48.512 Y99.386
G2 X49.431 Y99.939 I1.661 J-1.719
G1 X49.454 Y99.947
G2 X50.569 Y100.047 I0.774 J-2.373
G1 X50.593 Y100.043
G2 X51.683 Y99.629 I-0.355 J-2.576
G1 X51.703 Y99.616
G2 X52.534 Y98.734 I-1.503 J-2.249
G1 X52.546 Y98.713
G2 X52.923 Y97.512 I-2.425 J-1.42
G1 X52.925 Y97.488
G2 X52.733 Y96.197 I-2.906 J-0.227
G1 X52.724 Y96.175
G2 X51.962 Y95.059 I-2.812 J1.102
G1 X51.944 Y95.042
G2 X50.732 Y94.347 I-2.121 J2.295
G1 X50.709 Y94.34
G2 X49.268 Y94.24 I-0.939 J3.09
G1 X49.244 Y94.244
G2 X47.861 Y94.799 I0.518 J3.294
G1 X47.841 Y94.812
G2 X46.807 Y95.949 I1.961 J2.825
G1 X46.795 Y95.97
G2 X46.346 Y97.488 I3.087 J1.74
G1 X46.344 Y97.512
G2 X46.608 Y99.12 I3.641 J0.228
G1 X46.617 Y99.142
G2 X47.582 Y100.513 I3.474 J-1.42
G1 X47.6 Y100.529
G2 X49.105 Y101.366 I2.579 J-2.868
G1 X49.128 Y101.373
G2 X50.895 Y101.473 I1.103 J-3.806
G1 X50.918 Y101.469
G2 X52.595 Y100.773 I-0.681 J-4.009
G1 X52.614 Y100.759
G2 X53.852 Y99.368 I-2.419 J-3.399
G1 X53.864 Y99.347
G2 X54.386 Y97.512 I-3.748 J-2.058
G1 X54.387 Y97.488
G2 X54.051 Y95.562 I-4.375 J-0.228
G1 X54.042 Y95.54
G2 X52.874 Y93.915 I-4.135 J1.738
G1 X52.743 Y93.799
G2 X48.406 Y92.843 I-3.032 J3.436
G1 X48.371 Y92.853
G2 X47.355 Y93.284 I1.4 J4.715
X46.445 Y93.941 I2.437 J4.333
X45.697 Y94.793 I3.378 J3.72
X45.152 Y95.801 I4.166 J2.903
X44.843 Y96.916 I4.758 J1.921
X44.778 Y97.736 I5.12 J0.82
X44.789 Y98.084 I5.185 J0
X45 Y99.247 I5.227 J-0.346
X45.469 Y100.344 I5.069 J-1.518
X46.177 Y101.318 I4.65 J-2.636
X47.095 Y102.118 I3.984 J-3.642
X48.177 Y102.699 I3.102 J-4.483
X49.374 Y103.027 I2.045 J-5.111
X50.236 Y103.095 I0.862 J-5.491
X50.626 Y103.081 I0 J-5.558
X51.87 Y102.852 I-0.387 J-5.598
X53.042 Y102.347 I-1.641 J-5.422
X54.082 Y101.586 I-2.835 J-4.966
X54.934 Y100.604 I-3.906 J-4.248
X55.551 Y99.446 I-4.799 J-3.301
G1 X55.571 Y99.395
G2 X55.89 Y98.215 I-5.07 J-2.006
G1 X56 Y97.5
G3 X44 Y97.5 I-6 J0
X56 Y97.5 I6 J0
G1 X55.994 Y97.543
X55.975 Y97.583
X55.946 Y97.615
X55.909 Y97.638
X55.866 Y97.649
X51.672 Y98.114
X51.632 Y98.132
X51.599 Y98.161
X51.576 Y98.198
X51.565 Y98.24
X51.566 Y98.283
X51.712 Y99.127
X51.715 Y99.156
X51.711 Y99.184
G3 X48.923 Y98.595 Z-8.299 I-1.394 J-0.295 F333.3
X51.711 Y99.184 Z-8.456 I1.394 J0.295
X48.923 Y98.595 Z-8.612 I-1.394 J-0.295
X51.711 Y99.184 Z-8.768 I1.394 J0.295
X48.923 Y98.595 Z-8.925 I-1.394 J-0.295
X51.711 Y99.184 Z-9.081 I1.394 J0.295
X48.923 Y98.595 Z-9.237 I-1.394 J-0.295
X51.711 Y99.184 Z-9.394 I1.394 J0.295
X48.923 Y98.595 Z-9.55 I-1.394 J-0.295
X51.711 Y99.184 Z-9.706 I1.394 J0.295
X48.923 Y98.595 Z-9.863 I-1.394 J-0.295
X51.711 Y99.184 Z-10.019 I1.394 J0.295
X48.923 Y98.595 Z-10.175 I-1.394 J-0.295
X51.711 Y99.184 Z-10.332 I1.394 J0.295
X48.923 Y98.595 Z-10.488 I-1.394 J-0.295
X51.711 Y99.184 Z-10.644 I1.394 J0.295
X48.923 Y98.595 Z-10.801 I-1.394 J-0.295
X50 Y97.5 Z-10.857 I1.394 J0.295
G1 X50.046 Y97.49 F1000
X50.07 Y97.479
X50.089 Y97.461
X50.101 Y97.438
X50.114 Y97.397
X50.122 Y97.355
X50.119 Y97.312
X50.107 Y97.27
X50.1 Y97.255
X50.077 Y97.213
X50.047 Y97.177
X50.009 Y97.147
X49.984 Y97.132
X49.93 Y97.105
X49.871 Y97.088
X49.811 Y97.082
X49.795
X49.733 Y97.087
X49.673 Y97.101
X49.616 Y97.126
X49.563 Y97.16
X49.504 Y97.205
G2 X49.281 Y97.572 I0.36 J0.47
G1 X49.274 Y97.612
G2 X49.364 Y98.097 I0.689 J0.122
G1 X49.395 Y98.147
G2 X49.858 Y98.516 I0.732 J-0.444
G1 X49.912 Y98.534
G2 X50.604 Y98.512 I0.316 J-0.96
G1 X50.656 Y98.491
G2 X51.248 Y97.965 I-0.433 J-1.082
G1 X51.274 Y97.916
G2 X51.409 Y97.035 I-1.16 J-0.629
G1 X51.399 Y96.981
G2 X50.893 Y96.129 I-1.446 J0.282
G1 X50.851 Y96.094
G2 X49.826 Y95.72 I-1.038 J1.252
G1 X49.713 Y95.719
G2 X48.118 Y96.595 I-0.015 J1.862
G1 X48.112 Y96.605
G2 X47.809 Y97.488 I1.761 J1.099
G1 X47.806 Y97.512
G2 X47.926 Y98.485 I2.169 J0.226
G1 X47.935 Y98.508
G2 X48.494 Y99.369 I2.148 J-0.783
G1 X48.512 Y99.386
G2 X49.431 Y99.939 I1.661 J-1.719
G1 X49.454 Y99.947
G2 X50.569 Y100.047 I0.774 J-2.373
G1 X50.593 Y100.043
G2 X51.683 Y99.629 I-0.355 J-2.576
G1 X51.703 Y99.616
G2 X52.534 Y98.734 I-1.503 J-2.249
G1 X52.546 Y98.713
G2 X52.923 Y97.512 I-2.425 J-1.42
G1 X52.925 Y97.488
G2 X52.733 Y96.197 I-2.906 J-0.227
G1 X52.724 Y96.175
G2 X51.962 Y95.059 I-2.812 J1.102
G1 X51.944 Y95.042
G2 X50.732 Y94.347 I-2.121 J2.295
G1 X50.709 Y94.34
G2 X49.268 Y94.24 I-0.939 J3.09
G1 X49.244 Y94.244
G2 X47.861 Y94.799 I0.518 J3.294
G1 X47.841 Y94.812
G2 X46.807 Y95.949 I1.961 J2.825
G1 X46.795 Y95.97
G2 X46.346 Y97.488 I3.087 J1.74
G1 X46.344 Y97.512
G2 X46.608 Y99.12 I3.641 J0.228
G1 X46.617 Y99.142
G2 X47.582 Y100.513 I3.474 J-1.42
G1 X47.6 Y100.529
G2 X49.105 Y101.366 I2.579 J-2.868
G1 X49.128 Y101.373
G2 X50.895 Y101.473 I1.103 J-3.806
G1 X50.918 Y101.469
G2 X52.595 Y100.773 I-0.681 J-4.009
G1 X52.614 Y100.759
G2 X53.852 Y99.368 I-2.419 J-3.399
G1 X53.864 Y99.347
G2 X54.386 Y97.512 I-3.748 J-2.058
G1 X54.387 Y97.488
G2 X54.051 Y95.562 I-4.375 J-0.228
G1 X54.042 Y95.54
G2 X52.874 Y93.915 I-4.135 J1.738
G1 X52.743 Y93.799
G2 X48.406 Y92.843 I-3.032 J3.436
G1 X48.371 Y92.853
G2 X47.355 Y93.284 I1.4 J4.715
X46.445 Y93.941 I2.437 J4.333
X45.697 Y94.793 I3.378 J3.72
X45.152 Y95.801 I4.166 J2.903
X44.843 Y96.916 I4.758 J1.921
X44.778 Y97.736 I5.12 J0.82
X44.789 Y98.084 I5.185 J0
X45 Y99.247 I5.227 J-0.346
X45.469 Y100.344 I5.069 J-1.518
X46.177 Y101.318 I4.65 J-2.636
X47.095 Y102.118 I3.984 J-3.642
X48.177 Y102.699 I3.102 J-4.483
X49.374 Y103.027 I2.045 J-5.111
X50.236 Y103.095 I0.862 J-5.491
X50.626 Y103.081 I0 J-5.558
X51.87 Y102.852 I-0.387 J-5.598
X53.042 Y102.347 I-1.641 J-5.422
X54.082 Y101.586 I-2.835 J-4.966
X54.934 Y100.604 I-3.906 J-4.248
X55.551 Y99.446 I-4.799 J-3.301
G1 X55.571 Y99.395
G2 X55.89 Y98.215 I-5.07 J-2.006
G1 X56 Y97.5
G3 X44 Y97.5 I-6 J0
X56 Y97.5 I6 J0
G1 X55.994 Y97.543
X55.975 Y97.583
X55.946 Y97.615
X55.909 Y97.638
X55.866 Y97.649
X51.672 Y98.114
X51.632 Y98.132
X51.599 Y98.161
X51.576 Y98.198
X51.565 Y98.24
X51.566 Y98.283
X51.712 Y99.127
X51.715 Y99.156
X51.711 Y99.184
G3 X48.923 Y98.595 Z-11.013 I-1.394 J-0.295 F333.3
X51.711 Y99.184 Z-11.17 I1.394 J0.295
X48.923 Y98.595 Z-11.326 I-1.394 J-0.295
X51.711 Y99.184 Z-11.482 I1.394 J0.295
X48.923 Y98.595 Z-11.639 I-1.394 J-0.295
X51.711 Y99.184 Z-11.795 I1.394 J0.295
X48.923 Y98.595 Z-11.951 I-1.394 J-0.295
X51.711 Y99.184 Z-12.108 I1.394 J0.295
X48.923 Y98.595 Z-12.264 I-1.394 J-0.295
X51.711 Y99.184 Z-12.42 I1.394 J0.295
X48.923 Y98.595 Z-12.577 I-1.394 J-0.295
X51.711 Y99.184 Z-12.733 I1.394 J0.295
X48.923 Y98.595 Z-12.889 I-1.394 J-0.295
X51.711 Y99.184 Z-13.046 I1.394 J0.295
X48.923 Y98.595 Z-13.202 I-1.394 J-0.295
X51.711 Y99.184 Z-13.358 I1.394 J0.295
X48.923 Y98.595 Z-13.515 I-1.394 J-0.295
X50 Y97.5 Z-13.571 I1.394 J0.295
G1 X50.046 Y97.49 F1000
X50.07 Y97.479
X50.089 Y97.461
X50.101 Y97.438
X50.114 Y97.397
X50.122 Y97.355
X50.119 Y97.312
X50.107 Y97.27
X50.1 Y97.255
X50.077 Y97.213
X50.047 Y97.177
X50.009 Y97.147
X49.984 Y97.132
X49.93 Y97.105
X49.871 Y97.088
X49.811 Y97.082
X49.795
X49.733 Y97.087
X49.673 Y97.101
X49.616 Y97.126
X49.563 Y97.16
X49.504 Y97.205
G2 X49.281 Y97.572 I0.36 J0.47
G1 X49.274 Y97.612
G2 X49.364 Y98.097 I0.689 J0.122
G1 X49.395 Y98.147
G2 X49.858 Y98.516 I0.732 J-0.444
G1 X49.912 Y98.534
G2 X50.604 Y98.512 I0.316 J-0.96
G1 X50.656 Y98.491
G2 X51.248 Y97.965 I-0.433 J-1.082
G1 X51.274 Y97.916
G2 X51.409 Y97.035 I-1.16 J-0.629
G1 X51.399 Y96.981
G2 X50.893 Y96.129 I-1.446 J0.282
G1 X50.851 Y96.094
G2 X49.826 Y95.72 I-1.038 J1.252
G1 X49.713 Y95.719
G2 X48.118 Y96.595 I-0.015 J1.862
G1 X48.112 Y96.605
G2 X47.809 Y97.488 I1.761 J1.099
G1 X47.806 Y97.512
G2 X47.926 Y98.485 I2.169 J0.226
G1 X47.935 Y98.508
G2 X48.494 Y99.369 I2.148 J-0.783
G1 X48.512 Y99.386
G2 X49.431 Y99.939 I1.661 J-1.719
G1 X49.454 Y99.947
G2 X50.569 Y100.047 I0.774 J-2.373
G1 X50.593 Y100.043
G2 X51.683 Y99.629 I-0.355 J-2.576
G1 X51.703 Y99.616
G2 X52.534 Y98.734 I-1.503 J-2.249
G1 X52.546 Y98.713
G2 X52.923 Y97.512 I-2.425 J-1.42
G1 X52.925 Y97.488
G2 X52.733 Y96.197 I-2.906 J-0.227
G1 X52.724 Y96.175
G2 X51.962 Y95.059 I-2.812 J1.102
G1 X51.944 Y95.042
G2 X50.732 Y94.347 I-2.121 J2.295
G1 X50.709 Y94.34
G2 X49.268 Y94.24 I-0.939 J3.09
G1 X49.244 Y94.244
G2 X47.861 Y94.799 I0.518 J3.294
G1 X47.841 Y94.812
G2 X46.807 Y95.949 I1.961 J2.825
G1 X46.795 Y95.97
G2 X46.346 Y97.488 I3.087 J1.74
G1 X46.344 Y97.512
G2 X46.608 Y99.12 I3.641 J0.228
G1 X46.617 Y99.142
G2 X47.582 Y100.513 I3.474 J-1.42
G1 X47.6 Y100.529
G2 X49.105 Y101.366 I2.579 J-2.868
G1 X49.128 Y101.373
G2 X50.895 Y101.473 I1.103 J-3.806
G1 X50.918 Y101.469
G2 X52.595 Y100.773 I-0.681 J-4.009
G1 X52.614 Y100.759
G2 X53.852 Y99.368 I-2.419 J-3.399
G1 X53.864 Y99.347
G2 X54.386 Y97.512 I-3.748 J-2.058
G1 X54.387 Y97.488
G2 X54.051 Y95.562 I-4.375 J-0.228
G1 X54.042 Y95.54
G2 X52.874 Y93.915 I-4.135 J1.738
G1 X52.743 Y93.799
G2 X48.406 Y92.843 I-3.032 J3.436
G1 X48.371 Y92.853
G2 X47.355 Y93.284 I1.4 J4.715
X46.445 Y93.941 I2.437 J4.333
X45.697 Y94.793 I3.378 J3.72
X45.152 Y95.801 I4.166 J2.903
X44.843 Y96.916 I4.758 J1.921
X44.778 Y97.736 I5.12 J0.82
X44.789 Y98.084 I5.185 J0
X45 Y99.247 I5.227 J-0.346
X45.469 Y100.344 I5.069 J-1.518
X46.177 Y101.318 I4.65 J-2.636
X47.095 Y102.118 I3.984 J-3.642
X48.177 Y102.699 I3.102 J-4.483
X49.374 Y103.027 I2.045 J-5.111
X50.236 Y103.095 I0.862 J-5.491
X50.626 Y103.081 I0 J-5.558
X51.87 Y102.852 I-0.387 J-5.598
X53.042 Y102.347 I-1.641 J-5.422
X54.082 Y101.586 I-2.835 J-4.966
X54.934 Y100.604 I-3.906 J-4.248
X55.551 Y99.446 I-4.799 J-3.301
G1 X55.571 Y99.395
G2 X55.89 Y98.215 I-5.07 J-2.006
G1 X56 Y97.5
G3 X44 Y97.5 I-6 J0
X56 Y97.5 I6 J0
G1 X55.994 Y97.543
X55.975 Y97.583
X55.946 Y97.615
X55.909 Y97.638
X55.866 Y97.649
X51.672 Y98.114
X51.632 Y98.132
X51.599 Y98.161
X51.576 Y98.198
X51.565 Y98.24
X51.566 Y98.283
X51.712 Y99.127
X51.715 Y99.156
X51.711 Y99.184
G3 X48.923 Y98.595 Z-13.728 I-1.394 J-0.295 F333.3
X51.711 Y99.184 Z-13.884 I1.394 J0.295
X48.923 Y98.595 Z-14.04 I-1.394 J-0.295
X51.711 Y99.184 Z-14.197 I1.394 J0.295
X48.923 Y98.595 Z-14.353 I-1.394 J-0.295
X51.711 Y99.184 Z-14.509 I1.394 J0.295
X48.923 Y98.595 Z-14.666 I-1.394 J-0.295
X51.711 Y99.184 Z-14.822 I1.394 J0.295
X48.923 Y98.595 Z-14.978 I-1.394 J-0.295
X51.711 Y99.184 Z-15.135 I1.394 J0.295
X48.923 Y98.595 Z-15.291 I-1.394 J-0.295
X51.711 Y99.184 Z-15.447 I1.394 J0.295
X48.923 Y98.595 Z-15.604 I-1.394 J-0.295
X51.711 Y99.184 Z-15.76 I1.394 J0.295
X48.923 Y98.595 Z-15.916 I-1.394 J-0.295
X51.711 Y99.184 Z-16.073 I1.394 J0.295
X48.923 Y98.595 Z-16.229 I-1.394 J-0.295
X50 Y97.5 Z-16.286 I1.394 J0.295
G1 X50.046 Y97.49 F1000
X50.07 Y97.479
X50.089 Y97.461
X50.101 Y97.438
X50.114 Y97.397
X50.122 Y97.355
X50.119 Y97.312
X50.107 Y97.27
X50.1 Y97.255
X50.077 Y97.213
X50.047 Y97.177
X50.009 Y97.147
X49.984 Y97.132
X49.93 Y97.105
X49.871 Y97.088
X49.811 Y97.082
X49.795
X49.733 Y97.087
X49.673 Y97.101
X49.616 Y97.126
X49.563 Y97.16
X49.504 Y97.205
G2 X49.281 Y97.572 I0.36 J0.47
G1 X49.274 Y97.612
G2 X49.364 Y98.097 I0.689 J0.122
G1 X49.395 Y98.147
G2 X49.858 Y98.516 I0.732 J-0.444
G1 X49.912 Y98.534
G2 X50.604 Y98.512 I0.316 J-0.96
G1 X50.656 Y98.491
G2 X51.248 Y97.965 I-0.433 J-1.082
G1 X51.274 Y97.916
G2 X51.409 Y97.035 I-1.16 J-0.629
G1 X51.399 Y96.981
G2 X50.893 Y96.129 I-1.446 J0.282
G1 X50.851 Y96.094
G2 X49.826 Y95.72 I-1.038 J1.252
G1 X49.713 Y95.719
G2 X48.118 Y96.595 I-0.015 J1.862
G1 X48.112 Y96.605
G2 X47.809 Y97.488 I1.761 J1.099
G1 X47.806 Y97.512
G2 X47.926 Y98.485 I2.169 J0.226
G1 X47.935 Y98.508
G2 X48.494 Y99.369 I2.148 J-0.783
G1 X48.512 Y99.386
G2 X49.431 Y99.939 I1.661 J-1.719
G1 X49.454 Y99.947
G2 X50.569 Y100.047 I0.774 J-2.373
G1 X50.593 Y100.043
G2 X51.683 Y99.629 I-0.355 J-2.576
G1 X51.703 Y99.616
G2 X52.534 Y98.734 I-1.503 J-2.249
G1 X52.546 Y98.713
G2 X52.923 Y97.512 I-2.425 J-1.42
G1 X52.925 Y97.488
G2 X52.733 Y96.197 I-2.906 J-0.227
G1 X52.724 Y96.175
G2 X51.962 Y95.059 I-2.812 J1.102
G1 X51.944 Y95.042
G2 X50.732 Y94.347 I-2.121 J2.295
G1 X50.709 Y94.34
G2 X49.268 Y94.24 I-0.939 J3.09
G1 X49.244 Y94.244
G2 X47.861 Y94.799 I0.518 J3.294
G1 X47.841 Y94.812
G2 X46.807 Y95.949 I1.961 J2.825
G1 X46.795 Y95.97
G2 X46.346 Y97.488 I3.087 J1.74
G1 X46.344 Y97.512
G2 X46.608 Y99.12 I3.641 J0.228
G1 X46.617 Y99.142
G2 X47.582 Y100.513 I3.474 J-1.42
G1 X47.6 Y100.529
G2 X49.105 Y101.366 I2.579 J-2.868
G1 X49.128 Y101.373
G2 X50.895 Y101.473 I1.103 J-3.806
G1 X50.918 Y101.469
G2 X52.595 Y100.773 I-0.681 J-4.009
G1 X52.614 Y100.759
G2 X53.852 Y99.368 I-2.419 J-3.399
G1 X53.864 Y99.347
G2 X54.386 Y97.512 I-3.748 J-2.058
G1 X54.387 Y97.488
G2 X54.051 Y95.562 I-4.375 J-0.228
G1 X54.042 Y95.54
G2 X52.874 Y93.915 I-4.135 J1.738
G1 X52.743 Y93.799
G2 X48.406 Y92.843 I-3.032 J3.436
G1 X48.371 Y92.853
G2 X47.355 Y93.284 I1.4 J4.715
X46.445 Y93.941 I2.437 J4.333
X45.697 Y94.793 I3.378 J3.72
X45.152 Y95.801 I4.166 J2.903
X44.843 Y96.916 I4.758 J1.921
X44.778 Y97.736 I5.12 J0.82
X44.789 Y98.084 I5.185 J0
X45 Y99.247 I5.227 J-0.346
X45.469 Y100.344 I5.069 J-1.518
X46.177 Y101.318 I4.65 J-2.636
X47.095 Y102.118 I3.984 J-3.642
X48.177 Y102.699 I3.102 J-4.483
X49.374 Y103.027 I2.045 J-5.111
X50.236 Y103.095 I0.862 J-5.491
X50.626 Y103.081 I0 J-5.558
X51.87 Y102.852 I-0.387 J-5.598
X53.042 Y102.347 I-1.641 J-5.422
X54.082 Y101.586 I-2.835 J-4.966
X54.934 Y100.604 I-3.906 J-4.248
X55.551 Y99.446 I-4.799 J-3.301
G1 X55.571 Y99.395
G2 X55.89 Y98.215 I-5.07 J-2.006
G1 X56 Y97.5
G3 X44 Y97.5 I-6 J0
X56 Y97.5 I6 J0
G1 X55.994 Y97.543
X55.975 Y97.583
X55.946 Y97.615
X55.909 Y97.638
X55.866 Y97.649
X51.672 Y98.114
X51.632 Y98.132
X51.599 Y98.161
X51.576 Y98.198
X51.565 Y98.24
X51.566 Y98.283
X51.712 Y99.127
X51.715 Y99.156
X51.711 Y99.184
G3 X51.619 Y99.469 Z-16.296 I-1.394 J-0.295 F333.3
X49.015 Y98.309 Z-16.453 I-1.302 J-0.58
X51.619 Y99.469 Z-16.609 I1.302 J0.58
X49.015 Y98.309 Z-16.765 I-1.302 J-0.58
X51.619 Y99.469 Z-16.922 I1.302 J0.58
X49.015 Y98.309 Z-17.078 I-1.302 J-0.58
X51.619 Y99.469 Z-17.234 I1.302 J0.58
X49.015 Y98.309 Z-17.391 I-1.302 J-0.58
X51.619 Y99.469 Z-17.547 I1.302 J0.58
X49.015 Y98.309 Z-17.703 I-1.302 J-0.58
X51.619 Y99.469 Z-17.86 I1.302 J0.58
X49.015 Y98.309 Z-18.016 I-1.302 J-0.58
X51.619 Y99.469 Z-18.172 I1.302 J0.58
X49.015 Y98.309 Z-18.329 I-1.302 J-0.58
X51.619 Y99.469 Z-18.485 I1.302 J0.58
X49.015 Y98.309 Z-18.641 I-1.302 J-0.58
X51.619 Y99.469 Z-18.798 I1.302 J0.58
X49.015 Y98.309 Z-18.954 I-1.302 J-0.58
X50 Y97.5 Z-19 I1.302 J0.58
G1 X50.046 Y97.49 F1000
X50.07 Y97.479
X50.089 Y97.461
X50.101 Y97.438
X50.114 Y97.397
X50.122 Y97.355
X50.119 Y97.312
X50.107 Y97.27
X50.1 Y97.255
X50.077 Y97.213
X50.047 Y97.177
X50.009 Y97.147
X49.984 Y97.132
X49.93 Y97.105
X49.871 Y97.088
X49.811 Y97.082
X49.795
X49.733 Y97.087
X49.673 Y97.101
X49.616 Y97.126
X49.563 Y97.16
X49.504 Y97.205
G2 X49.281 Y97.572 I0.36 J0.47
G1 X49.274 Y97.612
G2 X49.364 Y98.097 I0.689 J0.122
G1 X49.395 Y98.147
G2 X49.858 Y98.516 I0.732 J-0.444
G1 X49.912 Y98.534
G2 X50.604 Y98.512 I0.316 J-0.96
G1 X50.656 Y98.491
G2 X51.248 Y97.965 I-0.433 J-1.082
G1 X51.274 Y97.916
G2 X51.409 Y97.035 I-1.16 J-0.629
G1 X51.399 Y96.981
G2 X50.893 Y96.129 I-1.446 J0.282
G1 X50.851 Y96.094
G2 X49.826 Y95.72 I-1.038 J1.252
G1 X49.713 Y95.719
G2 X48.118 Y96.595 I-0.015 J1.862
G1 X48.112 Y96.605
G2 X47.809 Y97.488 I1.761 J1.099
G1 X47.806 Y97.512
G2 X47.926 Y98.485 I2.169 J0.226
G1 X47.935 Y98.508
G2 X48.494 Y99.369 I2.148 J-0.783
G1 X48.512 Y99.386
G2 X49.431 Y99.939 I1.661 J-1.719
G1 X49.454 Y99.947
G2 X50.569 Y100.047 I0.774 J-2.373
G1 X50.593 Y100.043
G2 X51.683 Y99.629 I-0.355 J-2.576
G1 X51.703 Y99.616
G2 X52.534 Y98.734 I-1.503 J-2.249
G1 X52.546 Y98.713
G2 X52.923 Y97.512 I-2.425 J-1.42
G1 X52.925 Y97.488
G2 X52.733 Y96.197 I-2.906 J-0.227
G1 X52.724 Y96.175
G2 X51.962 Y95.059 I-2.812 J1.102
G1 X51.944 Y95.042
G2 X50.732 Y94.347 I-2.121 J2.295
G1 X50.709 Y94.34
G2 X49.268 Y94.24 I-0.939 J3.09
G1 X49.244 Y94.244
G2 X47.861 Y94.799 I0.518 J3.294
G1 X47.841 Y94.812
G2 X46.807 Y95.949 I1.961 J2.825
G1 X46.795 Y95.97
G2 X46.346 Y97.488 I3.087 J1.74
G1 X46.344 Y97.512
G2 X46.608 Y99.12 I3.641 J0.228
G1 X46.617 Y99.142
G2 X47.582 Y100.513 I3.474 J-1.42
G1 X47.6 Y100.529
G2 X49.105 Y101.366 I2.579 J-2.868
G1 X49.128 Y101.373
G2 X50.895 Y101.473 I1.103 J-3.806
G1 X50.918 Y101.469
G2 X52.595 Y100.773 I-0.681 J-4.009
G1 X52.614 Y100.759
G2 X53.852 Y99.368 I-2.419 J-3.399
G1 X53.864 Y99.347
G2 X54.386 Y97.512 I-3.748 J-2.058
G1 X54.387 Y97.488
G2 X54.051 Y95.562 I-4.375 J-0.228
G1 X54.042 Y95.54
G2 X52.874 Y93.915 I-4.135 J1.738
G1 X52.743 Y93.799
G2 X48.406 Y92.843 I-3.032 J3.436
G1 X48.371 Y92.853
G2 X47.355 Y93.284 I1.4 J4.715
X46.445 Y93.941 I2.437 J4.333
X45.697 Y94.793 I3.378 J3.72
X45.152 Y95.801 I4.166 J2.903
X44.843 Y96.916 I4.758 J1.921
X44.778 Y97.736 I5.12 J0.82
X44.789 Y98.084 I5.185 J0
X45 Y99.247 I5.227 J-0.346
X45.469 Y100.344 I5.069 J-1.518
X46.177 Y101.318 I4.65 J-2.636
X47.095 Y102.118 I3.984 J-3.642
X48.177 Y102.699 I3.102 J-4.483
X49.374 Y103.027 I2.045 J-5.111
X50.236 Y103.095 I0.862 J-5.491
X50.626 Y103.081 I0 J-5.558
X51.87 Y102.852 I-0.387 J-5.598
X53.042 Y102.347 I-1.641 J-5.422
X54.082 Y101.586 I-2.835 J-4.966
X54.934 Y100.604 I-3.906 J-4.248
X55.551 Y99.446 I-4.799 J-3.301
G1 X55.571 Y99.395
G2 X55.89 Y98.215 I-5.07 J-2.006
G1 X56 Y97.5
G3 X44 Y97.5 I-6 J0
X56 Y97.5 I6 J0
G1 X55.995 Y97.557 Z-18.989
X55.978 Y97.612 Z-18.977
X55.957 Y97.655 Z-18.945
X55.928 Y97.695 Z-18.912
X55.881 Y97.739 Z-18.815
X55.862 Y97.752 Z-18.7
G0 Z5
X-48.259 Y98.934
G1 Z2.8 F333.3
X-48.26 Y98.973 Z2.653
X-48.27 Y99.078 Z2.544
X-48.297 Y99.221 Z2.5
G3 X-51.069 Y98.558 Z2.344 I-1.386 J-0.331
X-48.297 Y99.221 Z2.187 I1.386 J0.331
X-51.069 Y98.558 Z2.031 I-1.386 J-0.331
X-48.297 Y99.221 Z1.875 I1.386 J0.331
X-51.069 Y98.558 Z1.718 I-1.386 J-0.331
X-48.297 Y99.221 Z1.562 I1.386 J0.331
X-51.069 Y98.558 Z1.406 I-1.386 J-0.331
X-48.297 Y99.221 Z1.249 I1.386 J0.331
X-51.069 Y98.558 Z1.093 I-1.386 J-0.331
X-48.297 Y99.221 Z0.937 I1.386 J0.331
X-51.069 Y98.558 Z0.78 I-1.386 J-0.331
X-48.297 Y99.221 Z0.624 I1.386 J0.331
X-51.069 Y98.558 Z0.468 I-1.386 J-0.331
X-48.297 Y99.221 Z0.311 I1.386 J0.331
X-51.069 Y98.558 Z0.155 I-1.386 J-0.331
X-48.297 Y99.221 Z-0.001 I1.386 J0.331
X-51.069 Y98.558 Z-0.158 I-1.386 J-0.331
X-48.297 Y99.221 Z-0.314 I1.386 J0.331
X-51.069 Y98.558 Z-0.47 I-1.386 J-0.331
X-48.297 Y99.221 Z-0.627 I1.386 J0.331
X-51.069 Y98.558 Z-0.783 I-1.386 J-0.331
X-48.297 Y99.221 Z-0.939 I1.386 J0.331
X-51.069 Y98.558 Z-1.096 I-1.386 J-0.331
X-48.297 Y99.221 Z-1.252 I1.386 J0.331
X-51.069 Y98.558 Z-1.408 I-1.386 J-0.331
X-48.297 Y99.221 Z-1.565 I1.386 J0.331
X-51.069 Y98.558 Z-1.721 I-1.386 J-0.331
X-48.297 Y99.221 Z-1.877 I1.386 J0.331
X-51.069 Y98.558 Z-2.034 I-1.386 J-0.331
X-48.297 Y99.221 Z-2.19 I1.386 J0.331
X-51.069 Y98.558 Z-2.346 I-1.386 J-0.331
X-48.297 Y99.221 Z-2.503 I1.386 J0.331
X-51.069 Y98.558 Z-2.659 I-1.386 J-0.331
X-50 Y97.5 Z-2.714 I1.386 J0.331
G1 X-49.954 Y97.49 F1000
X-49.93 Y97.479
X-49.911 Y97.461
X-49.899 Y97.438
X-49.886 Y97.397
X-49.878 Y97.355
X-49.881 Y97.312
X-49.893 Y97.27
X-49.9 Y97.255
X-49.923 Y97.213
X-49.953 Y97.177
X-49.991 Y97.147
X-50.016 Y97.132
X-50.07 Y97.105
X-50.129 Y97.088
X-50.189 Y97.082
X-50.205
X-50.267 Y97.087
X-50.327 Y97.101
X-50.384 Y97.126
X-50.437 Y97.16
X-50.496 Y97.205
G2 X-50.719 Y97.572 I0.36 J0.47
G1 X-50.726 Y97.612
G2 X-50.636 Y98.097 I0.689 J0.122
G1 X-50.605 Y98.147
G2 X-50.142 Y98.516 I0.732 J-0.444
G1 X-50.088 Y98.534
G2 X-49.396 Y98.512 I0.316 J-0.96
G1 X-49.344 Y98.491
G2 X-48.752 Y97.965 I-0.433 J-1.082
G1 X-48.726 Y97.916
G2 X-48.591 Y97.035 I-1.16 J-0.629
G1 X-48.601 Y96.981
G2 X-49.107 Y96.129 I-1.446 J0.282
G1 X-49.149 Y96.094
G2 X-50.174 Y95.72 I-1.038 J1.252
G1 X-50.287 Y95.719
G2 X-51.882 Y96.595 I-0.015 J1.862
G1 X-51.888 Y96.605
G2 X-52.191 Y97.488 I1.761 J1.099
G1 X-52.194 Y97.512
G2 X-52.074 Y98.485 I2.169 J0.226
G1 X-52.065 Y98.508
G2 X-51.506 Y99.369 I2.148 J-0.783
G1 X-51.488 Y99.386
G2 X-50.569 Y99.939 I1.661 J-1.719
G1 X-50.546 Y99.947
G2 X-49.431 Y100.047 I0.774 J-2.373
G1 X-49.407 Y100.043
G2 X-48.317 Y99.629 I-0.355 J-2.576
G1 X-48.297 Y99.616
G2 X-47.466 Y98.734 I-1.503 J-2.249
G1 X-47.454 Y98.713
G2 X-47.077 Y97.512 I-2.425 J-1.42
G1 X-47.075 Y97.488
G2 X-47.267 Y96.197 I-2.906 J-0.227
G1 X-47.276 Y96.175
G2 X-48.038 Y95.059 I-2.812 J1.102
G1 X-48.056 Y95.042
G2 X-49.268 Y94.347 I-2.121 J2.295
G1 X-49.291 Y94.34
G2 X-50.732 Y94.24 I-0.939 J3.09
G1 X-50.756 Y94.244
G2 X-52.139 Y94.799 I0.518 J3.294
G1 X-52.159 Y94.812
G2 X-53.193 Y95.949 I1.961 J2.825
G1 X-53.205 Y95.97
G2 X-53.654 Y97.488 I3.087 J1.74
G1 X-53.656 Y97.512
G2 X-53.392 Y99.12 I3.641 J0.228
G1 X-53.383 Y99.142
G2 X-52.418 Y100.513 I3.474 J-1.42
G1 X-52.4 Y100.529
G2 X-50.895 Y101.366 I2.579 J-2.868
G1 X-50.872 Y101.373
G2 X-49.105 Y101.473 I1.103 J-3.806
G1 X-49.082 Y101.469
G2 X-47.405 Y100.773 I-0.681 J-4.009
G1 X-47.386 Y100.759
G2 X-46.148 Y99.368 I-2.419 J-3.399
G1 X-46.136 Y99.347
G2 X-45.614 Y97.512 I-3.748 J-2.058
G1 X-45.613 Y97.488
G2 X-45.949 Y95.562 I-4.375 J-0.228
G1 X-45.958 Y95.54
G2 X-47.126 Y93.915 I-4.135 J1.738
G1 X-47.257 Y93.799
G2 X-51.594 Y92.843 I-3.032 J3.436
G1 X-51.629 Y92.853
G2 X-52.645 Y93.284 I1.4 J4.715
X-53.555 Y93.941 I2.437 J4.333
X-54.303 Y94.793 I3.378 J3.72
X-54.848 Y95.801 I4.166 J2.903
X-55.157 Y96.916 I4.758 J1.921
X-55.222 Y97.736 I5.12 J0.82
X-55.211 Y98.084 I5.185 J0
X-55 Y99.247 I5.227 J-0.346
X-54.531 Y100.344 I5.069 J-1.518
X-53.823 Y101.318 I4.65 J-2.636
X-52.905 Y102.118 I3.984 J-3.642
X-51.823 Y102.699 I3.102 J-4.483
X-50.626 Y103.027 I2.045 J-5.111
X-49.764 Y103.095 I0.862 J-5.491
X-49.374 Y103.081 I0 J-5.558
X-48.13 Y102.852 I-0.387 J-5.598
X-46.958 Y102.347 I-1.641 J-5.422
X-45.918 Y101.586 I-2.835 J-4.966
X-45.066 Y100.604 I-3.906 J-4.248
X-44.449 Y99.446 I-4.799 J-3.301
G1 X-44.429 Y99.395
G2 X-44.11 Y98.215 I-5.07 J-2.006
G1 X-44 Y97.5
G3 X-56 Y97.5 I-6 J0
X-44 Y97.5 I6 J0
G1 X-44.006 Y97.543
X-44.025 Y97.583
X-44.054 Y97.615
X-44.091 Y97.638
X-44.134 Y97.649
X-48.328 Y98.114
X-48.368 Y98.132
X-48.401 Y98.161
X-48.424 Y98.198
X-48.435 Y98.24
X-48.434 Y98.283
X-48.288 Y99.127
X-48.285 Y99.156
X-48.289 Y99.184
G3 X-51.077 Y98.595 Z-2.871 I-1.394 J-0.295 F333.3
X-48.289 Y99.184 Z-3.027 I1.394 J0.295
X-51.077 Y98.595 Z-3.183 I-1.394 J-0.295
X-48.289 Y99.184 Z-3.34 I1.394 J0.295
X-51.077 Y98.595 Z-3.496 I-1.394 J-0.295
X-48.289 Y99.184 Z-3.652 I1.394 J0.295
X-51.077 Y98.595 Z-3.809 I-1.394 J-0.295
X-48.289 Y99.184 Z-3.965 I1.394 J0.295
X-51.077 Y98.595 Z-4.121 I-1.394 J-0.295
X-48.289 Y99.184 Z-4.278 I1.394 J0.295
X-51.077 Y98.595 Z-4.434 I-1.394 J-0.295
X-48.289 Y99.184 Z-4.59 I1.394 J0.295
X-51.077 Y98.595 Z-4.747 I-1.394 J-0.295
X-48.289 Y99.184 Z-4.903 I1.394 J0.295
X-51.077 Y98.595 Z-5.059 I-1.394 J-0.295
X-48.289 Y99.184 Z-5.216 I1.394 J0.295
X-51.077 Y98.595 Z-5.372 I-1.394 J-0.295
X-50 Y97.5 Z-5.429 I1.394 J0.295
G1 X-49.954 Y97.49 F1000
X-49.93 Y97.479
X-49.911 Y97.461
X-49.899 Y97.438
X-49.886 Y97.397
X-49.878 Y97.355
X-49.881 Y97.312
X-49.893 Y97.27
X-49.9 Y97.255
X-49.923 Y97.213
X-49.953 Y97.177
X-49.991 Y97.147
X-50.016 Y97.132
X-50.07 Y97.105
X-50.129 Y97.088
X-50.189 Y97.082
X-50.205
X-50.267 Y97.087
X-50.327 Y97.101
X-50.384 Y97.126
X-50.437 Y97.16
X-50.496 Y97.205
G2 X-50.719 Y97.572 I0.36 J0.47
G1 X-50.726 Y97.612
G2 X-50.636 Y98.097 I0.689 J0.122
G1 X-50.605 Y98.147
G2 X-50.142 Y98.516 I0.732 J-0.444
G1 X-50.088 Y98.534
G2 X-49.396 Y98.512 I0.316 J-0.96
G1 X-49.344 Y98.491
G2 X-48.752 Y97.965 I-0.433 J-1.082
G1 X-48.726 Y97.916
G2 X-48.591 Y97.035 I-1.16 J-0.629
G1 X-48.601 Y96.981
G2 X-49.107 Y96.129 I-1.446 J0.282
G1 X-49.149 Y96.094
G2 X-50.174 Y95.72 I-1.038 J1.252
G1 X-50.287 Y95.719
G2 X-51.882 Y96.595 I-0.015 J1.862
G1 X-51.888 Y96.605
G2 X-52.191 Y97.488 I1.761 J1.099
G1 X-52.194 Y97.512
G2 X-52.074 Y98.485 I2.169 J0.226
G1 X-52.065 Y98.508
G2 X-51.506 Y99.369 I2.148 J-0.783
G1 X-51.488 Y99.386
G2 X-50.569 Y99.939 I1.661 J-1.719
G1 X-50.546 Y99.947
G2 X-49.431 Y100.047 I0.774 J-2.373
G1 X-49.407 Y100.043
G2 X-48.317 Y99.629 I-0.355 J-2.576
G1 X-48.297 Y99.616
G2 X-47.466 Y98.734 I-1.503 J-2.249
G1 X-47.454 Y98.713
G2 X-47.077 Y97.512 I-2.425 J-1.42
G1 X-47.075 Y97.488
G2 X-47.267 Y96.197 I-2.906 J-0.227
G1 X-47.276 Y96.175
G2 X-48.038 Y95.059 I-2.812 J1.102
G1 X-48.056 Y95.042
G2 X-49.268 Y94.347 I-2.121 J2.295
G1 X-49.291 Y94.34
G2 X-50.732 Y94.24 I-0.939 J3.09
G1 X-50.756 Y94.244
G2 X-52.139 Y94.799 I0.518 J3.294
G1 X-52.159 Y94.812
G2 X-53.193 Y95.949 I1.961 J2.825
G1 X-53.205 Y95.97
G2 X-53.654 Y97.488 I3.087 J1.74
G1 X-53.656 Y97.512
