(TinyCNCSchlitten)
(T3  D=3 CR=0 - ZMIN=-19 - flat end mill)
G90 G94
G17
G21

(2D Pocket7)
T3
S5000 M3
G54
M8
G0 X182.391 Y150.345
Z15
Z5
G1 Z-0.7 F333.3
G18 G3 X182.091 Z-1 I-0.3 K0 F1000
G1 X181.397
X-1.396
X-1.407
G3 X-1.707 Z-0.7 I0 K0.3
G0 Z5
X182.391 Y152.045
G1 Z-0.7 F333.3
G3 X182.091 Z-1 I-0.3 K0 F1000
G1 X181.397
X-1.395
X-1.407
G3 X-1.707 Z-0.7 I0 K0.3
G0 Z5
X182.394 Y153.594
G1 Z-0.73 F333.3
X182.387 Y153.595 Z-0.79 F1000
X182.367 Y153.598 Z-0.847
X182.335 Y153.603 Z-0.898
X182.293 Y153.61 Z-0.941
X182.243 Y153.618 Z-0.973
X182.186 Y153.627 Z-0.993
X182.127 Y153.636 Z-1
X181.432 Y153.746
X181.386 Y153.75
X-1.397
X-1.444 Y153.746
X-2.092 Y153.644
X-2.158 Y153.633 Z-0.992
X-2.22 Y153.623 Z-0.97
X-2.277 Y153.614 Z-0.935
X-2.324 Y153.607 Z-0.887
X-2.359 Y153.601 Z-0.83
X-2.381 Y153.598 Z-0.767
X-2.388 Y153.597 Z-0.7
G0 Z5
X-2.407 Y149.655
G1 Z-0.7 F333.3
G2 X-2.107 Z-1 I0.3 K0 F1000
G1 X-1.397
X181.396
X181.407
G2 X181.707 Z-0.7 I0 K0.3
G0 Z5
X-2.407 Y147.955
G1 Z-0.7 F333.3
G2 X-2.107 Z-1 I0.3 K0 F1000
G1 X-1.397
X181.395
X181.407
G2 X181.707 Z-0.7 I0 K0.3
G0 Z5
X-2.401 Y146.407
G1 Z-0.73 F333.3
X-2.395 Y146.406 Z-0.79 F1000
X-2.375 Y146.403 Z-0.847
X-2.343 Y146.398 Z-0.898
X-2.301 Y146.391 Z-0.941
X-2.25 Y146.383 Z-0.973
X-2.194 Y146.374 Z-0.993
X-2.135 Y146.365 Z-1
X-1.432 Y146.254
X-1.386 Y146.25
X181.397
X181.444 Y146.254
X182.092 Y146.356
X182.158 Y146.367 Z-0.992
X182.22 Y146.377 Z-0.97
X182.277 Y146.386 Z-0.935
X182.324 Y146.393 Z-0.887
X182.359 Y146.399 Z-0.83
X182.381 Y146.402 Z-0.767
X182.388 Y146.403 Z-0.7
G0 Z15
X-2.407 Y49.655
Z5
G1 Z-0.7 F333.3
G2 X-2.107 Z-1 I0.3 K0 F1000
G1 X-1.397
X181.396
X181.407
G2 X181.707 Z-0.7 I0 K0.3
G0 Z5
X-2.407 Y47.955
G1 Z-0.7 F333.3
G2 X-2.107 Z-1 I0.3 K0 F1000
G1 X-1.397
X181.395
X181.407
G2 X181.707 Z-0.7 I0 K0.3
G0 Z5
X-2.401 Y46.407
G1 Z-0.73 F333.3
X-2.395 Y46.406 Z-0.79 F1000
X-2.375 Y46.403 Z-0.847
X-2.343 Y46.398 Z-0.898
X-2.301 Y46.391 Z-0.941
X-2.25 Y46.383 Z-0.973
X-2.194 Y46.374 Z-0.993
X-2.135 Y46.365 Z-1
X-1.432 Y46.254
X-1.386 Y46.25
X181.397
X181.444 Y46.254
X182.092 Y46.356
X182.158 Y46.367 Z-0.992
X182.22 Y46.377 Z-0.97
X182.277 Y46.386 Z-0.935
X182.324 Y46.393 Z-0.887
X182.359 Y46.399 Z-0.83
X182.381 Y46.402 Z-0.767
X182.388 Y46.403 Z-0.7
G0 Z5
X182.391 Y50.345
G1 Z-0.7 F333.3
G3 X182.091 Z-1 I-0.3 K0 F1000
G1 X181.397
X-1.396
X-1.407
G3 X-1.707 Z-0.7 I0 K0.3
G0 Z5
X182.391 Y52.045
G1 Z-0.7 F333.3
G3 X182.091 Z-1 I-0.3 K0 F1000
G1 X181.397
X-1.395
X-1.407
G3 X-1.707 Z-0.7 I0 K0.3
G0 Z5
X182.394 Y53.594
G1 Z-0.73 F333.3
X182.387 Y53.595 Z-0.79 F1000
X182.367 Y53.598 Z-0.847
X182.335 Y53.603 Z-0.898
X182.293 Y53.61 Z-0.941
X182.243 Y53.618 Z-0.973
X182.186 Y53.627 Z-0.993
X182.127 Y53.636 Z-1
X181.432 Y53.746
X181.386 Y53.75
X-1.397
X-1.444 Y53.746
X-2.092 Y53.644
X-2.158 Y53.633 Z-0.992
X-2.22 Y53.623 Z-0.97
X-2.277 Y53.614 Z-0.935
X-2.324 Y53.607 Z-0.887
X-2.359 Y53.601 Z-0.83
X-2.381 Y53.598 Z-0.767
X-2.388 Y53.597 Z-0.7
G0 Z15
G17

(2D Pocket8)
G0 X91.015 Y97.567
Z15
Z5
G1 Z2.8 F333.3
X91.054 Y97.568 Z2.653
X91.159 Y97.575 Z2.544
X91.303 Y97.598 Z2.5
G3 X90.712 Y100.386 Z2.344 I-0.295 J1.394
X91.303 Y97.598 Z2.187 I0.295 J-1.394
X90.712 Y100.386 Z2.031 I-0.295 J1.394
X91.303 Y97.598 Z1.875 I0.295 J-1.394
X90.712 Y100.386 Z1.718 I-0.295 J1.394
X91.303 Y97.598 Z1.562 I0.295 J-1.394
X90.712 Y100.386 Z1.406 I-0.295 J1.394
X91.303 Y97.598 Z1.249 I0.295 J-1.394
X90.712 Y100.386 Z1.093 I-0.295 J1.394
X91.303 Y97.598 Z0.937 I0.295 J-1.394
X90.712 Y100.386 Z0.78 I-0.295 J1.394
X91.303 Y97.598 Z0.624 I0.295 J-1.394
X90.712 Y100.386 Z0.468 I-0.295 J1.394
X91.303 Y97.598 Z0.311 I0.295 J-1.394
X90.712 Y100.386 Z0.155 I-0.295 J1.394
X91.303 Y97.598 Z-0.001 I0.295 J-1.394
X90.712 Y100.386 Z-0.158 I-0.295 J1.394
X91.303 Y97.598 Z-0.314 I0.295 J-1.394
X90.712 Y100.386 Z-0.47 I-0.295 J1.394
X91.303 Y97.598 Z-0.627 I0.295 J-1.394
X90.712 Y100.386 Z-0.783 I-0.295 J1.394
X91.303 Y97.598 Z-0.939 I0.295 J-1.394
X90.712 Y100.386 Z-1.096 I-0.295 J1.394
X91.303 Y97.598 Z-1.252 I0.295 J-1.394
X90.712 Y100.386 Z-1.408 I-0.295 J1.394
X91.303 Y97.598 Z-1.565 I0.295 J-1.394
X90.712 Y100.386 Z-1.721 I-0.295 J1.394
X91.303 Y97.598 Z-1.877 I0.295 J-1.394
X90.712 Y100.386 Z-2.034 I-0.295 J1.394
X91.303 Y97.598 Z-2.19 I0.295 J-1.394
X90.712 Y100.386 Z-2.346 I-0.295 J1.394
X90 Y100 Z-2.375 I0.295 J-1.394
G1 X89.821 Y99.821 F1000
X89.793 Y99.801
X89.76 Y99.792
X89.726 Y99.794
X89.695 Y99.808
X89.67 Y99.831
X89.654 Y99.861
X89.545 Y100.188
G2 X89.826 Y100.672 I0.355 J0.118
G1 X90.163 Y100.74
G2 X90.988 Y100.156 I0.136 J-0.682
G1 X91.032 Y99.845
G2 X90.151 Y98.707 I-0.992 J-0.142
G1 X89.848 Y98.674
G2 X88.406 Y99.851 I-0.144 J1.295
G1 X88.379 Y100.15
G2 X89.851 Y101.892 I1.595 J0.145
G1 X90.428 Y101.937
G2 X92.172 Y100.427 I0.124 J-1.618
G1 X92.248 Y99.275
G2 X90.724 Y97.547 I-1.62 J-0.108
G1 X88.72 Y97.429
G2 X87.276 Y98.72 I-0.08 J1.363
G1 X87.126 Y101.577
G2 X88.423 Y103.012 I1.362 J0.072
G1 X91.87 Y103.176
G2 X93.301 Y101.87 I0.065 J-1.366
G1 X93.476 Y97.831
G2 X92.169 Y96.41 I-1.362 J-0.059
G1 X87.317 Y96.216
G2 X86.127 Y97.317 I-0.046 J1.144
G1 X85.917 Y102.979
G2 X87.021 Y104.165 I1.143 J0.042
G1 X93.272 Y104.38
G2 X94.457 Y103.272 I0.039 J-1.145
G1 X94.677 Y96.427
G2 X93.573 Y95.251 I-1.139 J-0.037
G1 X85.95 Y95.02
G2 X84.964 Y95.95 I-0.029 J0.957
G1 X84.724 Y104.347
G2 X85.653 Y105.329 I0.955 J0.027
G1 X94.64 Y105.572
G2 X95.623 Y104.64 I0.026 J-0.957
G1 X95.868 Y95.061
G2 X94.939 Y94.084 I-0.953 J-0.024
G1 X84.615 Y93.832
G2 X83.794 Y94.615 I-0.02 J0.801
G1 X83.536 Y105.684
G2 X84.316 Y106.5 I0.797 J0.019
G1 X95.974 Y106.759
G2 X96.794 Y105.974 I0.018 J-0.802
G1 X97.054 Y93.726
G2 X96.274 Y92.912 I-0.797 J-0.017
G1 X83.233 Y92.646
G2 X82.622 Y93.233 I-0.012 J0.599
G1 X82.347 Y107.265
G2 X82.735 Y107.668 I0.396 J0.008
G1 X97.605 Y107.949
G2 X97.962 Y107.605 I0.007 J-0.351
G1 X98.25 Y91.75
Y108.25
X81.75
Y91.75
X98.25
Z0.425
X91.015 Y97.567
X91.054 Y97.568 Z0.278 F333.3
X91.159 Y97.575 Z0.169
X91.303 Y97.598 Z0.125
G3 X90.712 Y100.386 Z-0.031 I-0.295 J1.394
X91.303 Y97.598 Z-0.188 I0.295 J-1.394
X90.712 Y100.386 Z-0.344 I-0.295 J1.394
X91.303 Y97.598 Z-0.5 I0.295 J-1.394
X90.712 Y100.386 Z-0.657 I-0.295 J1.394
X91.303 Y97.598 Z-0.813 I0.295 J-1.394
X90.712 Y100.386 Z-0.969 I-0.295 J1.394
X91.303 Y97.598 Z-1.126 I0.295 J-1.394
X90.712 Y100.386 Z-1.282 I-0.295 J1.394
X91.303 Y97.598 Z-1.438 I0.295 J-1.394
X90.712 Y100.386 Z-1.595 I-0.295 J1.394
X91.303 Y97.598 Z-1.751 I0.295 J-1.394
X90.712 Y100.386 Z-1.907 I-0.295 J1.394
X91.303 Y97.598 Z-2.064 I0.295 J-1.394
X90.712 Y100.386 Z-2.22 I-0.295 J1.394
X91.303 Y97.598 Z-2.376 I0.295 J-1.394
X90.712 Y100.386 Z-2.533 I-0.295 J1.394
X91.303 Y97.598 Z-2.689 I0.295 J-1.394
X90.712 Y100.386 Z-2.845 I-0.295 J1.394
X91.303 Y97.598 Z-3.002 I0.295 J-1.394
X90.712 Y100.386 Z-3.158 I-0.295 J1.394
X91.303 Y97.598 Z-3.314 I0.295 J-1.394
X90.712 Y100.386 Z-3.471 I-0.295 J1.394
X91.303 Y97.598 Z-3.627 I0.295 J-1.394
X90.712 Y100.386 Z-3.783 I-0.295 J1.394
X91.303 Y97.598 Z-3.94 I0.295 J-1.394
X90.712 Y100.386 Z-4.096 I-0.295 J1.394
X91.303 Y97.598 Z-4.252 I0.295 J-1.394
X90.712 Y100.386 Z-4.409 I-0.295 J1.394
X91.303 Y97.598 Z-4.565 I0.295 J-1.394
X90.712 Y100.386 Z-4.721 I-0.295 J1.394
X90 Y100 Z-4.75 I0.295 J-1.394
G1 X89.821 Y99.821 F1000
X89.793 Y99.801
X89.76 Y99.792
X89.726 Y99.794
X89.695 Y99.808
X89.67 Y99.831
X89.654 Y99.861
X89.545 Y100.188
G2 X89.826 Y100.672 I0.355 J0.118
G1 X90.163 Y100.74
G2 X90.988 Y100.156 I0.136 J-0.682
G1 X91.032 Y99.845
G2 X90.151 Y98.707 I-0.992 J-0.142
G1 X89.848 Y98.674
G2 X88.406 Y99.851 I-0.144 J1.295
G1 X88.379 Y100.15
G2 X89.851 Y101.892 I1.595 J0.145
G1 X90.428 Y101.937
G2 X92.172 Y100.427 I0.124 J-1.618
G1 X92.248 Y99.275
G2 X90.724 Y97.547 I-1.62 J-0.108
G1 X88.72 Y97.429
G2 X87.276 Y98.72 I-0.08 J1.363
G1 X87.126 Y101.577
G2 X88.423 Y103.012 I1.362 J0.072
G1 X91.87 Y103.176
G2 X93.301 Y101.87 I0.065 J-1.366
G1 X93.476 Y97.831
G2 X92.169 Y96.41 I-1.362 J-0.059
G1 X87.317 Y96.216
G2 X86.127 Y97.317 I-0.046 J1.144
G1 X85.917 Y102.979
G2 X87.021 Y104.165 I1.143 J0.042
G1 X93.272 Y104.38
G2 X94.457 Y103.272 I0.039 J-1.145
G1 X94.677 Y96.427
G2 X93.573 Y95.251 I-1.139 J-0.037
G1 X85.95 Y95.02
G2 X84.964 Y95.95 I-0.029 J0.957
G1 X84.724 Y104.347
G2 X85.653 Y105.329 I0.955 J0.027
G1 X94.64 Y105.572
G2 X95.623 Y104.64 I0.026 J-0.957
G1 X95.868 Y95.061
G2 X94.939 Y94.084 I-0.953 J-0.024
G1 X84.615 Y93.832
G2 X83.794 Y94.615 I-0.02 J0.801
G1 X83.536 Y105.684
G2 X84.316 Y106.5 I0.797 J0.019
G1 X95.974 Y106.759
G2 X96.794 Y105.974 I0.018 J-0.802
G1 X97.054 Y93.726
G2 X96.274 Y92.912 I-0.797 J-0.017
G1 X83.233 Y92.646
G2 X82.622 Y93.233 I-0.012 J0.599
G1 X82.347 Y107.265
G2 X82.735 Y107.668 I0.396 J0.008
G1 X97.605 Y107.949
G2 X97.962 Y107.605 I0.007 J-0.351
G1 X98.25 Y91.75
Y108.25
X81.75
Y91.75
X98.25
Z-1.95
X91.015 Y97.567
X91.054 Y97.568 Z-2.097 F333.3
X91.159 Y97.575 Z-2.206
X91.303 Y97.598 Z-2.25
G3 X90.712 Y100.386 Z-2.406 I-0.295 J1.394
X91.303 Y97.598 Z-2.563 I0.295 J-1.394
X90.712 Y100.386 Z-2.719 I-0.295 J1.394
X91.303 Y97.598 Z-2.875 I0.295 J-1.394
X90.712 Y100.386 Z-3.032 I-0.295 J1.394
X91.303 Y97.598 Z-3.188 I0.295 J-1.394
X90.712 Y100.386 Z-3.344 I-0.295 J1.394
X91.303 Y97.598 Z-3.501 I0.295 J-1.394
X90.712 Y100.386 Z-3.657 I-0.295 J1.394
X91.303 Y97.598 Z-3.813 I0.295 J-1.394
X90.712 Y100.386 Z-3.97 I-0.295 J1.394
X91.303 Y97.598 Z-4.126 I0.295 J-1.394
X90.712 Y100.386 Z-4.282 I-0.295 J1.394
X91.303 Y97.598 Z-4.439 I0.295 J-1.394
X90.712 Y100.386 Z-4.595 I-0.295 J1.394
X91.303 Y97.598 Z-4.751 I0.295 J-1.394
X90.712 Y100.386 Z-4.908 I-0.295 J1.394
X91.303 Y97.598 Z-5.064 I0.295 J-1.394
X90.712 Y100.386 Z-5.22 I-0.295 J1.394
X91.303 Y97.598 Z-5.377 I0.295 J-1.394
X90.712 Y100.386 Z-5.533 I-0.295 J1.394
X91.303 Y97.598 Z-5.689 I0.295 J-1.394
X90.712 Y100.386 Z-5.846 I-0.295 J1.394
X91.303 Y97.598 Z-6.002 I0.295 J-1.394
X90.712 Y100.386 Z-6.158 I-0.295 J1.394
X91.303 Y97.598 Z-6.315 I0.295 J-1.394
X90.712 Y100.386 Z-6.471 I-0.295 J1.394
X91.303 Y97.598 Z-6.627 I0.295 J-1.394
X90.712 Y100.386 Z-6.784 I-0.295 J1.394
X91.303 Y97.598 Z-6.94 I0.295 J-1.394
X90.712 Y100.386 Z-7.096 I-0.295 J1.394
X90 Y100 Z-7.125 I0.295 J-1.394
G1 X89.821 Y99.821 F1000
X89.793 Y99.801
X89.76 Y99.792
X89.726 Y99.794
X89.695 Y99.808
X89.67 Y99.831
X89.654 Y99.861
X89.545 Y100.188
G2 X89.826 Y100.672 I0.355 J0.118
G1 X90.163 Y100.74
G2 X90.988 Y100.156 I0.136 J-0.682
G1 X91.032 Y99.845
G2 X90.151 Y98.707 I-0.992 J-0.142
G1 X89.848 Y98.674
G2 X88.406 Y99.851 I-0.144 J1.295
G1 X88.379 Y100.15
G2 X89.851 Y101.892 I1.595 J0.145
G1 X90.428 Y101.937
G2 X92.172 Y100.427 I0.124 J-1.618
G1 X92.248 Y99.275
G2 X90.724 Y97.547 I-1.62 J-0.108
G1 X88.72 Y97.429
G2 X87.276 Y98.72 I-0.08 J1.363
G1 X87.126 Y101.577
G2 X88.423 Y103.012 I1.362 J0.072
G1 X91.87 Y103.176
G2 X93.301 Y101.87 I0.065 J-1.366
G1 X93.476 Y97.831
G2 X92.169 Y96.41 I-1.362 J-0.059
G1 X87.317 Y96.216
G2 X86.127 Y97.317 I-0.046 J1.144
G1 X85.917 Y102.979
G2 X87.021 Y104.165 I1.143 J0.042
G1 X93.272 Y104.38
G2 X94.457 Y103.272 I0.039 J-1.145
G1 X94.677 Y96.427
G2 X93.573 Y95.251 I-1.139 J-0.037
G1 X85.95 Y95.02
G2 X84.964 Y95.95 I-0.029 J0.957
G1 X84.724 Y104.347
G2 X85.653 Y105.329 I0.955 J0.027
G1 X94.64 Y105.572
G2 X95.623 Y104.64 I0.026 J-0.957
G1 X95.868 Y95.061
G2 X94.939 Y94.084 I-0.953 J-0.024
G1 X84.615 Y93.832
G2 X83.794 Y94.615 I-0.02 J0.801
G1 X83.536 Y105.684
G2 X84.316 Y106.5 I0.797 J0.019
G1 X95.974 Y106.759
G2 X96.794 Y105.974 I0.018 J-0.802
G1 X97.054 Y93.726
G2 X96.274 Y92.912 I-0.797 J-0.017
G1 X83.233 Y92.646
G2 X82.622 Y93.233 I-0.012 J0.599
G1 X82.347 Y107.265
G2 X82.735 Y107.668 I0.396 J0.008
G1 X97.605 Y107.949
G2 X97.962 Y107.605 I0.007 J-0.351
G1 X98.25 Y91.75
Y108.25
X81.75
Y91.75
X98.25
Z-4.325
X91.015 Y97.567
X91.054 Y97.568 Z-4.472 F333.3
X91.159 Y97.575 Z-4.581
X91.303 Y97.598 Z-4.625
G3 X90.712 Y100.386 Z-4.781 I-0.295 J1.394
X91.303 Y97.598 Z-4.938 I0.295 J-1.394
X90.712 Y100.386 Z-5.094 I-0.295 J1.394
X91.303 Y97.598 Z-5.25 I0.295 J-1.394
X90.712 Y100.386 Z-5.407 I-0.295 J1.394
X91.303 Y97.598 Z-5.563 I0.295 J-1.394
X90.712 Y100.386 Z-5.719 I-0.295 J1.394
X91.303 Y97.598 Z-5.876 I0.295 J-1.394
X90.712 Y100.386 Z-6.032 I-0.295 J1.394
X91.303 Y97.598 Z-6.188 I0.295 J-1.394
X90.712 Y100.386 Z-6.345 I-0.295 J1.394
X91.303 Y97.598 Z-6.501 I0.295 J-1.394
X90.712 Y100.386 Z-6.657 I-0.295 J1.394
X91.303 Y97.598 Z-6.814 I0.295 J-1.394
X90.712 Y100.386 Z-6.97 I-0.295 J1.394
X91.303 Y97.598 Z-7.126 I0.295 J-1.394
X90.712 Y100.386 Z-7.283 I-0.295 J1.394
X91.303 Y97.598 Z-7.439 I0.295 J-1.394
X90.712 Y100.386 Z-7.595 I-0.295 J1.394
X91.303 Y97.598 Z-7.752 I0.295 J-1.394
X90.712 Y100.386 Z-7.908 I-0.295 J1.394
X91.303 Y97.598 Z-8.064 I0.295 J-1.394
X90.712 Y100.386 Z-8.221 I-0.295 J1.394
X91.303 Y97.598 Z-8.377 I0.295 J-1.394
X90.712 Y100.386 Z-8.533 I-0.295 J1.394
X91.303 Y97.598 Z-8.69 I0.295 J-1.394
X90.712 Y100.386 Z-8.846 I-0.295 J1.394
X91.303 Y97.598 Z-9.002 I0.295 J-1.394
X90.712 Y100.386 Z-9.159 I-0.295 J1.394
X91.303 Y97.598 Z-9.315 I0.295 J-1.394
X90.712 Y100.386 Z-9.471 I-0.295 J1.394
X90 Y100 Z-9.5 I0.295 J-1.394
G1 X89.821 Y99.821 F1000
X89.793 Y99.801
X89.76 Y99.792
X89.726 Y99.794
X89.695 Y99.808
X89.67 Y99.831
X89.654 Y99.861
X89.545 Y100.188
G2 X89.826 Y100.672 I0.355 J0.118
G1 X90.163 Y100.74
G2 X90.988 Y100.156 I0.136 J-0.682
G1 X91.032 Y99.845
G2 X90.151 Y98.707 I-0.992 J-0.142
G1 X89.848 Y98.674
G2 X88.406 Y99.851 I-0.144 J1.295
G1 X88.379 Y100.15
G2 X89.851 Y101.892 I1.595 J0.145
G1 X90.428 Y101.937
G2 X92.172 Y100.427 I0.124 J-1.618
G1 X92.248 Y99.275
G2 X90.724 Y97.547 I-1.62 J-0.108
G1 X88.72 Y97.429
G2 X87.276 Y98.72 I-0.08 J1.363
G1 X87.126 Y101.577
G2 X88.423 Y103.012 I1.362 J0.072
G1 X91.87 Y103.176
G2 X93.301 Y101.87 I0.065 J-1.366
G1 X93.476 Y97.831
G2 X92.169 Y96.41 I-1.362 J-0.059
G1 X87.317 Y96.216
G2 X86.127 Y97.317 I-0.046 J1.144
G1 X85.917 Y102.979
G2 X87.021 Y104.165 I1.143 J0.042
G1 X93.272 Y104.38
G2 X94.457 Y103.272 I0.039 J-1.145
G1 X94.677 Y96.427
G2 X93.573 Y95.251 I-1.139 J-0.037
G1 X85.95 Y95.02
G2 X84.964 Y95.95 I-0.029 J0.957
G1 X84.724 Y104.347
G2 X85.653 Y105.329 I0.955 J0.027
G1 X94.64 Y105.572
G2 X95.623 Y104.64 I0.026 J-0.957
G1 X95.868 Y95.061
G2 X94.939 Y94.084 I-0.953 J-0.024
G1 X84.615 Y93.832
G2 X83.794 Y94.615 I-0.02 J0.801
G1 X83.536 Y105.684
G2 X84.316 Y106.5 I0.797 J0.019
G1 X95.974 Y106.759
G2 X96.794 Y105.974 I0.018 J-0.802
G1 X97.054 Y93.726
G2 X96.274 Y92.912 I-0.797 J-0.017
G1 X83.233 Y92.646
G2 X82.622 Y93.233 I-0.012 J0.599
G1 X82.347 Y107.265
G2 X82.735 Y107.668 I0.396 J0.008
G1 X97.605 Y107.949
G2 X97.962 Y107.605 I0.007 J-0.351
G1 X98.25 Y91.75
Y108.25
X81.75
Y91.75
X98.25
G0 Z15

(2D Contour5)
X89.7 Y202.4
Z15
Z5
G1 Z-3.7 F333.3
G19 G2 Y202.1 Z-4 J-0.3 K0 F1000
G1 Y201.8
G17 G3 X90 Y201.5 I0.3 J0
G1 X180
G2 X181.5 Y200 I0 J-1.5
G1 Y0
G2 X180 Y-1.5 I-1.5 J0
G1 X0
G2 X-1.5 Y0 I0 J1.5
G1 Y200
G2 X0 Y201.5 I1.5 J0
G1 X90
G3 X90.3 Y201.8 I0 J0.3
G1 Y202.1
G19 G3 Y202.4 Z-3.7 J0 K0.3
G0 Z5
X89.7
G1 Z1 F333.3
Z-7.7
G2 Y202.1 Z-8 J-0.3 K0 F1000
G1 Y201.8
G17 G3 X90 Y201.5 I0.3 J0
G1 X180
G2 X181.5 Y200 I0 J-1.5
G1 Y0
G2 X180 Y-1.5 I-1.5 J0
G1 X0
G2 X-1.5 Y0 I0 J1.5
G1 Y200
G2 X0 Y201.5 I1.5 J0
G1 X90
G3 X90.3 Y201.8 I0 J0.3
G1 Y202.1
G19 G3 Y202.4 Z-7.7 J0 K0.3
G0 Z5
X89.7
G1 Z-3 F333.3
Z-11.7
G2 Y202.1 Z-12 J-0.3 K0 F1000
G1 Y201.8
G17 G3 X90 Y201.5 I0.3 J0
G1 X180
G2 X181.5 Y200 I0 J-1.5
G1 Y0
G2 X180 Y-1.5 I-1.5 J0
G1 X0
G2 X-1.5 Y0 I0 J1.5
G1 Y200
G2 X0 Y201.5 I1.5 J0
G1 X90
G3 X90.3 Y201.8 I0 J0.3
G1 Y202.1
G19 G3 Y202.4 Z-11.7 J0 K0.3
G0 Z5
X89.7
G1 Z-7 F333.3
Z-15.7
G2 Y202.1 Z-16 J-0.3 K0 F1000
G1 Y201.8
G17 G3 X90 Y201.5 I0.3 J0
G1 X180
G2 X181.5 Y200 I0 J-1.5
G1 Y0
G2 X180 Y-1.5 I-1.5 J0
G1 X0
G2 X-1.5 Y0 I0 J1.5
G1 Y200
G2 X0 Y201.5 I1.5 J0
G1 X90
G3 X90.3 Y201.8 I0 J0.3
G1 Y202.1
G19 G3 Y202.4 Z-15.7 J0 K0.3
G0 Z5
X89.7
G1 Z-11 F333.3
Z-18.7
G2 Y202.1 Z-19 J-0.3 K0 F1000
G1 Y201.8
G17 G3 X90 Y201.5 I0.3 J0
G1 X180
G2 X181.5 Y200 I0 J-1.5
G1 Y0
G2 X180 Y-1.5 I-1.5 J0
G1 X0
G2 X-1.5 Y0 I0 J1.5
G1 Y200
G2 X0 Y201.5 I1.5 J0
G1 X90
G3 X90.3 Y201.8 I0 J0.3
G1 Y202.1
G19 G3 Y202.4 Z-18.7 J0 K0.3
G0 Z15
G17
M9
M5
M30
