(TinyCNCBasisplatte)
(T3  D=3 CR=0 - ZMIN=-19 - flat end mill)
G90 G94
G17
G21

(2D Contour1)
T3
S5000 M3
G54
M8
G0 X136.035 Y109.385
Z15
Z5
G1 Z-6.2 F333.3
G18 G2 X136.335 Z-6.5 I0.3 K0 F1000
G1 X136.635
G17 G3 X136.935 Y109.685 I0 J0.3
G1 Y214.75
X113.065
Y97.75
X136.935
Y109.685
G3 X136.635 Y109.985 I-0.3 J0
G1 X136.335
G18 G3 X136.035 Z-6.2 I0 K0.3
G1 Y109.385
Z-12.7 F333.3
G2 X136.335 Z-13 I0.3 K0 F1000
G1 X136.635
G17 G3 X136.935 Y109.685 I0 J0.3
G1 Y214.75
X113.065
Y97.75
X136.935
Y109.685
G3 X136.635 Y109.985 I-0.3 J0
G1 X136.335
G18 G3 X136.035 Z-12.7 I0 K0.3
G1 Y109.385
Z-18.7 F333.3
G2 X136.335 Z-19 I0.3 K0 F1000
G1 X136.635
G17 G3 X136.935 Y109.685 I0 J0.3
G1 Y123.25
Z-17.5
Y129.25
Z-19 F333.3
Y183.25 F1000
Z-17.5
Y189.25
Z-19 F333.3
Y214.75 F1000
X113.065
Y189.25
Z-17.5
Y183.25
Z-19 F333.3
Y129.25 F1000
Z-17.5
Y123.25
Z-19 F333.3
Y97.75 F1000
X136.935
Y123.25
Z-17.5
Y129.25
Z-19 F333.3
Y183.25 F1000
Z-17.5
Y189.25
Z-19 F333.3
Y214.75 F1000
X113.065
Y189.25
Z-17.5
Y183.25
Z-19 F333.3
Y129.25 F1000
Z-17.5
Y123.25
Z-19 F333.3
Y97.75 F1000
X136.935
Y109.685
G3 X136.635 Y109.985 I-0.3 J0
G1 X136.335
G18 G3 X136.035 Z-18.7 I0 K0.3
G0 Z15
G17

(2D Pocket5 4)
G0 X176.733 Y248.975
Z15
Z5
G1 Z2.782 F333.3
X176.735 Y249 Z2.663
X176.74 Y249.069 Z2.564
X176.742 Y249.172 Z2.5
G3 X176.619 Y249.719 Z2.295 I-1.425 J-0.033
X174.396 Y250.227 Z1.333 I-1.302 J-0.58
X176.238 Y248.052 Z-0.297 I0.921 J-1.087
X176.619 Y249.719 Z-0.964 I-0.921 J1.087
X174.396 Y250.227 Z-1.926 I-1.302 J-0.58
X176.238 Y248.052 Z-3.555 I0.921 J-1.087
X176.619 Y249.719 Z-4.223 I-0.921 J1.087
X174.396 Y250.227 Z-5.185 I-1.302 J-0.58
X175 Y247.75 Z-6.333 I0.921 J-1.087
G1 X175.048 Y247.739 F1000
X175.073 Y247.728
X175.093 Y247.71
X175.106 Y247.685
X175.119 Y247.643
X175.127 Y247.599
X175.124 Y247.554
X175.112 Y247.511
X175.105 Y247.494
X175.081 Y247.451
X175.048 Y247.413
X175.009 Y247.383
X174.984 Y247.367
X174.927 Y247.338
X174.866 Y247.32
X174.803 Y247.314
X174.787
G2 X174.545 Y247.396 I-0.002 J0.395
G1 X174.483 Y247.443
G2 X174.251 Y247.825 I0.375 J0.49
G1 X174.243 Y247.867
G2 X174.338 Y248.372 I0.718 J0.127
G1 X174.369 Y248.424
G2 X174.852 Y248.808 I0.762 J-0.462
G1 X174.909 Y248.827
G2 X175.629 Y248.804 I0.33 J-1
G1 X175.684 Y248.783
G2 X176.3 Y248.234 I-0.451 J-1.127
G1 X176.327 Y248.184
G2 X176.468 Y247.266 I-1.208 J-0.655
G1 X176.457 Y247.21
G2 X175.93 Y246.322 I-1.506 J0.293
G1 X175.887 Y246.285
G2 X174.819 Y245.895 I-1.081 J1.304
G1 X174.701
G2 X173.04 Y246.807 I-0.015 J1.94
G1 X173.034 Y246.817
G2 X172.718 Y247.738 I1.834 J1.145
G1 X172.715 Y247.763
G2 X172.84 Y248.776 I2.259 J0.236
G1 X172.849 Y248.8
G2 X173.431 Y249.697 I2.237 J-0.815
G1 X173.45 Y249.715
G2 X174.407 Y250.291 I1.73 J-1.791
G1 X174.431 Y250.299
G2 X175.593 Y250.403 I0.806 J-2.471
G1 X175.618 Y250.399
G2 X176.753 Y249.968 I-0.37 J-2.684
G1 X176.774 Y249.954
G2 X177.64 Y249.035 I-1.566 J-2.343
G1 X177.652 Y249.013
G2 X178.045 Y247.762 I-2.526 J-1.479
G1 X178.047 Y247.737
G2 X177.847 Y246.393 I-3.027 J-0.237
G1 X177.838 Y246.37
G2 X177.044 Y245.207 I-2.929 J1.147
G1 X177.025 Y245.19
G2 X175.762 Y244.466 I-2.209 J2.39
G1 X175.738 Y244.459
G2 X174.238 Y244.354 I-0.978 J3.219
G1 X174.213 Y244.358
G2 X172.772 Y244.936 I0.54 J3.431
G1 X172.751 Y244.95
G2 X171.674 Y246.134 I2.043 J2.942
G1 X171.661 Y246.156
G2 X171.193 Y247.738 I3.216 J1.812
G1 X171.192 Y247.763
G2 X171.467 Y249.438 I3.793 J0.237
G1 X171.476 Y249.461
G2 X172.481 Y250.889 I3.619 J-1.479
G1 X172.5 Y250.905
G2 X174.068 Y251.777 I2.687 J-2.988
G1 X174.092 Y251.784
G2 X175.932 Y251.889 I1.148 J-3.964
G1 X175.956 Y251.884
G2 X177.703 Y251.159 I-0.71 J-4.176
G1 X177.723 Y251.145
G2 X179.013 Y249.696 I-2.519 J-3.54
G1 X179.025 Y249.674
G2 X179.569 Y247.762 I-3.904 J-2.144
G1 X179.57 Y247.738
G2 X179.22 Y245.732 I-4.557 J-0.238
G1 X179.21 Y245.709
G2 X177.994 Y244.016 I-4.307 J1.81
G1 X177.857 Y243.895
G2 X173.34 Y242.898 I-3.158 J3.58
G1 X173.303 Y242.91
G2 X172.244 Y243.358 I1.458 J4.911
X171.297 Y244.043 I2.539 J4.514
X170.518 Y244.93 I3.519 J3.875
X169.95 Y245.98 I4.34 J3.024
X169.628 Y247.142 I4.957 J2.001
X169.56 Y247.996 I5.333 J0.854
X169.572 Y248.358 I5.401 J0
X169.791 Y249.569 I5.445 J-0.36
X170.28 Y250.712 I5.28 J-1.581
X171.018 Y251.728 I4.843 J-2.746
X171.973 Y252.561 I4.15 J-3.794
X173.102 Y253.166 I3.231 J-4.669
X174.348 Y253.508 I2.13 J-5.324
X175.246 Y253.578 I0.898 J-5.719
X175.652 Y253.564 I0 J-5.789
X176.947 Y253.325 I-0.404 J-5.831
X178.169 Y252.799 I-1.709 J-5.647
X179.252 Y252.006 I-2.953 J-5.173
X180.139 Y250.983 I-4.069 J-4.425
X180.782 Y249.777 I-4.999 J-3.438
G1 X180.803 Y249.724
G2 X181.136 Y248.495 I-5.281 J-2.09
G1 X181.25 Y247.75
G3 X168.75 Y247.75 I-6.25 J0
X181.25 Y247.75 I6.25 J0
G1 X181.06
X175.524
X175.503 Y247.726
G3 X176.619 Y249.719 Z-7.297 I-0.186 J1.413 F333.3
X174.396 Y250.227 Z-8.259 I-1.302 J-0.58
X176.238 Y248.052 Z-9.889 I0.921 J-1.087
X176.619 Y249.719 Z-10.556 I-0.921 J1.087
X174.396 Y250.227 Z-11.518 I-1.302 J-0.58
X175 Y247.75 Z-12.667 I0.921 J-1.087
G1 X175.048 Y247.739 F1000
X175.073 Y247.728
X175.093 Y247.71
X175.106 Y247.685
X175.119 Y247.643
X175.127 Y247.599
X175.124 Y247.554
X175.112 Y247.511
X175.105 Y247.494
X175.081 Y247.451
X175.048 Y247.413
X175.009 Y247.383
X174.984 Y247.367
X174.927 Y247.338
X174.866 Y247.32
X174.803 Y247.314
X174.787
G2 X174.545 Y247.396 I-0.002 J0.395
G1 X174.483 Y247.443
G2 X174.251 Y247.825 I0.375 J0.49
G1 X174.243 Y247.867
G2 X174.338 Y248.372 I0.718 J0.127
G1 X174.369 Y248.424
G2 X174.852 Y248.808 I0.762 J-0.462
G1 X174.909 Y248.827
G2 X175.629 Y248.804 I0.33 J-1
G1 X175.684 Y248.783
G2 X176.3 Y248.234 I-0.451 J-1.127
G1 X176.327 Y248.184
G2 X176.468 Y247.266 I-1.208 J-0.655
G1 X176.457 Y247.21
G2 X175.93 Y246.322 I-1.506 J0.293
G1 X175.887 Y246.285
G2 X174.819 Y245.895 I-1.081 J1.304
G1 X174.701
G2 X173.04 Y246.807 I-0.015 J1.94
G1 X173.034 Y246.817
G2 X172.718 Y247.738 I1.834 J1.145
G1 X172.715 Y247.763
G2 X172.84 Y248.776 I2.259 J0.236
G1 X172.849 Y248.8
G2 X173.431 Y249.697 I2.237 J-0.815
G1 X173.45 Y249.715
G2 X174.407 Y250.291 I1.73 J-1.791
G1 X174.431 Y250.299
G2 X175.593 Y250.403 I0.806 J-2.471
G1 X175.618 Y250.399
G2 X176.753 Y249.968 I-0.37 J-2.684
G1 X176.774 Y249.954
G2 X177.64 Y249.035 I-1.566 J-2.343
G1 X177.652 Y249.013
G2 X178.045 Y247.762 I-2.526 J-1.479
G1 X178.047 Y247.737
G2 X177.847 Y246.393 I-3.027 J-0.237
G1 X177.838 Y246.37
G2 X177.044 Y245.207 I-2.929 J1.147
G1 X177.025 Y245.19
G2 X175.762 Y244.466 I-2.209 J2.39
G1 X175.738 Y244.459
G2 X174.238 Y244.354 I-0.978 J3.219
G1 X174.213 Y244.358
G2 X172.772 Y244.936 I0.54 J3.431
G1 X172.751 Y244.95
G2 X171.674 Y246.134 I2.043 J2.942
G1 X171.661 Y246.156
G2 X171.193 Y247.738 I3.216 J1.812
G1 X171.192 Y247.763
G2 X171.467 Y249.438 I3.793 J0.237
G1 X171.476 Y249.461
G2 X172.481 Y250.889 I3.619 J-1.479
G1 X172.5 Y250.905
G2 X174.068 Y251.777 I2.687 J-2.988
G1 X174.092 Y251.784
G2 X175.932 Y251.889 I1.148 J-3.964
G1 X175.956 Y251.884
G2 X177.703 Y251.159 I-0.71 J-4.176
G1 X177.723 Y251.145
G2 X179.013 Y249.696 I-2.519 J-3.54
G1 X179.025 Y249.674
G2 X179.569 Y247.762 I-3.904 J-2.144
G1 X179.57 Y247.738
G2 X179.22 Y245.732 I-4.557 J-0.238
G1 X179.21 Y245.709
G2 X177.994 Y244.016 I-4.307 J1.81
G1 X177.857 Y243.895
G2 X173.34 Y242.898 I-3.158 J3.58
G1 X173.303 Y242.91
G2 X172.244 Y243.358 I1.458 J4.911
X171.297 Y244.043 I2.539 J4.514
X170.518 Y244.93 I3.519 J3.875
X169.95 Y245.98 I4.34 J3.024
X169.628 Y247.142 I4.957 J2.001
X169.56 Y247.996 I5.333 J0.854
X169.572 Y248.358 I5.401 J0
X169.791 Y249.569 I5.445 J-0.36
X170.28 Y250.712 I5.28 J-1.581
X171.018 Y251.728 I4.843 J-2.746
X171.973 Y252.561 I4.15 J-3.794
X173.102 Y253.166 I3.231 J-4.669
X174.348 Y253.508 I2.13 J-5.324
X175.246 Y253.578 I0.898 J-5.719
X175.652 Y253.564 I0 J-5.789
X176.947 Y253.325 I-0.404 J-5.831
X178.169 Y252.799 I-1.709 J-5.647
X179.252 Y252.006 I-2.953 J-5.173
X180.139 Y250.983 I-4.069 J-4.425
X180.782 Y249.777 I-4.999 J-3.438
G1 X180.803 Y249.724
G2 X181.136 Y248.495 I-5.281 J-2.09
G1 X181.25 Y247.75
G3 X168.75 Y247.75 I-6.25 J0
X181.25 Y247.75 I6.25 J0
G1 X181.06
X175.524
X175.503 Y247.726
G3 X176.619 Y249.719 Z-13.631 I-0.186 J1.413 F333.3
X174.396 Y250.227 Z-14.593 I-1.302 J-0.58
X176.238 Y248.052 Z-16.222 I0.921 J-1.087
X174.396 Y250.227 Z-17.852 I-0.921 J1.087
X175 Y247.75 Z-19 I0.921 J-1.087
G1 X175.048 Y247.739 F1000
X175.073 Y247.728
X175.093 Y247.71
X175.106 Y247.685
X175.119 Y247.643
X175.127 Y247.599
X175.124 Y247.554
X175.112 Y247.511
X175.105 Y247.494
X175.081 Y247.451
X175.048 Y247.413
X175.009 Y247.383
X174.984 Y247.367
X174.927 Y247.338
X174.866 Y247.32
X174.803 Y247.314
X174.787
G2 X174.545 Y247.396 I-0.002 J0.395
G1 X174.483 Y247.443
G2 X174.251 Y247.825 I0.375 J0.49
G1 X174.243 Y247.867
G2 X174.338 Y248.372 I0.718 J0.127
G1 X174.369 Y248.424
G2 X174.852 Y248.808 I0.762 J-0.462
G1 X174.909 Y248.827
G2 X175.629 Y248.804 I0.33 J-1
G1 X175.684 Y248.783
G2 X176.3 Y248.234 I-0.451 J-1.127
G1 X176.327 Y248.184
G2 X176.468 Y247.266 I-1.208 J-0.655
G1 X176.457 Y247.21
G2 X175.93 Y246.322 I-1.506 J0.293
G1 X175.887 Y246.285
G2 X174.819 Y245.895 I-1.081 J1.304
G1 X174.701
G2 X173.04 Y246.807 I-0.015 J1.94
G1 X173.034 Y246.817
G2 X172.718 Y247.738 I1.834 J1.145
G1 X172.715 Y247.763
G2 X172.84 Y248.776 I2.259 J0.236
G1 X172.849 Y248.8
G2 X173.431 Y249.697 I2.237 J-0.815
G1 X173.45 Y249.715
G2 X174.407 Y250.291 I1.73 J-1.791
G1 X174.431 Y250.299
G2 X175.593 Y250.403 I0.806 J-2.471
G1 X175.618 Y250.399
G2 X176.753 Y249.968 I-0.37 J-2.684
G1 X176.774 Y249.954
G2 X177.64 Y249.035 I-1.566 J-2.343
G1 X177.652 Y249.013
G2 X178.045 Y247.762 I-2.526 J-1.479
G1 X178.047 Y247.737
G2 X177.847 Y246.393 I-3.027 J-0.237
G1 X177.838 Y246.37
G2 X177.044 Y245.207 I-2.929 J1.147
G1 X177.025 Y245.19
G2 X175.762 Y244.466 I-2.209 J2.39
G1 X175.738 Y244.459
G2 X174.238 Y244.354 I-0.978 J3.219
G1 X174.213 Y244.358
G2 X172.772 Y244.936 I0.54 J3.431
G1 X172.751 Y244.95
G2 X171.674 Y246.134 I2.043 J2.942
G1 X171.661 Y246.156
G2 X171.193 Y247.738 I3.216 J1.812
G1 X171.192 Y247.763
G2 X171.467 Y249.438 I3.793 J0.237
G1 X171.476 Y249.461
G2 X172.481 Y250.889 I3.619 J-1.479
G1 X172.5 Y250.905
G2 X174.068 Y251.777 I2.687 J-2.988
G1 X174.092 Y251.784
G2 X175.932 Y251.889 I1.148 J-3.964
G1 X175.956 Y251.884
G2 X177.703 Y251.159 I-0.71 J-4.176
G1 X177.723 Y251.145
G2 X179.013 Y249.696 I-2.519 J-3.54
G1 X179.025 Y249.674
G2 X179.569 Y247.762 I-3.904 J-2.144
G1 X179.57 Y247.738
G2 X179.22 Y245.732 I-4.557 J-0.238
G1 X179.21 Y245.709
G2 X177.994 Y244.016 I-4.307 J1.81
G1 X177.857 Y243.895
G2 X173.34 Y242.898 I-3.158 J3.58
G1 X173.303 Y242.91
G2 X172.244 Y243.358 I1.458 J4.911
X171.297 Y244.043 I2.539 J4.514
X170.518 Y244.93 I3.519 J3.875
X169.95 Y245.98 I4.34 J3.024
X169.628 Y247.142 I4.957 J2.001
X169.56 Y247.996 I5.333 J0.854
X169.572 Y248.358 I5.401 J0
X169.791 Y249.569 I5.445 J-0.36
X170.28 Y250.712 I5.28 J-1.581
X171.018 Y251.728 I4.843 J-2.746
X171.973 Y252.561 I4.15 J-3.794
X173.102 Y253.166 I3.231 J-4.669
X174.348 Y253.508 I2.13 J-5.324
X175.246 Y253.578 I0.898 J-5.719
X175.652 Y253.564 I0 J-5.789
X176.947 Y253.325 I-0.404 J-5.831
X178.169 Y252.799 I-1.709 J-5.647
X179.252 Y252.006 I-2.953 J-5.173
X180.139 Y250.983 I-4.069 J-4.425
X180.782 Y249.777 I-4.999 J-3.438
G1 X180.803 Y249.724
G2 X181.136 Y248.495 I-5.281 J-2.09
G1 X181.25 Y247.75
G3 X168.75 Y247.75 I-6.25 J0
X181.25 Y247.75 I6.25 J0
G1 X181.245 Y247.807 Z-18.989
X181.228 Y247.862 Z-18.977
X181.207 Y247.905 Z-18.945
X181.178 Y247.945 Z-18.912
X181.131 Y247.989 Z-18.815
X181.112 Y248.002 Z-18.7
G0 Z5
X76.962 Y248.559
G1 Z2.782 F333.3
X76.97 Y248.582 Z2.663
X76.99 Y248.649 Z2.564
X77.015 Y248.749 Z2.5
G3 X77.016 Y249.31 Z2.295 I-1.396 J0.285
X74.22 Y248.758 Z0.665 I-1.398 J-0.276
X77.016 Y249.31 Z-0.964 I1.398 J0.276
X74.22 Y248.758 Z-2.594 I-1.398 J-0.276
X77.016 Y249.31 Z-4.223 I1.398 J0.276
X74.22 Y248.758 Z-5.852 I-1.398 J-0.276
X75 Y247.75 Z-6.333 I1.398 J0.276
G1 X75.044 Y247.729 F1000
X75.066 Y247.713
X75.082 Y247.69
X75.088 Y247.664
X75.092 Y247.619
X75.09 Y247.574
X75.077 Y247.531
X75.056 Y247.492
X75.045 Y247.477
X75.012 Y247.44
X74.972 Y247.411
X74.927 Y247.39
X74.899 Y247.38
X74.837 Y247.365
X74.774 Y247.361
X74.711 Y247.369
X74.695 Y247.373
G2 X74.478 Y247.506 I0.086 J0.386
G1 X74.428 Y247.565
G2 X74.286 Y247.99 I0.474 J0.394
G1 X74.288 Y248.033
G2 X74.493 Y248.504 I0.728 J-0.036
G1 X74.535 Y248.547
G2 X75.092 Y248.815 I0.64 J-0.62
G1 X75.151 Y248.82
G2 X75.848 Y248.638 I0.099 J-1.048
G1 X75.896 Y248.605
G2 X76.375 Y247.933 I-0.69 J-0.998
G1 X76.391 Y247.877
G2 X76.324 Y246.951 I-1.324 J-0.37
G1 X76.3 Y246.899
G2 X75.589 Y246.15 I-1.403 J0.621
G1 X75.538 Y246.125
G2 X74.411 Y245.982 I-0.764 J1.512
G1 X74.296 Y246.008
G2 X72.879 Y247.267 I0.417 J1.895
G1 X72.876 Y247.278
G2 X72.772 Y248.246 I2.043 J0.708
G1 X72.775 Y248.271
G2 X73.123 Y249.231 I2.255 J-0.273
G1 X73.136 Y249.252
G2 X73.904 Y249.997 I1.999 J-1.293
G1 X73.926 Y250.01
G2 X74.988 Y250.359 I1.288 J-2.131
G1 X75.013 Y250.361
G2 X76.168 Y250.204 I0.236 J-2.589
G1 X76.192 Y250.195
G2 X77.202 Y249.522 I-0.958 J-2.534
G1 X77.22 Y249.504
G2 X77.859 Y248.415 I-2.048 J-1.936
G1 X77.867 Y248.391
G2 X77.971 Y247.085 I-2.792 J-0.88
G1 X77.967 Y247.06
G2 X77.473 Y245.793 I-3.004 J0.443
G1 X77.459 Y245.773
G2 X76.427 Y244.816 I-2.6 J1.77
G1 X76.405 Y244.804
G2 X75.012 Y244.379 I-1.622 J2.822
G1 X74.987 Y244.377
G2 X73.501 Y244.609 I-0.237 J3.356
G1 X73.478 Y244.618
G2 X72.202 Y245.503 I1.29 J3.225
G1 X72.185 Y245.521
G2 X71.398 Y246.915 I2.646 J2.414
G1 X71.39 Y246.939
G2 X71.286 Y248.585 I3.538 J1.051
G1 X71.29 Y248.61
G2 X71.931 Y250.182 I3.75 J-0.613
G1 X71.945 Y250.202
G2 X73.243 Y251.371 I3.199 J-2.247
G1 X73.264 Y251.383
G2 X74.988 Y251.883 I1.954 J-3.511
G1 X75.012 Y251.885
G2 X76.829 Y251.577 I0.238 J-4.12
G1 X76.852 Y251.568
G2 X78.394 Y250.473 I-1.621 J-3.914
G1 X78.411 Y250.454
G2 X79.345 Y248.755 I-3.244 J-2.891
G1 X79.352 Y248.731
G2 X79.457 Y246.745 I-4.283 J-1.221
G1 X79.453 Y246.721
G2 X78.665 Y244.843 I-4.496 J0.782
G1 X78.65 Y244.823
G2 X77.088 Y243.443 I-3.796 J2.723
G1 X76.928 Y243.356
G2 X72.302 Y243.389 I-2.283 J4.193
G1 X72.268 Y243.409
G2 X71.336 Y244.082 I2.515 J4.464
X70.565 Y244.96 I3.48 J3.836
X70.003 Y245.998 I4.293 J2.995
X69.683 Y247.148 I4.904 J1.983
X69.615 Y247.996 I5.278 J0.848
X69.627 Y248.352 I5.345 J0
X69.844 Y249.551 I5.389 J-0.354
X70.327 Y250.683 I5.228 J-1.563
X71.057 Y251.688 I4.796 J-2.716
X72.003 Y252.514 I4.111 J-3.755
X73.12 Y253.114 I3.202 J-4.622
X74.354 Y253.453 I2.111 J-5.271
X75.246 Y253.522 I0.892 J-5.664
X75.646 Y253.508 I0 J-5.734
X76.929 Y253.273 I-0.397 J-5.776
X78.139 Y252.752 I-1.691 J-5.595
X79.213 Y251.967 I-2.923 J-5.126
X80.093 Y250.954 I-4.03 J-4.386
X80.73 Y249.758 I-4.952 J-3.409
X81.088 Y248.439 I-5.638 J-2.24
G1 X81.097 Y248.384
G2 X81.148 Y247.111 I-5.614 J-0.862
G1 X81.093 Y246.359
G3 X68.907 Y249.141 I-6.093 J1.391
X81.093 Y246.359 I6.093 J-1.391
G1 X81.097 Y246.402
X81.088 Y246.444
X81.068 Y246.482
X81.037 Y246.512
X81 Y246.533
X80.958 Y246.542
X80.039 Y246.612
X75.629 Y247.717
X75.485 Y247.705
X75.461 Y247.695
X75.446 Y247.673
Y247.647
X75.461 Y247.625
X75.485 Y247.615
G3 X77.016 Y249.31 Z-7.297 I0.133 J1.419 F333.3
X74.22 Y248.758 Z-8.927 I-1.398 J-0.276
X77.016 Y249.31 Z-10.556 I1.398 J0.276
X74.22 Y248.758 Z-12.186 I-1.398 J-0.276
X75 Y247.75 Z-12.667 I1.398 J0.276
G1 X75.044 Y247.729 F1000
X75.066 Y247.713
X75.082 Y247.69
X75.088 Y247.664
X75.092 Y247.619
X75.09 Y247.574
X75.077 Y247.531
X75.056 Y247.492
X75.045 Y247.477
X75.012 Y247.44
X74.972 Y247.411
X74.927 Y247.39
X74.899 Y247.38
X74.837 Y247.365
X74.774 Y247.361
X74.711 Y247.369
X74.695 Y247.373
G2 X74.478 Y247.506 I0.086 J0.386
G1 X74.428 Y247.565
G2 X74.286 Y247.99 I0.474 J0.394
G1 X74.288 Y248.033
G2 X74.493 Y248.504 I0.728 J-0.036
G1 X74.535 Y248.547
G2 X75.092 Y248.815 I0.64 J-0.62
G1 X75.151 Y248.82
G2 X75.848 Y248.638 I0.099 J-1.048
G1 X75.896 Y248.605
G2 X76.375 Y247.933 I-0.69 J-0.998
G1 X76.391 Y247.877
G2 X76.324 Y246.951 I-1.324 J-0.37
G1 X76.3 Y246.899
G2 X75.589 Y246.15 I-1.403 J0.621
G1 X75.538 Y246.125
G2 X74.411 Y245.982 I-0.764 J1.512
G1 X74.296 Y246.008
G2 X72.879 Y247.267 I0.417 J1.895
G1 X72.876 Y247.278
G2 X72.772 Y248.246 I2.043 J0.708
G1 X72.775 Y248.271
G2 X73.123 Y249.231 I2.255 J-0.273
G1 X73.136 Y249.252
G2 X73.904 Y249.997 I1.999 J-1.293
G1 X73.926 Y250.01
G2 X74.988 Y250.359 I1.288 J-2.131
G1 X75.013 Y250.361
G2 X76.168 Y250.204 I0.236 J-2.589
G1 X76.192 Y250.195
G2 X77.202 Y249.522 I-0.958 J-2.534
G1 X77.22 Y249.504
G2 X77.859 Y248.415 I-2.048 J-1.936
G1 X77.867 Y248.391
G2 X77.971 Y247.085 I-2.792 J-0.88
G1 X77.967 Y247.06
G2 X77.473 Y245.793 I-3.004 J0.443
G1 X77.459 Y245.773
G2 X76.427 Y244.816 I-2.6 J1.77
G1 X76.405 Y244.804
G2 X75.012 Y244.379 I-1.622 J2.822
G1 X74.987 Y244.377
G2 X73.501 Y244.609 I-0.237 J3.356
G1 X73.478 Y244.618
G2 X72.202 Y245.503 I1.29 J3.225
G1 X72.185 Y245.521
G2 X71.398 Y246.915 I2.646 J2.414
G1 X71.39 Y246.939
G2 X71.286 Y248.585 I3.538 J1.051
G1 X71.29 Y248.61
G2 X71.931 Y250.182 I3.75 J-0.613
G1 X71.945 Y250.202
G2 X73.243 Y251.371 I3.199 J-2.247
G1 X73.264 Y251.383
G2 X74.988 Y251.883 I1.954 J-3.511
G1 X75.012 Y251.885
G2 X76.829 Y251.577 I0.238 J-4.12
G1 X76.852 Y251.568
G2 X78.394 Y250.473 I-1.621 J-3.914
G1 X78.411 Y250.454
G2 X79.345 Y248.755 I-3.244 J-2.891
G1 X79.352 Y248.731
G2 X79.457 Y246.745 I-4.283 J-1.221
G1 X79.453 Y246.721
G2 X78.665 Y244.843 I-4.496 J0.782
G1 X78.65 Y244.823
G2 X77.088 Y243.443 I-3.796 J2.723
G1 X76.928 Y243.356
G2 X72.302 Y243.389 I-2.283 J4.193
G1 X72.268 Y243.409
G2 X71.336 Y244.082 I2.515 J4.464
X70.565 Y244.96 I3.48 J3.836
X70.003 Y245.998 I4.293 J2.995
X69.683 Y247.148 I4.904 J1.983
X69.615 Y247.996 I5.278 J0.848
X69.627 Y248.352 I5.345 J0
X69.844 Y249.551 I5.389 J-0.354
X70.327 Y250.683 I5.228 J-1.563
X71.057 Y251.688 I4.796 J-2.716
X72.003 Y252.514 I4.111 J-3.755
X73.12 Y253.114 I3.202 J-4.622
X74.354 Y253.453 I2.111 J-5.271
X75.246 Y253.522 I0.892 J-5.664
X75.646 Y253.508 I0 J-5.734
X76.929 Y253.273 I-0.397 J-5.776
X78.139 Y252.752 I-1.691 J-5.595
X79.213 Y251.967 I-2.923 J-5.126
X80.093 Y250.954 I-4.03 J-4.386
X80.73 Y249.758 I-4.952 J-3.409
X81.088 Y248.439 I-5.638 J-2.24
G1 X81.097 Y248.384
G2 X81.148 Y247.111 I-5.614 J-0.862
G1 X81.093 Y246.359
G3 X68.907 Y249.141 I-6.093 J1.391
X81.093 Y246.359 I6.093 J-1.391
G1 X81.097 Y246.402
X81.088 Y246.444
X81.068 Y246.482
X81.037 Y246.512
X81 Y246.533
X80.958 Y246.542
X80.039 Y246.612
X75.629 Y247.717
X75.485 Y247.705
X75.461 Y247.695
X75.446 Y247.673
Y247.647
X75.461 Y247.625
X75.485 Y247.615
G3 X77.016 Y249.31 Z-13.631 I0.133 J1.419 F333.3
X74.22 Y248.758 Z-15.26 I-1.398 J-0.276
X77.016 Y249.31 Z-16.89 I1.398 J0.276
X74.22 Y248.758 Z-18.519 I-1.398 J-0.276
X75 Y247.75 Z-19 I1.398 J0.276
G1 X75.044 Y247.729 F1000
X75.066 Y247.713
X75.082 Y247.69
X75.088 Y247.664
X75.092 Y247.619
X75.09 Y247.574
X75.077 Y247.531
X75.056 Y247.492
X75.045 Y247.477
X75.012 Y247.44
X74.972 Y247.411
X74.927 Y247.39
X74.899 Y247.38
X74.837 Y247.365
X74.774 Y247.361
X74.711 Y247.369
X74.695 Y247.373
G2 X74.478 Y247.506 I0.086 J0.386
G1 X74.428 Y247.565
G2 X74.286 Y247.99 I0.474 J0.394
G1 X74.288 Y248.033
G2 X74.493 Y248.504 I0.728 J-0.036
G1 X74.535 Y248.547
G2 X75.092 Y248.815 I0.64 J-0.62
G1 X75.151 Y248.82
G2 X75.848 Y248.638 I0.099 J-1.048
G1 X75.896 Y248.605
G2 X76.375 Y247.933 I-0.69 J-0.998
G1 X76.391 Y247.877
G2 X76.324 Y246.951 I-1.324 J-0.37
G1 X76.3 Y246.899
G2 X75.589 Y246.15 I-1.403 J0.621
G1 X75.538 Y246.125
G2 X74.411 Y245.982 I-0.764 J1.512
G1 X74.296 Y246.008
G2 X72.879 Y247.267 I0.417 J1.895
G1 X72.876 Y247.278
G2 X72.772 Y248.246 I2.043 J0.708
G1 X72.775 Y248.271
G2 X73.123 Y249.231 I2.255 J-0.273
G1 X73.136 Y249.252
G2 X73.904 Y249.997 I1.999 J-1.293
G1 X73.926 Y250.01
G2 X74.988 Y250.359 I1.288 J-2.131
G1 X75.013 Y250.361
G2 X76.168 Y250.204 I0.236 J-2.589
G1 X76.192 Y250.195
G2 X77.202 Y249.522 I-0.958 J-2.534
G1 X77.22 Y249.504
G2 X77.859 Y248.415 I-2.048 J-1.936
G1 X77.867 Y248.391
G2 X77.971 Y247.085 I-2.792 J-0.88
G1 X77.967 Y247.06
G2 X77.473 Y245.793 I-3.004 J0.443
G1 X77.459 Y245.773
G2 X76.427 Y244.816 I-2.6 J1.77
G1 X76.405 Y244.804
G2 X75.012 Y244.379 I-1.622 J2.822
G1 X74.987 Y244.377
G2 X73.501 Y244.609 I-0.237 J3.356
G1 X73.478 Y244.618
G2 X72.202 Y245.503 I1.29 J3.225
G1 X72.185 Y245.521
G2 X71.398 Y246.915 I2.646 J2.414
G1 X71.39 Y246.939
G2 X71.286 Y248.585 I3.538 J1.051
G1 X71.29 Y248.61
G2 X71.931 Y250.182 I3.75 J-0.613
G1 X71.945 Y250.202
G2 X73.243 Y251.371 I3.199 J-2.247
G1 X73.264 Y251.383
G2 X74.988 Y251.883 I1.954 J-3.511
G1 X75.012 Y251.885
G2 X76.829 Y251.577 I0.238 J-4.12
G1 X76.852 Y251.568
G2 X78.394 Y250.473 I-1.621 J-3.914
G1 X78.411 Y250.454
G2 X79.345 Y248.755 I-3.244 J-2.891
G1 X79.352 Y248.731
G2 X79.457 Y246.745 I-4.283 J-1.221
G1 X79.453 Y246.721
G2 X78.665 Y244.843 I-4.496 J0.782
G1 X78.65 Y244.823
G2 X77.088 Y243.443 I-3.796 J2.723
G1 X76.928 Y243.356
G2 X72.302 Y243.389 I-2.283 J4.193
G1 X72.268 Y243.409
G2 X71.336 Y244.082 I2.515 J4.464
X70.565 Y244.96 I3.48 J3.836
X70.003 Y245.998 I4.293 J2.995
X69.683 Y247.148 I4.904 J1.983
X69.615 Y247.996 I5.278 J0.848
X69.627 Y248.352 I5.345 J0
X69.844 Y249.551 I5.389 J-0.354
X70.327 Y250.683 I5.228 J-1.563
X71.057 Y251.688 I4.796 J-2.716
X72.003 Y252.514 I4.111 J-3.755
X73.12 Y253.114 I3.202 J-4.622
X74.354 Y253.453 I2.111 J-5.271
X75.246 Y253.522 I0.892 J-5.664
X75.646 Y253.508 I0 J-5.734
X76.929 Y253.273 I-0.397 J-5.776
X78.139 Y252.752 I-1.691 J-5.595
X79.213 Y251.967 I-2.923 J-5.126
X80.093 Y250.954 I-4.03 J-4.386
X80.73 Y249.758 I-4.952 J-3.409
X81.088 Y248.439 I-5.638 J-2.24
G1 X81.097 Y248.384
G2 X81.148 Y247.111 I-5.614 J-0.862
G1 X81.093 Y246.359
G3 X68.907 Y249.141 I-6.093 J1.391
X81.093 Y246.359 I6.093 J-1.391
G1 X81.101 Y246.416 Z-18.989
X81.097 Y246.473 Z-18.977
X81.086 Y246.521 Z-18.945
X81.067 Y246.565 Z-18.912
X81.03 Y246.619 Z-18.815
X81.015 Y246.636 Z-18.7
G0 Z5
X76.962 Y53.059
G1 Z2.782 F333.3
X76.97 Y53.082 Z2.663
X76.99 Y53.149 Z2.564
X77.015 Y53.249 Z2.5
G3 X74.222 Y53.819 Z0.871 I-1.396 J0.285
X77.015 Y53.249 Z-0.759 I1.396 J-0.285
X74.222 Y53.819 Z-2.388 I-1.396 J0.285
X77.015 Y53.249 Z-4.018 I1.396 J-0.285
X74.222 Y53.819 Z-5.647 I-1.396 J0.285
X75 Y52.25 Z-6.333 I1.396 J-0.285
G1 X75.044 Y52.229 F1000
X75.066 Y52.213
X75.082 Y52.19
X75.088 Y52.164
X75.092 Y52.119
X75.09 Y52.074
X75.077 Y52.031
X75.056 Y51.992
X75.045 Y51.977
X75.012 Y51.94
X74.972 Y51.911
X74.927 Y51.89
X74.899 Y51.88
X74.837 Y51.865
X74.774 Y51.861
X74.711 Y51.869
X74.695 Y51.873
G2 X74.478 Y52.006 I0.086 J0.386
G1 X74.428 Y52.065
G2 X74.286 Y52.49 I0.474 J0.394
G1 X74.288 Y52.533
G2 X74.493 Y53.004 I0.728 J-0.036
G1 X74.535 Y53.047
G2 X75.092 Y53.315 I0.64 J-0.62
G1 X75.151 Y53.32
G2 X75.848 Y53.138 I0.099 J-1.048
G1 X75.896 Y53.105
G2 X76.375 Y52.433 I-0.69 J-0.998
G1 X76.391 Y52.377
G2 X76.324 Y51.451 I-1.324 J-0.37
G1 X76.3 Y51.399
G2 X75.589 Y50.65 I-1.403 J0.621
G1 X75.538 Y50.625
G2 X74.411 Y50.482 I-0.764 J1.512
G1 X74.296 Y50.508
G2 X72.879 Y51.767 I0.417 J1.895
G1 X72.876 Y51.778
G2 X72.772 Y52.746 I2.043 J0.708
G1 X72.775 Y52.771
G2 X73.123 Y53.731 I2.255 J-0.273
G1 X73.136 Y53.752
G2 X73.904 Y54.497 I1.999 J-1.293
G1 X73.926 Y54.51
G2 X74.988 Y54.859 I1.288 J-2.131
G1 X75.013 Y54.861
G2 X76.168 Y54.704 I0.236 J-2.589
G1 X76.192 Y54.695
G2 X77.202 Y54.022 I-0.958 J-2.534
G1 X77.22 Y54.004
G2 X77.859 Y52.915 I-2.048 J-1.936
G1 X77.867 Y52.891
G2 X77.971 Y51.585 I-2.792 J-0.88
G1 X77.967 Y51.56
G2 X77.473 Y50.293 I-3.004 J0.443
G1 X77.459 Y50.273
G2 X76.427 Y49.316 I-2.6 J1.77
G1 X76.405 Y49.304
G2 X75.012 Y48.879 I-1.622 J2.822
G1 X74.987 Y48.877
G2 X73.501 Y49.109 I-0.237 J3.356
G1 X73.478 Y49.118
G2 X72.202 Y50.003 I1.29 J3.225
G1 X72.185 Y50.021
G2 X71.398 Y51.415 I2.646 J2.414
G1 X71.39 Y51.439
G2 X71.286 Y53.085 I3.538 J1.051
G1 X71.29 Y53.11
G2 X71.931 Y54.682 I3.75 J-0.613
G1 X71.945 Y54.702
G2 X73.243 Y55.871 I3.199 J-2.247
G1 X73.264 Y55.883
G2 X74.988 Y56.383 I1.954 J-3.511
G1 X75.012 Y56.385
G2 X76.829 Y56.077 I0.238 J-4.12
G1 X76.852 Y56.068
G2 X78.394 Y54.973 I-1.621 J-3.914
G1 X78.411 Y54.954
G2 X79.345 Y53.255 I-3.244 J-2.891
G1 X79.352 Y53.231
G2 X79.457 Y51.245 I-4.283 J-1.221
G1 X79.453 Y51.221
G2 X78.665 Y49.343 I-4.496 J0.782
G1 X78.65 Y49.323
G2 X77.088 Y47.943 I-3.796 J2.723
G1 X76.928 Y47.856
G2 X72.302 Y47.889 I-2.283 J4.193
G1 X72.268 Y47.909
G2 X71.336 Y48.582 I2.515 J4.464
X70.565 Y49.46 I3.48 J3.836
X70.003 Y50.498 I4.293 J2.995
X69.683 Y51.648 I4.904 J1.983
X69.615 Y52.496 I5.278 J0.848
X69.627 Y52.852 I5.345 J0
X69.844 Y54.051 I5.389 J-0.354
X70.327 Y55.183 I5.228 J-1.563
X71.057 Y56.188 I4.796 J-2.716
X72.003 Y57.014 I4.111 J-3.755
X73.12 Y57.614 I3.202 J-4.622
X74.354 Y57.953 I2.111 J-5.271
X75.246 Y58.022 I0.892 J-5.664
X75.646 Y58.008 I0 J-5.734
X76.929 Y57.773 I-0.397 J-5.776
X78.139 Y57.252 I-1.691 J-5.595
X79.213 Y56.467 I-2.923 J-5.126
X80.093 Y55.454 I-4.03 J-4.386
X80.73 Y54.258 I-4.952 J-3.409
X81.088 Y52.939 I-5.638 J-2.24
G1 X81.097 Y52.884
G2 X81.148 Y51.611 I-5.614 J-0.862
G1 X81.093 Y50.859
G3 X68.907 Y53.641 I-6.093 J1.391
X81.093 Y50.859 I6.093 J-1.391
G1 X81.097 Y50.902
X81.088 Y50.944
X81.068 Y50.982
X81.037 Y51.012
X81 Y51.033
X80.958 Y51.042
X80.039 Y51.112
X75.629 Y52.217
X75.485 Y52.205
X75.461 Y52.195
X75.446 Y52.173
Y52.147
X75.461 Y52.125
X75.485 Y52.115
G3 X75.751 Y54.953 Z-7.963 I0.133 J1.419 F333.3
X75.485 Y52.115 Z-9.592 I-0.133 J-1.419
X75.751 Y54.953 Z-11.222 I0.133 J1.419
X75 Y52.25 Z-12.667 I-0.133 J-1.419
G1 X75.044 Y52.229 F1000
X75.066 Y52.213
X75.082 Y52.19
X75.088 Y52.164
X75.092 Y52.119
X75.09 Y52.074
X75.077 Y52.031
X75.056 Y51.992
X75.045 Y51.977
X75.012 Y51.94
X74.972 Y51.911
X74.927 Y51.89
X74.899 Y51.88
X74.837 Y51.865
X74.774 Y51.861
X74.711 Y51.869
X74.695 Y51.873
G2 X74.478 Y52.006 I0.086 J0.386
G1 X74.428 Y52.065
G2 X74.286 Y52.49 I0.474 J0.394
G1 X74.288 Y52.533
G2 X74.493 Y53.004 I0.728 J-0.036
G1 X74.535 Y53.047
G2 X75.092 Y53.315 I0.64 J-0.62
G1 X75.151 Y53.32
G2 X75.848 Y53.138 I0.099 J-1.048
G1 X75.896 Y53.105
G2 X76.375 Y52.433 I-0.69 J-0.998
G1 X76.391 Y52.377
G2 X76.324 Y51.451 I-1.324 J-0.37
G1 X76.3 Y51.399
G2 X75.589 Y50.65 I-1.403 J0.621
G1 X75.538 Y50.625
G2 X74.411 Y50.482 I-0.764 J1.512
G1 X74.296 Y50.508
G2 X72.879 Y51.767 I0.417 J1.895
G1 X72.876 Y51.778
G2 X72.772 Y52.746 I2.043 J0.708
G1 X72.775 Y52.771
G2 X73.123 Y53.731 I2.255 J-0.273
G1 X73.136 Y53.752
G2 X73.904 Y54.497 I1.999 J-1.293
G1 X73.926 Y54.51
G2 X74.988 Y54.859 I1.288 J-2.131
G1 X75.013 Y54.861
G2 X76.168 Y54.704 I0.236 J-2.589
G1 X76.192 Y54.695
G2 X77.202 Y54.022 I-0.958 J-2.534
G1 X77.22 Y54.004
G2 X77.859 Y52.915 I-2.048 J-1.936
G1 X77.867 Y52.891
G2 X77.971 Y51.585 I-2.792 J-0.88
G1 X77.967 Y51.56
G2 X77.473 Y50.293 I-3.004 J0.443
G1 X77.459 Y50.273
G2 X76.427 Y49.316 I-2.6 J1.77
G1 X76.405 Y49.304
G2 X75.012 Y48.879 I-1.622 J2.822
G1 X74.987 Y48.877
G2 X73.501 Y49.109 I-0.237 J3.356
G1 X73.478 Y49.118
G2 X72.202 Y50.003 I1.29 J3.225
G1 X72.185 Y50.021
G2 X71.398 Y51.415 I2.646 J2.414
G1 X71.39 Y51.439
G2 X71.286 Y53.085 I3.538 J1.051
G1 X71.29 Y53.11
G2 X71.931 Y54.682 I3.75 J-0.613
G1 X71.945 Y54.702
G2 X73.243 Y55.871 I3.199 J-2.247
G1 X73.264 Y55.883
G2 X74.988 Y56.383 I1.954 J-3.511
G1 X75.012 Y56.385
G2 X76.829 Y56.077 I0.238 J-4.12
G1 X76.852 Y56.068
G2 X78.394 Y54.973 I-1.621 J-3.914
G1 X78.411 Y54.954
G2 X79.345 Y53.255 I-3.244 J-2.891
G1 X79.352 Y53.231
G2 X79.457 Y51.245 I-4.283 J-1.221
G1 X79.453 Y51.221
G2 X78.665 Y49.343 I-4.496 J0.782
G1 X78.65 Y49.323
G2 X77.088 Y47.943 I-3.796 J2.723
G1 X76.928 Y47.856
G2 X72.302 Y47.889 I-2.283 J4.193
G1 X72.268 Y47.909
G2 X71.336 Y48.582 I2.515 J4.464
X70.565 Y49.46 I3.48 J3.836
X70.003 Y50.498 I4.293 J2.995
X69.683 Y51.648 I4.904 J1.983
X69.615 Y52.496 I5.278 J0.848
X69.627 Y52.852 I5.345 J0
X69.844 Y54.051 I5.389 J-0.354
X70.327 Y55.183 I5.228 J-1.563
X71.057 Y56.188 I4.796 J-2.716
X72.003 Y57.014 I4.111 J-3.755
X73.12 Y57.614 I3.202 J-4.622
X74.354 Y57.953 I2.111 J-5.271
X75.246 Y58.022 I0.892 J-5.664
X75.646 Y58.008 I0 J-5.734
X76.929 Y57.773 I-0.397 J-5.776
X78.139 Y57.252 I-1.691 J-5.595
X79.213 Y56.467 I-2.923 J-5.126
X80.093 Y55.454 I-4.03 J-4.386
X80.73 Y54.258 I-4.952 J-3.409
X81.088 Y52.939 I-5.638 J-2.24
G1 X81.097 Y52.884
G2 X81.148 Y51.611 I-5.614 J-0.862
G1 X81.093 Y50.859
G3 X68.907 Y53.641 I-6.093 J1.391
X81.093 Y50.859 I6.093 J-1.391
G1 X81.097 Y50.902
X81.088 Y50.944
X81.068 Y50.982
X81.037 Y51.012
X81 Y51.033
X80.958 Y51.042
X80.039 Y51.112
X75.629 Y52.217
X75.485 Y52.205
X75.461 Y52.195
X75.446 Y52.173
Y52.147
X75.461 Y52.125
X75.485 Y52.115
G3 X75.751 Y54.953 Z-14.296 I0.133 J1.419 F333.3
X75.485 Y52.115 Z-15.925 I-0.133 J-1.419
X75.751 Y54.953 Z-17.555 I0.133 J1.419
X75 Y52.25 Z-19 I-0.133 J-1.419
G1 X75.044 Y52.229 F1000
X75.066 Y52.213
X75.082 Y52.19
X75.088 Y52.164
X75.092 Y52.119
X75.09 Y52.074
X75.077 Y52.031
X75.056 Y51.992
X75.045 Y51.977
X75.012 Y51.94
X74.972 Y51.911
X74.927 Y51.89
X74.899 Y51.88
X74.837 Y51.865
X74.774 Y51.861
X74.711 Y51.869
X74.695 Y51.873
G2 X74.478 Y52.006 I0.086 J0.386
G1 X74.428 Y52.065
G2 X74.286 Y52.49 I0.474 J0.394
G1 X74.288 Y52.533
G2 X74.493 Y53.004 I0.728 J-0.036
G1 X74.535 Y53.047
G2 X75.092 Y53.315 I0.64 J-0.62
G1 X75.151 Y53.32
G2 X75.848 Y53.138 I0.099 J-1.048
G1 X75.896 Y53.105
G2 X76.375 Y52.433 I-0.69 J-0.998
G1 X76.391 Y52.377
G2 X76.324 Y51.451 I-1.324 J-0.37
G1 X76.3 Y51.399
G2 X75.589 Y50.65 I-1.403 J0.621
G1 X75.538 Y50.625
G2 X74.411 Y50.482 I-0.764 J1.512
G1 X74.296 Y50.508
G2 X72.879 Y51.767 I0.417 J1.895
G1 X72.876 Y51.778
G2 X72.772 Y52.746 I2.043 J0.708
G1 X72.775 Y52.771
G2 X73.123 Y53.731 I2.255 J-0.273
G1 X73.136 Y53.752
G2 X73.904 Y54.497 I1.999 J-1.293
G1 X73.926 Y54.51
G2 X74.988 Y54.859 I1.288 J-2.131
G1 X75.013 Y54.861
G2 X76.168 Y54.704 I0.236 J-2.589
G1 X76.192 Y54.695
G2 X77.202 Y54.022 I-0.958 J-2.534
G1 X77.22 Y54.004
G2 X77.859 Y52.915 I-2.048 J-1.936
G1 X77.867 Y52.891
G2 X77.971 Y51.585 I-2.792 J-0.88
G1 X77.967 Y51.56
G2 X77.473 Y50.293 I-3.004 J0.443
G1 X77.459 Y50.273
G2 X76.427 Y49.316 I-2.6 J1.77
G1 X76.405 Y49.304
G2 X75.012 Y48.879 I-1.622 J2.822
G1 X74.987 Y48.877
G2 X73.501 Y49.109 I-0.237 J3.356
G1 X73.478 Y49.118
G2 X72.202 Y50.003 I1.29 J3.225
G1 X72.185 Y50.021
G2 X71.398 Y51.415 I2.646 J2.414
G1 X71.39 Y51.439
G2 X71.286 Y53.085 I3.538 J1.051
G1 X71.29 Y53.11
G2 X71.931 Y54.682 I3.75 J-0.613
G1 X71.945 Y54.702
G2 X73.243 Y55.871 I3.199 J-2.247
G1 X73.264 Y55.883
G2 X74.988 Y56.383 I1.954 J-3.511
G1 X75.012 Y56.385
G2 X76.829 Y56.077 I0.238 J-4.12
G1 X76.852 Y56.068
G2 X78.394 Y54.973 I-1.621 J-3.914
G1 X78.411 Y54.954
G2 X79.345 Y53.255 I-3.244 J-2.891
G1 X79.352 Y53.231
G2 X79.457 Y51.245 I-4.283 J-1.221
G1 X79.453 Y51.221
G2 X78.665 Y49.343 I-4.496 J0.782
G1 X78.65 Y49.323
G2 X77.088 Y47.943 I-3.796 J2.723
G1 X76.928 Y47.856
G2 X72.302 Y47.889 I-2.283 J4.193
G1 X72.268 Y47.909
G2 X71.336 Y48.582 I2.515 J4.464
X70.565 Y49.46 I3.48 J3.836
X70.003 Y50.498 I4.293 J2.995
X69.683 Y51.648 I4.904 J1.983
X69.615 Y52.496 I5.278 J0.848
X69.627 Y52.852 I5.345 J0
X69.844 Y54.051 I5.389 J-0.354
X70.327 Y55.183 I5.228 J-1.563
X71.057 Y56.188 I4.796 J-2.716
X72.003 Y57.014 I4.111 J-3.755
X73.12 Y57.614 I3.202 J-4.622
X74.354 Y57.953 I2.111 J-5.271
X75.246 Y58.022 I0.892 J-5.664
X75.646 Y58.008 I0 J-5.734
X76.929 Y57.773 I-0.397 J-5.776
X78.139 Y57.252 I-1.691 J-5.595
X79.213 Y56.467 I-2.923 J-5.126
X80.093 Y55.454 I-4.03 J-4.386
X80.73 Y54.258 I-4.952 J-3.409
X81.088 Y52.939 I-5.638 J-2.24
G1 X81.097 Y52.884
G2 X81.148 Y51.611 I-5.614 J-0.862
G1 X81.093 Y50.859
G3 X68.907 Y53.641 I-6.093 J1.391
X81.093 Y50.859 I6.093 J-1.391
G1 X81.101 Y50.916 Z-18.989
X81.097 Y50.973 Z-18.977
X81.086 Y51.021 Z-18.945
X81.067 Y51.065 Z-18.912
X81.03 Y51.119 Z-18.815
X81.015 Y51.136 Z-18.7
G0 Z5
X176.733 Y53.475
G1 Z2.782 F333.3
X176.735 Y53.5 Z2.663
X176.74 Y53.569 Z2.564
X176.742 Y53.672 Z2.5
G3 X173.892 Y53.606 Z0.871 I-1.425 J-0.033
X176.742 Y53.672 Z-0.759 I1.425 J0.033
X173.892 Y53.606 Z-2.388 I-1.425 J-0.033
X176.742 Y53.672 Z-4.018 I1.425 J0.033
X173.892 Y53.606 Z-5.647 I-1.425 J-0.033
X175 Y52.25 Z-6.333 I1.425 J0.033
G1 X175.048 Y52.239 F1000
X175.073 Y52.228
X175.093 Y52.21
X175.106 Y52.185
X175.119 Y52.143
X175.127 Y52.099
X175.124 Y52.054
X175.112 Y52.011
X175.105 Y51.994
X175.081 Y51.951
X175.048 Y51.913
X175.009 Y51.883
X174.984 Y51.867
X174.927 Y51.838
X174.866 Y51.82
X174.803 Y51.814
X174.787
G2 X174.545 Y51.896 I-0.002 J0.395
G1 X174.483 Y51.943
G2 X174.251 Y52.325 I0.375 J0.49
G1 X174.243 Y52.367
G2 X174.338 Y52.872 I0.718 J0.127
G1 X174.369 Y52.924
G2 X174.852 Y53.308 I0.762 J-0.462
G1 X174.909 Y53.327
G2 X175.629 Y53.304 I0.33 J-1
G1 X175.684 Y53.283
G2 X176.3 Y52.734 I-0.451 J-1.127
G1 X176.327 Y52.684
G2 X176.468 Y51.766 I-1.208 J-0.655
G1 X176.457 Y51.71
G2 X175.93 Y50.822 I-1.506 J0.293
G1 X175.887 Y50.785
G2 X174.819 Y50.395 I-1.081 J1.304
G1 X174.701
G2 X173.04 Y51.307 I-0.015 J1.94
G1 X173.034 Y51.317
G2 X172.718 Y52.238 I1.834 J1.145
G1 X172.715 Y52.263
G2 X172.84 Y53.276 I2.259 J0.236
G1 X172.849 Y53.3
G2 X173.431 Y54.197 I2.237 J-0.815
G1 X173.45 Y54.215
G2 X174.407 Y54.791 I1.73 J-1.791
G1 X174.431 Y54.799
G2 X175.593 Y54.903 I0.806 J-2.471
G1 X175.618 Y54.899
G2 X176.753 Y54.468 I-0.37 J-2.684
G1 X176.774 Y54.454
G2 X177.64 Y53.535 I-1.566 J-2.343
G1 X177.652 Y53.513
G2 X178.045 Y52.262 I-2.526 J-1.479
G1 X178.047 Y52.237
G2 X177.847 Y50.893 I-3.027 J-0.237
G1 X177.838 Y50.87
G2 X177.044 Y49.707 I-2.929 J1.147
G1 X177.025 Y49.69
G2 X175.762 Y48.966 I-2.209 J2.39
G1 X175.738 Y48.959
G2 X174.238 Y48.854 I-0.978 J3.219
G1 X174.213 Y48.858
G2 X172.772 Y49.436 I0.54 J3.431
G1 X172.751 Y49.45
G2 X171.674 Y50.634 I2.043 J2.942
G1 X171.661 Y50.656
G2 X171.193 Y52.238 I3.216 J1.812
G1 X171.192 Y52.263
G2 X171.467 Y53.938 I3.793 J0.237
G1 X171.476 Y53.961
G2 X172.481 Y55.389 I3.619 J-1.479
G1 X172.5 Y55.405
G2 X174.068 Y56.277 I2.687 J-2.988
G1 X174.092 Y56.284
G2 X175.932 Y56.389 I1.148 J-3.964
G1 X175.956 Y56.384
G2 X177.703 Y55.659 I-0.71 J-4.176
G1 X177.723 Y55.645
G2 X179.013 Y54.196 I-2.519 J-3.54
G1 X179.025 Y54.174
G2 X179.569 Y52.262 I-3.904 J-2.144
G1 X179.57 Y52.238
G2 X179.22 Y50.232 I-4.557 J-0.238
G1 X179.21 Y50.209
G2 X177.994 Y48.516 I-4.307 J1.81
G1 X177.857 Y48.395
G2 X173.34 Y47.398 I-3.158 J3.58
G1 X173.303 Y47.41
G2 X172.244 Y47.858 I1.458 J4.911
X171.297 Y48.543 I2.539 J4.514
X170.518 Y49.43 I3.519 J3.875
X169.95 Y50.48 I4.34 J3.024
X169.628 Y51.642 I4.957 J2.001
X169.56 Y52.496 I5.333 J0.854
X169.572 Y52.858 I5.401 J0
X169.791 Y54.069 I5.445 J-0.36
X170.28 Y55.212 I5.28 J-1.581
X171.018 Y56.228 I4.843 J-2.746
X171.973 Y57.061 I4.15 J-3.794
X173.102 Y57.666 I3.231 J-4.669
X174.348 Y58.008 I2.13 J-5.324
X175.246 Y58.078 I0.898 J-5.719
X175.652 Y58.064 I0 J-5.789
X176.947 Y57.825 I-0.404 J-5.831
X178.169 Y57.299 I-1.709 J-5.647
X179.252 Y56.506 I-2.953 J-5.173
X180.139 Y55.483 I-4.069 J-4.425
X180.782 Y54.277 I-4.999 J-3.438
G1 X180.803 Y54.224
G2 X181.136 Y52.995 I-5.281 J-2.09
G1 X181.25 Y52.25
G3 X168.75 Y52.25 I-6.25 J0
X181.25 Y52.25 I6.25 J0
G1 X181.06
X175.524
X175.503 Y52.226
G3 X175.131 Y55.052 Z-7.963 I-0.186 J1.413 F333.3
X175.503 Y52.226 Z-9.592 I0.186 J-1.413
X175.131 Y55.052 Z-11.222 I-0.186 J1.413
X175 Y52.25 Z-12.667 I0.186 J-1.413
G1 X175.048 Y52.239 F1000
X175.073 Y52.228
X175.093 Y52.21
X175.106 Y52.185
X175.119 Y52.143
X175.127 Y52.099
X175.124 Y52.054
X175.112 Y52.011
X175.105 Y51.994
X175.081 Y51.951
X175.048 Y51.913
X175.009 Y51.883
X174.984 Y51.867
X174.927 Y51.838
X174.866 Y51.82
X174.803 Y51.814
X174.787
G2 X174.545 Y51.896 I-0.002 J0.395
G1 X174.483 Y51.943
G2 X174.251 Y52.325 I0.375 J0.49
G1 X174.243 Y52.367
G2 X174.338 Y52.872 I0.718 J0.127
G1 X174.369 Y52.924
G2 X174.852 Y53.308 I0.762 J-0.462
G1 X174.909 Y53.327
G2 X175.629 Y53.304 I0.33 J-1
G1 X175.684 Y53.283
G2 X176.3 Y52.734 I-0.451 J-1.127
G1 X176.327 Y52.684
G2 X176.468 Y51.766 I-1.208 J-0.655
G1 X176.457 Y51.71
G2 X175.93 Y50.822 I-1.506 J0.293
G1 X175.887 Y50.785
G2 X174.819 Y50.395 I-1.081 J1.304
G1 X174.701
G2 X173.04 Y51.307 I-0.015 J1.94
G1 X173.034 Y51.317
G2 X172.718 Y52.238 I1.834 J1.145
G1 X172.715 Y52.263
G2 X172.84 Y53.276 I2.259 J0.236
G1 X172.849 Y53.3
G2 X173.431 Y54.197 I2.237 J-0.815
G1 X173.45 Y54.215
G2 X174.407 Y54.791 I1.73 J-1.791
G1 X174.431 Y54.799
G2 X175.593 Y54.903 I0.806 J-2.471
G1 X175.618 Y54.899
G2 X176.753 Y54.468 I-0.37 J-2.684
G1 X176.774 Y54.454
G2 X177.64 Y53.535 I-1.566 J-2.343
G1 X177.652 Y53.513
G2 X178.045 Y52.262 I-2.526 J-1.479
G1 X178.047 Y52.237
G2 X177.847 Y50.893 I-3.027 J-0.237
G1 X177.838 Y50.87
G2 X177.044 Y49.707 I-2.929 J1.147
G1 X177.025 Y49.69
G2 X175.762 Y48.966 I-2.209 J2.39
G1 X175.738 Y48.959
G2 X174.238 Y48.854 I-0.978 J3.219
G1 X174.213 Y48.858
G2 X172.772 Y49.436 I0.54 J3.431
G1 X172.751 Y49.45
G2 X171.674 Y50.634 I2.043 J2.942
G1 X171.661 Y50.656
G2 X171.193 Y52.238 I3.216 J1.812
G1 X171.192 Y52.263
G2 X171.467 Y53.938 I3.793 J0.237
G1 X171.476 Y53.961
G2 X172.481 Y55.389 I3.619 J-1.479
G1 X172.5 Y55.405
G2 X174.068 Y56.277 I2.687 J-2.988
G1 X174.092 Y56.284
G2 X175.932 Y56.389 I1.148 J-3.964
G1 X175.956 Y56.384
G2 X177.703 Y55.659 I-0.71 J-4.176
G1 X177.723 Y55.645
G2 X179.013 Y54.196 I-2.519 J-3.54
G1 X179.025 Y54.174
G2 X179.569 Y52.262 I-3.904 J-2.144
G1 X179.57 Y52.238
G2 X179.22 Y50.232 I-4.557 J-0.238
G1 X179.21 Y50.209
G2 X177.994 Y48.516 I-4.307 J1.81
G1 X177.857 Y48.395
G2 X173.34 Y47.398 I-3.158 J3.58
G1 X173.303 Y47.41
G2 X172.244 Y47.858 I1.458 J4.911
X171.297 Y48.543 I2.539 J4.514
X170.518 Y49.43 I3.519 J3.875
X169.95 Y50.48 I4.34 J3.024
X169.628 Y51.642 I4.957 J2.001
X169.56 Y52.496 I5.333 J0.854
X169.572 Y52.858 I5.401 J0
X169.791 Y54.069 I5.445 J-0.36
X170.28 Y55.212 I5.28 J-1.581
X171.018 Y56.228 I4.843 J-2.746
X171.973 Y57.061 I4.15 J-3.794
X173.102 Y57.666 I3.231 J-4.669
X174.348 Y58.008 I2.13 J-5.324
X175.246 Y58.078 I0.898 J-5.719
X175.652 Y58.064 I0 J-5.789
X176.947 Y57.825 I-0.404 J-5.831
X178.169 Y57.299 I-1.709 J-5.647
X179.252 Y56.506 I-2.953 J-5.173
X180.139 Y55.483 I-4.069 J-4.425
X180.782 Y54.277 I-4.999 J-3.438
G1 X180.803 Y54.224
G2 X181.136 Y52.995 I-5.281 J-2.09
G1 X181.25 Y52.25
G3 X168.75 Y52.25 I-6.25 J0
X181.25 Y52.25 I6.25 J0
G1 X181.06
X175.524
X175.503 Y52.226
G3 X175.131 Y55.052 Z-14.296 I-0.186 J1.413 F333.3
X175.503 Y52.226 Z-15.925 I0.186 J-1.413
X175.131 Y55.052 Z-17.555 I-0.186 J1.413
X175 Y52.25 Z-19 I0.186 J-1.413
G1 X175.048 Y52.239 F1000
X175.073 Y52.228
X175.093 Y52.21
X175.106 Y52.185
X175.119 Y52.143
X175.127 Y52.099
X175.124 Y52.054
X175.112 Y52.011
X175.105 Y51.994
X175.081 Y51.951
X175.048 Y51.913
X175.009 Y51.883
X174.984 Y51.867
X174.927 Y51.838
X174.866 Y51.82
X174.803 Y51.814
X174.787
G2 X174.545 Y51.896 I-0.002 J0.395
G1 X174.483 Y51.943
G2 X174.251 Y52.325 I0.375 J0.49
G1 X174.243 Y52.367
G2 X174.338 Y52.872 I0.718 J0.127
G1 X174.369 Y52.924
G2 X174.852 Y53.308 I0.762 J-0.462
G1 X174.909 Y53.327
G2 X175.629 Y53.304 I0.33 J-1
G1 X175.684 Y53.283
G2 X176.3 Y52.734 I-0.451 J-1.127
G1 X176.327 Y52.684
G2 X176.468 Y51.766 I-1.208 J-0.655
G1 X176.457 Y51.71
G2 X175.93 Y50.822 I-1.506 J0.293
G1 X175.887 Y50.785
G2 X174.819 Y50.395 I-1.081 J1.304
G1 X174.701
G2 X173.04 Y51.307 I-0.015 J1.94
G1 X173.034 Y51.317
G2 X172.718 Y52.238 I1.834 J1.145
G1 X172.715 Y52.263
G2 X172.84 Y53.276 I2.259 J0.236
G1 X172.849 Y53.3
G2 X173.431 Y54.197 I2.237 J-0.815
G1 X173.45 Y54.215
G2 X174.407 Y54.791 I1.73 J-1.791
G1 X174.431 Y54.799
G2 X175.593 Y54.903 I0.806 J-2.471
G1 X175.618 Y54.899
G2 X176.753 Y54.468 I-0.37 J-2.684
G1 X176.774 Y54.454
G2 X177.64 Y53.535 I-1.566 J-2.343
G1 X177.652 Y53.513
G2 X178.045 Y52.262 I-2.526 J-1.479
G1 X178.047 Y52.237
G2 X177.847 Y50.893 I-3.027 J-0.237
G1 X177.838 Y50.87
G2 X177.044 Y49.707 I-2.929 J1.147
G1 X177.025 Y49.69
G2 X175.762 Y48.966 I-2.209 J2.39
G1 X175.738 Y48.959
G2 X174.238 Y48.854 I-0.978 J3.219
G1 X174.213 Y48.858
G2 X172.772 Y49.436 I0.54 J3.431
G1 X172.751 Y49.45
G2 X171.674 Y50.634 I2.043 J2.942
G1 X171.661 Y50.656
G2 X171.193 Y52.238 I3.216 J1.812
G1 X171.192 Y52.263
G2 X171.467 Y53.938 I3.793 J0.237
G1 X171.476 Y53.961
G2 X172.481 Y55.389 I3.619 J-1.479
G1 X172.5 Y55.405
G2 X174.068 Y56.277 I2.687 J-2.988
G1 X174.092 Y56.284
G2 X175.932 Y56.389 I1.148 J-3.964
G1 X175.956 Y56.384
G2 X177.703 Y55.659 I-0.71 J-4.176
G1 X177.723 Y55.645
G2 X179.013 Y54.196 I-2.519 J-3.54
G1 X179.025 Y54.174
G2 X179.569 Y52.262 I-3.904 J-2.144
G1 X179.57 Y52.238
G2 X179.22 Y50.232 I-4.557 J-0.238
G1 X179.21 Y50.209
G2 X177.994 Y48.516 I-4.307 J1.81
G1 X177.857 Y48.395
G2 X173.34 Y47.398 I-3.158 J3.58
G1 X173.303 Y47.41
G2 X172.244 Y47.858 I1.458 J4.911
X171.297 Y48.543 I2.539 J4.514
X170.518 Y49.43 I3.519 J3.875
X169.95 Y50.48 I4.34 J3.024
X169.628 Y51.642 I4.957 J2.001
X169.56 Y52.496 I5.333 J0.854
X169.572 Y52.858 I5.401 J0
X169.791 Y54.069 I5.445 J-0.36
X170.28 Y55.212 I5.28 J-1.581
X171.018 Y56.228 I4.843 J-2.746
X171.973 Y57.061 I4.15 J-3.794
X173.102 Y57.666 I3.231 J-4.669
X174.348 Y58.008 I2.13 J-5.324
X175.246 Y58.078 I0.898 J-5.719
X175.652 Y58.064 I0 J-5.789
X176.947 Y57.825 I-0.404 J-5.831
X178.169 Y57.299 I-1.709 J-5.647
X179.252 Y56.506 I-2.953 J-5.173
X180.139 Y55.483 I-4.069 J-4.425
X180.782 Y54.277 I-4.999 J-3.438
G1 X180.803 Y54.224
G2 X181.136 Y52.995 I-5.281 J-2.09
G1 X181.25 Y52.25
G3 X168.75 Y52.25 I-6.25 J0
X181.25 Y52.25 I6.25 J0
G1 X181.245 Y52.307 Z-18.989
X181.228 Y52.362 Z-18.977
X181.207 Y52.405 Z-18.945
X181.178 Y52.445 Z-18.912
X181.131 Y52.489 Z-18.815
X181.112 Y52.502 Z-18.7
G0 Z15

(2D Pocket5 2)
X76.145 Y248.403
Z15
Z5
G1 Z-3.2 F333.3
G19 G3 Y248.703 Z-3.5 J0.3 K0 F1000
G1 Y253.967
Y273.076
G17 G3 X75.826 Y273.395 I-0.319 J0
G1 X74.174
G3 X73.855 Y273.076 I0 J-0.319
G1 Y253.975
X73.85 Y253.929
X73.834 Y253.885
X73.808 Y253.846
X73.774 Y253.814
X73.734 Y253.791
X72.434 Y253.236
G2 X72.155 Y253.42 I-0.079 J0.184
G1 Y274.776
G2 X72.474 Y275.095 I0.319 J0
G1 X77.526
G2 X77.845 Y274.776 I0 J-0.319
G1 Y253.412
X77.852 Y253.359
X77.872 Y253.311
X77.905 Y253.269
X79.205 Y251.99
G3 X79.545 Y252.132 I0.14 J0.143
G1 Y276.476
G3 X79.226 Y276.795 I-0.319 J0
G1 X70.774
G3 X70.455 Y276.476 I0 J-0.319
G1 Y252.125
X70.452 Y252.09
X70.443 Y252.056
X69.138 Y248.493
G2 X68.75 Y248.562 I-0.188 J0.069
G1 Y278.5
X81.25
Y248.575
G2 X78.51 Y248.025 Z-4.827 I-1.425 J0 F333.3
G1 X76.255 Y253.417 Z-6.809
G2 X76.145 Y253.967 Z-7 I1.315 J0.55
G1 Y273.076 F1000
G3 X75.826 Y273.395 I-0.319 J0
G1 X74.174
G3 X73.855 Y273.076 I0 J-0.319
G1 Y253.975
X73.85 Y253.929
X73.834 Y253.885
X73.808 Y253.846
X73.774 Y253.814
X73.734 Y253.791
X72.434 Y253.236
G2 X72.155 Y253.42 I-0.079 J0.184
G1 Y274.776
G2 X72.474 Y275.095 I0.319 J0
G1 X77.526
G2 X77.845 Y274.776 I0 J-0.319
G1 Y253.412
X77.852 Y253.359
X77.872 Y253.311
X77.905 Y253.269
X79.205 Y251.99
G3 X79.545 Y252.132 I0.14 J0.143
G1 Y276.476
G3 X79.226 Y276.795 I-0.319 J0
G1 X70.774
G3 X70.455 Y276.476 I0 J-0.319
G1 Y252.125
X70.452 Y252.09
X70.443 Y252.056
X69.138 Y248.493
G2 X68.75 Y248.562 I-0.188 J0.069
G1 Y278.5
X81.25
Y248.575
X81.246 Y248.528
X81.012 Y247.046
X81.001 Y246.98 Z-6.992
X80.991 Y246.918 Z-6.97
X80.982 Y246.861 Z-6.935
X80.975 Y246.814 Z-6.887
X80.969 Y246.779 Z-6.83
X80.966 Y246.757 Z-6.767
X80.965 Y246.75 Z-6.7
G0 Z15
X73.643 Y22.288
Z5
G1 Z-3.23 F333.3
X73.637 Y22.287 Z-3.29 F1000
X73.617 Y22.284 Z-3.347
X73.585 Y22.279 Z-3.398
X73.543 Y22.272 Z-3.441
X73.492 Y22.264 Z-3.473
X73.436 Y22.256 Z-3.493
X73.377 Y22.246 Z-3.5
X68.689 Y21.504
X68.642 Y21.5
X67.75
Y278.5
X68.638
X68.685 Y278.496
X70.166 Y278.262
X70.232 Y278.251 Z-3.492
X70.295 Y278.241 Z-3.47
X70.351 Y278.232 Z-3.435
X70.398 Y278.225 Z-3.387
X70.433 Y278.219 Z-3.33
X70.455 Y278.216 Z-3.267
X70.463 Y278.215 Z-3.2
G0 Z15
X76.347 Y277.71
Z5
G1 Z-3.23 F333.3
X76.354 Y277.711 Z-3.29 F1000
X76.374 Y277.714 Z-3.347
X76.405 Y277.719 Z-3.398
X76.448 Y277.726 Z-3.441
X76.498 Y277.734 Z-3.473
X76.555 Y277.743 Z-3.493
X76.614 Y277.752 Z-3.5
X81.311 Y278.496
X81.358 Y278.5
X82.25
Y21.5
X81.362
X81.315 Y21.504
X79.834 Y21.738
X79.768 Y21.749 Z-3.492
X79.705 Y21.759 Z-3.47
X79.649 Y21.768 Z-3.435
X79.602 Y21.775 Z-3.387
X79.567 Y21.781 Z-3.33
X79.545 Y21.784 Z-3.267
X79.537 Y21.785 Z-3.2
G0 Z15
X76.145 Y247.104
Z5
G1 Z-3.2 F333.3
G19 G2 Y246.804 Z-3.5 J-0.3 K0 F1000
G1 Y241.53
Y58.468
X76.15 Y58.422
X76.166 Y58.378
X76.192 Y58.339
X76.226 Y58.308
X76.266 Y58.284
X77.566 Y57.729
G17 G3 X77.845 Y57.913 I0.079 J0.184
G1 Y242.085
X77.852 Y242.137
X77.872 Y242.185
X77.904 Y242.227
X79.204 Y243.522
G2 X79.545 Y243.381 I0.141 J-0.142
G1 Y56.617
X79.548 Y56.581
X79.557 Y56.547
X80.862 Y53.005
G3 X81.25 Y53.075 I0.188 J0.069
G1 Y246.941
G3 X80.928 Y247.099 I-0.2 J0
G1 X73.933 Y241.69
X73.9 Y241.658
X73.875 Y241.62
X73.86 Y241.577
X73.855 Y241.532
Y58.47
X73.85 Y58.423
X73.834 Y58.38
X73.808 Y58.341
X73.774 Y58.309
X73.734 Y58.286
X72.434 Y57.731
G2 X72.155 Y57.915 I-0.079 J0.184
G1 Y242.087
X72.148 Y242.139
X72.128 Y242.188
X72.096 Y242.229
X70.796 Y243.525
G3 X70.455 Y243.383 I-0.141 J-0.142
G1 Y56.619
X70.452 Y56.584
X70.443 Y56.55
X69.138 Y52.991
G2 X68.75 Y53.059 I-0.188 J0.069
G1 Y246.925
G2 X71.49 Y247.475 Z-4.827 I1.425 J0 F333.3
G1 X73.745 Y242.081 Z-6.809
G2 X73.855 Y241.532 Z-7 I-1.315 J-0.55
G1 Y58.47 F1000
X73.85 Y58.423
X73.834 Y58.38
X73.808 Y58.341
X73.774 Y58.309
X73.734 Y58.286
X72.434 Y57.731
G2 X72.155 Y57.915 I-0.079 J0.184
G1 Y242.087
X72.148 Y242.139
X72.128 Y242.188
X72.096 Y242.229
X70.796 Y243.525
G3 X70.455 Y243.383 I-0.141 J-0.142
G1 Y56.619
X70.452 Y56.584
X70.443 Y56.55
X69.138 Y52.991
G2 X68.75 Y53.059 I-0.188 J0.069
G1 Y246.925
G2 X69.072 Y247.084 I0.2 J0
G1 X76.067 Y241.689
X76.1 Y241.657
X76.124 Y241.618
X76.14 Y241.576
X76.145 Y241.53
Y58.468
X76.15 Y58.422
X76.166 Y58.378
X76.192 Y58.339
X76.226 Y58.308
X76.266 Y58.284
X77.566 Y57.729
G3 X77.845 Y57.913 I0.079 J0.184
G1 Y242.085
X77.852 Y242.137
X77.872 Y242.185
X77.904 Y242.227
X79.204 Y243.522
G2 X79.545 Y243.381 I0.141 J-0.142
G1 Y56.617
X79.548 Y56.581
X79.557 Y56.547
X80.862 Y53.005
G3 X81.25 Y53.075 I0.188 J0.069
G1 Y246.941
X81.246 Y246.987
X81.012 Y248.469
X81.001 Y248.535 Z-6.992
X80.991 Y248.598 Z-6.97
X80.982 Y248.654 Z-6.935
X80.975 Y248.701 Z-6.887
X80.969 Y248.736 Z-6.83
X80.966 Y248.758 Z-6.767
X80.965 Y248.765 Z-6.7
G0 Z15
X73.855 Y51.626
Z5
G1 Z-3.2 F333.3
G19 G2 Y51.326 Z-3.5 J-0.3 K0 F1000
G1 Y46.033
Y26.924
G17 G3 X74.174 Y26.605 I0.319 J0
G1 X75.826
G3 X76.145 Y26.924 I0 J0.319
G1 Y46.025
X76.15 Y46.071
X76.166 Y46.115
X76.192 Y46.154
X76.226 Y46.186
X76.266 Y46.209
X77.566 Y46.764
G2 X77.845 Y46.58 I0.079 J-0.184
G1 Y25.224
G2 X77.526 Y24.905 I-0.319 J0
G1 X72.474
G2 X72.155 Y25.224 I0 J0.319
G1 Y46.588
X72.148 Y46.641
X72.128 Y46.689
X72.095 Y46.731
X70.795 Y48.01
G3 X70.455 Y47.868 I-0.14 J-0.143
G1 Y23.524
G3 X70.774 Y23.205 I0.319 J0
G1 X79.226
G3 X79.545 Y23.524 I0 J0.319
G1 Y47.875
X79.548 Y47.91
X79.557 Y47.944
X80.862 Y51.507
G2 X81.25 Y51.438 I0.188 J-0.069
G1 Y21.5
X68.75
Y51.425
G2 X71.49 Y51.975 Z-4.827 I1.425 J0 F333.3
G1 X73.745 Y46.582 Z-6.809
G2 X73.855 Y46.033 Z-7 I-1.315 J-0.55
G1 Y26.924 F1000
G3 X74.174 Y26.605 I0.319 J0
G1 X75.826
G3 X76.145 Y26.924 I0 J0.319
G1 Y46.025
X76.15 Y46.071
X76.166 Y46.115
X76.192 Y46.154
X76.226 Y46.186
X76.266 Y46.209
X77.566 Y46.764
G2 X77.845 Y46.58 I0.079 J-0.184
G1 Y25.224
G2 X77.526 Y24.905 I-0.319 J0
G1 X72.474
G2 X72.155 Y25.224 I0 J0.319
G1 Y46.588
X72.148 Y46.641
X72.128 Y46.689
X72.095 Y46.731
X70.795 Y48.01
G3 X70.455 Y47.868 I-0.14 J-0.143
G1 Y23.524
G3 X70.774 Y23.205 I0.319 J0
G1 X79.226
G3 X79.545 Y23.524 I0 J0.319
G1 Y47.875
X79.548 Y47.91
X79.557 Y47.944
X80.862 Y51.507
G2 X81.25 Y51.438 I0.188 J-0.069
G1 Y21.5
X68.75
Y51.425
X68.754 Y51.472
X68.988 Y52.954
X68.999 Y53.02 Z-6.992
X69.009 Y53.082 Z-6.97
X69.018 Y53.139 Z-6.935
X69.025 Y53.186 Z-6.887
X69.031 Y53.221 Z-6.83
X69.034 Y53.243 Z-6.767
X69.035 Y53.25 Z-6.7
G0 Z15

(2D Pocket5 5)
X173.855 Y51.626
Z15
Z5
G1 Z-3.2 F333.3
G19 G2 Y51.326 Z-3.5 J-0.3 K0 F1000
G1 Y46.033
Y26.924
G17 G3 X174.174 Y26.605 I0.319 J0
G1 X175.826
G3 X176.145 Y26.924 I0 J0.319
G1 Y46.025
G3 X175.976 Y46.222 I-0.2 J0
G1 X172.386 Y46.786
G3 X172.155 Y46.588 I-0.031 J-0.198
G1 Y25.224
G3 X172.474 Y24.905 I0.319 J0
G1 X177.526
G3 X177.845 Y25.224 I0 J0.319
G1 Y46.58
G3 X177.681 Y46.777 I-0.2 J0
G1 X170.691 Y48.064
G3 X170.455 Y47.868 I-0.036 J-0.197
G1 Y23.524
G3 X170.774 Y23.205 I0.319 J0
G1 X179.226
G3 X179.545 Y23.524 I0 J0.319
G1 Y47.875
X179.539 Y47.925
X179.521 Y47.971
X179.492 Y48.011
X179.454 Y48.043
X179.41 Y48.065
X169.015 Y51.615
G3 X168.75 Y51.425 I-0.065 J-0.189
G1 Y21.5
X181.25
Y51.438
G3 X178.734 Y52.355 Z-4.556 I-1.425 J0 F333.3
G1 X174.189 Y46.95 Z-6.698
G3 X173.855 Y46.033 Z-7 I1.091 J-0.917
G1 Y26.924 F1000
G3 X174.174 Y26.605 I0.319 J0
G1 X175.826
G3 X176.145 Y26.924 I0 J0.319
G1 Y46.025
G3 X175.976 Y46.222 I-0.2 J0
G1 X172.386 Y46.786
G3 X172.155 Y46.588 I-0.031 J-0.198
G1 Y25.224
G3 X172.474 Y24.905 I0.319 J0
G1 X177.526
G3 X177.845 Y25.224 I0 J0.319
G1 Y46.58
G3 X177.681 Y46.777 I-0.2 J0
G1 X170.691 Y48.064
G3 X170.455 Y47.868 I-0.036 J-0.197
G1 Y23.524
G3 X170.774 Y23.205 I0.319 J0
G1 X179.226
G3 X179.545 Y23.524 I0 J0.319
G1 Y47.875
X179.539 Y47.925
X179.521 Y47.971
X179.492 Y48.011
X179.454 Y48.043
X179.41 Y48.065
X169.015 Y51.615
G3 X168.75 Y51.425 I-0.065 J-0.189
G1 Y21.5
X181.25
Y51.438
X181.246 Y51.485
X181.012 Y52.967
X181.001 Y53.033 Z-6.992
X180.991 Y53.095 Z-6.97
X180.982 Y53.151 Z-6.935
X180.975 Y53.198 Z-6.887
X180.969 Y53.234 Z-6.83
X180.966 Y53.255 Z-6.767
X180.965 Y53.263 Z-6.7
G0 Z15
X173.649 Y277.71
Z5
G1 Z-3.23 F333.3
X173.642 Y277.711 Z-3.29 F1000
X173.622 Y277.714 Z-3.347
X173.591 Y277.719 Z-3.398
X173.548 Y277.726 Z-3.441
X173.498 Y277.734 Z-3.473
X173.441 Y277.743 Z-3.493
X173.382 Y277.752 Z-3.5
X168.685 Y278.496
X168.638 Y278.5
X167.75
Y21.5
X168.642
X168.689 Y21.504
X170.17 Y21.738
X170.236 Y21.749 Z-3.492
X170.299 Y21.759 Z-3.47
X170.355 Y21.768 Z-3.435
X170.402 Y21.775 Z-3.387
X170.437 Y21.781 Z-3.33
X170.459 Y21.784 Z-3.267
X170.467 Y21.785 Z-3.2
G0 Z15
X176.342 Y22.291
Z5
G1 Z-3.23 F333.3
X176.348 Y22.29 Z-3.29 F1000
X176.368 Y22.287 Z-3.347
X176.4 Y22.282 Z-3.398
X176.442 Y22.276 Z-3.441
X176.493 Y22.268 Z-3.473
X176.549 Y22.259 Z-3.493
X176.608 Y22.249 Z-3.5
X181.315 Y21.504
X181.362 Y21.5
X182.25
Y278.5
X181.358
X181.311 Y278.496
X179.83 Y278.262
X179.764 Y278.251 Z-3.492
X179.701 Y278.241 Z-3.47
X179.645 Y278.232 Z-3.435
X179.598 Y278.225 Z-3.387
X179.563 Y278.219 Z-3.33
X179.541 Y278.216 Z-3.267
X179.533 Y278.215 Z-3.2
G0 Z15
X173.855 Y247.125
Z5
G1 Z-3.2 F333.3
G19 G2 Y246.825 Z-3.5 J-0.3 K0 F1000
G1 Y241.532
Y58.47
G17 G3 X174.055 Y58.27 I0.2 J0
G1 X175.945 Y58.268
G3 X176.145 Y58.468 I0 J0.2
G1 Y241.53
G3 X175.976 Y241.728 I-0.2 J0
G1 X172.386 Y242.285
G3 X172.155 Y242.087 I-0.031 J-0.198
G1 Y57.915
G3 X172.355 Y57.715 I0.2 J0
G1 X177.645 Y57.713
G3 X177.845 Y57.913 I0 J0.2
G1 Y242.085
G3 X177.682 Y242.282 I-0.2 J0
G1 X170.692 Y243.58
G3 X170.455 Y243.383 I-0.037 J-0.197
G1 Y56.619
G3 X170.655 Y56.419 I0.2 J0
G1 X179.345 Y56.417
G3 X179.545 Y56.617 I0 J0.2
G1 Y243.381
X179.539 Y243.43
X179.521 Y243.476
X179.492 Y243.516
X179.454 Y243.548
X179.41 Y243.57
X169.015 Y247.115
G3 X168.75 Y246.925 I-0.065 J-0.189
G1 Y53.076
G3 X168.95 Y52.876 I0.2 J0
G1 X181.05 Y52.875
G3 X181.25 Y53.075 I0 J0.2
G1 Y246.924
G3 X178.735 Y247.842 Z-4.556 I-1.425 J0 F333.3
G1 X174.19 Y242.45 Z-6.697
G3 X173.855 Y241.532 Z-7 I1.09 J-0.918
G1 Y58.47 F1000
G3 X174.055 Y58.27 I0.2 J0
G1 X175.945 Y58.268
G3 X176.145 Y58.468 I0 J0.2
G1 Y241.53
G3 X175.976 Y241.728 I-0.2 J0
G1 X172.386 Y242.285
G3 X172.155 Y242.087 I-0.031 J-0.198
G1 Y57.915
G3 X172.355 Y57.715 I0.2 J0
G1 X177.645 Y57.713
G3 X177.845 Y57.913 I0 J0.2
G1 Y242.085
G3 X177.682 Y242.282 I-0.2 J0
G1 X170.692 Y243.58
G3 X170.455 Y243.383 I-0.037 J-0.197
G1 Y56.619
G3 X170.655 Y56.419 I0.2 J0
G1 X179.345 Y56.417
G3 X179.545 Y56.617 I0 J0.2
G1 Y243.381
X179.539 Y243.43
X179.521 Y243.476
X179.492 Y243.516
X179.454 Y243.548
X179.41 Y243.57
X169.015 Y247.115
G3 X168.75 Y246.925 I-0.065 J-0.189
G1 Y53.076
G3 X168.95 Y52.876 I0.2 J0
G1 X181.05 Y52.875
G3 X181.25 Y53.075 I0 J0.2
G1 Y246.924
X181.246 Y246.971
X181.012 Y248.452
X181.001 Y248.518 Z-6.992
X180.991 Y248.581 Z-6.97
X180.982 Y248.637 Z-6.935
X180.975 Y248.684 Z-6.887
X180.969 Y248.719 Z-6.83
X180.966 Y248.741 Z-6.767
X180.965 Y248.748 Z-6.7
G0 Z15
X176.145 Y248.403
Z5
G1 Z-3.2 F333.3
G19 G3 Y248.703 Z-3.5 J0.3 K0 F1000
G1 Y253.967
Y273.076
G17 G3 X175.826 Y273.395 I-0.319 J0
G1 X174.174
G3 X173.855 Y273.076 I0 J-0.319
G1 Y253.975
G3 X174.024 Y253.778 I0.2 J0
G1 X177.614 Y253.214
G3 X177.845 Y253.412 I0.031 J0.198
G1 Y274.776
G3 X177.526 Y275.095 I-0.319 J0
G1 X172.474
G3 X172.155 Y274.776 I0 J-0.319
G1 Y253.42
G3 X172.319 Y253.223 I0.2 J0
G1 X179.309 Y251.936
G3 X179.545 Y252.132 I0.036 J0.197
G1 Y276.476
G3 X179.226 Y276.795 I-0.319 J0
G1 X170.774
G3 X170.455 Y276.476 I0 J-0.319
G1 Y252.125
X170.461 Y252.075
X170.479 Y252.029
X170.508 Y251.989
X170.546 Y251.957
X170.59 Y251.935
X180.985 Y248.385
G3 X181.25 Y248.575 I0.065 J0.189
G1 Y278.5
X168.75
Y248.562
G3 X171.266 Y247.645 Z-4.556 I1.425 J0 F333.3
G1 X175.811 Y253.05 Z-6.698
G3 X176.145 Y253.967 Z-7 I-1.091 J0.917
G1 Y273.076 F1000
G3 X175.826 Y273.395 I-0.319 J0
G1 X174.174
G3 X173.855 Y273.076 I0 J-0.319
G1 Y253.975
G3 X174.024 Y253.778 I0.2 J0
G1 X177.614 Y253.214
G3 X177.845 Y253.412 I0.031 J0.198
G1 Y274.776
G3 X177.526 Y275.095 I-0.319 J0
G1 X172.474
G3 X172.155 Y274.776 I0 J-0.319
G1 Y253.42
G3 X172.319 Y253.223 I0.2 J0
G1 X179.309 Y251.936
G3 X179.545 Y252.132 I0.036 J0.197
G1 Y276.476
G3 X179.226 Y276.795 I-0.319 J0
G1 X170.774
G3 X170.455 Y276.476 I0 J-0.319
G1 Y252.125
X170.461 Y252.075
X170.479 Y252.029
X170.508 Y251.989
X170.546 Y251.957
X170.59 Y251.935
X180.985 Y248.385
G3 X181.25 Y248.575 I0.065 J0.189
G1 Y278.5
X168.75
Y248.562
X168.754 Y248.515
X168.988 Y247.033
X168.999 Y246.967 Z-6.992
X169.009 Y246.905 Z-6.97
X169.018 Y246.849 Z-6.935
X169.025 Y246.802 Z-6.887
X169.031 Y246.766 Z-6.83
X169.034 Y246.745 Z-6.767
X169.035 Y246.737 Z-6.7
G0 Z15

(2D Contour3)
X124.7 Y302.4
Z15
Z5
G1 Z-6.2 F333.3
G19 G2 Y302.1 Z-6.5 J-0.3 K0 F1000
G1 Y301.8
G17 G3 X125 Y301.5 I0.3 J0
G1 X250
G2 X251.5 Y300 I0 J-1.5
G1 Y0
G2 X250 Y-1.5 I-1.5 J0
G1 X0
G2 X-1.5 Y0 I0 J1.5
G1 Y300
G2 X0 Y301.5 I1.5 J0
G1 X125
G3 X125.3 Y301.8 I0 J0.3
G1 Y302.1
G19 G3 Y302.4 Z-6.2 J0 K0.3
G1 X124.7
Z-12.7 F333.3
G2 Y302.1 Z-13 J-0.3 K0 F1000
G1 Y301.8
G17 G3 X125 Y301.5 I0.3 J0
G1 X250
G2 X251.5 Y300 I0 J-1.5
G1 Y0
G2 X250 Y-1.5 I-1.5 J0
G1 X0
G2 X-1.5 Y0 I0 J1.5
G1 Y300
G2 X0 Y301.5 I1.5 J0
G1 X125
G3 X125.3 Y301.8 I0 J0.3
G1 Y302.1
G19 G3 Y302.4 Z-12.7 J0 K0.3
G1 X124.7
Z-18.7 F333.3
G2 Y302.1 Z-19 J-0.3 K0 F1000
G1 Y301.8
G17 G3 X125 Y301.5 I0.3 J0
G1 X250
G2 X251.5 Y300 I0 J-1.5
G1 Y0
G2 X250 Y-1.5 I-1.5 J0
G1 X0
G2 X-1.5 Y0 I0 J1.5
G1 Y300
G2 X0 Y301.5 I1.5 J0
G1 X125
G3 X125.3 Y301.8 I0 J0.3
G1 Y302.1
G19 G3 Y302.4 Z-18.7 J0 K0.3
G0 Z15
G17
M9
M5
M30
