(TischVersteifung)
(T4 D=5 CR=0 - ZMIN=-25 - flat end mill)
G90 G94
G17
G21
(-Attention- Property Safe Retracts is set to Clearance Height.)
(Ensure the clearance height will clear the part and or fixtures.)
(Raise the Z-axis to a safe height before starting the program.)

(2D Pocket1)
T4
S5000 M3
G17 G90 G94
G54
M8
G0 X1.711 Y14.817
Z15
G0 Z5
G1 Z2.5 F333.3
G3 X-1.711 Y11.522 Z2.239 I-1.711 J-1.647
X1.711 Y14.817 Z1.979 I1.711 J1.647
X-1.711 Y11.522 Z1.718 I-1.711 J-1.647
X1.711 Y14.817 Z1.458 I1.711 J1.647
X-1.711 Y11.522 Z1.197 I-1.711 J-1.647
X1.711 Y14.817 Z0.937 I1.711 J1.647
X-1.711 Y11.522 Z0.676 I-1.711 J-1.647
X1.711 Y14.817 Z0.416 I1.711 J1.647
X-1.711 Y11.522 Z0.155 I-1.711 J-1.647
X1.711 Y14.817 Z-0.106 I1.711 J1.647
X-1.711 Y11.522 Z-0.366 I-1.711 J-1.647
X1.711 Y14.817 Z-0.627 I1.711 J1.647
X-1.711 Y11.522 Z-0.887 I-1.711 J-1.647
X1.711 Y14.817 Z-1.148 I1.711 J1.647
X-1.711 Y11.522 Z-1.408 I-1.711 J-1.647
X1.711 Y14.817 Z-1.669 I1.711 J1.647
X-1.711 Y11.522 Z-1.929 I-1.711 J-1.647
X1.711 Y14.817 Z-2.19 I1.711 J1.647
X-1.711 Y11.522 Z-2.451 I-1.711 J-1.647
X1.711 Y14.817 Z-2.711 I1.711 J1.647
X0 Y15.544 Z-2.778 I-1.711 J-1.647
G2 X-1.21 Y15.669 I0 J5.956 F1000
G3 X-1.384 Y15.439 I-0.032 J-0.156
G1 X-0.153 Y13.096
G3 X0.153 Y13.096 I0.153 J0.08
G1 X1.384 Y15.439
G3 X1.21 Y15.669 I-0.141 J0.074
G2 X0 Y15.544 I-1.21 J5.831
X-1.412 Y16.607 I0 J1.469
G3 X-2.436 Y18.048 I-2.559 J-0.735
G2 X-3.74 Y19.535 I2.436 J3.452
G1 X-195.465 Y384.442
G2 X-191.725 Y390.632 I3.74 J1.965
G1 X191.725
G2 X195.465 Y384.442 I0 J-4.225
G1 X3.74 Y19.535
G2 X-2.436 Y18.048 I-3.74 J1.965
X-2.861 Y19.789 I0.787 J1.115
G3 X-2.867 Y21.582 I-1.723 J0.891
G1 X-193.938 Y385.244
G2 X-191.725 Y388.907 I2.213 J1.163
G1 X191.725
G2 X193.938 Y385.244 I0 J-2.5
G1 X2.213 Y20.337
G2 X-2.213 Y20.337 I-2.213 J1.163
G1 X-2.867 Y21.582
G3 X-3.243 Y21.467 I-0.177 J-0.093
G1 X-2.364 Y13.516
X-2.356 Y13.479
X-2.342 Y13.445
X-0.153 Y9.278
G3 X0.153 Y9.278 I0.153 J0.08
G1 X201.209 Y391.946
G3 X201.04 Y392.227 I-0.17 J0.089
G1 X-201.04
G3 X-201.209 Y391.946 I0 J-0.192
G1 X-2.644 Y14.019
X-2.342 Y13.445
G2 X-2.5 Y11.939 I-1.208 J-0.635
G3 X-2.657 Y10.433 I1.051 J-0.871
G1 X0 Y5.375
X204.137 Y393.907
X-204.137
X-198.364 Y382.919
X-2.657 Y10.433
G3 X-2.412 Y10.338 I0.177 J0.093
G1 X1.971 Y11.927
X2.013 Y11.949
X2.05 Y11.98
X2.077 Y12.018
G3 X-2.077 Y14.32 Z-3.038 I-2.077 J1.151 F333.3
X2.077 Y12.018 Z-3.299 I2.077 J-1.151
X-2.077 Y14.32 Z-3.559 I-2.077 J1.151
X2.077 Y12.018 Z-3.82 I2.077 J-1.151
X-2.077 Y14.32 Z-4.081 I-2.077 J1.151
X2.077 Y12.018 Z-4.341 I2.077 J-1.151
X-2.077 Y14.32 Z-4.602 I-2.077 J1.151
X2.077 Y12.018 Z-4.862 I2.077 J-1.151
X-2.077 Y14.32 Z-5.123 I-2.077 J1.151
X2.077 Y12.018 Z-5.383 I2.077 J-1.151
X0 Y15.544 Z-5.556 I-2.077 J1.151
G2 X-1.21 Y15.669 I0 J5.956 F1000
G3 X-1.384 Y15.439 I-0.032 J-0.156
G1 X-0.153 Y13.096
G3 X0.153 Y13.096 I0.153 J0.08
G1 X1.384 Y15.439
G3 X1.21 Y15.669 I-0.141 J0.074
G2 X0 Y15.544 I-1.21 J5.831
X-1.412 Y16.607 I0 J1.469
G3 X-2.436 Y18.048 I-2.559 J-0.735
G2 X-3.74 Y19.535 I2.436 J3.452
G1 X-195.465 Y384.442
G2 X-191.725 Y390.632 I3.74 J1.965
G1 X191.725
G2 X195.465 Y384.442 I0 J-4.225
G1 X3.74 Y19.535
G2 X-2.436 Y18.048 I-3.74 J1.965
X-2.861 Y19.789 I0.787 J1.115
G3 X-2.867 Y21.582 I-1.723 J0.891
G1 X-193.938 Y385.244
G2 X-191.725 Y388.907 I2.213 J1.163
G1 X191.725
G2 X193.938 Y385.244 I0 J-2.5
G1 X2.213 Y20.337
G2 X-2.213 Y20.337 I-2.213 J1.163
G1 X-2.867 Y21.582
G3 X-3.243 Y21.467 I-0.177 J-0.093
G1 X-2.364 Y13.516
X-2.356 Y13.479
X-2.342 Y13.445
X-0.153 Y9.278
G3 X0.153 Y9.278 I0.153 J0.08
G1 X201.209 Y391.946
G3 X201.04 Y392.227 I-0.17 J0.089
G1 X-201.04
G3 X-201.209 Y391.946 I0 J-0.192
G1 X-2.644 Y14.019
X-2.342 Y13.445
G2 X-2.5 Y11.939 I-1.208 J-0.635
G3 X-2.657 Y10.433 I1.051 J-0.871
G1 X0 Y5.375
X204.137 Y393.907
X-204.137
X-198.364 Y382.919
X-2.657 Y10.433
G3 X-2.412 Y10.338 I0.177 J0.093
G1 X1.971 Y11.927
X2.013 Y11.949
X2.05 Y11.98
X2.077 Y12.018
G3 X-2.077 Y14.32 Z-5.816 I-2.077 J1.151 F333.3
X2.077 Y12.018 Z-6.077 I2.077 J-1.151
X-2.077 Y14.32 Z-6.337 I-2.077 J1.151
X2.077 Y12.018 Z-6.598 I2.077 J-1.151
X-2.077 Y14.32 Z-6.858 I-2.077 J1.151
X2.077 Y12.018 Z-7.119 I2.077 J-1.151
X-2.077 Y14.32 Z-7.379 I-2.077 J1.151
X2.077 Y12.018 Z-7.64 I2.077 J-1.151
X-2.077 Y14.32 Z-7.901 I-2.077 J1.151
X2.077 Y12.018 Z-8.161 I2.077 J-1.151
X0 Y15.544 Z-8.333 I-2.077 J1.151
G2 X-1.21 Y15.669 I0 J5.956 F1000
G3 X-1.384 Y15.439 I-0.032 J-0.156
G1 X-0.153 Y13.096
G3 X0.153 Y13.096 I0.153 J0.08
G1 X1.384 Y15.439
G3 X1.21 Y15.669 I-0.141 J0.074
G2 X0 Y15.544 I-1.21 J5.831
X-1.412 Y16.607 I0 J1.469
G3 X-2.436 Y18.048 I-2.559 J-0.735
G2 X-3.74 Y19.535 I2.436 J3.452
G1 X-195.465 Y384.442
G2 X-191.725 Y390.632 I3.74 J1.965
G1 X191.725
G2 X195.465 Y384.442 I0 J-4.225
G1 X3.74 Y19.535
G2 X-2.436 Y18.048 I-3.74 J1.965
X-2.861 Y19.789 I0.787 J1.115
G3 X-2.867 Y21.582 I-1.723 J0.891
G1 X-193.938 Y385.244
G2 X-191.725 Y388.907 I2.213 J1.163
G1 X191.725
G2 X193.938 Y385.244 I0 J-2.5
G1 X2.213 Y20.337
G2 X-2.213 Y20.337 I-2.213 J1.163
G1 X-2.867 Y21.582
G3 X-3.243 Y21.467 I-0.177 J-0.093
G1 X-2.364 Y13.516
X-2.356 Y13.479
X-2.342 Y13.445
X-0.153 Y9.278
G3 X0.153 Y9.278 I0.153 J0.08
G1 X201.209 Y391.946
G3 X201.04 Y392.227 I-0.17 J0.089
G1 X-201.04
G3 X-201.209 Y391.946 I0 J-0.192
G1 X-2.644 Y14.019
X-2.342 Y13.445
G2 X-2.5 Y11.939 I-1.208 J-0.635
G3 X-2.657 Y10.433 I1.051 J-0.871
G1 X0 Y5.375
X204.137 Y393.907
X-204.137
X-198.364 Y382.919
X-2.657 Y10.433
G3 X-2.412 Y10.338 I0.177 J0.093
G1 X1.971 Y11.927
X2.013 Y11.949
X2.05 Y11.98
X2.077 Y12.018
G3 X-2.077 Y14.32 Z-8.594 I-2.077 J1.151 F333.3
X2.077 Y12.018 Z-8.854 I2.077 J-1.151
X-2.077 Y14.32 Z-9.115 I-2.077 J1.151
X2.077 Y12.018 Z-9.376 I2.077 J-1.151
X-2.077 Y14.32 Z-9.636 I-2.077 J1.151
X2.077 Y12.018 Z-9.897 I2.077 J-1.151
X-2.077 Y14.32 Z-10.157 I-2.077 J1.151
X2.077 Y12.018 Z-10.418 I2.077 J-1.151
X-2.077 Y14.32 Z-10.678 I-2.077 J1.151
X2.077 Y12.018 Z-10.939 I2.077 J-1.151
X0 Y15.544 Z-11.111 I-2.077 J1.151
G2 X-1.21 Y15.669 I0 J5.956 F1000
G3 X-1.384 Y15.439 I-0.032 J-0.156
G1 X-0.153 Y13.096
G3 X0.153 Y13.096 I0.153 J0.08
G1 X1.384 Y15.439
G3 X1.21 Y15.669 I-0.141 J0.074
G2 X0 Y15.544 I-1.21 J5.831
X-1.412 Y16.607 I0 J1.469
G3 X-2.436 Y18.048 I-2.559 J-0.735
G2 X-3.74 Y19.535 I2.436 J3.452
G1 X-195.465 Y384.442
G2 X-191.725 Y390.632 I3.74 J1.965
G1 X191.725
G2 X195.465 Y384.442 I0 J-4.225
G1 X3.74 Y19.535
G2 X-2.436 Y18.048 I-3.74 J1.965
X-2.861 Y19.789 I0.787 J1.115
G3 X-2.867 Y21.582 I-1.723 J0.891
G1 X-193.938 Y385.244
G2 X-191.725 Y388.907 I2.213 J1.163
G1 X191.725
G2 X193.938 Y385.244 I0 J-2.5
G1 X2.213 Y20.337
G2 X-2.213 Y20.337 I-2.213 J1.163
G1 X-2.867 Y21.582
G3 X-3.243 Y21.467 I-0.177 J-0.093
G1 X-2.364 Y13.516
X-2.356 Y13.479
X-2.342 Y13.445
X-0.153 Y9.278
G3 X0.153 Y9.278 I0.153 J0.08
G1 X201.209 Y391.946
G3 X201.04 Y392.227 I-0.17 J0.089
G1 X-201.04
G3 X-201.209 Y391.946 I0 J-0.192
G1 X-2.644 Y14.019
X-2.342 Y13.445
G2 X-2.5 Y11.939 I-1.208 J-0.635
G3 X-2.657 Y10.433 I1.051 J-0.871
G1 X0 Y5.375
X204.137 Y393.907
X-204.137
X-198.364 Y382.919
X-2.657 Y10.433
G3 X-2.412 Y10.338 I0.177 J0.093
G1 X1.971 Y11.927
X2.013 Y11.949
X2.05 Y11.98
X2.077 Y12.018
G3 X-2.077 Y14.32 Z-11.372 I-2.077 J1.151 F333.3
X2.077 Y12.018 Z-11.632 I2.077 J-1.151
X-2.077 Y14.32 Z-11.893 I-2.077 J1.151
X2.077 Y12.018 Z-12.153 I2.077 J-1.151
X-2.077 Y14.32 Z-12.414 I-2.077 J1.151
X2.077 Y12.018 Z-12.674 I2.077 J-1.151
X-2.077 Y14.32 Z-12.935 I-2.077 J1.151
X2.077 Y12.018 Z-13.196 I2.077 J-1.151
X-2.077 Y14.32 Z-13.456 I-2.077 J1.151
X2.077 Y12.018 Z-13.717 I2.077 J-1.151
X0 Y15.544 Z-13.889 I-2.077 J1.151
G2 X-1.21 Y15.669 I0 J5.956 F1000
G3 X-1.384 Y15.439 I-0.032 J-0.156
G1 X-0.153 Y13.096
G3 X0.153 Y13.096 I0.153 J0.08
G1 X1.384 Y15.439
G3 X1.21 Y15.669 I-0.141 J0.074
G2 X0 Y15.544 I-1.21 J5.831
X-1.412 Y16.607 I0 J1.469
G3 X-2.436 Y18.048 I-2.559 J-0.735
G2 X-3.74 Y19.535 I2.436 J3.452
G1 X-195.465 Y384.442
G2 X-191.725 Y390.632 I3.74 J1.965
G1 X191.725
G2 X195.465 Y384.442 I0 J-4.225
G1 X3.74 Y19.535
G2 X-2.436 Y18.048 I-3.74 J1.965
X-2.861 Y19.789 I0.787 J1.115
G3 X-2.867 Y21.582 I-1.723 J0.891
G1 X-193.938 Y385.244
G2 X-191.725 Y388.907 I2.213 J1.163
G1 X191.725
G2 X193.938 Y385.244 I0 J-2.5
G1 X2.213 Y20.337
G2 X-2.213 Y20.337 I-2.213 J1.163
G1 X-2.867 Y21.582
G3 X-3.243 Y21.467 I-0.177 J-0.093
G1 X-2.364 Y13.516
X-2.356 Y13.479
X-2.342 Y13.445
X-0.153 Y9.278
G3 X0.153 Y9.278 I0.153 J0.08
G1 X201.209 Y391.946
G3 X201.04 Y392.227 I-0.17 J0.089
G1 X-201.04
G3 X-201.209 Y391.946 I0 J-0.192
G1 X-2.644 Y14.019
X-2.342 Y13.445
G2 X-2.5 Y11.939 I-1.208 J-0.635
G3 X-2.657 Y10.433 I1.051 J-0.871
G1 X0 Y5.375
X204.137 Y393.907
X-204.137
X-198.364 Y382.919
X-2.657 Y10.433
G3 X-2.412 Y10.338 I0.177 J0.093
G1 X1.971 Y11.927
X2.013 Y11.949
X2.05 Y11.98
X2.077 Y12.018
G3 X-2.077 Y14.32 Z-14.149 I-2.077 J1.151 F333.3
X2.077 Y12.018 Z-14.41 I2.077 J-1.151
X-2.077 Y14.32 Z-14.671 I-2.077 J1.151
X2.077 Y12.018 Z-14.931 I2.077 J-1.151
X-2.077 Y14.32 Z-15.192 I-2.077 J1.151
X2.077 Y12.018 Z-15.452 I2.077 J-1.151
X-2.077 Y14.32 Z-15.713 I-2.077 J1.151
X2.077 Y12.018 Z-15.973 I2.077 J-1.151
X-2.077 Y14.32 Z-16.234 I-2.077 J1.151
X2.077 Y12.018 Z-16.494 I2.077 J-1.151
X0 Y15.544 Z-16.667 I-2.077 J1.151
G2 X-1.21 Y15.669 I0 J5.956 F1000
G3 X-1.384 Y15.439 I-0.032 J-0.156
G1 X-0.153 Y13.096
G3 X0.153 Y13.096 I0.153 J0.08
G1 X1.384 Y15.439
G3 X1.21 Y15.669 I-0.141 J0.074
G2 X0 Y15.544 I-1.21 J5.831
X-1.412 Y16.607 I0 J1.469
G3 X-2.436 Y18.048 I-2.559 J-0.735
G2 X-3.74 Y19.535 I2.436 J3.452
G1 X-195.465 Y384.442
G2 X-191.725 Y390.632 I3.74 J1.965
G1 X191.725
G2 X195.465 Y384.442 I0 J-4.225
G1 X3.74 Y19.535
G2 X-2.436 Y18.048 I-3.74 J1.965
X-2.861 Y19.789 I0.787 J1.115
G3 X-2.867 Y21.582 I-1.723 J0.891
G1 X-193.938 Y385.244
G2 X-191.725 Y388.907 I2.213 J1.163
G1 X191.725
G2 X193.938 Y385.244 I0 J-2.5
G1 X2.213 Y20.337
G2 X-2.213 Y20.337 I-2.213 J1.163
G1 X-2.867 Y21.582
G3 X-3.243 Y21.467 I-0.177 J-0.093
G1 X-2.364 Y13.516
X-2.356 Y13.479
X-2.342 Y13.445
X-0.153 Y9.278
G3 X0.153 Y9.278 I0.153 J0.08
G1 X201.209 Y391.946
G3 X201.04 Y392.227 I-0.17 J0.089
G1 X-201.04
G3 X-201.209 Y391.946 I0 J-0.192
G1 X-2.644 Y14.019
X-2.342 Y13.445
G2 X-2.5 Y11.939 I-1.208 J-0.635
G3 X-2.657 Y10.433 I1.051 J-0.871
G1 X0 Y5.375
X204.137 Y393.907
X-204.137
X-198.364 Y382.919
X-2.657 Y10.433
G3 X-2.412 Y10.338 I0.177 J0.093
G1 X1.971 Y11.927
X2.013 Y11.949
X2.05 Y11.98
X2.077 Y12.018
G3 X-2.077 Y14.32 Z-16.927 I-2.077 J1.151 F333.3
X2.077 Y12.018 Z-17.188 I2.077 J-1.151
X-2.077 Y14.32 Z-17.448 I-2.077 J1.151
X2.077 Y12.018 Z-17.709 I2.077 J-1.151
X-2.077 Y14.32 Z-17.969 I-2.077 J1.151
X2.077 Y12.018 Z-18.23 I2.077 J-1.151
X-2.077 Y14.32 Z-18.491 I-2.077 J1.151
X2.077 Y12.018 Z-18.751 I2.077 J-1.151
X-2.077 Y14.32 Z-19.012 I-2.077 J1.151
X2.077 Y12.018 Z-19.272 I2.077 J-1.151
X0 Y15.544 Z-19.444 I-2.077 J1.151
G2 X-1.21 Y15.669 I0 J5.956 F1000
G3 X-1.384 Y15.439 I-0.032 J-0.156
G1 X-0.153 Y13.096
G3 X0.153 Y13.096 I0.153 J0.08
G1 X1.384 Y15.439
G3 X1.21 Y15.669 I-0.141 J0.074
G2 X0 Y15.544 I-1.21 J5.831
X-1.412 Y16.607 I0 J1.469
G3 X-2.436 Y18.048 I-2.559 J-0.735
G2 X-3.74 Y19.535 I2.436 J3.452
G1 X-195.465 Y384.442
G2 X-191.725 Y390.632 I3.74 J1.965
G1 X191.725
G2 X195.465 Y384.442 I0 J-4.225
G1 X3.74 Y19.535
G2 X-2.436 Y18.048 I-3.74 J1.965
X-2.861 Y19.789 I0.787 J1.115
G3 X-2.867 Y21.582 I-1.723 J0.891
G1 X-193.938 Y385.244
G2 X-191.725 Y388.907 I2.213 J1.163
G1 X191.725
G2 X193.938 Y385.244 I0 J-2.5
G1 X2.213 Y20.337
G2 X-2.213 Y20.337 I-2.213 J1.163
G1 X-2.867 Y21.582
G3 X-3.243 Y21.467 I-0.177 J-0.093
G1 X-2.364 Y13.516
X-2.356 Y13.479
X-2.342 Y13.445
X-0.153 Y9.278
G3 X0.153 Y9.278 I0.153 J0.08
G1 X201.209 Y391.946
G3 X201.04 Y392.227 I-0.17 J0.089
G1 X-201.04
G3 X-201.209 Y391.946 I0 J-0.192
G1 X-2.644 Y14.019
X-2.342 Y13.445
G2 X-2.5 Y11.939 I-1.208 J-0.635
G3 X-2.657 Y10.433 I1.051 J-0.871
G1 X0 Y5.375
X204.137 Y393.907
X-204.137
X-198.364 Y382.919
X-2.657 Y10.433
G3 X-2.412 Y10.338 I0.177 J0.093
G1 X1.971 Y11.927
X2.013 Y11.949
X2.05 Y11.98
X2.077 Y12.018
G3 X-2.077 Y14.32 Z-19.705 I-2.077 J1.151 F333.3
X2.077 Y12.018 Z-19.966 I2.077 J-1.151
X-2.077 Y14.32 Z-20.226 I-2.077 J1.151
X2.077 Y12.018 Z-20.487 I2.077 J-1.151
X-2.077 Y14.32 Z-20.747 I-2.077 J1.151
X2.077 Y12.018 Z-21.008 I2.077 J-1.151
X-2.077 Y14.32 Z-21.268 I-2.077 J1.151
X2.077 Y12.018 Z-21.529 I2.077 J-1.151
X-2.077 Y14.32 Z-21.789 I-2.077 J1.151
X2.077 Y12.018 Z-22.05 I2.077 J-1.151
X0 Y15.544 Z-22.222 I-2.077 J1.151
G2 X-1.21 Y15.669 I0 J5.956 F1000
G3 X-1.384 Y15.439 I-0.032 J-0.156
G1 X-0.153 Y13.096
G3 X0.153 Y13.096 I0.153 J0.08
G1 X1.384 Y15.439
G3 X1.21 Y15.669 I-0.141 J0.074
G2 X0 Y15.544 I-1.21 J5.831
X-1.412 Y16.607 I0 J1.469
G3 X-2.436 Y18.048 I-2.559 J-0.735
G2 X-3.74 Y19.535 I2.436 J3.452
G1 X-195.465 Y384.442
G2 X-191.725 Y390.632 I3.74 J1.965
G1 X191.725
G2 X195.465 Y384.442 I0 J-4.225
G1 X3.74 Y19.535
G2 X-2.436 Y18.048 I-3.74 J1.965
X-2.861 Y19.789 I0.787 J1.115
G3 X-2.867 Y21.582 I-1.723 J0.891
G1 X-193.938 Y385.244
G2 X-191.725 Y388.907 I2.213 J1.163
G1 X191.725
G2 X193.938 Y385.244 I0 J-2.5
G1 X2.213 Y20.337
G2 X-2.213 Y20.337 I-2.213 J1.163
G1 X-2.867 Y21.582
G3 X-3.243 Y21.467 I-0.177 J-0.093
G1 X-2.364 Y13.516
X-2.356 Y13.479
X-2.342 Y13.445
X-0.153 Y9.278
G3 X0.153 Y9.278 I0.153 J0.08
G1 X201.209 Y391.946
G3 X201.04 Y392.227 I-0.17 J0.089
G1 X-201.04
G3 X-201.209 Y391.946 I0 J-0.192
G1 X-2.644 Y14.019
X-2.342 Y13.445
G2 X-2.5 Y11.939 I-1.208 J-0.635
G3 X-2.657 Y10.433 I1.051 J-0.871
G1 X0 Y5.375
X204.137 Y393.907
X-204.137
X-198.364 Y382.919
X-2.657 Y10.433
G3 X-2.412 Y10.338 I0.177 J0.093
G1 X1.971 Y11.927
X2.013 Y11.949
X2.05 Y11.98
X2.077 Y12.018
G3 X-2.077 Y14.32 Z-22.483 I-2.077 J1.151 F333.3
X2.077 Y12.018 Z-22.743 I2.077 J-1.151
X-2.077 Y14.32 Z-23.004 I-2.077 J1.151
X2.077 Y12.018 Z-23.264 I2.077 J-1.151
X-2.077 Y14.32 Z-23.525 I-2.077 J1.151
X2.077 Y12.018 Z-23.786 I2.077 J-1.151
X-2.077 Y14.32 Z-24.046 I-2.077 J1.151
X2.077 Y12.018 Z-24.307 I2.077 J-1.151
X-2.077 Y14.32 Z-24.567 I-2.077 J1.151
X2.077 Y12.018 Z-24.828 I2.077 J-1.151
X0 Y15.544 Z-25 I-2.077 J1.151
G2 X-1.21 Y15.669 I0 J5.956 F1000
G3 X-1.384 Y15.439 I-0.032 J-0.156
G1 X-0.153 Y13.096
G3 X0.153 Y13.096 I0.153 J0.08
G1 X1.384 Y15.439
G3 X1.21 Y15.669 I-0.141 J0.074
G2 X0 Y15.544 I-1.21 J5.831
X-1.412 Y16.607 I0 J1.469
G3 X-2.436 Y18.048 I-2.559 J-0.735
G2 X-3.74 Y19.535 I2.436 J3.452
G1 X-195.465 Y384.442
G2 X-191.725 Y390.632 I3.74 J1.965
G1 X191.725
G2 X195.465 Y384.442 I0 J-4.225
G1 X3.74 Y19.535
G2 X-2.436 Y18.048 I-3.74 J1.965
X-2.861 Y19.789 I0.787 J1.115
G3 X-2.867 Y21.582 I-1.723 J0.891
G1 X-193.938 Y385.244
G2 X-191.725 Y388.907 I2.213 J1.163
G1 X191.725
G2 X193.938 Y385.244 I0 J-2.5
G1 X2.213 Y20.337
G2 X-2.213 Y20.337 I-2.213 J1.163
G1 X-2.867 Y21.582
G3 X-3.243 Y21.467 I-0.177 J-0.093
G1 X-2.364 Y13.516
X-2.356 Y13.479
X-2.342 Y13.445
X-0.153 Y9.278
G3 X0.153 Y9.278 I0.153 J0.08
G1 X201.209 Y391.946
G3 X201.04 Y392.227 I-0.17 J0.089
G1 X-201.04
G3 X-201.209 Y391.946 I0 J-0.192
G1 X-2.644 Y14.019
X-2.342 Y13.445
G2 X-2.5 Y11.939 I-1.208 J-0.635
G3 X-2.657 Y10.433 I1.051 J-0.871
G1 X0 Y5.375
X204.137 Y393.907
X-204.137
X-198.364 Y382.919
X-2.657 Y10.433
G0 Z15

M9
M5
M30
