(TischVerstarkung_10er)
(T4 D=5 CR=0 - ZMIN=-25 - flat end mill)
G90 G94
G17
G21
(-Attention- Property Safe Retracts is set to Clearance Height.)
(Ensure the clearance height will clear the part and or fixtures.)
(Raise the Z-axis to a safe height before starting the program.)

(10er Schlitz)
T4
S5000 M3
G17 G90 G94
G54
M8
G0 X235.343 Y218.498
Z15
G0 Z5
G1 Z2.5 F333.3
G3 X230.782 Y217.172 Z2.239 I-2.281 J-0.663
X235.343 Y218.498 Z1.979 I2.281 J0.663
X230.782 Y217.172 Z1.718 I-2.281 J-0.663
X235.343 Y218.498 Z1.458 I2.281 J0.663
X230.782 Y217.172 Z1.197 I-2.281 J-0.663
X235.343 Y218.498 Z0.937 I2.281 J0.663
X230.782 Y217.172 Z0.676 I-2.281 J-0.663
X235.343 Y218.498 Z0.416 I2.281 J0.663
X230.782 Y217.172 Z0.155 I-2.281 J-0.663
X235.343 Y218.498 Z-0.106 I2.281 J0.663
X230.782 Y217.172 Z-0.366 I-2.281 J-0.663
X235.343 Y218.498 Z-0.627 I2.281 J0.663
X230.782 Y217.172 Z-0.887 I-2.281 J-0.663
X235.343 Y218.498 Z-1.148 I2.281 J0.663
X230.782 Y217.172 Z-1.408 I-2.281 J-0.663
X235.343 Y218.498 Z-1.669 I2.281 J0.663
X230.782 Y217.172 Z-1.929 I-2.281 J-0.663
X235.343 Y218.498 Z-2.19 I2.281 J0.663
X230.782 Y217.172 Z-2.451 I-2.281 J-0.663
X235.343 Y218.498 Z-2.711 I2.281 J0.663
X234.167 Y219.937 Z-2.778 I-2.281 J-0.663
G1 X233.724 Y220.17 F1000
G3 X233.293 Y220.036 I-0.149 J-0.283
G1 X121.199 Y6.69
G3 X121.334 Y6.259 I0.283 J-0.149
G1 X122.22 Y5.793
G3 X122.651 Y5.928 I0.149 J0.283
G1 X234.745 Y219.273
G3 X234.61 Y219.704 I-0.283 J0.149
G1 X234.167 Y219.937
G2 X233.468 Y221.116 I0.608 J1.158
G3 X232.14 Y221.455 I-0.704 J0.011
G1 X118.782 Y5.702
X123.209 Y3.376
X237.162 Y220.262
X232.735 Y222.588
X232.14 Y221.455
X232.131 Y221.422
X232.138 Y221.388
X232.159 Y221.361
X232.417 Y221.134
X233.995 Y216.602
X234.151 Y215.935
X234.169 Y215.894
X234.198 Y215.86
X234.236 Y215.837
X234.28 Y215.827
X234.325 Y215.831
X234.366 Y215.85
G3 X231.759 Y219.82 Z-3.038 I-1.304 J1.985 F333.3
X234.366 Y215.85 Z-3.299 I1.304 J-1.985
X231.759 Y219.82 Z-3.559 I-1.304 J1.985
X234.366 Y215.85 Z-3.82 I1.304 J-1.985
X231.759 Y219.82 Z-4.081 I-1.304 J1.985
X234.366 Y215.85 Z-4.341 I1.304 J-1.985
X231.759 Y219.82 Z-4.602 I-1.304 J1.985
X234.366 Y215.85 Z-4.862 I1.304 J-1.985
X231.759 Y219.82 Z-5.123 I-1.304 J1.985
X234.366 Y215.85 Z-5.383 I1.304 J-1.985
X234.167 Y219.937 Z-5.556 I-1.304 J1.985
G1 X233.724 Y220.17 F1000
G3 X233.293 Y220.036 I-0.149 J-0.283
G1 X121.199 Y6.69
G3 X121.334 Y6.259 I0.283 J-0.149
G1 X122.22 Y5.793
G3 X122.651 Y5.928 I0.149 J0.283
G1 X234.745 Y219.273
G3 X234.61 Y219.704 I-0.283 J0.149
G1 X234.167 Y219.937
G2 X233.468 Y221.116 I0.608 J1.158
G3 X232.14 Y221.455 I-0.704 J0.011
G1 X118.782 Y5.702
X123.209 Y3.376
X237.162 Y220.262
X232.735 Y222.588
X232.14 Y221.455
X232.131 Y221.422
X232.138 Y221.388
X232.159 Y221.361
X232.417 Y221.134
X233.995 Y216.602
X234.151 Y215.935
X234.169 Y215.894
X234.198 Y215.86
X234.236 Y215.837
X234.28 Y215.827
X234.325 Y215.831
X234.366 Y215.85
G3 X231.759 Y219.82 Z-5.816 I-1.304 J1.985 F333.3
X234.366 Y215.85 Z-6.077 I1.304 J-1.985
X231.759 Y219.82 Z-6.337 I-1.304 J1.985
X234.366 Y215.85 Z-6.598 I1.304 J-1.985
X231.759 Y219.82 Z-6.858 I-1.304 J1.985
X234.366 Y215.85 Z-7.119 I1.304 J-1.985
X231.759 Y219.82 Z-7.379 I-1.304 J1.985
X234.366 Y215.85 Z-7.64 I1.304 J-1.985
X231.759 Y219.82 Z-7.901 I-1.304 J1.985
X234.366 Y215.85 Z-8.161 I1.304 J-1.985
X234.167 Y219.937 Z-8.333 I-1.304 J1.985
G1 X233.724 Y220.17 F1000
G3 X233.293 Y220.036 I-0.149 J-0.283
G1 X121.199 Y6.69
G3 X121.334 Y6.259 I0.283 J-0.149
G1 X122.22 Y5.793
G3 X122.651 Y5.928 I0.149 J0.283
G1 X234.745 Y219.273
G3 X234.61 Y219.704 I-0.283 J0.149
G1 X234.167 Y219.937
G2 X233.468 Y221.116 I0.608 J1.158
G3 X232.14 Y221.455 I-0.704 J0.011
G1 X118.782 Y5.702
X123.209 Y3.376
X237.162 Y220.262
X232.735 Y222.588
X232.14 Y221.455
X232.131 Y221.422
X232.138 Y221.388
X232.159 Y221.361
X232.417 Y221.134
X233.995 Y216.602
X234.151 Y215.935
X234.169 Y215.894
X234.198 Y215.86
X234.236 Y215.837
X234.28 Y215.827
X234.325 Y215.831
X234.366 Y215.85
G3 X231.759 Y219.82 Z-8.594 I-1.304 J1.985 F333.3
X234.366 Y215.85 Z-8.854 I1.304 J-1.985
X231.759 Y219.82 Z-9.115 I-1.304 J1.985
X234.366 Y215.85 Z-9.376 I1.304 J-1.985
X231.759 Y219.82 Z-9.636 I-1.304 J1.985
X234.366 Y215.85 Z-9.897 I1.304 J-1.985
X231.759 Y219.82 Z-10.157 I-1.304 J1.985
X234.366 Y215.85 Z-10.418 I1.304 J-1.985
X231.759 Y219.82 Z-10.678 I-1.304 J1.985
X234.366 Y215.85 Z-10.939 I1.304 J-1.985
X234.167 Y219.937 Z-11.111 I-1.304 J1.985
G1 X233.724 Y220.17 F1000
G3 X233.293 Y220.036 I-0.149 J-0.283
G1 X121.199 Y6.69
G3 X121.334 Y6.259 I0.283 J-0.149
G1 X122.22 Y5.793
G3 X122.651 Y5.928 I0.149 J0.283
G1 X234.745 Y219.273
G3 X234.61 Y219.704 I-0.283 J0.149
G1 X234.167 Y219.937
G2 X233.468 Y221.116 I0.608 J1.158
G3 X232.14 Y221.455 I-0.704 J0.011
G1 X118.782 Y5.702
X123.209 Y3.376
X237.162 Y220.262
X232.735 Y222.588
X232.14 Y221.455
X232.131 Y221.422
X232.138 Y221.388
X232.159 Y221.361
X232.417 Y221.134
X233.995 Y216.602
X234.151 Y215.935
X234.169 Y215.894
X234.198 Y215.86
X234.236 Y215.837
X234.28 Y215.827
X234.325 Y215.831
X234.366 Y215.85
G3 X231.759 Y219.82 Z-11.372 I-1.304 J1.985 F333.3
X234.366 Y215.85 Z-11.632 I1.304 J-1.985
X231.759 Y219.82 Z-11.893 I-1.304 J1.985
X234.366 Y215.85 Z-12.153 I1.304 J-1.985
X231.759 Y219.82 Z-12.414 I-1.304 J1.985
X234.366 Y215.85 Z-12.674 I1.304 J-1.985
X231.759 Y219.82 Z-12.935 I-1.304 J1.985
X234.366 Y215.85 Z-13.196 I1.304 J-1.985
X231.759 Y219.82 Z-13.456 I-1.304 J1.985
X234.366 Y215.85 Z-13.717 I1.304 J-1.985
X234.167 Y219.937 Z-13.889 I-1.304 J1.985
G1 X233.724 Y220.17 F1000
G3 X233.293 Y220.036 I-0.149 J-0.283
G1 X121.199 Y6.69
G3 X121.334 Y6.259 I0.283 J-0.149
G1 X122.22 Y5.793
G3 X122.651 Y5.928 I0.149 J0.283
G1 X234.745 Y219.273
G3 X234.61 Y219.704 I-0.283 J0.149
G1 X234.167 Y219.937
G2 X233.468 Y221.116 I0.608 J1.158
G3 X232.14 Y221.455 I-0.704 J0.011
G1 X118.782 Y5.702
X123.209 Y3.376
X237.162 Y220.262
X232.735 Y222.588
X232.14 Y221.455
X232.131 Y221.422
X232.138 Y221.388
X232.159 Y221.361
X232.417 Y221.134
X233.995 Y216.602
X234.151 Y215.935
X234.169 Y215.894
X234.198 Y215.86
X234.236 Y215.837
X234.28 Y215.827
X234.325 Y215.831
X234.366 Y215.85
G3 X231.759 Y219.82 Z-14.149 I-1.304 J1.985 F333.3
X234.366 Y215.85 Z-14.41 I1.304 J-1.985
X231.759 Y219.82 Z-14.671 I-1.304 J1.985
X234.366 Y215.85 Z-14.931 I1.304 J-1.985
X231.759 Y219.82 Z-15.192 I-1.304 J1.985
X234.366 Y215.85 Z-15.452 I1.304 J-1.985
X231.759 Y219.82 Z-15.713 I-1.304 J1.985
X234.366 Y215.85 Z-15.973 I1.304 J-1.985
X231.759 Y219.82 Z-16.234 I-1.304 J1.985
X234.366 Y215.85 Z-16.494 I1.304 J-1.985
X234.167 Y219.937 Z-16.667 I-1.304 J1.985
G1 X233.724 Y220.17 F1000
G3 X233.293 Y220.036 I-0.149 J-0.283
G1 X121.199 Y6.69
G3 X121.334 Y6.259 I0.283 J-0.149
G1 X122.22 Y5.793
G3 X122.651 Y5.928 I0.149 J0.283
G1 X234.745 Y219.273
G3 X234.61 Y219.704 I-0.283 J0.149
G1 X234.167 Y219.937
G2 X233.468 Y221.116 I0.608 J1.158
G3 X232.14 Y221.455 I-0.704 J0.011
G1 X118.782 Y5.702
X123.209 Y3.376
X237.162 Y220.262
X232.735 Y222.588
X232.14 Y221.455
X232.131 Y221.422
X232.138 Y221.388
X232.159 Y221.361
X232.417 Y221.134
X233.995 Y216.602
X234.151 Y215.935
X234.169 Y215.894
X234.198 Y215.86
X234.236 Y215.837
X234.28 Y215.827
X234.325 Y215.831
X234.366 Y215.85
G3 X231.759 Y219.82 Z-16.927 I-1.304 J1.985 F333.3
X234.366 Y215.85 Z-17.188 I1.304 J-1.985
X231.759 Y219.82 Z-17.448 I-1.304 J1.985
X234.366 Y215.85 Z-17.709 I1.304 J-1.985
X231.759 Y219.82 Z-17.969 I-1.304 J1.985
X234.366 Y215.85 Z-18.23 I1.304 J-1.985
X231.759 Y219.82 Z-18.491 I-1.304 J1.985
X234.366 Y215.85 Z-18.751 I1.304 J-1.985
X231.759 Y219.82 Z-19.012 I-1.304 J1.985
X234.366 Y215.85 Z-19.272 I1.304 J-1.985
X234.167 Y219.937 Z-19.444 I-1.304 J1.985
G1 X233.724 Y220.17 F1000
G3 X233.293 Y220.036 I-0.149 J-0.283
G1 X121.199 Y6.69
G3 X121.334 Y6.259 I0.283 J-0.149
G1 X122.22 Y5.793
G3 X122.651 Y5.928 I0.149 J0.283
G1 X234.745 Y219.273
G3 X234.61 Y219.704 I-0.283 J0.149
G1 X234.167 Y219.937
G2 X233.468 Y221.116 I0.608 J1.158
G3 X232.14 Y221.455 I-0.704 J0.011
G1 X118.782 Y5.702
X123.209 Y3.376
X237.162 Y220.262
X232.735 Y222.588
X232.14 Y221.455
X232.131 Y221.422
X232.138 Y221.388
X232.159 Y221.361
X232.417 Y221.134
X233.995 Y216.602
X234.151 Y215.935
X234.169 Y215.894
X234.198 Y215.86
X234.236 Y215.837
X234.28 Y215.827
X234.325 Y215.831
X234.366 Y215.85
G3 X231.759 Y219.82 Z-19.705 I-1.304 J1.985 F333.3
X234.366 Y215.85 Z-19.966 I1.304 J-1.985
X231.759 Y219.82 Z-20.226 I-1.304 J1.985
X234.366 Y215.85 Z-20.487 I1.304 J-1.985
X231.759 Y219.82 Z-20.747 I-1.304 J1.985
X234.366 Y215.85 Z-21.008 I1.304 J-1.985
X231.759 Y219.82 Z-21.268 I-1.304 J1.985
X234.366 Y215.85 Z-21.529 I1.304 J-1.985
X231.759 Y219.82 Z-21.789 I-1.304 J1.985
X234.366 Y215.85 Z-22.05 I1.304 J-1.985
X234.167 Y219.937 Z-22.222 I-1.304 J1.985
G1 X233.724 Y220.17 F1000
G3 X233.293 Y220.036 I-0.149 J-0.283
G1 X121.199 Y6.69
G3 X121.334 Y6.259 I0.283 J-0.149
G1 X122.22 Y5.793
G3 X122.651 Y5.928 I0.149 J0.283
G1 X234.745 Y219.273
G3 X234.61 Y219.704 I-0.283 J0.149
G1 X234.167 Y219.937
G2 X233.468 Y221.116 I0.608 J1.158
G3 X232.14 Y221.455 I-0.704 J0.011
G1 X118.782 Y5.702
X123.209 Y3.376
X237.162 Y220.262
X232.735 Y222.588
X232.14 Y221.455
X232.131 Y221.422
X232.138 Y221.388
X232.159 Y221.361
X232.417 Y221.134
X233.995 Y216.602
X234.151 Y215.935
X234.169 Y215.894
X234.198 Y215.86
X234.236 Y215.837
X234.28 Y215.827
X234.325 Y215.831
X234.366 Y215.85
G3 X231.759 Y219.82 Z-22.483 I-1.304 J1.985 F333.3
X234.366 Y215.85 Z-22.743 I1.304 J-1.985
X231.759 Y219.82 Z-23.004 I-1.304 J1.985
X234.366 Y215.85 Z-23.264 I1.304 J-1.985
X231.759 Y219.82 Z-23.525 I-1.304 J1.985
X234.366 Y215.85 Z-23.786 I1.304 J-1.985
X231.759 Y219.82 Z-24.046 I-1.304 J1.985
X234.366 Y215.85 Z-24.307 I1.304 J-1.985
X231.759 Y219.82 Z-24.567 I-1.304 J1.985
X234.366 Y215.85 Z-24.828 I1.304 J-1.985
X234.167 Y219.937 Z-25 I-1.304 J1.985
G1 X233.724 Y220.17 F1000
G3 X233.293 Y220.036 I-0.149 J-0.283
G1 X121.199 Y6.69
G3 X121.334 Y6.259 I0.283 J-0.149
G1 X122.22 Y5.793
G3 X122.651 Y5.928 I0.149 J0.283
G1 X234.745 Y219.273
G3 X234.61 Y219.704 I-0.283 J0.149
G1 X234.167 Y219.937
G2 X233.468 Y221.116 I0.608 J1.158
G3 X232.14 Y221.455 I-0.704 J0.011
G1 X118.782 Y5.702
X123.209 Y3.376
X237.162 Y220.262
X232.735 Y222.588
X232.14 Y221.455
G0 Z15

M9
M5
M30
