(TischVerstarkung_14er)
(T4 D=5 CR=0 - ZMIN=-25 - flat end mill)
G90 G94
G17
G21
(-Attention- Property Safe Retracts is set to Clearance Height.)
(Ensure the clearance height will clear the part and or fixtures.)
(Raise the Z-axis to a safe height before starting the program.)

(2D Pocket1)
T4
S5000 M3
G17 G90 G94
G54
M8
G0 X-0.438 Y58.805
Z15
G0 Z5
G1 Z2.5 F333.3
G3 X2.805 Y62.275 Z2.239 I1.622 J1.735
X-0.438 Y58.805 Z1.979 I-1.622 J-1.735
X2.805 Y62.275 Z1.718 I1.622 J1.735
X-0.438 Y58.805 Z1.458 I-1.622 J-1.735
X2.805 Y62.275 Z1.197 I1.622 J1.735
X-0.438 Y58.805 Z0.937 I-1.622 J-1.735
X2.805 Y62.275 Z0.676 I1.622 J1.735
X-0.438 Y58.805 Z0.416 I-1.622 J-1.735
X2.805 Y62.275 Z0.155 I1.622 J1.735
X-0.438 Y58.805 Z-0.106 I-1.622 J-1.735
X2.805 Y62.275 Z-0.366 I1.622 J1.735
X-0.438 Y58.805 Z-0.627 I-1.622 J-1.735
X2.805 Y62.275 Z-0.887 I1.622 J1.735
X-0.438 Y58.805 Z-1.148 I-1.622 J-1.735
X2.805 Y62.275 Z-1.408 I1.622 J1.735
X-0.438 Y58.805 Z-1.669 I-1.622 J-1.735
X2.805 Y62.275 Z-1.929 I1.622 J1.735
X-0.438 Y58.805 Z-2.19 I-1.622 J-1.735
X2.805 Y62.275 Z-2.451 I1.622 J1.735
X-0.438 Y58.805 Z-2.711 I-1.622 J-1.735
X2.805 Y62.275 Z-2.972 I1.622 J1.735
X-0.438 Y58.805 Z-3.232 I-1.622 J-1.735
X2.805 Y62.275 Z-3.493 I1.622 J1.735
X-0.438 Y58.805 Z-3.753 I-1.622 J-1.735
X2.805 Y62.275 Z-4.014 I1.622 J1.735
X-0.438 Y58.805 Z-4.274 I-1.622 J-1.735
X2.805 Y62.275 Z-4.535 I1.622 J1.735
X-0.438 Y58.805 Z-4.796 I-1.622 J-1.735
X3.534 Y60.879 Z-5 I1.622 J1.735
G1 X3.302 Y62.488 F1000
G3 X2.94 Y62.759 I-0.316 J-0.046
G1 X-0.278 Y62.294
G3 X-0.548 Y61.933 I0.046 J-0.316
G1 X16.988 Y-59.56
G3 X17.349 Y-59.83 I0.316 J0.046
G1 X20.567 Y-59.366
G3 X20.838 Y-59.004 I-0.046 J0.316
G1 X3.534 Y60.879
G2 X4.659 Y63.239 I2.332 J0.337
G3 X5.783 Y65.599 I-1.208 J2.023
G1 X5.758 Y65.773
G3 X5.396 Y66.043 I-0.316 J-0.046
G1 X-3.562 Y64.75
G3 X-3.833 Y64.389 I0.046 J-0.316
G1 X14.532 Y-62.844
G3 X14.893 Y-63.115 I0.316 J0.046
G1 X23.852 Y-61.822
G3 X24.122 Y-61.46 I-0.046 J0.316
G1 X5.783 Y65.599
G2 X6.497 Y67.316 I1.798 J0.26
G3 X5.787 Y69.035 I-0.572 J0.77
G1 X-7.168 Y67.165
X12.117 Y-66.451
X27.458 Y-64.236
X8.172 Y69.379
X5.787 Y69.035
X5.755 Y69.023
X5.73 Y68.998
X5.719 Y68.965
X5.662 Y68.616
X-0.499 Y61.67
X-0.519 Y61.653
X-0.544 Y61.641
X-0.57 Y61.637
X-0.866 Y61.634
X-0.901 Y61.627
X-0.931 Y61.608
X-0.952 Y61.58
G3 X3.319 Y59.5 Z-5.261 I2.135 J-1.04 F333.3
X-0.952 Y61.58 Z-5.521 I-2.135 J1.04
X3.319 Y59.5 Z-5.782 I2.135 J-1.04
X-0.952 Y61.58 Z-6.042 I-2.135 J1.04
X3.319 Y59.5 Z-6.303 I2.135 J-1.04
X-0.952 Y61.58 Z-6.563 I-2.135 J1.04
X3.319 Y59.5 Z-6.824 I2.135 J-1.04
X-0.952 Y61.58 Z-7.084 I-2.135 J1.04
X3.319 Y59.5 Z-7.345 I2.135 J-1.04
X-0.952 Y61.58 Z-7.606 I-2.135 J1.04
X3.319 Y59.5 Z-7.866 I2.135 J-1.04
X-0.952 Y61.58 Z-8.127 I-2.135 J1.04
X3.319 Y59.5 Z-8.387 I2.135 J-1.04
X-0.952 Y61.58 Z-8.648 I-2.135 J1.04
X3.319 Y59.5 Z-8.908 I2.135 J-1.04
X-0.952 Y61.58 Z-9.169 I-2.135 J1.04
X3.319 Y59.5 Z-9.429 I2.135 J-1.04
X-0.952 Y61.58 Z-9.69 I-2.135 J1.04
X3.319 Y59.5 Z-9.951 I2.135 J-1.04
X3.534 Y60.879 Z-10 I-2.135 J1.04
G1 X3.302 Y62.488 F1000
G3 X2.94 Y62.759 I-0.316 J-0.046
G1 X-0.278 Y62.294
G3 X-0.548 Y61.933 I0.046 J-0.316
G1 X16.988 Y-59.56
G3 X17.349 Y-59.83 I0.316 J0.046
G1 X20.567 Y-59.366
G3 X20.838 Y-59.004 I-0.046 J0.316
G1 X3.534 Y60.879
G2 X4.659 Y63.239 I2.332 J0.337
G3 X5.783 Y65.599 I-1.208 J2.023
G1 X5.758 Y65.773
G3 X5.396 Y66.043 I-0.316 J-0.046
G1 X-3.562 Y64.75
G3 X-3.833 Y64.389 I0.046 J-0.316
G1 X14.532 Y-62.844
G3 X14.893 Y-63.115 I0.316 J0.046
G1 X23.852 Y-61.822
G3 X24.122 Y-61.46 I-0.046 J0.316
G1 X5.783 Y65.599
G2 X6.497 Y67.316 I1.798 J0.26
G3 X5.787 Y69.035 I-0.572 J0.77
G1 X-7.168 Y67.165
X12.117 Y-66.451
X27.458 Y-64.236
X8.172 Y69.379
X5.787 Y69.035
X5.755 Y69.023
X5.73 Y68.998
X5.719 Y68.965
X5.662 Y68.616
X-0.499 Y61.67
X-0.519 Y61.653
X-0.544 Y61.641
X-0.57 Y61.637
X-0.866 Y61.634
X-0.901 Y61.627
X-0.931 Y61.608
X-0.952 Y61.58
G3 X3.319 Y59.5 Z-10.261 I2.135 J-1.04 F333.3
X-0.952 Y61.58 Z-10.521 I-2.135 J1.04
X3.319 Y59.5 Z-10.782 I2.135 J-1.04
X-0.952 Y61.58 Z-11.042 I-2.135 J1.04
X3.319 Y59.5 Z-11.303 I2.135 J-1.04
X-0.952 Y61.58 Z-11.563 I-2.135 J1.04
X3.319 Y59.5 Z-11.824 I2.135 J-1.04
X-0.952 Y61.58 Z-12.084 I-2.135 J1.04
X3.319 Y59.5 Z-12.345 I2.135 J-1.04
X-0.952 Y61.58 Z-12.606 I-2.135 J1.04
X3.319 Y59.5 Z-12.866 I2.135 J-1.04
X-0.952 Y61.58 Z-13.127 I-2.135 J1.04
X3.319 Y59.5 Z-13.387 I2.135 J-1.04
X-0.952 Y61.58 Z-13.648 I-2.135 J1.04
X3.319 Y59.5 Z-13.908 I2.135 J-1.04
X-0.952 Y61.58 Z-14.169 I-2.135 J1.04
X3.319 Y59.5 Z-14.429 I2.135 J-1.04
X-0.952 Y61.58 Z-14.69 I-2.135 J1.04
X3.319 Y59.5 Z-14.951 I2.135 J-1.04
X3.534 Y60.879 Z-15 I-2.135 J1.04
G1 X3.302 Y62.488 F1000
G3 X2.94 Y62.759 I-0.316 J-0.046
G1 X-0.278 Y62.294
G3 X-0.548 Y61.933 I0.046 J-0.316
G1 X16.988 Y-59.56
G3 X17.349 Y-59.83 I0.316 J0.046
G1 X20.567 Y-59.366
G3 X20.838 Y-59.004 I-0.046 J0.316
G1 X3.534 Y60.879
G2 X4.659 Y63.239 I2.332 J0.337
G3 X5.783 Y65.599 I-1.208 J2.023
G1 X5.758 Y65.773
G3 X5.396 Y66.043 I-0.316 J-0.046
G1 X-3.562 Y64.75
G3 X-3.833 Y64.389 I0.046 J-0.316
G1 X14.532 Y-62.844
G3 X14.893 Y-63.115 I0.316 J0.046
G1 X23.852 Y-61.822
G3 X24.122 Y-61.46 I-0.046 J0.316
G1 X5.783 Y65.599
G2 X6.497 Y67.316 I1.798 J0.26
G3 X5.787 Y69.035 I-0.572 J0.77
G1 X-7.168 Y67.165
X12.117 Y-66.451
X27.458 Y-64.236
X8.172 Y69.379
X5.787 Y69.035
X5.755 Y69.023
X5.73 Y68.998
X5.719 Y68.965
X5.662 Y68.616
X-0.499 Y61.67
X-0.519 Y61.653
X-0.544 Y61.641
X-0.57 Y61.637
X-0.866 Y61.634
X-0.901 Y61.627
X-0.931 Y61.608
X-0.952 Y61.58
G3 X3.319 Y59.5 Z-15.261 I2.135 J-1.04 F333.3
X-0.952 Y61.58 Z-15.521 I-2.135 J1.04
X3.319 Y59.5 Z-15.782 I2.135 J-1.04
X-0.952 Y61.58 Z-16.042 I-2.135 J1.04
X3.319 Y59.5 Z-16.303 I2.135 J-1.04
X-0.952 Y61.58 Z-16.563 I-2.135 J1.04
X3.319 Y59.5 Z-16.824 I2.135 J-1.04
X-0.952 Y61.58 Z-17.084 I-2.135 J1.04
X3.319 Y59.5 Z-17.345 I2.135 J-1.04
X-0.952 Y61.58 Z-17.606 I-2.135 J1.04
X3.319 Y59.5 Z-17.866 I2.135 J-1.04
X-0.952 Y61.58 Z-18.127 I-2.135 J1.04
X3.319 Y59.5 Z-18.387 I2.135 J-1.04
X-0.952 Y61.58 Z-18.648 I-2.135 J1.04
X3.319 Y59.5 Z-18.908 I2.135 J-1.04
X-0.952 Y61.58 Z-19.169 I-2.135 J1.04
X3.319 Y59.5 Z-19.429 I2.135 J-1.04
X-0.952 Y61.58 Z-19.69 I-2.135 J1.04
X3.319 Y59.5 Z-19.951 I2.135 J-1.04
X3.534 Y60.879 Z-20 I-2.135 J1.04
G1 X3.302 Y62.488 F1000
G3 X2.94 Y62.759 I-0.316 J-0.046
G1 X-0.278 Y62.294
G3 X-0.548 Y61.933 I0.046 J-0.316
G1 X16.988 Y-59.56
G3 X17.349 Y-59.83 I0.316 J0.046
G1 X20.567 Y-59.366
G3 X20.838 Y-59.004 I-0.046 J0.316
G1 X3.534 Y60.879
G2 X4.659 Y63.239 I2.332 J0.337
G3 X5.783 Y65.599 I-1.208 J2.023
G1 X5.758 Y65.773
G3 X5.396 Y66.043 I-0.316 J-0.046
G1 X-3.562 Y64.75
G3 X-3.833 Y64.389 I0.046 J-0.316
G1 X14.532 Y-62.844
G3 X14.893 Y-63.115 I0.316 J0.046
G1 X23.852 Y-61.822
G3 X24.122 Y-61.46 I-0.046 J0.316
G1 X5.783 Y65.599
G2 X6.497 Y67.316 I1.798 J0.26
G3 X5.787 Y69.035 I-0.572 J0.77
G1 X-7.168 Y67.165
X12.117 Y-66.451
X27.458 Y-64.236
X8.172 Y69.379
X5.787 Y69.035
X5.755 Y69.023
X5.73 Y68.998
X5.719 Y68.965
X5.662 Y68.616
X-0.499 Y61.67
X-0.519 Y61.653
X-0.544 Y61.641
X-0.57 Y61.637
X-0.866 Y61.634
X-0.901 Y61.627
X-0.931 Y61.608
X-0.952 Y61.58
G3 X3.319 Y59.5 Z-20.261 I2.135 J-1.04 F333.3
X-0.952 Y61.58 Z-20.521 I-2.135 J1.04
X3.319 Y59.5 Z-20.782 I2.135 J-1.04
X-0.952 Y61.58 Z-21.042 I-2.135 J1.04
X3.319 Y59.5 Z-21.303 I2.135 J-1.04
X-0.952 Y61.58 Z-21.563 I-2.135 J1.04
X3.319 Y59.5 Z-21.824 I2.135 J-1.04
X-0.952 Y61.58 Z-22.084 I-2.135 J1.04
X3.319 Y59.5 Z-22.345 I2.135 J-1.04
X-0.952 Y61.58 Z-22.606 I-2.135 J1.04
X3.319 Y59.5 Z-22.866 I2.135 J-1.04
X-0.952 Y61.58 Z-23.127 I-2.135 J1.04
X3.319 Y59.5 Z-23.387 I2.135 J-1.04
X-0.952 Y61.58 Z-23.648 I-2.135 J1.04
X3.319 Y59.5 Z-23.908 I2.135 J-1.04
X-0.952 Y61.58 Z-24.169 I-2.135 J1.04
X3.319 Y59.5 Z-24.429 I2.135 J-1.04
X-0.952 Y61.58 Z-24.69 I-2.135 J1.04
X3.319 Y59.5 Z-24.951 I2.135 J-1.04
X3.534 Y60.879 Z-25 I-2.135 J1.04
G1 X3.302 Y62.488 F1000
G3 X2.94 Y62.759 I-0.316 J-0.046
G1 X-0.278 Y62.294
G3 X-0.548 Y61.933 I0.046 J-0.316
G1 X16.988 Y-59.56
G3 X17.349 Y-59.83 I0.316 J0.046
G1 X20.567 Y-59.366
G3 X20.838 Y-59.004 I-0.046 J0.316
G1 X3.534 Y60.879
G2 X4.659 Y63.239 I2.332 J0.337
G3 X5.783 Y65.599 I-1.208 J2.023
G1 X5.758 Y65.773
G3 X5.396 Y66.043 I-0.316 J-0.046
G1 X-3.562 Y64.75
G3 X-3.833 Y64.389 I0.046 J-0.316
G1 X14.532 Y-62.844
G3 X14.893 Y-63.115 I0.316 J0.046
G1 X23.852 Y-61.822
G3 X24.122 Y-61.46 I-0.046 J0.316
G1 X5.783 Y65.599
G2 X6.497 Y67.316 I1.798 J0.26
G3 X5.787 Y69.035 I-0.572 J0.77
G1 X-7.168 Y67.165
X12.117 Y-66.451
X27.458 Y-64.236
X8.172 Y69.379
X5.787 Y69.035
G0 Z15

M9
M5
M30
