(TischVerstarkung_7er)
(T4 D=5 CR=0 - ZMIN=-25 - flat end mill)
G90 G94
G17
G21
(-Attention- Property Safe Retracts is set to Clearance Height.)
(Ensure the clearance height will clear the part and or fixtures.)
(Raise the Z-axis to a safe height before starting the program.)

(7er Schlitz)
T4
S5000 M3
G17 G90 G94
G54
M8
G0 X-251.808 Y321.787
Z15
G0 Z5
G1 Z2.5 F333.3
G3 X-253.706 Y317.433 Z2.239 I-0.949 J-2.177
X-251.808 Y321.787 Z1.979 I0.949 J2.177
X-253.706 Y317.433 Z1.718 I-0.949 J-2.177
X-251.808 Y321.787 Z1.458 I0.949 J2.177
X-253.706 Y317.433 Z1.197 I-0.949 J-2.177
X-251.808 Y321.787 Z0.937 I0.949 J2.177
X-253.706 Y317.433 Z0.676 I-0.949 J-2.177
X-251.808 Y321.787 Z0.416 I0.949 J2.177
X-253.706 Y317.433 Z0.155 I-0.949 J-2.177
X-251.808 Y321.787 Z-0.106 I0.949 J2.177
X-253.706 Y317.433 Z-0.366 I-0.949 J-2.177
X-251.808 Y321.787 Z-0.627 I0.949 J2.177
X-253.706 Y317.433 Z-0.887 I-0.949 J-2.177
X-251.808 Y321.787 Z-1.148 I0.949 J2.177
X-253.706 Y317.433 Z-1.408 I-0.949 J-2.177
X-251.808 Y321.787 Z-1.669 I0.949 J2.177
X-253.706 Y317.433 Z-1.929 I-0.949 J-2.177
X-251.808 Y321.787 Z-2.19 I0.949 J2.177
X-253.706 Y317.433 Z-2.451 I-0.949 J-2.177
X-251.808 Y321.787 Z-2.711 I0.949 J2.177
X-253.706 Y317.433 Z-2.972 I-0.949 J-2.177
X-251.808 Y321.787 Z-3.232 I0.949 J2.177
X-253.706 Y317.433 Z-3.493 I-0.949 J-2.177
X-251.808 Y321.787 Z-3.753 I0.949 J2.177
X-253.706 Y317.433 Z-4.014 I-0.949 J-2.177
X-251.808 Y321.787 Z-4.274 I0.949 J2.177
X-253.706 Y317.433 Z-4.535 I-0.949 J-2.177
X-251.808 Y321.787 Z-4.796 I0.949 J2.177
X-254.859 Y318.505 Z-5 I-0.949 J-2.177
X-251.945 Y320.036 I1.457 J0.766
G1 X-252.178 Y320.48 F1000
G3 X-252.609 Y320.614 I-0.283 J-0.149
G1 X-253.496 Y320.148
G3 X-253.63 Y319.717 I0.149 J-0.283
G1 X-141.536 Y106.371
G3 X-141.105 Y106.237 I0.283 J0.149
G1 X-140.218 Y106.703
G3 X-140.084 Y107.134 I-0.149 J0.283
G1 X-251.945 Y320.036
G2 X-251.852 Y321.404 I1.158 J0.608
G3 X-252.754 Y322.436 I-0.574 J0.409
G1 X-256.047 Y320.706
X-142.094 Y103.82
X-137.667 Y106.145
X-251.62 Y323.031
X-252.754 Y322.436
G3 X-252.823 Y322.143 I0.093 J-0.177
G1 X-250.758 Y319.249
G3 X-250.397 Y319.342 I0.163 J0.116
X-255.117 Y319.877 Z-5.261 I-2.36 J0.267 F333.3
X-250.397 Y319.342 Z-5.521 I2.36 J-0.267
X-255.117 Y319.877 Z-5.782 I-2.36 J0.267
X-250.397 Y319.342 Z-6.042 I2.36 J-0.267
X-255.117 Y319.877 Z-6.303 I-2.36 J0.267
X-250.397 Y319.342 Z-6.563 I2.36 J-0.267
X-255.117 Y319.877 Z-6.824 I-2.36 J0.267
X-250.397 Y319.342 Z-7.084 I2.36 J-0.267
X-255.117 Y319.877 Z-7.345 I-2.36 J0.267
X-250.397 Y319.342 Z-7.606 I2.36 J-0.267
X-255.117 Y319.877 Z-7.866 I-2.36 J0.267
X-250.397 Y319.342 Z-8.127 I2.36 J-0.267
X-255.117 Y319.877 Z-8.387 I-2.36 J0.267
X-250.397 Y319.343 Z-8.648 I2.36 J-0.267
X-255.117 Y319.877 Z-8.908 I-2.36 J0.267
X-250.397 Y319.343 Z-9.169 I2.36 J-0.267
X-255.117 Y319.877 Z-9.429 I-2.36 J0.267
X-250.397 Y319.343 Z-9.69 I2.36 J-0.267
X-255.117 Y319.877 Z-9.951 I-2.36 J0.267
X-254.859 Y318.505 Z-10 I2.36 J-0.267
X-251.945 Y320.036 I1.457 J0.766
G1 X-252.178 Y320.48 F1000
G3 X-252.609 Y320.614 I-0.283 J-0.149
G1 X-253.496 Y320.148
G3 X-253.63 Y319.717 I0.149 J-0.283
G1 X-141.536 Y106.371
G3 X-141.105 Y106.237 I0.283 J0.149
G1 X-140.218 Y106.703
G3 X-140.084 Y107.134 I-0.149 J0.283
G1 X-251.945 Y320.036
G2 X-251.852 Y321.404 I1.158 J0.608
G3 X-252.754 Y322.436 I-0.574 J0.409
G1 X-256.047 Y320.706
X-142.094 Y103.82
X-137.667 Y106.145
X-251.62 Y323.031
X-252.754 Y322.436
G3 X-252.823 Y322.143 I0.093 J-0.177
G1 X-250.758 Y319.249
G3 X-250.397 Y319.342 I0.163 J0.116
X-255.117 Y319.877 Z-10.261 I-2.36 J0.267 F333.3
X-250.397 Y319.342 Z-10.521 I2.36 J-0.267
X-255.117 Y319.877 Z-10.782 I-2.36 J0.267
X-250.397 Y319.342 Z-11.042 I2.36 J-0.267
X-255.117 Y319.877 Z-11.303 I-2.36 J0.267
X-250.397 Y319.342 Z-11.563 I2.36 J-0.267
X-255.117 Y319.877 Z-11.824 I-2.36 J0.267
X-250.397 Y319.342 Z-12.084 I2.36 J-0.267
X-255.117 Y319.877 Z-12.345 I-2.36 J0.267
X-250.397 Y319.342 Z-12.606 I2.36 J-0.267
X-255.117 Y319.877 Z-12.866 I-2.36 J0.267
X-250.397 Y319.342 Z-13.127 I2.36 J-0.267
X-255.117 Y319.877 Z-13.387 I-2.36 J0.267
X-250.397 Y319.343 Z-13.648 I2.36 J-0.267
X-255.117 Y319.877 Z-13.908 I-2.36 J0.267
X-250.397 Y319.343 Z-14.169 I2.36 J-0.267
X-255.117 Y319.877 Z-14.429 I-2.36 J0.267
X-250.397 Y319.343 Z-14.69 I2.36 J-0.267
X-255.117 Y319.877 Z-14.951 I-2.36 J0.267
X-254.859 Y318.505 Z-15 I2.36 J-0.267
X-251.945 Y320.036 I1.457 J0.766
G1 X-252.178 Y320.48 F1000
G3 X-252.609 Y320.614 I-0.283 J-0.149
G1 X-253.496 Y320.148
G3 X-253.63 Y319.717 I0.149 J-0.283
G1 X-141.536 Y106.371
G3 X-141.105 Y106.237 I0.283 J0.149
G1 X-140.218 Y106.703
G3 X-140.084 Y107.134 I-0.149 J0.283
G1 X-251.945 Y320.036
G2 X-251.852 Y321.404 I1.158 J0.608
G3 X-252.754 Y322.436 I-0.574 J0.409
G1 X-256.047 Y320.706
X-142.094 Y103.82
X-137.667 Y106.145
X-251.62 Y323.031
X-252.754 Y322.436
G3 X-252.823 Y322.143 I0.093 J-0.177
G1 X-250.758 Y319.249
G3 X-250.397 Y319.342 I0.163 J0.116
X-255.117 Y319.877 Z-15.261 I-2.36 J0.267 F333.3
X-250.397 Y319.342 Z-15.521 I2.36 J-0.267
X-255.117 Y319.877 Z-15.782 I-2.36 J0.267
X-250.397 Y319.342 Z-16.042 I2.36 J-0.267
X-255.117 Y319.877 Z-16.303 I-2.36 J0.267
X-250.397 Y319.342 Z-16.563 I2.36 J-0.267
X-255.117 Y319.877 Z-16.824 I-2.36 J0.267
X-250.397 Y319.342 Z-17.084 I2.36 J-0.267
X-255.117 Y319.877 Z-17.345 I-2.36 J0.267
X-250.397 Y319.342 Z-17.606 I2.36 J-0.267
X-255.117 Y319.877 Z-17.866 I-2.36 J0.267
X-250.397 Y319.342 Z-18.127 I2.36 J-0.267
X-255.117 Y319.877 Z-18.387 I-2.36 J0.267
X-250.397 Y319.343 Z-18.648 I2.36 J-0.267
X-255.117 Y319.877 Z-18.908 I-2.36 J0.267
X-250.397 Y319.343 Z-19.169 I2.36 J-0.267
X-255.117 Y319.877 Z-19.429 I-2.36 J0.267
X-250.397 Y319.343 Z-19.69 I2.36 J-0.267
X-255.117 Y319.877 Z-19.951 I-2.36 J0.267
X-254.859 Y318.505 Z-20 I2.36 J-0.267
X-251.945 Y320.036 I1.457 J0.766
G1 X-252.178 Y320.48 F1000
G3 X-252.609 Y320.614 I-0.283 J-0.149
G1 X-253.496 Y320.148
G3 X-253.63 Y319.717 I0.149 J-0.283
G1 X-141.536 Y106.371
G3 X-141.105 Y106.237 I0.283 J0.149
G1 X-140.218 Y106.703
G3 X-140.084 Y107.134 I-0.149 J0.283
G1 X-251.945 Y320.036
G2 X-251.852 Y321.404 I1.158 J0.608
G3 X-252.754 Y322.436 I-0.574 J0.409
G1 X-256.047 Y320.706
X-142.094 Y103.82
X-137.667 Y106.145
X-251.62 Y323.031
X-252.754 Y322.436
G3 X-252.823 Y322.143 I0.093 J-0.177
G1 X-250.758 Y319.249
G3 X-250.397 Y319.342 I0.163 J0.116
X-255.117 Y319.877 Z-20.261 I-2.36 J0.267 F333.3
X-250.397 Y319.342 Z-20.521 I2.36 J-0.267
X-255.117 Y319.877 Z-20.782 I-2.36 J0.267
X-250.397 Y319.342 Z-21.042 I2.36 J-0.267
X-255.117 Y319.877 Z-21.303 I-2.36 J0.267
X-250.397 Y319.342 Z-21.563 I2.36 J-0.267
X-255.117 Y319.877 Z-21.824 I-2.36 J0.267
X-250.397 Y319.342 Z-22.084 I2.36 J-0.267
X-255.117 Y319.877 Z-22.345 I-2.36 J0.267
X-250.397 Y319.342 Z-22.606 I2.36 J-0.267
X-255.117 Y319.877 Z-22.866 I-2.36 J0.267
X-250.397 Y319.342 Z-23.127 I2.36 J-0.267
X-255.117 Y319.877 Z-23.387 I-2.36 J0.267
X-250.397 Y319.343 Z-23.648 I2.36 J-0.267
X-255.117 Y319.877 Z-23.908 I-2.36 J0.267
X-250.397 Y319.343 Z-24.169 I2.36 J-0.267
X-255.117 Y319.877 Z-24.429 I-2.36 J0.267
X-250.397 Y319.343 Z-24.69 I2.36 J-0.267
X-255.117 Y319.877 Z-24.951 I-2.36 J0.267
X-254.859 Y318.505 Z-25 I2.36 J-0.267
X-251.945 Y320.036 I1.457 J0.766
G1 X-252.178 Y320.48 F1000
G3 X-252.609 Y320.614 I-0.283 J-0.149
G1 X-253.496 Y320.148
G3 X-253.63 Y319.717 I0.149 J-0.283
G1 X-141.536 Y106.371
G3 X-141.105 Y106.237 I0.283 J0.149
G1 X-140.218 Y106.703
G3 X-140.084 Y107.134 I-0.149 J0.283
G1 X-251.945 Y320.036
G2 X-251.852 Y321.404 I1.158 J0.608
G3 X-252.754 Y322.436 I-0.574 J0.409
G1 X-256.047 Y320.706
X-142.094 Y103.82
X-137.667 Y106.145
X-251.62 Y323.031
X-252.754 Y322.436
G0 Z15

M9
M5
M30
