(VanArbeitsplatteKochfeld)
(T3  D=3 CR=0 - ZMIN=-19 - flat end mill)
G90 G94
G17
G21

(2D Contour1)
T3
S5000 M3
G54
M8
G0 X155.897 Y-206.693
Z15
Z5
G1 Z3 F333.3
Z-1.7
G18 G2 X156.197 Z-2 I0.3 K0 F1000
G1 X156.497
G17 G3 X156.797 Y-206.393 I0 J0.3
G1 Y336.107
X123.297
G2 X121.797 Y337.607 I0 J1.5
G1 Y371.107
X-127.203
Y337.607
G2 X-128.703 Y336.107 I-1.5 J0
G1 X-162.203
Y-330.893
X-128.703
G2 X-127.203 Y-332.393 I0 J-1.5
G1 Y-365.893
X121.797
Y-332.393
G2 X123.297 Y-330.893 I1.5 J0
G1 X156.797
Y-206.393
G3 X156.497 Y-206.093 I-0.3 J0
G1 X156.197
G18 G3 X155.897 Z-1.7 I0 K0.3
G0 Z5
Y-206.693
G1 Z1 F333.3
Z-3.7
G2 X156.197 Z-4 I0.3 K0 F1000
G1 X156.497
G17 G3 X156.797 Y-206.393 I0 J0.3
G1 Y336.107
X123.297
G2 X121.797 Y337.607 I0 J1.5
G1 Y371.107
X-127.203
Y337.607
G2 X-128.703 Y336.107 I-1.5 J0
G1 X-162.203
Y-330.893
X-128.703
G2 X-127.203 Y-332.393 I0 J-1.5
G1 Y-365.893
X121.797
Y-332.393
G2 X123.297 Y-330.893 I1.5 J0
G1 X156.797
Y-206.393
G3 X156.497 Y-206.093 I-0.3 J0
G1 X156.197
G18 G3 X155.897 Z-3.7 I0 K0.3
G0 Z5
Y-206.693
G1 Z-1 F333.3
Z-5.7
G2 X156.197 Z-6 I0.3 K0 F1000
G1 X156.497
G17 G3 X156.797 Y-206.393 I0 J0.3
G1 Y336.107
X123.297
G2 X121.797 Y337.607 I0 J1.5
G1 Y371.107
X-127.203
Y337.607
G2 X-128.703 Y336.107 I-1.5 J0
G1 X-162.203
Y-330.893
X-128.703
G2 X-127.203 Y-332.393 I0 J-1.5
G1 Y-365.893
X121.797
Y-332.393
G2 X123.297 Y-330.893 I1.5 J0
G1 X156.797
Y-206.393
G3 X156.497 Y-206.093 I-0.3 J0
G1 X156.197
G18 G3 X155.897 Z-5.7 I0 K0.3
G0 Z5
Y-206.693
G1 Z-3 F333.3
Z-7.7
G2 X156.197 Z-8 I0.3 K0 F1000
G1 X156.497
G17 G3 X156.797 Y-206.393 I0 J0.3
G1 Y336.107
X123.297
G2 X121.797 Y337.607 I0 J1.5
G1 Y371.107
X-127.203
Y337.607
G2 X-128.703 Y336.107 I-1.5 J0
G1 X-162.203
Y-330.893
X-128.703
G2 X-127.203 Y-332.393 I0 J-1.5
G1 Y-365.893
X121.797
Y-332.393
G2 X123.297 Y-330.893 I1.5 J0
G1 X156.797
Y-206.393
G3 X156.497 Y-206.093 I-0.3 J0
G1 X156.197
G18 G3 X155.897 Z-7.7 I0 K0.3
G0 Z5
Y-206.693
G1 Z-5 F333.3
Z-9.7
G2 X156.197 Z-10 I0.3 K0 F1000
G1 X156.497
G17 G3 X156.797 Y-206.393 I0 J0.3
G1 Y336.107
X123.297
G2 X121.797 Y337.607 I0 J1.5
G1 Y371.107
X-127.203
Y337.607
G2 X-128.703 Y336.107 I-1.5 J0
G1 X-162.203
Y-330.893
X-128.703
G2 X-127.203 Y-332.393 I0 J-1.5
G1 Y-365.893
X121.797
Y-332.393
G2 X123.297 Y-330.893 I1.5 J0
G1 X156.797
Y-206.393
G3 X156.497 Y-206.093 I-0.3 J0
G1 X156.197
G18 G3 X155.897 Z-9.7 I0 K0.3
G0 Z5
Y-206.693
G1 Z-7 F333.3
Z-11.7
G2 X156.197 Z-12 I0.3 K0 F1000
G1 X156.497
G17 G3 X156.797 Y-206.393 I0 J0.3
G1 Y336.107
X123.297
G2 X121.797 Y337.607 I0 J1.5
G1 Y371.107
X-127.203
Y337.607
G2 X-128.703 Y336.107 I-1.5 J0
G1 X-162.203
Y-330.893
X-128.703
G2 X-127.203 Y-332.393 I0 J-1.5
G1 Y-365.893
X121.797
Y-332.393
G2 X123.297 Y-330.893 I1.5 J0
G1 X156.797
Y-206.393
G3 X156.497 Y-206.093 I-0.3 J0
G1 X156.197
G18 G3 X155.897 Z-11.7 I0 K0.3
G0 Z5
Y-206.693
G1 Z-9 F333.3
Z-13.7
G2 X156.197 Z-14 I0.3 K0 F1000
G1 X156.497
G17 G3 X156.797 Y-206.393 I0 J0.3
G1 Y336.107
X123.297
G2 X121.797 Y337.607 I0 J1.5
G1 Y371.107
X-127.203
Y337.607
G2 X-128.703 Y336.107 I-1.5 J0
G1 X-162.203
Y-330.893
X-128.703
G2 X-127.203 Y-332.393 I0 J-1.5
G1 Y-365.893
X121.797
Y-332.393
G2 X123.297 Y-330.893 I1.5 J0
G1 X156.797
Y-206.393
G3 X156.497 Y-206.093 I-0.3 J0
G1 X156.197
G18 G3 X155.897 Z-13.7 I0 K0.3
G0 Z5
Y-206.693
G1 Z-11 F333.3
Z-15.7
G2 X156.197 Z-16 I0.3 K0 F1000
G1 X156.497
G17 G3 X156.797 Y-206.393 I0 J0.3
G1 Y336.107
X123.297
G2 X121.797 Y337.607 I0 J1.5
G1 Y371.107
X-127.203
Y337.607
G2 X-128.703 Y336.107 I-1.5 J0
G1 X-162.203
Y-330.893
X-128.703
G2 X-127.203 Y-332.393 I0 J-1.5
G1 Y-365.893
X121.797
Y-332.393
G2 X123.297 Y-330.893 I1.5 J0
G1 X156.797
Y-206.393
G3 X156.497 Y-206.093 I-0.3 J0
G1 X156.197
G18 G3 X155.897 Z-15.7 I0 K0.3
G0 Z5
Y-206.693
G1 Z-13 F333.3
Z-17.7
G2 X156.197 Z-18 I0.3 K0 F1000
G1 X156.497
G17 G3 X156.797 Y-206.393 I0 J0.3
G1 Y336.107
X123.297
G2 X121.797 Y337.607 I0 J1.5
G1 Y371.107
X-127.203
Y337.607
G2 X-128.703 Y336.107 I-1.5 J0
G1 X-162.203
Y-330.893
X-128.703
G2 X-127.203 Y-332.393 I0 J-1.5
G1 Y-365.893
X121.797
Y-332.393
G2 X123.297 Y-330.893 I1.5 J0
G1 X156.797
Y-206.393
G3 X156.497 Y-206.093 I-0.3 J0
G1 X156.197
G18 G3 X155.897 Z-17.7 I0 K0.3
G0 Z5
Y-206.693
G1 Z-15 F333.3
Z-18.7
G2 X156.197 Z-19 I0.3 K0 F1000
G1 X156.497
G17 G3 X156.797 Y-206.393 I0 J0.3
G1 Y336.107
X123.297
G2 X121.797 Y337.607 I0 J1.5
G1 Y371.107
X-127.203
Y337.607
G2 X-128.703 Y336.107 I-1.5 J0
G1 X-162.203
Y-330.893
X-128.703
G2 X-127.203 Y-332.393 I0 J-1.5
G1 Y-365.893
X121.797
Y-332.393
G2 X123.297 Y-330.893 I1.5 J0
G1 X156.797
Y-206.393
G3 X156.497 Y-206.093 I-0.3 J0
G1 X156.197
G18 G3 X155.897 Z-18.7 I0 K0.3
G0 Z15
G17

(2D Pocket1)
G0 X149.696 Y362.276
Z15
Z5
G1 Z2.8 F333.3
X149.73 Y362.294 Z2.653
X149.821 Y362.348 Z2.544
X149.938 Y362.433 Z2.5
G3 X148.156 Y364.656 Z2.344 I-0.891 J1.112
X149.938 Y362.433 Z2.187 I0.891 J-1.112
X148.156 Y364.656 Z2.031 I-0.891 J1.112
X149.938 Y362.433 Z1.875 I0.891 J-1.112
X148.156 Y364.656 Z1.718 I-0.891 J1.112
X149.938 Y362.433 Z1.562 I0.891 J-1.112
X148.155 Y364.656 Z1.406 I-0.891 J1.112
X149.938 Y362.433 Z1.249 I0.891 J-1.112
X148.155 Y364.656 Z1.093 I-0.891 J1.112
X149.938 Y362.433 Z0.937 I0.891 J-1.112
X148.155 Y364.656 Z0.78 I-0.891 J1.112
X149.938 Y362.433 Z0.624 I0.891 J-1.112
X148.155 Y364.656 Z0.468 I-0.891 J1.112
X149.938 Y362.433 Z0.311 I0.891 J-1.112
X148.155 Y364.656 Z0.155 I-0.892 J1.112
X149.938 Y362.433 Z-0.001 I0.892 J-1.112
X148.155 Y364.656 Z-0.158 I-0.892 J1.112
X149.938 Y362.433 Z-0.314 I0.892 J-1.112
X148.155 Y364.656 Z-0.47 I-0.892 J1.112
X149.938 Y362.433 Z-0.627 I0.892 J-1.112
X148.155 Y364.656 Z-0.783 I-0.892 J1.112
X149.939 Y362.433 Z-0.939 I0.892 J-1.112
X148.155 Y364.656 Z-1.096 I-0.892 J1.112
X149.939 Y362.433 Z-1.252 I0.892 J-1.112
X148.155 Y364.656 Z-1.408 I-0.892 J1.112
X149.939 Y362.433 Z-1.565 I0.892 J-1.112
X148.155 Y364.656 Z-1.721 I-0.892 J1.112
X149.939 Y362.433 Z-1.877 I0.892 J-1.112
X149.047 Y364.97 Z-2 I-0.892 J1.112
G1 X148.754 F1000
G3 X148.434 Y364.65 I0 J-0.319
G1 Y363.064
G3 X148.754 Y362.744 I0.319 J0
G1 X149.34
G3 X149.66 Y363.064 I0 J0.319
G1 Y364.65
G3 X149.34 Y364.97 I-0.319 J0
G1 X149.047
G2 X147.989 Y365.687 I0 J1.139
G3 X146.734 Y365.445 I-0.604 J-0.241
G1 Y361.364
G3 X147.054 Y361.044 I0.319 J0
G1 X151.04
G3 X151.36 Y361.364 I0 J0.319
G1 Y366.35
G3 X151.04 Y366.67 I-0.319 J0
G1 X147.054
G3 X146.734 Y366.35 I0 J-0.319
G1 Y365.445
G2 X145.884 Y364.17 I-1.381 J0
G3 X145.034 Y362.895 I0.531 J-1.275
G1 Y359.664
G3 X145.354 Y359.344 I0.319 J0
G1 X152.74
G3 X153.06 Y359.664 I0 J0.319
G1 Y368.05
G3 X152.74 Y368.37 I-0.319 J0
G1 X145.354
G3 X145.034 Y368.05 I0 J-0.319
G1 Y362.895
G2 X144.184 Y361.62 I-1.381 J0
G3 X143.334 Y360.345 I0.531 J-1.275
G1 Y357.964
G3 X143.654 Y357.644 I0.319 J0
G1 X154.44
G3 X154.76 Y357.964 I0 J0.319
G1 Y369.75
G3 X154.44 Y370.07 I-0.319 J0
G1 X143.654
G3 X143.334 Y369.75 I0 J-0.319
G1 Y360.345
G2 X142.484 Y359.07 I-1.381 J0
G3 X141.634 Y357.795 I0.531 J-1.275
G1 Y356.264
G3 X141.954 Y355.944 I0.319 J0
G1 X156.14
G3 X156.46 Y356.264 I0 J0.319
G1 Y371.45
G3 X156.14 Y371.77 I-0.319 J0
G1 X141.954
G3 X141.634 Y371.45 I0 J-0.319
G1 Y357.795
G2 X140.785 Y356.523 I-1.378 J0
G3 X139.935 Y355.25 I0.53 J-1.274
G1 X139.934 Y354.564
G3 X140.254 Y354.244 I0.319 J0
G1 X157.84
G3 X158.16 Y354.564 I0 J0.319
G1 Y373.15
G3 X157.84 Y373.47 I-0.319 J0
G1 X140.229
G3 X139.925 Y373.155 I0 J-0.304
X139.941 Y372.881 I5.97 J0.197
G2 X139.951 Y372.607 I-3.468 J-0.274
G1 X139.935 Y355.25
G2 X139.145 Y353.993 I-1.398 J0.001
G3 X139.478 Y352.546 I0.331 J-0.685
G1 X158.297 Y352.583
G2 X158.924 Y352.551 I0 J-6.023
G3 X159.549 Y352.492 I3.209 J30.656
X159.86 Y352.777 I0.024 J0.286
G1 Y374.85
G3 X159.54 Y375.17 I-0.319 J0
G1 X138.325
G3 X138.063 Y374.864 I0 J-0.266
G2 X138.214 Y373.74 I-30.931 J-4.728
X138.279 Y372.607 I-9.769 J-1.133
G1 X138.234 Y352.864
G3 X138.554 Y352.544 I0.319 J0
G1 X139.478 Y352.546
G2 X140.752 Y351.701 I0.003 J-1.378
G3 X142.026 Y350.855 I1.271 J0.533
G1 X158.297 Y350.889
G2 X159.789 Y350.783 I0 J-10.484
X161.26 Y350.508 I-2.568 J-17.86
G3 X161.56 Y350.747 I0.055 J0.239
G1 Y376.55
G3 X161.24 Y376.87 I-0.319 J0
G1 X136.141
G3 X135.925 Y376.576 I0 J-0.226
G2 X136.404 Y374.616 I-14.796 J-4.65
X136.579 Y372.607 I-11.407 J-2.009
G1 X136.534 Y351.164
G3 X136.854 Y350.844 I0.319 J0
G1 X142.026 Y350.855
G2 X143.301 Y350.009 I0.003 J-1.379
G3 X144.576 Y349.163 I1.272 J0.533
G1 X158.297 Y349.189
G2 X160.69 Y348.916 I0 J-10.629
X162.975 Y348.153 I-2.854 J-12.347
G3 X163.26 Y348.338 I0.082 J0.185
G1 Y378.25
G3 X162.94 Y378.57 I-0.319 J0
G1 X133.497
G3 X133.336 Y378.293 I0 J-0.185
G2 X134.476 Y375.55 I-10.667 J-6.042
X134.879 Y372.607 I-10.534 J-2.943
G1 X134.834 Y349.464
G3 X135.154 Y349.144 I0.319 J0
G1 X144.576 Y349.163
G2 X145.851 Y348.315 I0.003 J-1.38
G3 X147.127 Y347.468 I1.273 J0.533
G1 X158.297 Y347.488
G2 X161.718 Y346.854 I0 J-9.538
X164.705 Y345.07 I-3.659 J-9.524
G3 X164.96 Y345.187 I0.1 J0.117
G1 Y379.957
G3 X164.647 Y380.27 I-0.313 J0
G1 X129.845
G3 X129.754 Y380.028 I0 J-0.138
G2 X132.271 Y376.689 I-6.622 J-7.61
X133.178 Y372.607 I-8.734 J-4.082
G1 X133.134 Y347.757
G3 X133.447 Y347.444 I0.313 J0
G1 X147.127 Y347.468
X147.184 Y347.474 Z-1.989
X147.239 Y347.49 Z-1.977
X147.283 Y347.512 Z-1.945
X147.322 Y347.54 Z-1.912
X147.366 Y347.588 Z-1.815
X147.38 Y347.606 Z-1.7
G0 Z5
X-156.534 Y363.708
G1 Z2.8 F333.3
X-156.516 Y363.674 Z2.653
X-156.462 Y363.583 Z2.544
X-156.377 Y363.466 Z2.5
G3 X-154.154 Y365.248 Z2.344 I1.112 J0.891
X-156.377 Y363.466 Z2.187 I-1.112 J-0.891
X-154.154 Y365.248 Z2.031 I1.112 J0.891
X-156.377 Y363.466 Z1.875 I-1.112 J-0.891
X-154.154 Y365.248 Z1.718 I1.112 J0.891
X-156.377 Y363.466 Z1.562 I-1.112 J-0.891
X-154.154 Y365.248 Z1.406 I1.112 J0.891
X-156.377 Y363.466 Z1.249 I-1.112 J-0.891
X-154.154 Y365.248 Z1.093 I1.112 J0.891
X-156.377 Y363.466 Z0.937 I-1.112 J-0.891
X-154.154 Y365.248 Z0.78 I1.112 J0.891
X-156.377 Y363.466 Z0.624 I-1.112 J-0.891
X-154.154 Y365.248 Z0.468 I1.112 J0.891
X-156.377 Y363.466 Z0.311 I-1.112 J-0.891
X-154.154 Y365.248 Z0.155 I1.112 J0.891
X-156.377 Y363.466 Z-0.001 I-1.112 J-0.891
X-154.154 Y365.248 Z-0.158 I1.112 J0.891
X-156.377 Y363.466 Z-0.314 I-1.112 J-0.891
X-154.154 Y365.248 Z-0.47 I1.112 J0.891
X-156.377 Y363.466 Z-0.627 I-1.112 J-0.891
X-154.154 Y365.248 Z-0.783 I1.112 J0.891
X-156.377 Y363.466 Z-0.939 I-1.112 J-0.891
X-154.154 Y365.248 Z-1.096 I1.112 J0.891
X-156.377 Y363.466 Z-1.252 I-1.112 J-0.891
X-154.154 Y365.248 Z-1.408 I1.112 J0.891
X-156.377 Y363.466 Z-1.565 I-1.112 J-0.891
X-154.154 Y365.248 Z-1.721 I1.112 J0.891
X-156.377 Y363.466 Z-1.877 I-1.112 J-0.891
X-153.84 Y364.357 Z-2 I1.112 J0.891
G1 Y364.65 F1000
G3 X-154.16 Y364.97 I-0.319 J0
G1 X-154.746
G3 X-155.066 Y364.65 I0 J-0.319
G1 Y363.064
G3 X-154.746 Y362.744 I0.319 J0
G1 X-154.16
G3 X-153.84 Y363.064 I0 J0.319
G1 Y364.357
G2 X-153.123 Y365.415 I1.139 J0
G3 X-153.365 Y366.67 I-0.241 J0.604
G1 X-156.446
G3 X-156.766 Y366.35 I0 J-0.319
G1 Y361.364
G3 X-156.446 Y361.044 I0.319 J0
G1 X-152.46
G3 X-152.14 Y361.364 I0 J0.319
G1 Y366.35
G3 X-152.46 Y366.67 I-0.319 J0
G1 X-153.365
G2 X-154.64 Y367.52 I0 J1.381
G3 X-155.915 Y368.37 I-1.275 J-0.531
G1 X-158.146
G3 X-158.466 Y368.05 I0 J-0.319
G1 Y359.664
G3 X-158.146 Y359.344 I0.319 J0
G1 X-150.76
G3 X-150.44 Y359.664 I0 J0.319
G1 Y368.05
G3 X-150.76 Y368.37 I-0.319 J0
G1 X-155.915
G2 X-157.19 Y369.22 I0 J1.381
G3 X-158.465 Y370.07 I-1.275 J-0.531
G1 X-159.846
G3 X-160.166 Y369.75 I0 J-0.319
G1 Y357.964
G3 X-159.846 Y357.644 I0.319 J0
G1 X-149.06
G3 X-148.74 Y357.964 I0 J0.319
G1 Y369.75
G3 X-149.06 Y370.07 I-0.319 J0
G1 X-158.465
G2 X-159.74 Y370.92 I0 J1.381
G3 X-161.015 Y371.77 I-1.275 J-0.531
G1 X-161.546
G3 X-161.866 Y371.45 I0 J-0.319
G1 Y356.264
G3 X-161.546 Y355.944 I0.319 J0
G1 X-147.36
G3 X-147.04 Y356.264 I0 J0.319
G1 Y371.45
G3 X-147.36 Y371.77 I-0.319 J0
G1 X-161.015
G2 X-162.23 Y372.443 I0 J1.435
G3 X-163.566 Y372.059 I-0.613 J-0.384
G1 Y354.564
G3 X-163.246 Y354.244 I0.319 J0
G1 X-145.66
G3 X-145.34 Y354.564 I0 J0.319
G1 X-145.357 Y372.607
G2 X-145.347 Y372.881 I3.479 J0
G3 X-145.331 Y373.155 I-5.955 J0.471
X-145.635 Y373.47 I-0.304 J0.01
G1 X-163.246
G3 X-163.566 Y373.15 I0 J-0.319
G1 Y372.059
G2 X-164.416 Y370.784 I-1.381 J0
G3 X-165.266 Y369.509 I0.531 J-1.275
G1 Y352.777
G3 X-164.955 Y352.492 I0.287 J0
X-164.33 Y352.551 I-2.584 J30.715
G2 X-163.703 Y352.583 I0.627 J-5.99
G1 X-143.96 Y352.544
G3 X-143.64 Y352.864 I0 J0.319
G1 X-143.685 Y372.607
G2 X-143.62 Y373.74 I9.835 J0
X-143.469 Y374.864 I31.083 J-3.604
G3 X-143.731 Y375.17 I-0.263 J0.04
G1 X-164.946
G3 X-165.266 Y374.85 I0 J-0.319
G1 Y369.509
G2 X-166.116 Y368.234 I-1.381 J0
G3 X-166.966 Y366.959 I0.531 J-1.275
G1 Y350.747
G3 X-166.666 Y350.508 I0.245 J0
G2 X-165.195 Y350.783 I4.039 J-17.586
X-163.703 Y350.889 I1.492 J-10.378
G1 X-142.26 Y350.844
G3 X-141.94 Y351.164 I0 J0.319
G1 X-141.985 Y372.607
G2 X-141.81 Y374.616 I11.582 J0
X-141.331 Y376.576 I15.275 J-2.691
G3 X-141.547 Y376.87 I-0.216 J0.068
G1 X-166.646
G3 X-166.966 Y376.55 I0 J-0.319
G1 Y366.959
G2 X-167.816 Y365.684 I-1.381 J0
G3 X-168.666 Y364.409 I0.531 J-1.275
G1 Y348.338
G3 X-168.381 Y348.153 I0.202 J0
G2 X-166.096 Y348.916 I5.138 J-11.584
X-163.703 Y349.189 I2.393 J-10.356
G1 X-140.56 Y349.144
G3 X-140.24 Y349.464 I0 J0.319
G1 X-140.285 Y372.607
G2 X-139.882 Y375.55 I10.937 J0
X-138.742 Y378.293 I11.807 J-3.299
G3 X-138.903 Y378.57 I-0.161 J0.091
G1 X-168.346
G3 X-168.666 Y378.25 I0 J-0.319
G1 Y364.409
G2 X-169.516 Y363.134 I-1.381 J0
G3 X-170.366 Y361.859 I0.531 J-1.275
G1 Y345.187
G3 X-170.111 Y345.07 I0.154 J0
G2 X-167.124 Y346.854 I6.647 J-7.741
X-163.703 Y347.488 I3.421 J-8.904
G1 X-138.853 Y347.444
G3 X-138.54 Y347.757 I0 J0.313
G1 X-138.584 Y372.607
G2 X-137.677 Y376.689 I9.641 J0
X-135.16 Y380.028 I9.139 J-4.271
G3 X-135.251 Y380.27 I-0.09 J0.104
G1 X-170.053
G3 X-170.366 Y379.957 I0 J-0.313
G1 Y361.859
X-170.36 Y361.802 Z-1.989
X-170.344 Y361.747 Z-1.977
X-170.322 Y361.703 Z-1.945
X-170.294 Y361.664 Z-1.912
X-170.247 Y361.619 Z-1.815
X-170.228 Y361.606 Z-1.7
G0 Z5
X-156.534 Y-359.792
G1 Z2.8 F333.3
X-156.516 Y-359.826 Z2.653
X-156.462 Y-359.917 Z2.544
X-156.377 Y-360.034 Z2.5
G3 X-154.154 Y-358.252 Z2.344 I1.112 J0.891
X-156.377 Y-360.034 Z2.187 I-1.112 J-0.891
X-154.154 Y-358.252 Z2.031 I1.112 J0.891
X-156.377 Y-360.034 Z1.875 I-1.112 J-0.891
X-154.154 Y-358.252 Z1.718 I1.112 J0.891
X-156.377 Y-360.034 Z1.562 I-1.112 J-0.891
X-154.154 Y-358.252 Z1.406 I1.112 J0.891
X-156.377 Y-360.034 Z1.249 I-1.112 J-0.891
X-154.154 Y-358.252 Z1.093 I1.112 J0.891
X-156.377 Y-360.034 Z0.937 I-1.112 J-0.891
X-154.154 Y-358.252 Z0.78 I1.112 J0.891
X-156.377 Y-360.034 Z0.624 I-1.112 J-0.891
X-154.154 Y-358.252 Z0.468 I1.112 J0.891
X-156.377 Y-360.034 Z0.311 I-1.112 J-0.891
X-154.154 Y-358.252 Z0.155 I1.112 J0.891
X-156.377 Y-360.034 Z-0.001 I-1.112 J-0.891
X-154.154 Y-358.252 Z-0.158 I1.112 J0.891
X-156.377 Y-360.034 Z-0.314 I-1.112 J-0.891
X-154.154 Y-358.252 Z-0.47 I1.112 J0.891
X-156.377 Y-360.034 Z-0.627 I-1.112 J-0.891
X-154.154 Y-358.252 Z-0.783 I1.112 J0.891
X-156.377 Y-360.034 Z-0.939 I-1.112 J-0.891
X-154.154 Y-358.252 Z-1.096 I1.112 J0.891
X-156.377 Y-360.034 Z-1.252 I-1.112 J-0.891
X-154.154 Y-358.252 Z-1.408 I1.112 J0.891
X-156.377 Y-360.034 Z-1.565 I-1.112 J-0.891
X-154.154 Y-358.252 Z-1.721 I1.112 J0.891
X-156.377 Y-360.034 Z-1.877 I-1.112 J-0.891
X-153.84 Y-359.143 Z-2 I1.112 J0.891
G1 Y-357.85 F1000
G3 X-154.16 Y-357.53 I-0.319 J0
G1 X-154.746
G3 X-155.066 Y-357.85 I0 J-0.319
G1 Y-359.436
G3 X-154.746 Y-359.756 I0.319 J0
G1 X-154.16
G3 X-153.84 Y-359.436 I0 J0.319
G1 Y-359.143
G2 X-152.99 Y-357.868 I1.381 J0
G3 X-152.14 Y-356.593 I-0.531 J1.275
G1 Y-356.15
G3 X-152.46 Y-355.83 I-0.319 J0
G1 X-156.446
G3 X-156.766 Y-356.15 I0 J-0.319
G1 Y-361.136
G3 X-156.446 Y-361.456 I0.319 J0
G1 X-152.46
G3 X-152.14 Y-361.136 I0 J0.319
G1 Y-356.593
G2 X-151.53 Y-355.403 I1.465 J0
G3 X-151.94 Y-354.13 I-0.41 J0.571
G1 X-158.146
G3 X-158.466 Y-354.45 I0 J-0.319
G1 Y-362.836
G3 X-158.146 Y-363.156 I0.319 J0
G1 X-150.76
G3 X-150.44 Y-362.836 I0 J0.319
G1 Y-354.45
G3 X-150.76 Y-354.13 I-0.319 J0
G1 X-151.94
G2 X-153.215 Y-353.28 I0 J1.381
G3 X-154.49 Y-352.43 I-1.275 J-0.531
G1 X-159.846
G3 X-160.166 Y-352.75 I0 J-0.319
G1 Y-364.536
G3 X-159.846 Y-364.856 I0.319 J0
G1 X-149.06
G3 X-148.74 Y-364.536 I0 J0.319
G1 Y-352.75
G3 X-149.06 Y-352.43 I-0.319 J0
G1 X-154.49
G2 X-155.765 Y-351.58 I0 J1.381
G3 X-157.04 Y-350.73 I-1.275 J-0.531
G1 X-161.546
G3 X-161.866 Y-351.05 I0 J-0.319
G1 Y-366.236
G3 X-161.546 Y-366.556 I0.319 J0
G1 X-147.36
G3 X-147.04 Y-366.236 I0 J0.319
G1 Y-351.05
G3 X-147.36 Y-350.73 I-0.319 J0
G1 X-157.04
G2 X-158.315 Y-349.88 I0 J1.381
G3 X-159.59 Y-349.03 I-1.275 J-0.531
G1 X-163.246
G3 X-163.566 Y-349.35 I0 J-0.319
G1 Y-367.936
G3 X-163.246 Y-368.256 I0.319 J0
G1 X-145.635
G3 X-145.331 Y-367.941 I0 J0.304
X-145.347 Y-367.667 I-5.97 J-0.197
G2 X-145.357 Y-367.393 I3.468 J0.274
G1 X-145.34 Y-349.35
G3 X-145.66 Y-349.03 I-0.319 J0
G1 X-159.59
G2 X-160.841 Y-348.198 I0 J1.358
G3 X-162.093 Y-347.366 I-1.249 J-0.522
G1 X-163.703 Y-347.369
G2 X-164.33 Y-347.337 I0 J6.023
G3 X-164.955 Y-347.278 I-3.209 J-30.656
X-165.266 Y-347.563 I-0.024 J-0.286
G1 Y-369.636
G3 X-164.946 Y-369.956 I0.319 J0
G1 X-143.731
G3 X-143.469 Y-369.65 I0 J0.266
G2 X-143.62 Y-368.526 I30.931 J4.728
X-143.685 Y-367.393 I9.769 J1.133
G1 X-143.64 Y-347.65
G3 X-143.96 Y-347.33 I-0.319 J0
G1 X-162.093 Y-347.366
G2 X-163.385 Y-346.529 I-0.003 J1.41
G3 X-164.637 Y-345.634 I-1.387 J-0.617
G2 X-165.195 Y-345.569 I0.934 J10.443
X-166.666 Y-345.294 I2.568 J17.86
G3 X-166.966 Y-345.533 I-0.055 J-0.239
G1 Y-371.336
G3 X-166.646 Y-371.656 I0.319 J0
G1 X-141.547
G3 X-141.331 Y-371.362 I0 J0.226
G2 X-141.81 Y-369.402 I14.796 J4.65
X-141.985 Y-367.393 I11.407 J2.009
G1 X-141.94 Y-345.95
G3 X-142.26 Y-345.63 I-0.319 J0
G1 X-163.703 Y-345.675
G2 X-164.637 Y-345.634 I0 J10.484
X-165.863 Y-344.611 I0.125 J1.396
G3 X-166.975 Y-343.466 I-1.602 J-0.443
G2 X-168.381 Y-342.939 I3.732 J12.11
G3 X-168.666 Y-343.124 I-0.082 J-0.185
G1 Y-373.036
G3 X-168.346 Y-373.356 I0.319 J0
G1 X-138.903
G3 X-138.742 Y-373.079 I0 J0.185
G2 X-139.882 Y-370.336 I10.667 J6.042
X-140.285 Y-367.393 I10.533 J2.943
G1 X-140.24 Y-344.25
G3 X-140.56 Y-343.93 I-0.319 J0
G1 X-163.703 Y-343.975
G2 X-166.096 Y-343.702 I0 J10.629
X-166.975 Y-343.466 I2.854 J12.347
X-167.955 Y-342.203 I0.41 J1.33
G3 X-168.772 Y-340.83 I-1.703 J-0.083
G2 X-170.111 Y-339.856 I5.307 J8.714
G3 X-170.366 Y-339.973 I-0.1 J-0.117
G1 Y-374.743
G3 X-170.053 Y-375.056 I0.313 J0
G1 X-135.251
G3 X-135.16 Y-374.814 I0 J0.138
G2 X-137.677 Y-371.475 I6.622 J7.61
X-138.584 Y-367.393 I8.734 J4.082
G1 X-138.54 Y-342.543
G3 X-138.853 Y-342.23 I-0.313 J0
G1 X-163.703 Y-342.274
G2 X-167.124 Y-341.64 I0 J9.538
X-168.772 Y-340.83 I3.659 J9.524
G1 X-168.823 Y-340.805 Z-1.989
X-168.879 Y-340.791 Z-1.977
X-168.927 Y-340.787 Z-1.945
X-168.976 Y-340.791 Z-1.912
X-169.038 Y-340.809 Z-1.815
X-169.059 Y-340.818 Z-1.7
G0 Z5
X148.398 Y-357.062
G1 Z2.8 F333.3
X148.364 Y-357.08 Z2.653
X148.273 Y-357.134 Z2.544
X148.156 Y-357.219 Z2.5
G3 X149.938 Y-359.442 Z2.344 I0.891 J-1.112
X148.156 Y-357.219 Z2.187 I-0.891 J1.112
X149.938 Y-359.442 Z2.031 I0.891 J-1.112
X148.156 Y-357.219 Z1.875 I-0.891 J1.112
X149.938 Y-359.442 Z1.718 I0.891 J-1.112
X148.156 Y-357.219 Z1.562 I-0.891 J1.112
X149.938 Y-359.442 Z1.406 I0.891 J-1.112
X148.156 Y-357.219 Z1.249 I-0.891 J1.112
X149.938 Y-359.442 Z1.093 I0.891 J-1.112
X148.156 Y-357.219 Z0.937 I-0.891 J1.112
X149.938 Y-359.442 Z0.78 I0.891 J-1.112
X148.156 Y-357.219 Z0.624 I-0.891 J1.112
X149.938 Y-359.442 Z0.468 I0.891 J-1.112
X148.156 Y-357.219 Z0.311 I-0.891 J1.112
X149.938 Y-359.442 Z0.155 I0.891 J-1.112
X148.156 Y-357.219 Z-0.001 I-0.891 J1.112
X149.938 Y-359.442 Z-0.158 I0.891 J-1.112
X148.156 Y-357.219 Z-0.314 I-0.891 J1.112
X149.938 Y-359.442 Z-0.47 I0.891 J-1.112
X148.156 Y-357.219 Z-0.627 I-0.891 J1.112
X149.938 Y-359.442 Z-0.783 I0.891 J-1.112
X148.156 Y-357.219 Z-0.939 I-0.891 J1.112
X149.938 Y-359.442 Z-1.096 I0.891 J-1.112
X148.156 Y-357.219 Z-1.252 I-0.891 J1.112
X149.938 Y-359.442 Z-1.408 I0.891 J-1.112
X148.156 Y-357.219 Z-1.565 I-0.891 J1.112
X149.938 Y-359.442 Z-1.721 I0.891 J-1.112
X148.156 Y-357.219 Z-1.877 I-0.891 J1.112
X149.047 Y-359.756 Z-2 I0.891 J-1.112
G1 X149.34 F1000
G3 X149.66 Y-359.436 I0 J0.319
G1 Y-357.85
G3 X149.34 Y-357.53 I-0.319 J0
G1 X148.754
G3 X148.434 Y-357.85 I0 J-0.319
G1 Y-359.436
G3 X148.754 Y-359.756 I0.319 J0
G1 X149.047
G2 X150.105 Y-360.473 I0 J-1.139
G3 X151.36 Y-360.231 I0.604 J0.241
G1 Y-356.15
G3 X151.04 Y-355.83 I-0.319 J0
G1 X147.054
G3 X146.734 Y-356.15 I0 J-0.319
G1 Y-361.136
G3 X147.054 Y-361.456 I0.319 J0
G1 X151.04
G3 X151.36 Y-361.136 I0 J0.319
G1 Y-360.231
G2 X152.21 Y-358.956 I1.381 J0
G3 X153.06 Y-357.681 I-0.531 J1.275
G1 Y-354.45
G3 X152.74 Y-354.13 I-0.319 J0
G1 X145.354
G3 X145.034 Y-354.45 I0 J-0.319
G1 Y-362.836
G3 X145.354 Y-363.156 I0.319 J0
G1 X152.74
G3 X153.06 Y-362.836 I0 J0.319
G1 Y-357.681
G2 X153.91 Y-356.406 I1.381 J0
G3 X154.76 Y-355.131 I-0.531 J1.275
G1 Y-352.75
G3 X154.44 Y-352.43 I-0.319 J0
G1 X143.654
G3 X143.334 Y-352.75 I0 J-0.319
G1 Y-364.536
G3 X143.654 Y-364.856 I0.319 J0
G1 X154.44
G3 X154.76 Y-364.536 I0 J0.319
G1 Y-355.131
G2 X155.61 Y-353.856 I1.381 J0
G3 X156.46 Y-352.581 I-0.531 J1.275
G1 Y-351.05
G3 X156.14 Y-350.73 I-0.319 J0
G1 X141.954
G3 X141.634 Y-351.05 I0 J-0.319
G1 Y-366.236
G3 X141.954 Y-366.556 I0.319 J0
G1 X156.14
G3 X156.46 Y-366.236 I0 J0.319
G1 Y-352.581
G2 X157.31 Y-351.306 I1.381 J0
G3 X158.16 Y-350.031 I-0.531 J1.275
G1 Y-349.35
G3 X157.84 Y-349.03 I-0.319 J0
G1 X140.254
G3 X139.934 Y-349.35 I0 J-0.319
G1 X139.951 Y-367.393
G2 X139.941 Y-367.667 I-3.479 J0
G3 X139.925 Y-367.941 I5.955 J-0.471
X140.229 Y-368.256 I0.304 J-0.01
G1 X157.84
G3 X158.16 Y-367.936 I0 J0.319
G1 Y-350.031
G2 X158.993 Y-348.805 I1.319 J0
G3 X158.67 Y-347.358 I-0.276 J0.698
G2 X158.297 Y-347.369 I-0.373 J6.011
G1 X138.554 Y-347.33
G3 X138.234 Y-347.65 I0 J-0.319
G1 X138.279 Y-367.393
G2 X138.214 Y-368.526 I-9.835 J0
X138.063 Y-369.65 I-31.083 J3.604
G3 X138.325 Y-369.956 I0.263 J-0.04
G1 X159.54
G3 X159.86 Y-369.636 I0 J0.319
G1 Y-347.563
G3 X159.549 Y-347.278 I-0.287 J0
X158.924 Y-347.337 I2.584 J-30.715
G2 X158.67 Y-347.358 I-0.627 J5.99
X157.337 Y-346.535 I-0.084 J1.355
G3 X156.032 Y-345.671 I-1.309 J-0.558
G1 X136.854 Y-345.63
G3 X136.534 Y-345.95 I0 J-0.319
G1 X136.579 Y-367.393
G2 X136.404 Y-369.402 I-11.582 J0
X135.925 Y-371.362 I-15.275 J2.691
G3 X136.141 Y-371.656 I0.216 J-0.068
G1 X161.24
G3 X161.56 Y-371.336 I0 J0.319
G1 Y-345.533
G3 X161.26 Y-345.294 I-0.245 J0
G2 X159.789 Y-345.569 I-4.039 J17.586
X158.297 Y-345.675 I-1.492 J10.378
G1 X156.032 Y-345.671
G2 X154.759 Y-344.818 I0.003 J1.381
G3 X153.486 Y-343.966 I-1.276 J-0.528
G1 X135.154 Y-343.93
G3 X134.834 Y-344.25 I0 J-0.319
G1 X134.879 Y-367.393
G2 X134.476 Y-370.336 I-10.937 J0
X133.336 Y-373.079 I-11.807 J3.299
G3 X133.497 Y-373.356 I0.161 J-0.091
G1 X162.94
G3 X163.26 Y-373.036 I0 J0.319
G1 Y-343.124
G3 X162.975 Y-342.939 I-0.202 J0
G2 X160.69 Y-343.702 I-5.138 J11.584
X158.297 Y-343.975 I-2.393 J10.356
G1 X153.486 Y-343.966
G2 X152.212 Y-343.114 I0.003 J1.382
G3 X150.939 Y-342.261 I-1.276 J-0.529
G1 X133.447 Y-342.23
G3 X133.134 Y-342.543 I0 J-0.313
G1 X133.178 Y-367.393
G2 X132.271 Y-371.475 I-9.641 J0
X129.754 Y-374.814 I-9.139 J4.271
G3 X129.845 Y-375.056 I0.09 J-0.104
G1 X164.647
G3 X164.96 Y-374.743 I0 J0.313
G1 Y-339.973
G3 X164.705 Y-339.856 I-0.154 J0
G2 X161.718 Y-341.64 I-6.647 J7.741
X158.297 Y-342.274 I-3.421 J8.904
G1 X150.939 Y-342.261
G2 X149.666 Y-341.409 I0.002 J1.381
G3 X148.393 Y-340.557 I-1.275 J-0.529
G1 X131.753 Y-340.529
G3 X131.433 Y-340.849 I0 J-0.319
G1 X131.478 Y-367.393
G2 X123.297 Y-375.574 I-8.181 J0
G1 X-128.703
G2 X-136.884 Y-367.393 I0 J8.181
G1 X-136.839 Y-340.849
G3 X-137.159 Y-340.529 I-0.319 J0
G1 X-163.703 Y-340.574
G2 X-171.884 Y-332.393 I0 J8.181
G1 Y337.607
G2 X-163.703 Y345.788 I8.181 J0
G1 X-137.159 Y345.743
G3 X-136.839 Y346.063 I0 J0.319
G1 X-136.884 Y372.607
G2 X-128.703 Y380.788 I8.181 J0
G1 X123.297
G2 X131.478 Y372.607 I0 J-8.181
G1 X131.433 Y346.063
G3 X131.753 Y345.743 I0.319 J0
G1 X158.297 Y345.788
G2 X166.478 Y337.607 I0 J-8.181
G1 Y-332.393
G2 X158.297 Y-340.574 I-8.181 J0
G1 X148.393 Y-340.557
G2 X147.246 Y-339.79 I0.002 J1.243
G3 X146.1 Y-339.023 I-1.148 J-0.476
G1 X130.221 Y-338.998
G3 X129.902 Y-339.317 I0 J-0.319
G1 X129.947 Y-367.393
G2 X123.297 Y-374.043 I-6.65 J0
G1 X-128.703
G2 X-135.353 Y-367.393 I0 J6.65
G1 X-135.308 Y-339.317
G3 X-135.627 Y-338.998 I-0.319 J0
G1 X-163.703 Y-339.043
G2 X-170.353 Y-332.393 I0 J6.65
G1 Y337.607
G2 X-163.703 Y344.257 I6.65 J0
G1 X-135.627 Y344.212
G3 X-135.308 Y344.531 I0 J0.319
G1 X-135.353 Y372.607
G2 X-128.703 Y379.257 I6.65 J0
G1 X123.297
G2 X129.947 Y372.607 I0 J-6.65
G1 X129.902 Y344.531
G3 X130.221 Y344.212 I0.319 J0
G1 X158.297 Y344.257
G2 X164.947 Y337.607 I0 J-6.65
G1 Y-332.393
G2 X158.297 Y-339.043 I-6.65 J0
G1 X146.1 Y-339.023
G2 X144.827 Y-338.172 I0.002 J1.38
G3 X143.554 Y-337.321 I-1.275 J-0.529
G1 X128.521 Y-337.298
G3 X128.202 Y-337.617 I0 J-0.319
G1 X128.247 Y-367.393
G2 X123.297 Y-372.343 I-4.95 J0
G1 X-128.703
G2 X-133.653 Y-367.393 I0 J4.95
G1 X-133.608 Y-337.617
G3 X-133.927 Y-337.298 I-0.319 J0
G1 X-163.703 Y-337.343
G2 X-168.653 Y-332.393 I0 J4.95
G1 Y337.607
G2 X-163.703 Y342.557 I4.95 J0
G1 X-133.927 Y342.512
G3 X-133.608 Y342.831 I0 J0.319
G1 X-133.653 Y372.607
G2 X-128.703 Y377.557 I4.95 J0
G1 X123.297
G2 X128.247 Y372.607 I0 J-4.95
G1 X128.202 Y342.831
G3 X128.521 Y342.512 I0.319 J0
G1 X158.297 Y342.557
G2 X163.247 Y337.607 I0 J-4.95
G1 Y-332.393
G2 X158.297 Y-337.343 I-4.95 J0
G1 X143.554 Y-337.321
G2 X142.281 Y-336.47 I0.002 J1.38
G3 X141.009 Y-335.618 I-1.275 J-0.529
G1 X126.821 Y-335.598
G3 X126.502 Y-335.917 I0 J-0.319
G1 X126.547 Y-367.393
G2 X123.297 Y-370.643 I-3.25 J0
G1 X-128.703
G2 X-131.953 Y-367.393 I0 J3.25
G1 X-131.908 Y-335.917
G3 X-132.227 Y-335.598 I-0.319 J0
G1 X-163.703 Y-335.643
G2 X-166.953 Y-332.393 I0 J3.25
G1 Y337.607
G2 X-163.703 Y340.857 I3.25 J0
G1 X-132.227 Y340.812
G3 X-131.908 Y341.131 I0 J0.319
G1 X-131.953 Y372.607
G2 X-128.703 Y375.857 I3.25 J0
G1 X123.297
G2 X126.547 Y372.607 I0 J-3.25
G1 X126.502 Y341.131
G3 X126.821 Y340.812 I0.319 J0
G1 X158.297 Y340.857
G2 X161.547 Y337.607 I0 J-3.25
G1 Y-332.393
G2 X158.297 Y-335.643 I-3.25 J0
G1 X141.009 Y-335.618
G2 X139.716 Y-334.756 I0.002 J1.403
G3 X138.423 Y-333.893 I-1.293 J-0.537
G1 X124.797
Y-367.393
G2 X123.297 Y-368.893 I-1.5 J0
G1 X-128.703
G2 X-130.203 Y-367.393 I0 J1.5
G1 Y-333.893
X-163.703
G2 X-165.203 Y-332.393 I0 J1.5
G1 Y337.607
G2 X-163.703 Y339.107 I1.5 J0
G1 X-130.203
Y372.607
G2 X-128.703 Y374.107 I1.5 J0
G1 X123.297
G2 X124.797 Y372.607 I0 J-1.5
G1 Y339.107
X158.297
G2 X159.797 Y337.607 I0 J-1.5
G1 Y-332.393
G2 X158.297 Y-333.893 I-1.5 J0
G1 X138.423
G3 X138.229 Y-334.142 I0 J-0.2
G1 X148.844 Y-376.605
X148.863 Y-376.654
X148.895 Y-376.697
X148.937 Y-376.729
X148.985 Y-376.75
X149.038 Y-376.757
X166.341
G3 X166.661 Y-376.437 I0 J0.319
G1 Y381.651
G3 X166.341 Y381.971 I-0.319 J0
G1 X-171.747
G3 X-172.067 Y381.651 I0 J-0.319
G1 Y-376.437
G3 X-171.747 Y-376.757 I0.319 J0
G1 X149.038
G2 X150.186 Y-377.522 I0 J-1.244
G3 X151.335 Y-378.288 I1.148 J0.479
G1 X167.873
G3 X168.192 Y-377.969 I0 J0.319
G1 Y383.183
G3 X167.873 Y383.502 I-0.319 J0
G1 X-173.279
G3 X-173.598 Y383.183 I0 J-0.319
G1 Y-377.969
G3 X-173.279 Y-378.288 I0.319 J0
G1 X151.335
G2 X152.61 Y-379.138 I0 J-1.381
G3 X153.885 Y-379.988 I1.275 J0.531
G1 X169.573
G3 X169.892 Y-379.669 I0 J0.319
G1 Y384.883
G3 X169.573 Y385.202 I-0.319 J0
G1 X-174.979
G3 X-175.298 Y384.883 I0 J-0.319
G1 Y-379.669
G3 X-174.979 Y-379.988 I0.319 J0
G1 X153.885
G2 X155.16 Y-380.838 I0 J-1.381
G3 X156.435 Y-381.688 I1.275 J0.531
G1 X171.273
G3 X171.592 Y-381.369 I0 J0.319
G1 Y386.583
G3 X171.273 Y386.902 I-0.319 J0
G1 X-176.679
G3 X-176.998 Y386.583 I0 J-0.319
G1 Y-381.369
G3 X-176.679 Y-381.688 I0.319 J0
G1 X156.435
G2 X157.713 Y-382.54 I0 J-1.385
G3 X158.992 Y-383.393 I1.279 J0.533
G1 X173.297
Y388.607
X-178.703
Y-383.393
X158.992
X159.038 Y-383.386
X159.08 Y-383.365
X159.113 Y-383.332
X159.134 Y-383.291
X159.142 Y-383.245
X159.135 Y-383.199
X158.599 Y-381.469
X148.435 Y-357.626
X148.316 Y-357.238
X148.301 Y-357.21
X148.276 Y-357.189
X148.246 Y-357.179
X148.214 Y-357.182
X148.185 Y-357.196
G3 X149.909 Y-359.466 Z-2.156 I0.862 J-1.135 F333.3
X148.185 Y-357.196 Z-2.313 I-0.862 J1.135
X149.909 Y-359.466 Z-2.469 I0.862 J-1.135
X148.185 Y-357.196 Z-2.625 I-0.862 J1.135
X149.909 Y-359.466 Z-2.782 I0.862 J-1.135
X148.185 Y-357.196 Z-2.938 I-0.862 J1.135
X149.909 Y-359.466 Z-3.094 I0.862 J-1.135
X148.185 Y-357.196 Z-3.251 I-0.862 J1.135
X149.909 Y-359.466 Z-3.407 I0.862 J-1.135
X148.185 Y-357.196 Z-3.563 I-0.862 J1.135
X149.909 Y-359.466 Z-3.72 I0.862 J-1.135
X148.185 Y-357.196 Z-3.876 I-0.862 J1.135
X149.047 Y-359.756 Z-4 I0.862 J-1.135
G1 X149.34 F1000
G3 X149.66 Y-359.436 I0 J0.319
G1 Y-357.85
G3 X149.34 Y-357.53 I-0.319 J0
G1 X148.754
G3 X148.434 Y-357.85 I0 J-0.319
G1 Y-359.436
G3 X148.754 Y-359.756 I0.319 J0
G1 X149.047
G2 X150.105 Y-360.473 I0 J-1.139
G3 X151.36 Y-360.231 I0.604 J0.241
G1 Y-356.15
G3 X151.04 Y-355.83 I-0.319 J0
G1 X147.054
G3 X146.734 Y-356.15 I0 J-0.319
G1 Y-361.136
G3 X147.054 Y-361.456 I0.319 J0
G1 X151.04
G3 X151.36 Y-361.136 I0 J0.319
G1 Y-360.231
G2 X152.21 Y-358.956 I1.381 J0
G3 X153.06 Y-357.681 I-0.531 J1.275
G1 Y-354.45
G3 X152.74 Y-354.13 I-0.319 J0
G1 X145.354
G3 X145.034 Y-354.45 I0 J-0.319
G1 Y-362.836
G3 X145.354 Y-363.156 I0.319 J0
G1 X152.74
G3 X153.06 Y-362.836 I0 J0.319
G1 Y-357.681
G2 X153.91 Y-356.406 I1.381 J0
G3 X154.76 Y-355.131 I-0.531 J1.275
G1 Y-352.75
G3 X154.44 Y-352.43 I-0.319 J0
G1 X143.654
G3 X143.334 Y-352.75 I0 J-0.319
G1 Y-364.536
G3 X143.654 Y-364.856 I0.319 J0
G1 X154.44
G3 X154.76 Y-364.536 I0 J0.319
G1 Y-355.131
G2 X155.61 Y-353.856 I1.381 J0
G3 X156.46 Y-352.581 I-0.531 J1.275
G1 Y-351.05
G3 X156.14 Y-350.73 I-0.319 J0
G1 X141.954
G3 X141.634 Y-351.05 I0 J-0.319
G1 Y-366.236
G3 X141.954 Y-366.556 I0.319 J0
G1 X156.14
G3 X156.46 Y-366.236 I0 J0.319
G1 Y-352.581
G2 X157.31 Y-351.306 I1.381 J0
G3 X158.16 Y-350.031 I-0.531 J1.275
G1 Y-349.35
G3 X157.84 Y-349.03 I-0.319 J0
G1 X140.254
G3 X139.934 Y-349.35 I0 J-0.319
G1 X139.951 Y-367.393
G2 X139.941 Y-367.667 I-3.479 J0
G3 X139.925 Y-367.941 I5.955 J-0.471
X140.229 Y-368.256 I0.304 J-0.01
G1 X157.84
G3 X158.16 Y-367.936 I0 J0.319
G1 Y-350.031
G2 X158.993 Y-348.805 I1.319 J0
G3 X158.67 Y-347.358 I-0.276 J0.698
G2 X158.297 Y-347.369 I-0.373 J6.011
G1 X138.554 Y-347.33
G3 X138.234 Y-347.65 I0 J-0.319
G1 X138.279 Y-367.393
G2 X138.214 Y-368.526 I-9.835 J0
X138.063 Y-369.65 I-31.083 J3.604
G3 X138.325 Y-369.956 I0.263 J-0.04
G1 X159.54
G3 X159.86 Y-369.636 I0 J0.319
G1 Y-347.563
G3 X159.549 Y-347.278 I-0.287 J0
X158.924 Y-347.337 I2.584 J-30.715
G2 X158.67 Y-347.358 I-0.627 J5.99
X157.337 Y-346.535 I-0.084 J1.355
G3 X156.032 Y-345.671 I-1.309 J-0.558
G1 X136.854 Y-345.63
G3 X136.534 Y-345.95 I0 J-0.319
G1 X136.579 Y-367.393
G2 X136.404 Y-369.402 I-11.582 J0
X135.925 Y-371.362 I-15.275 J2.691
G3 X136.141 Y-371.656 I0.216 J-0.068
G1 X161.24
G3 X161.56 Y-371.336 I0 J0.319
G1 Y-345.533
G3 X161.26 Y-345.294 I-0.245 J0
G2 X159.789 Y-345.569 I-4.039 J17.586
X158.297 Y-345.675 I-1.492 J10.378
G1 X156.032 Y-345.671
G2 X154.759 Y-344.818 I0.003 J1.381
G3 X153.486 Y-343.966 I-1.276 J-0.528
G1 X135.154 Y-343.93
G3 X134.834 Y-344.25 I0 J-0.319
G1 X134.879 Y-367.393
G2 X134.476 Y-370.336 I-10.937 J0
X133.336 Y-373.079 I-11.807 J3.299
G3 X133.497 Y-373.356 I0.161 J-0.091
G1 X162.94
G3 X163.26 Y-373.036 I0 J0.319
G1 Y-343.124
G3 X162.975 Y-342.939 I-0.202 J0
G2 X160.69 Y-343.702 I-5.138 J11.584
X158.297 Y-343.975 I-2.393 J10.356
G1 X153.486 Y-343.966
G2 X152.212 Y-343.114 I0.003 J1.382
G3 X150.939 Y-342.261 I-1.276 J-0.529
G1 X133.447 Y-342.23
G3 X133.134 Y-342.543 I0 J-0.313
G1 X133.178 Y-367.393
G2 X132.271 Y-371.475 I-9.641 J0
X129.754 Y-374.814 I-9.139 J4.271
G3 X129.845 Y-375.056 I0.09 J-0.104
G1 X164.647
G3 X164.96 Y-374.743 I0 J0.313
G1 Y-339.973
G3 X164.705 Y-339.856 I-0.154 J0
G2 X161.718 Y-341.64 I-6.647 J7.741
X158.297 Y-342.274 I-3.421 J8.904
G1 X150.939 Y-342.261
X150.882 Y-342.267 Z-3.989
X150.827 Y-342.283 Z-3.977
X150.783 Y-342.305 Z-3.945
X150.744 Y-342.333 Z-3.912
X150.699 Y-342.38 Z-3.815
X150.686 Y-342.399 Z-3.7
G0 Z5
X-156.534 Y-359.792
G1 Z0.8 F333.3
X-156.516 Y-359.826 Z0.653
X-156.462 Y-359.917 Z0.544
X-156.377 Y-360.034 Z0.5
G3 X-154.154 Y-358.252 Z0.344 I1.112 J0.891
X-156.377 Y-360.034 Z0.187 I-1.112 J-0.891
X-154.154 Y-358.252 Z0.031 I1.112 J0.891
X-156.377 Y-360.034 Z-0.125 I-1.112 J-0.891
X-154.154 Y-358.252 Z-0.282 I1.112 J0.891
X-156.377 Y-360.034 Z-0.438 I-1.112 J-0.891
X-154.154 Y-358.252 Z-0.594 I1.112 J0.891
X-156.377 Y-360.034 Z-0.751 I-1.112 J-0.891
X-154.154 Y-358.252 Z-0.907 I1.112 J0.891
X-156.377 Y-360.034 Z-1.063 I-1.112 J-0.891
X-154.154 Y-358.252 Z-1.22 I1.112 J0.891
X-156.377 Y-360.034 Z-1.376 I-1.112 J-0.891
X-154.154 Y-358.252 Z-1.532 I1.112 J0.891
X-156.377 Y-360.034 Z-1.689 I-1.112 J-0.891
X-154.154 Y-358.252 Z-1.845 I1.112 J0.891
X-156.377 Y-360.034 Z-2.001 I-1.112 J-0.891
X-154.154 Y-358.252 Z-2.158 I1.112 J0.891
X-156.377 Y-360.034 Z-2.314 I-1.112 J-0.891
X-154.154 Y-358.252 Z-2.47 I1.112 J0.891
X-156.377 Y-360.034 Z-2.627 I-1.112 J-0.891
X-154.154 Y-358.252 Z-2.783 I1.112 J0.891
X-156.377 Y-360.034 Z-2.939 I-1.112 J-0.891
X-154.154 Y-358.252 Z-3.096 I1.112 J0.891
X-156.377 Y-360.034 Z-3.252 I-1.112 J-0.891
X-154.154 Y-358.252 Z-3.408 I1.112 J0.891
X-156.377 Y-360.034 Z-3.565 I-1.112 J-0.891
X-154.154 Y-358.252 Z-3.721 I1.112 J0.891
X-156.377 Y-360.034 Z-3.877 I-1.112 J-0.891
X-153.84 Y-359.143 Z-4 I1.112 J0.891
G1 Y-357.85 F1000
G3 X-154.16 Y-357.53 I-0.319 J0
G1 X-154.746
G3 X-155.066 Y-357.85 I0 J-0.319
G1 Y-359.436
G3 X-154.746 Y-359.756 I0.319 J0
G1 X-154.16
G3 X-153.84 Y-359.436 I0 J0.319
G1 Y-359.143
G2 X-152.99 Y-357.868 I1.381 J0
G3 X-152.14 Y-356.593 I-0.531 J1.275
G1 Y-356.15
G3 X-152.46 Y-355.83 I-0.319 J0
G1 X-156.446
G3 X-156.766 Y-356.15 I0 J-0.319
G1 Y-361.136
G3 X-156.446 Y-361.456 I0.319 J0
G1 X-152.46
G3 X-152.14 Y-361.136 I0 J0.319
G1 Y-356.593
G2 X-151.53 Y-355.403 I1.465 J0
G3 X-151.94 Y-354.13 I-0.41 J0.571
G1 X-158.146
G3 X-158.466 Y-354.45 I0 J-0.319
G1 Y-362.836
G3 X-158.146 Y-363.156 I0.319 J0
G1 X-150.76
G3 X-150.44 Y-362.836 I0 J0.319
G1 Y-354.45
G3 X-150.76 Y-354.13 I-0.319 J0
G1 X-151.94
G2 X-153.215 Y-353.28 I0 J1.381
G3 X-154.49 Y-352.43 I-1.275 J-0.531
G1 X-159.846
G3 X-160.166 Y-352.75 I0 J-0.319
G1 Y-364.536
G3 X-159.846 Y-364.856 I0.319 J0
G1 X-149.06
G3 X-148.74 Y-364.536 I0 J0.319
G1 Y-352.75
G3 X-149.06 Y-352.43 I-0.319 J0
G1 X-154.49
G2 X-155.765 Y-351.58 I0 J1.381
G3 X-157.04 Y-350.73 I-1.275 J-0.531
G1 X-161.546
G3 X-161.866 Y-351.05 I0 J-0.319
G1 Y-366.236
G3 X-161.546 Y-366.556 I0.319 J0
G1 X-147.36
G3 X-147.04 Y-366.236 I0 J0.319
G1 Y-351.05
G3 X-147.36 Y-350.73 I-0.319 J0
G1 X-157.04
G2 X-158.315 Y-349.88 I0 J1.381
G3 X-159.59 Y-349.03 I-1.275 J-0.531
G1 X-163.246
G3 X-163.566 Y-349.35 I0 J-0.319
G1 Y-367.936
G3 X-163.246 Y-368.256 I0.319 J0
G1 X-145.635
G3 X-145.331 Y-367.941 I0 J0.304
X-145.347 Y-367.667 I-5.97 J-0.197
G2 X-145.357 Y-367.393 I3.468 J0.274
G1 X-145.34 Y-349.35
G3 X-145.66 Y-349.03 I-0.319 J0
G1 X-159.59
G2 X-160.841 Y-348.198 I0 J1.358
G3 X-162.093 Y-347.366 I-1.249 J-0.522
G1 X-163.703 Y-347.369
G2 X-164.33 Y-347.337 I0 J6.023
G3 X-164.955 Y-347.278 I-3.209 J-30.656
X-165.266 Y-347.563 I-0.024 J-0.286
G1 Y-369.636
G3 X-164.946 Y-369.956 I0.319 J0
G1 X-143.731
G3 X-143.469 Y-369.65 I0 J0.266
G2 X-143.62 Y-368.526 I30.931 J4.728
X-143.685 Y-367.393 I9.769 J1.133
G1 X-143.64 Y-347.65
G3 X-143.96 Y-347.33 I-0.319 J0
G1 X-162.093 Y-347.366
G2 X-163.385 Y-346.529 I-0.003 J1.41
G3 X-164.637 Y-345.634 I-1.387 J-0.617
G2 X-165.195 Y-345.569 I0.934 J10.443
X-166.666 Y-345.294 I2.568 J17.86
G3 X-166.966 Y-345.533 I-0.055 J-0.239
G1 Y-371.336
G3 X-166.646 Y-371.656 I0.319 J0
G1 X-141.547
G3 X-141.331 Y-371.362 I0 J0.226
G2 X-141.81 Y-369.402 I14.796 J4.65
X-141.985 Y-367.393 I11.407 J2.009
G1 X-141.94 Y-345.95
G3 X-142.26 Y-345.63 I-0.319 J0
G1 X-163.703 Y-345.675
G2 X-164.637 Y-345.634 I0 J10.484
X-165.863 Y-344.611 I0.125 J1.396
G3 X-166.975 Y-343.466 I-1.602 J-0.443
G2 X-168.381 Y-342.939 I3.732 J12.11
G3 X-168.666 Y-343.124 I-0.082 J-0.185
G1 Y-373.036
G3 X-168.346 Y-373.356 I0.319 J0
G1 X-138.903
G3 X-138.742 Y-373.079 I0 J0.185
G2 X-139.882 Y-370.336 I10.667 J6.042
X-140.285 Y-367.393 I10.533 J2.943
G1 X-140.24 Y-344.25
G3 X-140.56 Y-343.93 I-0.319 J0
G1 X-163.703 Y-343.975
G2 X-166.096 Y-343.702 I0 J10.629
X-166.975 Y-343.466 I2.854 J12.347
X-167.955 Y-342.203 I0.41 J1.33
G3 X-168.772 Y-340.83 I-1.703 J-0.083
G2 X-170.111 Y-339.856 I5.307 J8.714
G3 X-170.366 Y-339.973 I-0.1 J-0.117
G1 Y-374.743
G3 X-170.053 Y-375.056 I0.313 J0
G1 X-135.251
G3 X-135.16 Y-374.814 I0 J0.138
G2 X-137.677 Y-371.475 I6.622 J7.61
X-138.584 Y-367.393 I8.734 J4.082
G1 X-138.54 Y-342.543
G3 X-138.853 Y-342.23 I-0.313 J0
G1 X-163.703 Y-342.274
G2 X-167.124 Y-341.64 I0 J9.538
X-168.772 Y-340.83 I3.659 J9.524
G1 X-168.823 Y-340.805 Z-3.989
X-168.879 Y-340.791 Z-3.977
X-168.927 Y-340.787 Z-3.945
X-168.976 Y-340.791 Z-3.912
X-169.038 Y-340.809 Z-3.815
X-169.059 Y-340.818 Z-3.7
G0 Z5
X-156.534 Y363.708
G1 Z0.8 F333.3
X-156.516 Y363.674 Z0.653
X-156.462 Y363.583 Z0.544
X-156.377 Y363.466 Z0.5
G3 X-154.154 Y365.248 Z0.344 I1.112 J0.891
X-156.377 Y363.466 Z0.187 I-1.112 J-0.891
X-154.154 Y365.248 Z0.031 I1.112 J0.891
X-156.377 Y363.466 Z-0.125 I-1.112 J-0.891
X-154.154 Y365.248 Z-0.282 I1.112 J0.891
X-156.377 Y363.466 Z-0.438 I-1.112 J-0.891
X-154.154 Y365.248 Z-0.594 I1.112 J0.891
X-156.377 Y363.466 Z-0.751 I-1.112 J-0.891
X-154.154 Y365.248 Z-0.907 I1.112 J0.891
X-156.377 Y363.466 Z-1.063 I-1.112 J-0.891
X-154.154 Y365.248 Z-1.22 I1.112 J0.891
X-156.377 Y363.466 Z-1.376 I-1.112 J-0.891
X-154.154 Y365.248 Z-1.532 I1.112 J0.891
X-156.377 Y363.466 Z-1.689 I-1.112 J-0.891
X-154.154 Y365.248 Z-1.845 I1.112 J0.891
X-156.377 Y363.466 Z-2.001 I-1.112 J-0.891
X-154.154 Y365.248 Z-2.158 I1.112 J0.891
X-156.377 Y363.466 Z-2.314 I-1.112 J-0.891
X-154.154 Y365.248 Z-2.47 I1.112 J0.891
X-156.377 Y363.466 Z-2.627 I-1.112 J-0.891
X-154.154 Y365.248 Z-2.783 I1.112 J0.891
X-156.377 Y363.466 Z-2.939 I-1.112 J-0.891
X-154.154 Y365.248 Z-3.096 I1.112 J0.891
X-156.377 Y363.466 Z-3.252 I-1.112 J-0.891
X-154.154 Y365.248 Z-3.408 I1.112 J0.891
X-156.377 Y363.466 Z-3.565 I-1.112 J-0.891
X-154.154 Y365.248 Z-3.721 I1.112 J0.891
X-156.377 Y363.466 Z-3.877 I-1.112 J-0.891
X-153.84 Y364.357 Z-4 I1.112 J0.891
G1 Y364.65 F1000
G3 X-154.16 Y364.97 I-0.319 J0
G1 X-154.746
G3 X-155.066 Y364.65 I0 J-0.319
G1 Y363.064
G3 X-154.746 Y362.744 I0.319 J0
G1 X-154.16
G3 X-153.84 Y363.064 I0 J0.319
G1 Y364.357
G2 X-153.123 Y365.415 I1.139 J0
G3 X-153.365 Y366.67 I-0.241 J0.604
G1 X-156.446
G3 X-156.766 Y366.35 I0 J-0.319
G1 Y361.364
G3 X-156.446 Y361.044 I0.319 J0
G1 X-152.46
G3 X-152.14 Y361.364 I0 J0.319
G1 Y366.35
G3 X-152.46 Y366.67 I-0.319 J0
G1 X-153.365
G2 X-154.64 Y367.52 I0 J1.381
G3 X-155.915 Y368.37 I-1.275 J-0.531
G1 X-158.146
G3 X-158.466 Y368.05 I0 J-0.319
G1 Y359.664
G3 X-158.146 Y359.344 I0.319 J0
G1 X-150.76
G3 X-150.44 Y359.664 I0 J0.319
G1 Y368.05
G3 X-150.76 Y368.37 I-0.319 J0
G1 X-155.915
G2 X-157.19 Y369.22 I0 J1.381
G3 X-158.465 Y370.07 I-1.275 J-0.531
G1 X-159.846
G3 X-160.166 Y369.75 I0 J-0.319
G1 Y357.964
G3 X-159.846 Y357.644 I0.319 J0
G1 X-149.06
G3 X-148.74 Y357.964 I0 J0.319
G1 Y369.75
G3 X-149.06 Y370.07 I-0.319 J0
G1 X-158.465
G2 X-159.74 Y370.92 I0 J1.381
G3 X-161.015 Y371.77 I-1.275 J-0.531
G1 X-161.546
G3 X-161.866 Y371.45 I0 J-0.319
G1 Y356.264
G3 X-161.546 Y355.944 I0.319 J0
G1 X-147.36
G3 X-147.04 Y356.264 I0 J0.319
G1 Y371.45
G3 X-147.36 Y371.77 I-0.319 J0
G1 X-161.015
G2 X-162.23 Y372.443 I0 J1.435
G3 X-163.566 Y372.059 I-0.613 J-0.384
G1 Y354.564
G3 X-163.246 Y354.244 I0.319 J0
G1 X-145.66
G3 X-145.34 Y354.564 I0 J0.319
G1 X-145.357 Y372.607
G2 X-145.347 Y372.881 I3.479 J0
G3 X-145.331 Y373.155 I-5.955 J0.471
X-145.635 Y373.47 I-0.304 J0.01
G1 X-163.246
G3 X-163.566 Y373.15 I0 J-0.319
G1 Y372.059
G2 X-164.416 Y370.784 I-1.381 J0
G3 X-165.266 Y369.509 I0.531 J-1.275
G1 Y352.777
G3 X-164.955 Y352.492 I0.287 J0
X-164.33 Y352.551 I-2.584 J30.715
G2 X-163.703 Y352.583 I0.627 J-5.99
G1 X-143.96 Y352.544
G3 X-143.64 Y352.864 I0 J0.319
G1 X-143.685 Y372.607
G2 X-143.62 Y373.74 I9.835 J0
X-143.469 Y374.864 I31.083 J-3.604
G3 X-143.731 Y375.17 I-0.263 J0.04
G1 X-164.946
G3 X-165.266 Y374.85 I0 J-0.319
G1 Y369.509
G2 X-166.116 Y368.234 I-1.381 J0
G3 X-166.966 Y366.959 I0.531 J-1.275
G1 Y350.747
G3 X-166.666 Y350.508 I0.245 J0
G2 X-165.195 Y350.783 I4.039 J-17.586
X-163.703 Y350.889 I1.492 J-10.378
G1 X-142.26 Y350.844
G3 X-141.94 Y351.164 I0 J0.319
G1 X-141.985 Y372.607
G2 X-141.81 Y374.616 I11.582 J0
X-141.331 Y376.576 I15.275 J-2.691
G3 X-141.547 Y376.87 I-0.216 J0.068
G1 X-166.646
G3 X-166.966 Y376.55 I0 J-0.319
G1 Y366.959
G2 X-167.816 Y365.684 I-1.381 J0
G3 X-168.666 Y364.409 I0.531 J-1.275
G1 Y348.338
G3 X-168.381 Y348.153 I0.202 J0
G2 X-166.096 Y348.916 I5.138 J-11.584
X-163.703 Y349.189 I2.393 J-10.356
G1 X-140.56 Y349.144
G3 X-140.24 Y349.464 I0 J0.319
G1 X-140.285 Y372.607
G2 X-139.882 Y375.55 I10.937 J0
X-138.742 Y378.293 I11.807 J-3.299
G3 X-138.903 Y378.57 I-0.161 J0.091
G1 X-168.346
G3 X-168.666 Y378.25 I0 J-0.319
G1 Y364.409
G2 X-169.516 Y363.134 I-1.381 J0
G3 X-170.366 Y361.859 I0.531 J-1.275
G1 Y345.187
G3 X-170.111 Y345.07 I0.154 J0
G2 X-167.124 Y346.854 I6.647 J-7.741
X-163.703 Y347.488 I3.421 J-8.904
G1 X-138.853 Y347.444
G3 X-138.54 Y347.757 I0 J0.313
G1 X-138.584 Y372.607
G2 X-137.677 Y376.689 I9.641 J0
X-135.16 Y380.028 I9.139 J-4.271
G3 X-135.251 Y380.27 I-0.09 J0.104
G1 X-170.053
G3 X-170.366 Y379.957 I0 J-0.313
G1 Y361.859
X-170.36 Y361.802 Z-3.989
X-170.344 Y361.747 Z-3.977
X-170.322 Y361.703 Z-3.945
X-170.294 Y361.664 Z-3.912
X-170.247 Y361.619 Z-3.815
X-170.228 Y361.606 Z-3.7
G0 Z5
X149.696 Y362.276
G1 Z0.8 F333.3
X149.73 Y362.294 Z0.653
X149.821 Y362.348 Z0.544
X149.938 Y362.433 Z0.5
G3 X148.156 Y364.656 Z0.344 I-0.891 J1.112
X149.938 Y362.433 Z0.187 I0.891 J-1.112
X148.156 Y364.656 Z0.031 I-0.891 J1.112
X149.938 Y362.433 Z-0.125 I0.891 J-1.112
X148.156 Y364.656 Z-0.282 I-0.891 J1.112
X149.938 Y362.433 Z-0.438 I0.891 J-1.112
X148.155 Y364.656 Z-0.594 I-0.891 J1.112
X149.938 Y362.433 Z-0.751 I0.891 J-1.112
X148.155 Y364.656 Z-0.907 I-0.891 J1.112
X149.938 Y362.433 Z-1.063 I0.891 J-1.112
X148.155 Y364.656 Z-1.22 I-0.891 J1.112
X149.938 Y362.433 Z-1.376 I0.891 J-1.112
X148.155 Y364.656 Z-1.532 I-0.891 J1.112
X149.938 Y362.433 Z-1.689 I0.891 J-1.112
X148.155 Y364.656 Z-1.845 I-0.892 J1.112
X149.938 Y362.433 Z-2.001 I0.892 J-1.112
X148.155 Y364.656 Z-2.158 I-0.892 J1.112
X149.938 Y362.433 Z-2.314 I0.892 J-1.112
X148.155 Y364.656 Z-2.47 I-0.892 J1.112
X149.938 Y362.433 Z-2.627 I0.892 J-1.112
X148.155 Y364.656 Z-2.783 I-0.892 J1.112
X149.939 Y362.433 Z-2.939 I0.892 J-1.112
X148.155 Y364.656 Z-3.096 I-0.892 J1.112
X149.939 Y362.433 Z-3.252 I0.892 J-1.112
X148.155 Y364.656 Z-3.408 I-0.892 J1.112
X149.939 Y362.433 Z-3.565 I0.892 J-1.112
X148.155 Y364.656 Z-3.721 I-0.892 J1.112
X149.939 Y362.433 Z-3.877 I0.892 J-1.112
X149.047 Y364.97 Z-4 I-0.892 J1.112
G1 X148.754 F1000
G3 X148.434 Y364.65 I0 J-0.319
G1 Y363.064
G3 X148.754 Y362.744 I0.319 J0
G1 X149.34
G3 X149.66 Y363.064 I0 J0.319
G1 Y364.65
G3 X149.34 Y364.97 I-0.319 J0
G1 X149.047
G2 X147.989 Y365.687 I0 J1.139
G3 X146.734 Y365.445 I-0.604 J-0.241
G1 Y361.364
G3 X147.054 Y361.044 I0.319 J0
G1 X151.04
G3 X151.36 Y361.364 I0 J0.319
G1 Y366.35
G3 X151.04 Y366.67 I-0.319 J0
G1 X147.054
G3 X146.734 Y366.35 I0 J-0.319
G1 Y365.445
G2 X145.884 Y364.17 I-1.381 J0
G3 X145.034 Y362.895 I0.531 J-1.275
G1 Y359.664
G3 X145.354 Y359.344 I0.319 J0
G1 X152.74
G3 X153.06 Y359.664 I0 J0.319
G1 Y368.05
G3 X152.74 Y368.37 I-0.319 J0
G1 X145.354
G3 X145.034 Y368.05 I0 J-0.319
G1 Y362.895
G2 X144.184 Y361.62 I-1.381 J0
G3 X143.334 Y360.345 I0.531 J-1.275
G1 Y357.964
G3 X143.654 Y357.644 I0.319 J0
G1 X154.44
G3 X154.76 Y357.964 I0 J0.319
G1 Y369.75
G3 X154.44 Y370.07 I-0.319 J0
G1 X143.654
G3 X143.334 Y369.75 I0 J-0.319
G1 Y360.345
G2 X142.484 Y359.07 I-1.381 J0
G3 X141.634 Y357.795 I0.531 J-1.275
G1 Y356.264
G3 X141.954 Y355.944 I0.319 J0
G1 X156.14
G3 X156.46 Y356.264 I0 J0.319
G1 Y371.45
G3 X156.14 Y371.77 I-0.319 J0
G1 X141.954
G3 X141.634 Y371.45 I0 J-0.319
G1 Y357.795
G2 X140.785 Y356.523 I-1.378 J0
G3 X139.935 Y355.25 I0.53 J-1.274
G1 X139.934 Y354.564
G3 X140.254 Y354.244 I0.319 J0
G1 X157.84
G3 X158.16 Y354.564 I0 J0.319
G1 Y373.15
G3 X157.84 Y373.47 I-0.319 J0
G1 X140.229
G3 X139.925 Y373.155 I0 J-0.304
X139.941 Y372.881 I5.97 J0.197
G2 X139.951 Y372.607 I-3.468 J-0.274
G1 X139.935 Y355.25
G2 X139.145 Y353.993 I-1.398 J0.001
G3 X139.478 Y352.546 I0.331 J-0.685
G1 X158.297 Y352.583
G2 X158.924 Y352.551 I0 J-6.023
G3 X159.549 Y352.492 I3.209 J30.656
X159.86 Y352.777 I0.024 J0.286
G1 Y374.85
G3 X159.54 Y375.17 I-0.319 J0
G1 X138.325
G3 X138.063 Y374.864 I0 J-0.266
G2 X138.214 Y373.74 I-30.931 J-4.728
X138.279 Y372.607 I-9.769 J-1.133
G1 X138.234 Y352.864
G3 X138.554 Y352.544 I0.319 J0
G1 X139.478 Y352.546
G2 X140.752 Y351.701 I0.003 J-1.378
G3 X142.026 Y350.855 I1.271 J0.533
G1 X158.297 Y350.889
G2 X159.789 Y350.783 I0 J-10.484
X161.26 Y350.508 I-2.568 J-17.86
G3 X161.56 Y350.747 I0.055 J0.239
G1 Y376.55
G3 X161.24 Y376.87 I-0.319 J0
G1 X136.141
G3 X135.925 Y376.576 I0 J-0.226
G2 X136.404 Y374.616 I-14.796 J-4.65
X136.579 Y372.607 I-11.407 J-2.009
G1 X136.534 Y351.164
G3 X136.854 Y350.844 I0.319 J0
G1 X142.026 Y350.855
G2 X143.301 Y350.009 I0.003 J-1.379
G3 X144.576 Y349.163 I1.272 J0.533
G1 X158.297 Y349.189
G2 X160.69 Y348.916 I0 J-10.629
X162.975 Y348.153 I-2.854 J-12.347
G3 X163.26 Y348.338 I0.082 J0.185
G1 Y378.25
G3 X162.94 Y378.57 I-0.319 J0
G1 X133.497
G3 X133.336 Y378.293 I0 J-0.185
G2 X134.476 Y375.55 I-10.667 J-6.042
X134.879 Y372.607 I-10.534 J-2.943
G1 X134.834 Y349.464
G3 X135.154 Y349.144 I0.319 J0
G1 X144.576 Y349.163
G2 X145.851 Y348.315 I0.003 J-1.38
G3 X147.127 Y347.468 I1.273 J0.533
G1 X158.297 Y347.488
G2 X161.718 Y346.854 I0 J-9.538
X164.705 Y345.07 I-3.659 J-9.524
G3 X164.96 Y345.187 I0.1 J0.117
G1 Y379.957
G3 X164.647 Y380.27 I-0.313 J0
G1 X129.845
G3 X129.754 Y380.028 I0 J-0.138
G2 X132.271 Y376.689 I-6.622 J-7.61
X133.178 Y372.607 I-8.734 J-4.082
G1 X133.134 Y347.757
G3 X133.447 Y347.444 I0.313 J0
G1 X147.127 Y347.468
G2 X148.403 Y346.621 I0.002 J-1.38
G3 X149.679 Y345.774 I1.273 J0.533
G1 X158.297 Y345.788
G2 X166.478 Y337.607 I0 J-8.181
G1 Y-332.393
G2 X158.297 Y-340.574 I-8.181 J0
G1 X131.753 Y-340.529
G3 X131.433 Y-340.849 I0 J-0.319
G1 X131.478 Y-367.393
G2 X123.297 Y-375.574 I-8.181 J0
G1 X-128.703
G2 X-136.884 Y-367.393 I0 J8.181
G1 X-136.839 Y-340.849
G3 X-137.159 Y-340.529 I-0.319 J0
G1 X-163.703 Y-340.574
G2 X-171.884 Y-332.393 I0 J8.181
G1 Y337.607
G2 X-163.703 Y345.788 I8.181 J0
G1 X-137.159 Y345.743
G3 X-136.839 Y346.063 I0 J0.319
G1 X-136.884 Y372.607
G2 X-128.703 Y380.788 I8.181 J0
G1 X123.297
G2 X131.478 Y372.607 I0 J-8.181
G1 X131.433 Y346.063
G3 X131.753 Y345.743 I0.319 J0
G1 X149.679 Y345.774
G2 X150.828 Y345.01 I0.002 J-1.243
G3 X151.977 Y344.247 I1.147 J0.48
G1 X158.297 Y344.257
G2 X164.947 Y337.607 I0 J-6.65
G1 Y-332.393
G2 X158.297 Y-339.043 I-6.65 J0
G1 X130.221 Y-338.998
G3 X129.902 Y-339.317 I0 J-0.319
G1 X129.947 Y-367.393
G2 X123.297 Y-374.043 I-6.65 J0
G1 X-128.703
G2 X-135.353 Y-367.393 I0 J6.65
G1 X-135.308 Y-339.317
G3 X-135.627 Y-338.998 I-0.319 J0
G1 X-163.703 Y-339.043
G2 X-170.353 Y-332.393 I0 J6.65
G1 Y337.607
G2 X-163.703 Y344.257 I6.65 J0
G1 X-135.627 Y344.212
G3 X-135.308 Y344.531 I0 J0.319
G1 X-135.353 Y372.607
G2 X-128.703 Y379.257 I6.65 J0
G1 X123.297
G2 X129.947 Y372.607 I0 J-6.65
G1 X129.902 Y344.531
G3 X130.221 Y344.212 I0.319 J0
G1 X151.977 Y344.247
G2 X153.253 Y343.399 I0.002 J-1.381
G3 X154.529 Y342.551 I1.274 J0.533
G1 X158.297 Y342.557
G2 X163.247 Y337.607 I0 J-4.95
G1 Y-332.393
G2 X158.297 Y-337.343 I-4.95 J0
G1 X128.521 Y-337.298
G3 X128.202 Y-337.617 I0 J-0.319
G1 X128.247 Y-367.393
G2 X123.297 Y-372.343 I-4.95 J0
G1 X-128.703
G2 X-133.653 Y-367.393 I0 J4.95
G1 X-133.608 Y-337.617
G3 X-133.927 Y-337.298 I-0.319 J0
G1 X-163.703 Y-337.343
G2 X-168.653 Y-332.393 I0 J4.95
G1 Y337.607
G2 X-163.703 Y342.557 I4.95 J0
G1 X-133.927 Y342.512
G3 X-133.608 Y342.831 I0 J0.319
G1 X-133.653 Y372.607
G2 X-128.703 Y377.557 I4.95 J0
G1 X123.297
G2 X128.247 Y372.607 I0 J-4.95
G1 X128.202 Y342.831
G3 X128.521 Y342.512 I0.319 J0
G1 X154.529 Y342.551
G2 X155.805 Y341.703 I0.002 J-1.381
G3 X157.081 Y340.855 I1.274 J0.533
G1 X158.297 Y340.857
G2 X161.547 Y337.607 I0 J-3.25
G1 Y-332.393
G2 X158.297 Y-335.643 I-3.25 J0
G1 X126.821 Y-335.598
G3 X126.502 Y-335.917 I0 J-0.319
G1 X126.547 Y-367.393
G2 X123.297 Y-370.643 I-3.25 J0
G1 X-128.703
G2 X-131.953 Y-367.393 I0 J3.25
G1 X-131.908 Y-335.917
G3 X-132.227 Y-335.598 I-0.319 J0
G1 X-163.703 Y-335.643
G2 X-166.953 Y-332.393 I0 J3.25
G1 Y337.607
G2 X-163.703 Y340.857 I3.25 J0
G1 X-132.227 Y340.812
G3 X-131.908 Y341.131 I0 J0.319
G1 X-131.953 Y372.607
G2 X-128.703 Y375.857 I3.25 J0
G1 X123.297
G2 X126.547 Y372.607 I0 J-3.25
G1 X126.502 Y341.131
G3 X126.821 Y340.812 I0.319 J0
G1 X157.081 Y340.855
G2 X158.577 Y339.965 I0.002 J-1.698
G3 X159.508 Y338.493 I11.279 J6.098
G2 X159.797 Y337.607 I-1.211 J-0.886
G1 Y-332.393
G2 X158.297 Y-333.893 I-1.5 J0
G1 X124.797
Y-367.393
G2 X123.297 Y-368.893 I-1.5 J0
G1 X-128.703
G2 X-130.203 Y-367.393 I0 J1.5
G1 Y-333.893
X-163.703
G2 X-165.203 Y-332.393 I0 J1.5
G1 Y337.607
G2 X-163.703 Y339.107 I1.5 J0
G1 X-130.203
Y372.607
G2 X-128.703 Y374.107 I1.5 J0
G1 X123.297
G2 X124.797 Y372.607 I0 J-1.5
G1 Y339.107
X158.297
G2 X159.508 Y338.493 I0 J-1.5
G3 X159.862 Y338.558 I0.161 J0.118
G1 X166.654 Y363.308
X166.661 Y363.361
Y381.651
G3 X166.341 Y381.971 I-0.319 J0
G1 X-171.747
G3 X-172.067 Y381.651 I0 J-0.319
G1 Y-376.437
G3 X-171.747 Y-376.757 I0.319 J0
G1 X166.341
G3 X166.661 Y-376.437 I0 J0.319
G1 Y357.27
Y363.361
G2 X167.426 Y364.509 I1.244 J0
G3 X168.192 Y365.658 I-0.479 J1.148
G1 Y383.183
G3 X167.873 Y383.502 I-0.319 J0
G1 X-173.279
G3 X-173.598 Y383.183 I0 J-0.319
G1 Y-377.969
G3 X-173.279 Y-378.288 I0.319 J0
G1 X167.873
G3 X168.192 Y-377.969 I0 J0.319
G1 Y365.658
G2 X169.042 Y366.933 I1.381 J0
G3 X169.892 Y368.208 I-0.531 J1.275
G1 Y384.883
G3 X169.573 Y385.202 I-0.319 J0
G1 X-174.979
G3 X-175.298 Y384.883 I0 J-0.319
G1 Y-379.669
G3 X-174.979 Y-379.988 I0.319 J0
G1 X169.573
G3 X169.892 Y-379.669 I0 J0.319
G1 Y368.208
G2 X170.742 Y369.483 I1.381 J0
G3 X171.592 Y370.758 I-0.531 J1.275
G1 Y386.583
G3 X171.273 Y386.902 I-0.319 J0
G1 X-176.679
G3 X-176.998 Y386.583 I0 J-0.319
G1 Y-381.369
G3 X-176.679 Y-381.688 I0.319 J0
G1 X171.273
G3 X171.592 Y-381.369 I0 J0.319
G1 Y370.758
G2 X172.445 Y372.036 I1.385 J0
G3 X173.297 Y373.315 I-0.533 J1.279
G1 Y388.607
X-178.703
Y-383.393
X173.297
Y373.315
G3 X173.008 Y373.494 I-0.2 J0
G1 X150.119 Y362.072
G2 X149.909 Y362.41 I-0.089 J0.179
G3 X148.185 Y364.68 Z-4.156 I-0.862 J1.135 F333.3
X149.909 Y362.41 Z-4.313 I0.862 J-1.135
X148.185 Y364.68 Z-4.469 I-0.862 J1.135
X149.909 Y362.41 Z-4.625 I0.862 J-1.135
X148.185 Y364.68 Z-4.782 I-0.862 J1.135
X149.909 Y362.41 Z-4.938 I0.862 J-1.135
X148.185 Y364.68 Z-5.094 I-0.862 J1.135
X149.909 Y362.41 Z-5.251 I0.862 J-1.135
X148.185 Y364.68 Z-5.407 I-0.862 J1.135
X149.909 Y362.41 Z-5.563 I0.862 J-1.135
X148.185 Y364.68 Z-5.72 I-0.862 J1.135
X149.909 Y362.41 Z-5.876 I0.862 J-1.135
X149.047 Y364.97 Z-6 I-0.862 J1.135
G1 X148.754 F1000
G3 X148.434 Y364.65 I0 J-0.319
G1 Y363.064
G3 X148.754 Y362.744 I0.319 J0
G1 X149.34
G3 X149.66 Y363.064 I0 J0.319
G1 Y364.65
G3 X149.34 Y364.97 I-0.319 J0
G1 X149.047
G2 X147.989 Y365.687 I0 J1.139
G3 X146.734 Y365.445 I-0.604 J-0.241
G1 Y361.364
G3 X147.054 Y361.044 I0.319 J0
G1 X151.04
G3 X151.36 Y361.364 I0 J0.319
G1 Y366.35
G3 X151.04 Y366.67 I-0.319 J0
G1 X147.054
G3 X146.734 Y366.35 I0 J-0.319
G1 Y365.445
G2 X145.884 Y364.17 I-1.381 J0
G3 X145.034 Y362.895 I0.531 J-1.275
G1 Y359.664
G3 X145.354 Y359.344 I0.319 J0
G1 X152.74
G3 X153.06 Y359.664 I0 J0.319
G1 Y368.05
G3 X152.74 Y368.37 I-0.319 J0
G1 X145.354
G3 X145.034 Y368.05 I0 J-0.319
G1 Y362.895
G2 X144.184 Y361.62 I-1.381 J0
G3 X143.334 Y360.345 I0.531 J-1.275
G1 Y357.964
G3 X143.654 Y357.644 I0.319 J0
G1 X154.44
G3 X154.76 Y357.964 I0 J0.319
G1 Y369.75
G3 X154.44 Y370.07 I-0.319 J0
G1 X143.654
G3 X143.334 Y369.75 I0 J-0.319
G1 Y360.345
G2 X142.484 Y359.07 I-1.381 J0
G3 X141.634 Y357.795 I0.531 J-1.275
G1 Y356.264
G3 X141.954 Y355.944 I0.319 J0
G1 X156.14
G3 X156.46 Y356.264 I0 J0.319
G1 Y371.45
G3 X156.14 Y371.77 I-0.319 J0
G1 X141.954
G3 X141.634 Y371.45 I0 J-0.319
G1 Y357.795
G2 X140.785 Y356.523 I-1.378 J0
G3 X139.935 Y355.25 I0.53 J-1.274
G1 X139.934 Y354.564
G3 X140.254 Y354.244 I0.319 J0
G1 X157.84
G3 X158.16 Y354.564 I0 J0.319
G1 Y373.15
G3 X157.84 Y373.47 I-0.319 J0
G1 X140.229
G3 X139.925 Y373.155 I0 J-0.304
X139.941 Y372.881 I5.97 J0.197
G2 X139.951 Y372.607 I-3.468 J-0.274
G1 X139.935 Y355.25
G2 X139.145 Y353.993 I-1.398 J0.001
G3 X139.478 Y352.546 I0.331 J-0.685
G1 X158.297 Y352.583
G2 X158.924 Y352.551 I0 J-6.023
G3 X159.549 Y352.492 I3.209 J30.656
X159.86 Y352.777 I0.024 J0.286
G1 Y374.85
G3 X159.54 Y375.17 I-0.319 J0
G1 X138.325
G3 X138.063 Y374.864 I0 J-0.266
G2 X138.214 Y373.74 I-30.931 J-4.728
X138.279 Y372.607 I-9.769 J-1.133
G1 X138.234 Y352.864
G3 X138.554 Y352.544 I0.319 J0
G1 X139.478 Y352.546
G2 X140.752 Y351.701 I0.003 J-1.378
G3 X142.026 Y350.855 I1.271 J0.533
G1 X158.297 Y350.889
G2 X159.789 Y350.783 I0 J-10.484
X161.26 Y350.508 I-2.568 J-17.86
G3 X161.56 Y350.747 I0.055 J0.239
G1 Y376.55
G3 X161.24 Y376.87 I-0.319 J0
G1 X136.141
G3 X135.925 Y376.576 I0 J-0.226
G2 X136.404 Y374.616 I-14.796 J-4.65
X136.579 Y372.607 I-11.407 J-2.009
G1 X136.534 Y351.164
G3 X136.854 Y350.844 I0.319 J0
G1 X142.026 Y350.855
G2 X143.301 Y350.009 I0.003 J-1.379
G3 X144.576 Y349.163 I1.272 J0.533
G1 X158.297 Y349.189
G2 X160.69 Y348.916 I0 J-10.629
X162.975 Y348.153 I-2.854 J-12.347
G3 X163.26 Y348.338 I0.082 J0.185
G1 Y378.25
G3 X162.94 Y378.57 I-0.319 J0
G1 X133.497
G3 X133.336 Y378.293 I0 J-0.185
G2 X134.476 Y375.55 I-10.667 J-6.042
X134.879 Y372.607 I-10.534 J-2.943
G1 X134.834 Y349.464
G3 X135.154 Y349.144 I0.319 J0
G1 X144.576 Y349.163
G2 X145.851 Y348.315 I0.003 J-1.38
G3 X147.127 Y347.468 I1.273 J0.533
G1 X158.297 Y347.488
G2 X161.718 Y346.854 I0 J-9.538
X164.705 Y345.07 I-3.659 J-9.524
G3 X164.96 Y345.187 I0.1 J0.117
G1 Y379.957
G3 X164.647 Y380.27 I-0.313 J0
G1 X129.845
G3 X129.754 Y380.028 I0 J-0.138
G2 X132.271 Y376.689 I-6.622 J-7.61
X133.178 Y372.607 I-8.734 J-4.082
G1 X133.134 Y347.757
G3 X133.447 Y347.444 I0.313 J0
G1 X147.127 Y347.468
X147.184 Y347.474 Z-5.989
X147.239 Y347.49 Z-5.977
X147.283 Y347.512 Z-5.945
X147.322 Y347.54 Z-5.912
X147.366 Y347.588 Z-5.815
X147.38 Y347.606 Z-5.7
G0 Z5
X-156.534 Y363.708
G1 Z0.075 F333.3
Z-1.2 F1000
X-156.516 Y363.674 Z-1.347 F333.3
X-156.462 Y363.583 Z-1.456
X-156.377 Y363.466 Z-1.5
G3 X-154.154 Y365.248 Z-1.656 I1.112 J0.891
X-156.377 Y363.466 Z-1.813 I-1.112 J-0.891
X-154.154 Y365.248 Z-1.969 I1.112 J0.891
X-156.377 Y363.466 Z-2.125 I-1.112 J-0.891
X-154.154 Y365.248 Z-2.282 I1.112 J0.891
X-156.377 Y363.466 Z-2.438 I-1.112 J-0.891
X-154.154 Y365.248 Z-2.594 I1.112 J0.891
X-156.377 Y363.466 Z-2.751 I-1.112 J-0.891
X-154.154 Y365.248 Z-2.907 I1.112 J0.891
X-156.377 Y363.466 Z-3.063 I-1.112 J-0.891
X-154.154 Y365.248 Z-3.22 I1.112 J0.891
X-156.377 Y363.466 Z-3.376 I-1.112 J-0.891
X-154.154 Y365.248 Z-3.532 I1.112 J0.891
X-156.377 Y363.466 Z-3.689 I-1.112 J-0.891
X-154.154 Y365.248 Z-3.845 I1.112 J0.891
X-156.377 Y363.466 Z-4.001 I-1.112 J-0.891
X-154.154 Y365.248 Z-4.158 I1.112 J0.891
X-156.377 Y363.466 Z-4.314 I-1.112 J-0.891
X-154.154 Y365.248 Z-4.47 I1.112 J0.891
X-156.377 Y363.466 Z-4.627 I-1.112 J-0.891
X-154.154 Y365.248 Z-4.783 I1.112 J0.891
X-156.377 Y363.466 Z-4.939 I-1.112 J-0.891
X-154.154 Y365.248 Z-5.096 I1.112 J0.891
X-156.377 Y363.466 Z-5.252 I-1.112 J-0.891
X-154.154 Y365.248 Z-5.408 I1.112 J0.891
X-156.377 Y363.466 Z-5.565 I-1.112 J-0.891
X-154.154 Y365.248 Z-5.721 I1.112 J0.891
X-156.377 Y363.466 Z-5.877 I-1.112 J-0.891
X-153.84 Y364.357 Z-6 I1.112 J0.891
G1 Y364.65 F1000
G3 X-154.16 Y364.97 I-0.319 J0
G1 X-154.746
G3 X-155.066 Y364.65 I0 J-0.319
G1 Y363.064
G3 X-154.746 Y362.744 I0.319 J0
G1 X-154.16
G3 X-153.84 Y363.064 I0 J0.319
G1 Y364.357
G2 X-153.123 Y365.415 I1.139 J0
G3 X-153.365 Y366.67 I-0.241 J0.604
G1 X-156.446
G3 X-156.766 Y366.35 I0 J-0.319
G1 Y361.364
G3 X-156.446 Y361.044 I0.319 J0
G1 X-152.46
G3 X-152.14 Y361.364 I0 J0.319
G1 Y366.35
G3 X-152.46 Y366.67 I-0.319 J0
G1 X-153.365
G2 X-154.64 Y367.52 I0 J1.381
G3 X-155.915 Y368.37 I-1.275 J-0.531
G1 X-158.146
G3 X-158.466 Y368.05 I0 J-0.319
G1 Y359.664
G3 X-158.146 Y359.344 I0.319 J0
G1 X-150.76
G3 X-150.44 Y359.664 I0 J0.319
G1 Y368.05
G3 X-150.76 Y368.37 I-0.319 J0
G1 X-155.915
G2 X-157.19 Y369.22 I0 J1.381
G3 X-158.465 Y370.07 I-1.275 J-0.531
G1 X-159.846
G3 X-160.166 Y369.75 I0 J-0.319
G1 Y357.964
G3 X-159.846 Y357.644 I0.319 J0
G1 X-149.06
G3 X-148.74 Y357.964 I0 J0.319
G1 Y369.75
G3 X-149.06 Y370.07 I-0.319 J0
G1 X-158.465
G2 X-159.74 Y370.92 I0 J1.381
G3 X-161.015 Y371.77 I-1.275 J-0.531
G1 X-161.546
G3 X-161.866 Y371.45 I0 J-0.319
G1 Y356.264
G3 X-161.546 Y355.944 I0.319 J0
G1 X-147.36
G3 X-147.04 Y356.264 I0 J0.319
G1 Y371.45
G3 X-147.36 Y371.77 I-0.319 J0
G1 X-161.015
G2 X-162.23 Y372.443 I0 J1.435
G3 X-163.566 Y372.059 I-0.613 J-0.384
G1 Y354.564
G3 X-163.246 Y354.244 I0.319 J0
G1 X-145.66
G3 X-145.34 Y354.564 I0 J0.319
G1 X-145.357 Y372.607
G2 X-145.347 Y372.881 I3.479 J0
G3 X-145.331 Y373.155 I-5.955 J0.471
X-145.635 Y373.47 I-0.304 J0.01
G1 X-163.246
G3 X-163.566 Y373.15 I0 J-0.319
G1 Y372.059
G2 X-164.416 Y370.784 I-1.381 J0
G3 X-165.266 Y369.509 I0.531 J-1.275
G1 Y352.777
G3 X-164.955 Y352.492 I0.287 J0
X-164.33 Y352.551 I-2.584 J30.715
G2 X-163.703 Y352.583 I0.627 J-5.99
G1 X-143.96 Y352.544
G3 X-143.64 Y352.864 I0 J0.319
G1 X-143.685 Y372.607
G2 X-143.62 Y373.74 I9.835 J0
X-143.469 Y374.864 I31.083 J-3.604
G3 X-143.731 Y375.17 I-0.263 J0.04
G1 X-164.946
G3 X-165.266 Y374.85 I0 J-0.319
G1 Y369.509
G2 X-166.116 Y368.234 I-1.381 J0
G3 X-166.966 Y366.959 I0.531 J-1.275
G1 Y350.747
G3 X-166.666 Y350.508 I0.245 J0
G2 X-165.195 Y350.783 I4.039 J-17.586
X-163.703 Y350.889 I1.492 J-10.378
G1 X-142.26 Y350.844
G3 X-141.94 Y351.164 I0 J0.319
G1 X-141.985 Y372.607
G2 X-141.81 Y374.616 I11.582 J0
X-141.331 Y376.576 I15.275 J-2.691
G3 X-141.547 Y376.87 I-0.216 J0.068
G1 X-166.646
G3 X-166.966 Y376.55 I0 J-0.319
G1 Y366.959
G2 X-167.816 Y365.684 I-1.381 J0
G3 X-168.666 Y364.409 I0.531 J-1.275
G1 Y348.338
G3 X-168.381 Y348.153 I0.202 J0
G2 X-166.096 Y348.916 I5.138 J-11.584
X-163.703 Y349.189 I2.393 J-10.356
G1 X-140.56 Y349.144
G3 X-140.24 Y349.464 I0 J0.319
G1 X-140.285 Y372.607
G2 X-139.882 Y375.55 I10.937 J0
X-138.742 Y378.293 I11.807 J-3.299
G3 X-138.903 Y378.57 I-0.161 J0.091
G1 X-168.346
G3 X-168.666 Y378.25 I0 J-0.319
G1 Y364.409
G2 X-169.516 Y363.134 I-1.381 J0
G3 X-170.366 Y361.859 I0.531 J-1.275
G1 Y345.187
G3 X-170.111 Y345.07 I0.154 J0
G2 X-167.124 Y346.854 I6.647 J-7.741
X-163.703 Y347.488 I3.421 J-8.904
G1 X-138.853 Y347.444
G3 X-138.54 Y347.757 I0 J0.313
G1 X-138.584 Y372.607
G2 X-137.677 Y376.689 I9.641 J0
X-135.16 Y380.028 I9.139 J-4.271
G3 X-135.251 Y380.27 I-0.09 J0.104
G1 X-170.053
G3 X-170.366 Y379.957 I0 J-0.313
G1 Y361.859
X-170.36 Y361.802 Z-5.989
X-170.344 Y361.747 Z-5.977
X-170.322 Y361.703 Z-5.945
X-170.294 Y361.664 Z-5.912
X-170.247 Y361.619 Z-5.815
X-170.228 Y361.606 Z-5.7
G0 Z5
X-156.534 Y-359.792
G1 Z0.075 F333.3
Z-1.2 F1000
X-156.516 Y-359.826 Z-1.347 F333.3
X-156.462 Y-359.917 Z-1.456
X-156.377 Y-360.034 Z-1.5
G3 X-154.154 Y-358.252 Z-1.656 I1.112 J0.891
X-156.377 Y-360.034 Z-1.813 I-1.112 J-0.891
X-154.154 Y-358.252 Z-1.969 I1.112 J0.891
X-156.377 Y-360.034 Z-2.125 I-1.112 J-0.891
X-154.154 Y-358.252 Z-2.282 I1.112 J0.891
X-156.377 Y-360.034 Z-2.438 I-1.112 J-0.891
X-154.154 Y-358.252 Z-2.594 I1.112 J0.891
X-156.377 Y-360.034 Z-2.751 I-1.112 J-0.891
X-154.154 Y-358.252 Z-2.907 I1.112 J0.891
X-156.377 Y-360.034 Z-3.063 I-1.112 J-0.891
X-154.154 Y-358.252 Z-3.22 I1.112 J0.891
X-156.377 Y-360.034 Z-3.376 I-1.112 J-0.891
X-154.154 Y-358.252 Z-3.532 I1.112 J0.891
X-156.377 Y-360.034 Z-3.689 I-1.112 J-0.891
X-154.154 Y-358.252 Z-3.845 I1.112 J0.891
X-156.377 Y-360.034 Z-4.001 I-1.112 J-0.891
X-154.154 Y-358.252 Z-4.158 I1.112 J0.891
X-156.377 Y-360.034 Z-4.314 I-1.112 J-0.891
X-154.154 Y-358.252 Z-4.47 I1.112 J0.891
X-156.377 Y-360.034 Z-4.627 I-1.112 J-0.891
X-154.154 Y-358.252 Z-4.783 I1.112 J0.891
X-156.377 Y-360.034 Z-4.939 I-1.112 J-0.891
X-154.154 Y-358.252 Z-5.096 I1.112 J0.891
X-156.377 Y-360.034 Z-5.252 I-1.112 J-0.891
X-154.154 Y-358.252 Z-5.408 I1.112 J0.891
X-156.377 Y-360.034 Z-5.565 I-1.112 J-0.891
X-154.154 Y-358.252 Z-5.721 I1.112 J0.891
X-156.377 Y-360.034 Z-5.877 I-1.112 J-0.891
X-153.84 Y-359.143 Z-6 I1.112 J0.891
G1 Y-357.85 F1000
G3 X-154.16 Y-357.53 I-0.319 J0
G1 X-154.746
G3 X-155.066 Y-357.85 I0 J-0.319
G1 Y-359.436
G3 X-154.746 Y-359.756 I0.319 J0
G1 X-154.16
G3 X-153.84 Y-359.436 I0 J0.319
G1 Y-359.143
G2 X-152.99 Y-357.868 I1.381 J0
G3 X-152.14 Y-356.593 I-0.531 J1.275
G1 Y-356.15
G3 X-152.46 Y-355.83 I-0.319 J0
G1 X-156.446
G3 X-156.766 Y-356.15 I0 J-0.319
G1 Y-361.136
G3 X-156.446 Y-361.456 I0.319 J0
G1 X-152.46
G3 X-152.14 Y-361.136 I0 J0.319
G1 Y-356.593
G2 X-151.53 Y-355.403 I1.465 J0
G3 X-151.94 Y-354.13 I-0.41 J0.571
G1 X-158.146
G3 X-158.466 Y-354.45 I0 J-0.319
G1 Y-362.836
G3 X-158.146 Y-363.156 I0.319 J0
G1 X-150.76
G3 X-150.44 Y-362.836 I0 J0.319
G1 Y-354.45
G3 X-150.76 Y-354.13 I-0.319 J0
G1 X-151.94
G2 X-153.215 Y-353.28 I0 J1.381
G3 X-154.49 Y-352.43 I-1.275 J-0.531
G1 X-159.846
G3 X-160.166 Y-352.75 I0 J-0.319
G1 Y-364.536
G3 X-159.846 Y-364.856 I0.319 J0
G1 X-149.06
G3 X-148.74 Y-364.536 I0 J0.319
G1 Y-352.75
G3 X-149.06 Y-352.43 I-0.319 J0
G1 X-154.49
G2 X-155.765 Y-351.58 I0 J1.381
G3 X-157.04 Y-350.73 I-1.275 J-0.531
G1 X-161.546
G3 X-161.866 Y-351.05 I0 J-0.319
G1 Y-366.236
G3 X-161.546 Y-366.556 I0.319 J0
G1 X-147.36
G3 X-147.04 Y-366.236 I0 J0.319
G1 Y-351.05
G3 X-147.36 Y-350.73 I-0.319 J0
G1 X-157.04
G2 X-158.315 Y-349.88 I0 J1.381
G3 X-159.59 Y-349.03 I-1.275 J-0.531
G1 X-163.246
G3 X-163.566 Y-349.35 I0 J-0.319
G1 Y-367.936
G3 X-163.246 Y-368.256 I0.319 J0
G1 X-145.635
G3 X-145.331 Y-367.941 I0 J0.304
X-145.347 Y-367.667 I-5.97 J-0.197
G2 X-145.357 Y-367.393 I3.468 J0.274
G1 X-145.34 Y-349.35
G3 X-145.66 Y-349.03 I-0.319 J0
G1 X-159.59
G2 X-160.841 Y-348.198 I0 J1.358
G3 X-162.093 Y-347.366 I-1.249 J-0.522
G1 X-163.703 Y-347.369
G2 X-164.33 Y-347.337 I0 J6.023
G3 X-164.955 Y-347.278 I-3.209 J-30.656
X-165.266 Y-347.563 I-0.024 J-0.286
G1 Y-369.636
G3 X-164.946 Y-369.956 I0.319 J0
G1 X-143.731
G3 X-143.469 Y-369.65 I0 J0.266
G2 X-143.62 Y-368.526 I30.931 J4.728
X-143.685 Y-367.393 I9.769 J1.133
G1 X-143.64 Y-347.65
G3 X-143.96 Y-347.33 I-0.319 J0
G1 X-162.093 Y-347.366
G2 X-163.385 Y-346.529 I-0.003 J1.41
G3 X-164.637 Y-345.634 I-1.387 J-0.617
G2 X-165.195 Y-345.569 I0.934 J10.443
X-166.666 Y-345.294 I2.568 J17.86
G3 X-166.966 Y-345.533 I-0.055 J-0.239
G1 Y-371.336
G3 X-166.646 Y-371.656 I0.319 J0
G1 X-141.547
G3 X-141.331 Y-371.362 I0 J0.226
G2 X-141.81 Y-369.402 I14.796 J4.65
X-141.985 Y-367.393 I11.407 J2.009
G1 X-141.94 Y-345.95
G3 X-142.26 Y-345.63 I-0.319 J0
G1 X-163.703 Y-345.675
G2 X-164.637 Y-345.634 I0 J10.484
X-165.863 Y-344.611 I0.125 J1.396
G3 X-166.975 Y-343.466 I-1.602 J-0.443
G2 X-168.381 Y-342.939 I3.732 J12.11
G3 X-168.666 Y-343.124 I-0.082 J-0.185
G1 Y-373.036
G3 X-168.346 Y-373.356 I0.319 J0
G1 X-138.903
G3 X-138.742 Y-373.079 I0 J0.185
G2 X-139.882 Y-370.336 I10.667 J6.042
X-140.285 Y-367.393 I10.533 J2.943
G1 X-140.24 Y-344.25
G3 X-140.56 Y-343.93 I-0.319 J0
G1 X-163.703 Y-343.975
G2 X-166.096 Y-343.702 I0 J10.629
X-166.975 Y-343.466 I2.854 J12.347
X-167.955 Y-342.203 I0.41 J1.33
G3 X-168.772 Y-340.83 I-1.703 J-0.083
G2 X-170.111 Y-339.856 I5.307 J8.714
G3 X-170.366 Y-339.973 I-0.1 J-0.117
G1 Y-374.743
G3 X-170.053 Y-375.056 I0.313 J0
G1 X-135.251
G3 X-135.16 Y-374.814 I0 J0.138
G2 X-137.677 Y-371.475 I6.622 J7.61
X-138.584 Y-367.393 I8.734 J4.082
G1 X-138.54 Y-342.543
G3 X-138.853 Y-342.23 I-0.313 J0
G1 X-163.703 Y-342.274
G2 X-167.124 Y-341.64 I0 J9.538
X-168.772 Y-340.83 I3.659 J9.524
G1 X-168.823 Y-340.805 Z-5.989
X-168.879 Y-340.791 Z-5.977
X-168.927 Y-340.787 Z-5.945
X-168.976 Y-340.791 Z-5.912
X-169.038 Y-340.809 Z-5.815
X-169.059 Y-340.818 Z-5.7
G0 Z5
X148.398 Y-357.062
G1 Z0.075 F333.3
Z-1.2 F1000
X148.364 Y-357.08 Z-1.347 F333.3
X148.273 Y-357.134 Z-1.456
X148.156 Y-357.219 Z-1.5
G3 X149.938 Y-359.442 Z-1.656 I0.891 J-1.112
X148.156 Y-357.219 Z-1.813 I-0.891 J1.112
X149.938 Y-359.442 Z-1.969 I0.891 J-1.112
X148.156 Y-357.219 Z-2.125 I-0.891 J1.112
X149.938 Y-359.442 Z-2.282 I0.891 J-1.112
X148.156 Y-357.219 Z-2.438 I-0.891 J1.112
X149.938 Y-359.442 Z-2.594 I0.891 J-1.112
X148.156 Y-357.219 Z-2.751 I-0.891 J1.112
X149.938 Y-359.442 Z-2.907 I0.891 J-1.112
X148.156 Y-357.219 Z-3.063 I-0.891 J1.112
X149.938 Y-359.442 Z-3.22 I0.891 J-1.112
X148.156 Y-357.219 Z-3.376 I-0.891 J1.112
X149.938 Y-359.442 Z-3.532 I0.891 J-1.112
X148.156 Y-357.219 Z-3.689 I-0.891 J1.112
X149.938 Y-359.442 Z-3.845 I0.891 J-1.112
X148.156 Y-357.219 Z-4.001 I-0.891 J1.112
X149.938 Y-359.442 Z-4.158 I0.891 J-1.112
X148.156 Y-357.219 Z-4.314 I-0.891 J1.112
X149.938 Y-359.442 Z-4.47 I0.891 J-1.112
X148.156 Y-357.219 Z-4.627 I-0.891 J1.112
X149.938 Y-359.442 Z-4.783 I0.891 J-1.112
X148.156 Y-357.219 Z-4.939 I-0.891 J1.112
X149.938 Y-359.442 Z-5.096 I0.891 J-1.112
X148.156 Y-357.219 Z-5.252 I-0.891 J1.112
X149.938 Y-359.442 Z-5.408 I0.891 J-1.112
X148.156 Y-357.219 Z-5.565 I-0.891 J1.112
X149.938 Y-359.442 Z-5.721 I0.891 J-1.112
X148.156 Y-357.219 Z-5.877 I-0.891 J1.112
X149.047 Y-359.756 Z-6 I0.891 J-1.112
G1 X149.34 F1000
G3 X149.66 Y-359.436 I0 J0.319
G1 Y-357.85
G3 X149.34 Y-357.53 I-0.319 J0
G1 X148.754
G3 X148.434 Y-357.85 I0 J-0.319
G1 Y-359.436
G3 X148.754 Y-359.756 I0.319 J0
G1 X149.047
G2 X150.105 Y-360.473 I0 J-1.139
G3 X151.36 Y-360.231 I0.604 J0.241
G1 Y-356.15
G3 X151.04 Y-355.83 I-0.319 J0
G1 X147.054
G3 X146.734 Y-356.15 I0 J-0.319
G1 Y-361.136
G3 X147.054 Y-361.456 I0.319 J0
G1 X151.04
G3 X151.36 Y-361.136 I0 J0.319
G1 Y-360.231
G2 X152.21 Y-358.956 I1.381 J0
G3 X153.06 Y-357.681 I-0.531 J1.275
G1 Y-354.45
G3 X152.74 Y-354.13 I-0.319 J0
G1 X145.354
G3 X145.034 Y-354.45 I0 J-0.319
G1 Y-362.836
G3 X145.354 Y-363.156 I0.319 J0
G1 X152.74
G3 X153.06 Y-362.836 I0 J0.319
G1 Y-357.681
G2 X153.91 Y-356.406 I1.381 J0
G3 X154.76 Y-355.131 I-0.531 J1.275
G1 Y-352.75
G3 X154.44 Y-352.43 I-0.319 J0
G1 X143.654
G3 X143.334 Y-352.75 I0 J-0.319
G1 Y-364.536
G3 X143.654 Y-364.856 I0.319 J0
G1 X154.44
G3 X154.76 Y-364.536 I0 J0.319
G1 Y-355.131
G2 X155.61 Y-353.856 I1.381 J0
G3 X156.46 Y-352.581 I-0.531 J1.275
G1 Y-351.05
G3 X156.14 Y-350.73 I-0.319 J0
G1 X141.954
G3 X141.634 Y-351.05 I0 J-0.319
G1 Y-366.236
G3 X141.954 Y-366.556 I0.319 J0
G1 X156.14
G3 X156.46 Y-366.236 I0 J0.319
G1 Y-352.581
G2 X157.31 Y-351.306 I1.381 J0
G3 X158.16 Y-350.031 I-0.531 J1.275
G1 Y-349.35
G3 X157.84 Y-349.03 I-0.319 J0
G1 X140.254
G3 X139.934 Y-349.35 I0 J-0.319
G1 X139.951 Y-367.393
G2 X139.941 Y-367.667 I-3.479 J0
G3 X139.925 Y-367.941 I5.955 J-0.471
X140.229 Y-368.256 I0.304 J-0.01
G1 X157.84
G3 X158.16 Y-367.936 I0 J0.319
G1 Y-350.031
G2 X158.993 Y-348.805 I1.319 J0
G3 X158.67 Y-347.358 I-0.276 J0.698
G2 X158.297 Y-347.369 I-0.373 J6.011
G1 X138.554 Y-347.33
G3 X138.234 Y-347.65 I0 J-0.319
G1 X138.279 Y-367.393
G2 X138.214 Y-368.526 I-9.835 J0
X138.063 Y-369.65 I-31.083 J3.604
G3 X138.325 Y-369.956 I0.263 J-0.04
G1 X159.54
G3 X159.86 Y-369.636 I0 J0.319
G1 Y-347.563
G3 X159.549 Y-347.278 I-0.287 J0
X158.924 Y-347.337 I2.584 J-30.715
G2 X158.67 Y-347.358 I-0.627 J5.99
X157.337 Y-346.535 I-0.084 J1.355
G3 X156.032 Y-345.671 I-1.309 J-0.558
G1 X136.854 Y-345.63
G3 X136.534 Y-345.95 I0 J-0.319
G1 X136.579 Y-367.393
G2 X136.404 Y-369.402 I-11.582 J0
X135.925 Y-371.362 I-15.275 J2.691
G3 X136.141 Y-371.656 I0.216 J-0.068
G1 X161.24
G3 X161.56 Y-371.336 I0 J0.319
G1 Y-345.533
G3 X161.26 Y-345.294 I-0.245 J0
G2 X159.789 Y-345.569 I-4.039 J17.586
X158.297 Y-345.675 I-1.492 J10.378
G1 X156.032 Y-345.671
G2 X154.759 Y-344.818 I0.003 J1.381
G3 X153.486 Y-343.966 I-1.276 J-0.528
G1 X135.154 Y-343.93
G3 X134.834 Y-344.25 I0 J-0.319
G1 X134.879 Y-367.393
G2 X134.476 Y-370.336 I-10.937 J0
X133.336 Y-373.079 I-11.807 J3.299
G3 X133.497 Y-373.356 I0.161 J-0.091
G1 X162.94
G3 X163.26 Y-373.036 I0 J0.319
G1 Y-343.124
G3 X162.975 Y-342.939 I-0.202 J0
G2 X160.69 Y-343.702 I-5.138 J11.584
X158.297 Y-343.975 I-2.393 J10.356
G1 X153.486 Y-343.966
G2 X152.212 Y-343.114 I0.003 J1.382
G3 X150.939 Y-342.261 I-1.276 J-0.529
G1 X133.447 Y-342.23
G3 X133.134 Y-342.543 I0 J-0.313
G1 X133.178 Y-367.393
G2 X132.271 Y-371.475 I-9.641 J0
X129.754 Y-374.814 I-9.139 J4.271
G3 X129.845 Y-375.056 I0.09 J-0.104
G1 X164.647
G3 X164.96 Y-374.743 I0 J0.313
G1 Y-339.973
G3 X164.705 Y-339.856 I-0.154 J0
G2 X161.718 Y-341.64 I-6.647 J7.741
X158.297 Y-342.274 I-3.421 J8.904
G1 X150.939 Y-342.261
G2 X149.666 Y-341.409 I0.002 J1.381
G3 X148.393 Y-340.557 I-1.275 J-0.529
G1 X131.753 Y-340.529
G3 X131.433 Y-340.849 I0 J-0.319
G1 X131.478 Y-367.393
G2 X123.297 Y-375.574 I-8.181 J0
G1 X-128.703
G2 X-136.884 Y-367.393 I0 J8.181
G1 X-136.839 Y-340.849
G3 X-137.159 Y-340.529 I-0.319 J0
G1 X-163.703 Y-340.574
G2 X-171.884 Y-332.393 I0 J8.181
G1 Y337.607
G2 X-163.703 Y345.788 I8.181 J0
G1 X-137.159 Y345.743
G3 X-136.839 Y346.063 I0 J0.319
G1 X-136.884 Y372.607
G2 X-128.703 Y380.788 I8.181 J0
G1 X123.297
G2 X131.478 Y372.607 I0 J-8.181
G1 X131.433 Y346.063
G3 X131.753 Y345.743 I0.319 J0
G1 X158.297 Y345.788
G2 X166.478 Y337.607 I0 J-8.181
G1 Y-332.393
G2 X158.297 Y-340.574 I-8.181 J0
G1 X148.393 Y-340.557
G2 X147.246 Y-339.79 I0.002 J1.243
G3 X146.1 Y-339.023 I-1.148 J-0.476
G1 X130.221 Y-338.998
G3 X129.902 Y-339.317 I0 J-0.319
G1 X129.947 Y-367.393
G2 X123.297 Y-374.043 I-6.65 J0
G1 X-128.703
G2 X-135.353 Y-367.393 I0 J6.65
G1 X-135.308 Y-339.317
G3 X-135.627 Y-338.998 I-0.319 J0
G1 X-163.703 Y-339.043
G2 X-170.353 Y-332.393 I0 J6.65
G1 Y337.607
G2 X-163.703 Y344.257 I6.65 J0
G1 X-135.627 Y344.212
G3 X-135.308 Y344.531 I0 J0.319
G1 X-135.353 Y372.607
G2 X-128.703 Y379.257 I6.65 J0
G1 X123.297
G2 X129.947 Y372.607 I0 J-6.65
G1 X129.902 Y344.531
G3 X130.221 Y344.212 I0.319 J0
G1 X158.297 Y344.257
G2 X164.947 Y337.607 I0 J-6.65
G1 Y-332.393
G2 X158.297 Y-339.043 I-6.65 J0
G1 X146.1 Y-339.023
G2 X144.827 Y-338.172 I0.002 J1.38
G3 X143.554 Y-337.321 I-1.275 J-0.529
G1 X128.521 Y-337.298
G3 X128.202 Y-337.617 I0 J-0.319
G1 X128.247 Y-367.393
G2 X123.297 Y-372.343 I-4.95 J0
G1 X-128.703
G2 X-133.653 Y-367.393 I0 J4.95
G1 X-133.608 Y-337.617
G3 X-133.927 Y-337.298 I-0.319 J0
G1 X-163.703 Y-337.343
G2 X-168.653 Y-332.393 I0 J4.95
G1 Y337.607
G2 X-163.703 Y342.557 I4.95 J0
G1 X-133.927 Y342.512
G3 X-133.608 Y342.831 I0 J0.319
G1 X-133.653 Y372.607
G2 X-128.703 Y377.557 I4.95 J0
G1 X123.297
G2 X128.247 Y372.607 I0 J-4.95
G1 X128.202 Y342.831
G3 X128.521 Y342.512 I0.319 J0
G1 X158.297 Y342.557
G2 X163.247 Y337.607 I0 J-4.95
G1 Y-332.393
G2 X158.297 Y-337.343 I-4.95 J0
G1 X143.554 Y-337.321
G2 X142.281 Y-336.47 I0.002 J1.38
G3 X141.009 Y-335.618 I-1.275 J-0.529
G1 X126.821 Y-335.598
G3 X126.502 Y-335.917 I0 J-0.319
G1 X126.547 Y-367.393
G2 X123.297 Y-370.643 I-3.25 J0
G1 X-128.703
G2 X-131.953 Y-367.393 I0 J3.25
G1 X-131.908 Y-335.917
G3 X-132.227 Y-335.598 I-0.319 J0
G1 X-163.703 Y-335.643
G2 X-166.953 Y-332.393 I0 J3.25
G1 Y337.607
G2 X-163.703 Y340.857 I3.25 J0
G1 X-132.227 Y340.812
G3 X-131.908 Y341.131 I0 J0.319
G1 X-131.953 Y372.607
G2 X-128.703 Y375.857 I3.25 J0
G1 X123.297
G2 X126.547 Y372.607 I0 J-3.25
G1 X126.502 Y341.131
G3 X126.821 Y340.812 I0.319 J0
G1 X158.297 Y340.857
G2 X161.547 Y337.607 I0 J-3.25
G1 Y-332.393
G2 X158.297 Y-335.643 I-3.25 J0
G1 X141.009 Y-335.618
G2 X139.716 Y-334.756 I0.002 J1.403
G3 X138.423 Y-333.893 I-1.293 J-0.537
G1 X124.797
Y-367.393
G2 X123.297 Y-368.893 I-1.5 J0
G1 X-128.703
G2 X-130.203 Y-367.393 I0 J1.5
G1 Y-333.893
X-163.703
G2 X-165.203 Y-332.393 I0 J1.5
G1 Y337.607
G2 X-163.703 Y339.107 I1.5 J0
G1 X-130.203
Y372.607
G2 X-128.703 Y374.107 I1.5 J0
G1 X123.297
G2 X124.797 Y372.607 I0 J-1.5
G1 Y339.107
X158.297
G2 X159.797 Y337.607 I0 J-1.5
G1 Y-332.393
G2 X158.297 Y-333.893 I-1.5 J0
G1 X138.423
G3 X138.229 Y-334.142 I0 J-0.2
G1 X148.844 Y-376.605
X148.863 Y-376.654
X148.895 Y-376.697
X148.937 Y-376.729
X148.985 Y-376.75
X149.038 Y-376.757
X166.341
G3 X166.661 Y-376.437 I0 J0.319
G1 Y381.651
G3 X166.341 Y381.971 I-0.319 J0
G1 X-171.747
G3 X-172.067 Y381.651 I0 J-0.319
G1 Y-376.437
G3 X-171.747 Y-376.757 I0.319 J0
G1 X149.038
G2 X150.186 Y-377.522 I0 J-1.244
G3 X151.335 Y-378.288 I1.148 J0.479
G1 X167.873
G3 X168.192 Y-377.969 I0 J0.319
G1 Y383.183
G3 X167.873 Y383.502 I-0.319 J0
G1 X-173.279
G3 X-173.598 Y383.183 I0 J-0.319
G1 Y-377.969
G3 X-173.279 Y-378.288 I0.319 J0
G1 X151.335
G2 X152.61 Y-379.138 I0 J-1.381
G3 X153.885 Y-379.988 I1.275 J0.531
G1 X169.573
G3 X169.892 Y-379.669 I0 J0.319
G1 Y384.883
G3 X169.573 Y385.202 I-0.319 J0
G1 X-174.979
G3 X-175.298 Y384.883 I0 J-0.319
G1 Y-379.669
G3 X-174.979 Y-379.988 I0.319 J0
G1 X153.885
G2 X155.16 Y-380.838 I0 J-1.381
G3 X156.435 Y-381.688 I1.275 J0.531
G1 X171.273
G3 X171.592 Y-381.369 I0 J0.319
G1 Y386.583
G3 X171.273 Y386.902 I-0.319 J0
G1 X-176.679
G3 X-176.998 Y386.583 I0 J-0.319
G1 Y-381.369
G3 X-176.679 Y-381.688 I0.319 J0
G1 X156.435
G2 X157.713 Y-382.54 I0 J-1.385
G3 X158.992 Y-383.393 I1.279 J0.533
G1 X173.297
Y388.607
X-178.703
Y-383.393
X158.992
X159.038 Y-383.386
X159.08 Y-383.365
X159.113 Y-383.332
X159.134 Y-383.291
X159.142 Y-383.245
X159.135 Y-383.199
X158.599 Y-381.469
X148.435 Y-357.626
X148.316 Y-357.238
X148.301 Y-357.21
X148.276 Y-357.189
X148.246 Y-357.179
X148.214 Y-357.182
X148.185 Y-357.196
G3 X149.909 Y-359.466 Z-6.156 I0.862 J-1.135 F333.3
X148.185 Y-357.196 Z-6.313 I-0.862 J1.135
X149.909 Y-359.466 Z-6.469 I0.862 J-1.135
X148.185 Y-357.196 Z-6.625 I-0.862 J1.135
X149.909 Y-359.466 Z-6.782 I0.862 J-1.135
X148.185 Y-357.196 Z-6.938 I-0.862 J1.135
X149.909 Y-359.466 Z-7.094 I0.862 J-1.135
X148.185 Y-357.196 Z-7.251 I-0.862 J1.135
X149.909 Y-359.466 Z-7.407 I0.862 J-1.135
X148.185 Y-357.196 Z-7.563 I-0.862 J1.135
X149.909 Y-359.466 Z-7.72 I0.862 J-1.135
X148.185 Y-357.196 Z-7.876 I-0.862 J1.135
X149.047 Y-359.756 Z-8 I0.862 J-1.135
G1 X149.34 F1000
G3 X149.66 Y-359.436 I0 J0.319
G1 Y-357.85
G3 X149.34 Y-357.53 I-0.319 J0
G1 X148.754
G3 X148.434 Y-357.85 I0 J-0.319
G1 Y-359.436
G3 X148.754 Y-359.756 I0.319 J0
G1 X149.047
G2 X150.105 Y-360.473 I0 J-1.139
G3 X151.36 Y-360.231 I0.604 J0.241
G1 Y-356.15
G3 X151.04 Y-355.83 I-0.319 J0
G1 X147.054
G3 X146.734 Y-356.15 I0 J-0.319
G1 Y-361.136
G3 X147.054 Y-361.456 I0.319 J0
G1 X151.04
G3 X151.36 Y-361.136 I0 J0.319
G1 Y-360.231
G2 X152.21 Y-358.956 I1.381 J0
G3 X153.06 Y-357.681 I-0.531 J1.275
G1 Y-354.45
G3 X152.74 Y-354.13 I-0.319 J0
G1 X145.354
G3 X145.034 Y-354.45 I0 J-0.319
G1 Y-362.836
G3 X145.354 Y-363.156 I0.319 J0
G1 X152.74
G3 X153.06 Y-362.836 I0 J0.319
G1 Y-357.681
G2 X153.91 Y-356.406 I1.381 J0
G3 X154.76 Y-355.131 I-0.531 J1.275
G1 Y-352.75
G3 X154.44 Y-352.43 I-0.319 J0
G1 X143.654
G3 X143.334 Y-352.75 I0 J-0.319
G1 Y-364.536
G3 X143.654 Y-364.856 I0.319 J0
G1 X154.44
G3 X154.76 Y-364.536 I0 J0.319
G1 Y-355.131
G2 X155.61 Y-353.856 I1.381 J0
G3 X156.46 Y-352.581 I-0.531 J1.275
G1 Y-351.05
G3 X156.14 Y-350.73 I-0.319 J0
G1 X141.954
G3 X141.634 Y-351.05 I0 J-0.319
G1 Y-366.236
G3 X141.954 Y-366.556 I0.319 J0
G1 X156.14
G3 X156.46 Y-366.236 I0 J0.319
G1 Y-352.581
G2 X157.31 Y-351.306 I1.381 J0
G3 X158.16 Y-350.031 I-0.531 J1.275
G1 Y-349.35
G3 X157.84 Y-349.03 I-0.319 J0
G1 X140.254
G3 X139.934 Y-349.35 I0 J-0.319
G1 X139.951 Y-367.393
G2 X139.941 Y-367.667 I-3.479 J0
G3 X139.925 Y-367.941 I5.955 J-0.471
X140.229 Y-368.256 I0.304 J-0.01
G1 X157.84
G3 X158.16 Y-367.936 I0 J0.319
G1 Y-350.031
G2 X158.993 Y-348.805 I1.319 J0
G3 X158.67 Y-347.358 I-0.276 J0.698
G2 X158.297 Y-347.369 I-0.373 J6.011
G1 X138.554 Y-347.33
G3 X138.234 Y-347.65 I0 J-0.319
G1 X138.279 Y-367.393
G2 X138.214 Y-368.526 I-9.835 J0
X138.063 Y-369.65 I-31.083 J3.604
G3 X138.325 Y-369.956 I0.263 J-0.04
G1 X159.54
G3 X159.86 Y-369.636 I0 J0.319
G1 Y-347.563
G3 X159.549 Y-347.278 I-0.287 J0
X158.924 Y-347.337 I2.584 J-30.715
G2 X158.67 Y-347.358 I-0.627 J5.99
X157.337 Y-346.535 I-0.084 J1.355
G3 X156.032 Y-345.671 I-1.309 J-0.558
G1 X136.854 Y-345.63
G3 X136.534 Y-345.95 I0 J-0.319
G1 X136.579 Y-367.393
G2 X136.404 Y-369.402 I-11.582 J0
X135.925 Y-371.362 I-15.275 J2.691
G3 X136.141 Y-371.656 I0.216 J-0.068
G1 X161.24
G3 X161.56 Y-371.336 I0 J0.319
G1 Y-345.533
G3 X161.26 Y-345.294 I-0.245 J0
G2 X159.789 Y-345.569 I-4.039 J17.586
X158.297 Y-345.675 I-1.492 J10.378
G1 X156.032 Y-345.671
G2 X154.759 Y-344.818 I0.003 J1.381
G3 X153.486 Y-343.966 I-1.276 J-0.528
G1 X135.154 Y-343.93
G3 X134.834 Y-344.25 I0 J-0.319
G1 X134.879 Y-367.393
G2 X134.476 Y-370.336 I-10.937 J0
X133.336 Y-373.079 I-11.807 J3.299
G3 X133.497 Y-373.356 I0.161 J-0.091
G1 X162.94
G3 X163.26 Y-373.036 I0 J0.319
G1 Y-343.124
G3 X162.975 Y-342.939 I-0.202 J0
G2 X160.69 Y-343.702 I-5.138 J11.584
X158.297 Y-343.975 I-2.393 J10.356
G1 X153.486 Y-343.966
G2 X152.212 Y-343.114 I0.003 J1.382
G3 X150.939 Y-342.261 I-1.276 J-0.529
G1 X133.447 Y-342.23
G3 X133.134 Y-342.543 I0 J-0.313
G1 X133.178 Y-367.393
G2 X132.271 Y-371.475 I-9.641 J0
X129.754 Y-374.814 I-9.139 J4.271
G3 X129.845 Y-375.056 I0.09 J-0.104
G1 X164.647
G3 X164.96 Y-374.743 I0 J0.313
G1 Y-339.973
G3 X164.705 Y-339.856 I-0.154 J0
G2 X161.718 Y-341.64 I-6.647 J7.741
X158.297 Y-342.274 I-3.421 J8.904
G1 X150.939 Y-342.261
X150.882 Y-342.267 Z-7.989
X150.827 Y-342.283 Z-7.977
X150.783 Y-342.305 Z-7.945
X150.744 Y-342.333 Z-7.912
X150.699 Y-342.38 Z-7.815
X150.686 Y-342.399 Z-7.7
G0 Z5
X-156.534 Y-359.792
G1 Z-1.125 F333.3
Z-3.2 F1000
X-156.516 Y-359.826 Z-3.347 F333.3
X-156.462 Y-359.917 Z-3.456
X-156.377 Y-360.034 Z-3.5
G3 X-154.154 Y-358.252 Z-3.656 I1.112 J0.891
X-156.377 Y-360.034 Z-3.813 I-1.112 J-0.891
X-154.154 Y-358.252 Z-3.969 I1.112 J0.891
X-156.377 Y-360.034 Z-4.125 I-1.112 J-0.891
X-154.154 Y-358.252 Z-4.282 I1.112 J0.891
X-156.377 Y-360.034 Z-4.438 I-1.112 J-0.891
X-154.154 Y-358.252 Z-4.594 I1.112 J0.891
X-156.377 Y-360.034 Z-4.751 I-1.112 J-0.891
X-154.154 Y-358.252 Z-4.907 I1.112 J0.891
X-156.377 Y-360.034 Z-5.063 I-1.112 J-0.891
X-154.154 Y-358.252 Z-5.22 I1.112 J0.891
X-156.377 Y-360.034 Z-5.376 I-1.112 J-0.891
X-154.154 Y-358.252 Z-5.532 I1.112 J0.891
X-156.377 Y-360.034 Z-5.689 I-1.112 J-0.891
X-154.154 Y-358.252 Z-5.845 I1.112 J0.891
X-156.377 Y-360.034 Z-6.001 I-1.112 J-0.891
X-154.154 Y-358.252 Z-6.158 I1.112 J0.891
X-156.377 Y-360.034 Z-6.314 I-1.112 J-0.891
X-154.154 Y-358.252 Z-6.47 I1.112 J0.891
X-156.377 Y-360.034 Z-6.627 I-1.112 J-0.891
X-154.154 Y-358.252 Z-6.783 I1.112 J0.891
X-156.377 Y-360.034 Z-6.939 I-1.112 J-0.891
X-154.154 Y-358.252 Z-7.096 I1.112 J0.891
X-156.377 Y-360.034 Z-7.252 I-1.112 J-0.891
X-154.154 Y-358.252 Z-7.408 I1.112 J0.891
X-156.377 Y-360.034 Z-7.565 I-1.112 J-0.891
X-154.154 Y-358.252 Z-7.721 I1.112 J0.891
X-156.377 Y-360.034 Z-7.877 I-1.112 J-0.891
X-153.84 Y-359.143 Z-8 I1.112 J0.891
G1 Y-357.85 F1000
G3 X-154.16 Y-357.53 I-0.319 J0
G1 X-154.746
G3 X-155.066 Y-357.85 I0 J-0.319
G1 Y-359.436
G3 X-154.746 Y-359.756 I0.319 J0
G1 X-154.16
G3 X-153.84 Y-359.436 I0 J0.319
G1 Y-359.143
G2 X-152.99 Y-357.868 I1.381 J0
G3 X-152.14 Y-356.593 I-0.531 J1.275
G1 Y-356.15
G3 X-152.46 Y-355.83 I-0.319 J0
G1 X-156.446
G3 X-156.766 Y-356.15 I0 J-0.319
G1 Y-361.136
G3 X-156.446 Y-361.456 I0.319 J0
G1 X-152.46
G3 X-152.14 Y-361.136 I0 J0.319
G1 Y-356.593
G2 X-151.53 Y-355.403 I1.465 J0
G3 X-151.94 Y-354.13 I-0.41 J0.571
G1 X-158.146
G3 X-158.466 Y-354.45 I0 J-0.319
G1 Y-362.836
G3 X-158.146 Y-363.156 I0.319 J0
G1 X-150.76
G3 X-150.44 Y-362.836 I0 J0.319
G1 Y-354.45
G3 X-150.76 Y-354.13 I-0.319 J0
G1 X-151.94
G2 X-153.215 Y-353.28 I0 J1.381
G3 X-154.49 Y-352.43 I-1.275 J-0.531
G1 X-159.846
G3 X-160.166 Y-352.75 I0 J-0.319
G1 Y-364.536
G3 X-159.846 Y-364.856 I0.319 J0
G1 X-149.06
G3 X-148.74 Y-364.536 I0 J0.319
G1 Y-352.75
G3 X-149.06 Y-352.43 I-0.319 J0
G1 X-154.49
G2 X-155.765 Y-351.58 I0 J1.381
G3 X-157.04 Y-350.73 I-1.275 J-0.531
G1 X-161.546
G3 X-161.866 Y-351.05 I0 J-0.319
G1 Y-366.236
G3 X-161.546 Y-366.556 I0.319 J0
G1 X-147.36
G3 X-147.04 Y-366.236 I0 J0.319
G1 Y-351.05
G3 X-147.36 Y-350.73 I-0.319 J0
G1 X-157.04
G2 X-158.315 Y-349.88 I0 J1.381
G3 X-159.59 Y-349.03 I-1.275 J-0.531
G1 X-163.246
G3 X-163.566 Y-349.35 I0 J-0.319
G1 Y-367.936
G3 X-163.246 Y-368.256 I0.319 J0
G1 X-145.635
G3 X-145.331 Y-367.941 I0 J0.304
X-145.347 Y-367.667 I-5.97 J-0.197
G2 X-145.357 Y-367.393 I3.468 J0.274
G1 X-145.34 Y-349.35
G3 X-145.66 Y-349.03 I-0.319 J0
G1 X-159.59
G2 X-160.841 Y-348.198 I0 J1.358
G3 X-162.093 Y-347.366 I-1.249 J-0.522
G1 X-163.703 Y-347.369
G2 X-164.33 Y-347.337 I0 J6.023
G3 X-164.955 Y-347.278 I-3.209 J-30.656
X-165.266 Y-347.563 I-0.024 J-0.286
G1 Y-369.636
G3 X-164.946 Y-369.956 I0.319 J0
G1 X-143.731
G3 X-143.469 Y-369.65 I0 J0.266
G2 X-143.62 Y-368.526 I30.931 J4.728
X-143.685 Y-367.393 I9.769 J1.133
G1 X-143.64 Y-347.65
G3 X-143.96 Y-347.33 I-0.319 J0
G1 X-162.093 Y-347.366
G2 X-163.385 Y-346.529 I-0.003 J1.41
G3 X-164.637 Y-345.634 I-1.387 J-0.617
G2 X-165.195 Y-345.569 I0.934 J10.443
X-166.666 Y-345.294 I2.568 J17.86
G3 X-166.966 Y-345.533 I-0.055 J-0.239
G1 Y-371.336
G3 X-166.646 Y-371.656 I0.319 J0
G1 X-141.547
G3 X-141.331 Y-371.362 I0 J0.226
G2 X-141.81 Y-369.402 I14.796 J4.65
X-141.985 Y-367.393 I11.407 J2.009
G1 X-141.94 Y-345.95
G3 X-142.26 Y-345.63 I-0.319 J0
G1 X-163.703 Y-345.675
G2 X-164.637 Y-345.634 I0 J10.484
X-165.863 Y-344.611 I0.125 J1.396
G3 X-166.975 Y-343.466 I-1.602 J-0.443
G2 X-168.381 Y-342.939 I3.732 J12.11
G3 X-168.666 Y-343.124 I-0.082 J-0.185
G1 Y-373.036
G3 X-168.346 Y-373.356 I0.319 J0
G1 X-138.903
G3 X-138.742 Y-373.079 I0 J0.185
G2 X-139.882 Y-370.336 I10.667 J6.042
X-140.285 Y-367.393 I10.533 J2.943
G1 X-140.24 Y-344.25
G3 X-140.56 Y-343.93 I-0.319 J0
G1 X-163.703 Y-343.975
G2 X-166.096 Y-343.702 I0 J10.629
X-166.975 Y-343.466 I2.854 J12.347
X-167.955 Y-342.203 I0.41 J1.33
G3 X-168.772 Y-340.83 I-1.703 J-0.083
G2 X-170.111 Y-339.856 I5.307 J8.714
G3 X-170.366 Y-339.973 I-0.1 J-0.117
G1 Y-374.743
G3 X-170.053 Y-375.056 I0.313 J0
G1 X-135.251
G3 X-135.16 Y-374.814 I0 J0.138
G2 X-137.677 Y-371.475 I6.622 J7.61
X-138.584 Y-367.393 I8.734 J4.082
G1 X-138.54 Y-342.543
G3 X-138.853 Y-342.23 I-0.313 J0
G1 X-163.703 Y-342.274
G2 X-167.124 Y-341.64 I0 J9.538
X-168.772 Y-340.83 I3.659 J9.524
G1 X-168.823 Y-340.805 Z-7.989
X-168.879 Y-340.791 Z-7.977
X-168.927 Y-340.787 Z-7.945
X-168.976 Y-340.791 Z-7.912
X-169.038 Y-340.809 Z-7.815
X-169.059 Y-340.818 Z-7.7
G0 Z5
X-156.534 Y363.708
G1 Z-1.125 F333.3
Z-3.2 F1000
X-156.516 Y363.674 Z-3.347 F333.3
X-156.462 Y363.583 Z-3.456
X-156.377 Y363.466 Z-3.5
G3 X-154.154 Y365.248 Z-3.656 I1.112 J0.891
X-156.377 Y363.466 Z-3.813 I-1.112 J-0.891
X-154.154 Y365.248 Z-3.969 I1.112 J0.891
X-156.377 Y363.466 Z-4.125 I-1.112 J-0.891
X-154.154 Y365.248 Z-4.282 I1.112 J0.891
X-156.377 Y363.466 Z-4.438 I-1.112 J-0.891
X-154.154 Y365.248 Z-4.594 I1.112 J0.891
X-156.377 Y363.466 Z-4.751 I-1.112 J-0.891
X-154.154 Y365.248 Z-4.907 I1.112 J0.891
X-156.377 Y363.466 Z-5.063 I-1.112 J-0.891
X-154.154 Y365.248 Z-5.22 I1.112 J0.891
X-156.377 Y363.466 Z-5.376 I-1.112 J-0.891
X-154.154 Y365.248 Z-5.532 I1.112 J0.891
X-156.377 Y363.466 Z-5.689 I-1.112 J-0.891
X-154.154 Y365.248 Z-5.845 I1.112 J0.891
X-156.377 Y363.466 Z-6.001 I-1.112 J-0.891
X-154.154 Y365.248 Z-6.158 I1.112 J0.891
X-156.377 Y363.466 Z-6.314 I-1.112 J-0.891
X-154.154 Y365.248 Z-6.47 I1.112 J0.891
X-156.377 Y363.466 Z-6.627 I-1.112 J-0.891
X-154.154 Y365.248 Z-6.783 I1.112 J0.891
X-156.377 Y363.466 Z-6.939 I-1.112 J-0.891
X-154.154 Y365.248 Z-7.096 I1.112 J0.891
X-156.377 Y363.466 Z-7.252 I-1.112 J-0.891
X-154.154 Y365.248 Z-7.408 I1.112 J0.891
X-156.377 Y363.466 Z-7.565 I-1.112 J-0.891
X-154.154 Y365.248 Z-7.721 I1.112 J0.891
X-156.377 Y363.466 Z-7.877 I-1.112 J-0.891
X-153.84 Y364.357 Z-8 I1.112 J0.891
G1 Y364.65 F1000
G3 X-154.16 Y364.97 I-0.319 J0
G1 X-154.746
G3 X-155.066 Y364.65 I0 J-0.319
G1 Y363.064
G3 X-154.746 Y362.744 I0.319 J0
G1 X-154.16
G3 X-153.84 Y363.064 I0 J0.319
G1 Y364.357
G2 X-153.123 Y365.415 I1.139 J0
G3 X-153.365 Y366.67 I-0.241 J0.604
G1 X-156.446
G3 X-156.766 Y366.35 I0 J-0.319
G1 Y361.364
G3 X-156.446 Y361.044 I0.319 J0
G1 X-152.46
G3 X-152.14 Y361.364 I0 J0.319
G1 Y366.35
G3 X-152.46 Y366.67 I-0.319 J0
G1 X-153.365
G2 X-154.64 Y367.52 I0 J1.381
G3 X-155.915 Y368.37 I-1.275 J-0.531
G1 X-158.146
G3 X-158.466 Y368.05 I0 J-0.319
G1 Y359.664
G3 X-158.146 Y359.344 I0.319 J0
G1 X-150.76
G3 X-150.44 Y359.664 I0 J0.319
G1 Y368.05
G3 X-150.76 Y368.37 I-0.319 J0
G1 X-155.915
G2 X-157.19 Y369.22 I0 J1.381
G3 X-158.465 Y370.07 I-1.275 J-0.531
G1 X-159.846
G3 X-160.166 Y369.75 I0 J-0.319
G1 Y357.964
G3 X-159.846 Y357.644 I0.319 J0
G1 X-149.06
G3 X-148.74 Y357.964 I0 J0.319
G1 Y369.75
G3 X-149.06 Y370.07 I-0.319 J0
G1 X-158.465
G2 X-159.74 Y370.92 I0 J1.381
G3 X-161.015 Y371.77 I-1.275 J-0.531
G1 X-161.546
G3 X-161.866 Y371.45 I0 J-0.319
G1 Y356.264
G3 X-161.546 Y355.944 I0.319 J0
G1 X-147.36
G3 X-147.04 Y356.264 I0 J0.319
G1 Y371.45
G3 X-147.36 Y371.77 I-0.319 J0
G1 X-161.015
G2 X-162.23 Y372.443 I0 J1.435
G3 X-163.566 Y372.059 I-0.613 J-0.384
G1 Y354.564
G3 X-163.246 Y354.244 I0.319 J0
G1 X-145.66
G3 X-145.34 Y354.564 I0 J0.319
G1 X-145.357 Y372.607
G2 X-145.347 Y372.881 I3.479 J0
G3 X-145.331 Y373.155 I-5.955 J0.471
X-145.635 Y373.47 I-0.304 J0.01
G1 X-163.246
G3 X-163.566 Y373.15 I0 J-0.319
G1 Y372.059
G2 X-164.416 Y370.784 I-1.381 J0
G3 X-165.266 Y369.509 I0.531 J-1.275
G1 Y352.777
G3 X-164.955 Y352.492 I0.287 J0
X-164.33 Y352.551 I-2.584 J30.715
G2 X-163.703 Y352.583 I0.627 J-5.99
G1 X-143.96 Y352.544
G3 X-143.64 Y352.864 I0 J0.319
G1 X-143.685 Y372.607
G2 X-143.62 Y373.74 I9.835 J0
X-143.469 Y374.864 I31.083 J-3.604
G3 X-143.731 Y375.17 I-0.263 J0.04
G1 X-164.946
G3 X-165.266 Y374.85 I0 J-0.319
G1 Y369.509
G2 X-166.116 Y368.234 I-1.381 J0
G3 X-166.966 Y366.959 I0.531 J-1.275
G1 Y350.747
G3 X-166.666 Y350.508 I0.245 J0
G2 X-165.195 Y350.783 I4.039 J-17.586
X-163.703 Y350.889 I1.492 J-10.378
G1 X-142.26 Y350.844
G3 X-141.94 Y351.164 I0 J0.319
G1 X-141.985 Y372.607
G2 X-141.81 Y374.616 I11.582 J0
X-141.331 Y376.576 I15.275 J-2.691
G3 X-141.547 Y376.87 I-0.216 J0.068
G1 X-166.646
G3 X-166.966 Y376.55 I0 J-0.319
G1 Y366.959
G2 X-167.816 Y365.684 I-1.381 J0
G3 X-168.666 Y364.409 I0.531 J-1.275
G1 Y348.338
G3 X-168.381 Y348.153 I0.202 J0
G2 X-166.096 Y348.916 I5.138 J-11.584
X-163.703 Y349.189 I2.393 J-10.356
G1 X-140.56 Y349.144
G3 X-140.24 Y349.464 I0 J0.319
G1 X-140.285 Y372.607
G2 X-139.882 Y375.55 I10.937 J0
X-138.742 Y378.293 I11.807 J-3.299
G3 X-138.903 Y378.57 I-0.161 J0.091
G1 X-168.346
G3 X-168.666 Y378.25 I0 J-0.319
G1 Y364.409
G2 X-169.516 Y363.134 I-1.381 J0
G3 X-170.366 Y361.859 I0.531 J-1.275
G1 Y345.187
G3 X-170.111 Y345.07 I0.154 J0
G2 X-167.124 Y346.854 I6.647 J-7.741
X-163.703 Y347.488 I3.421 J-8.904
G1 X-138.853 Y347.444
G3 X-138.54 Y347.757 I0 J0.313
G1 X-138.584 Y372.607
G2 X-137.677 Y376.689 I9.641 J0
X-135.16 Y380.028 I9.139 J-4.271
G3 X-135.251 Y380.27 I-0.09 J0.104
G1 X-170.053
G3 X-170.366 Y379.957 I0 J-0.313
G1 Y361.859
X-170.36 Y361.802 Z-7.989
X-170.344 Y361.747 Z-7.977
X-170.322 Y361.703 Z-7.945
X-170.294 Y361.664 Z-7.912
X-170.247 Y361.619 Z-7.815
X-170.228 Y361.606 Z-7.7
G0 Z5
X149.696 Y362.276
G1 Z-1.125 F333.3
Z-3.2 F1000
X149.73 Y362.294 Z-3.347 F333.3
X149.821 Y362.348 Z-3.456
X149.938 Y362.433 Z-3.5
G3 X148.156 Y364.656 Z-3.656 I-0.891 J1.112
X149.938 Y362.433 Z-3.813 I0.891 J-1.112
X148.156 Y364.656 Z-3.969 I-0.891 J1.112
X149.938 Y362.433 Z-4.125 I0.891 J-1.112
X148.156 Y364.656 Z-4.282 I-0.891 J1.112
X149.938 Y362.433 Z-4.438 I0.891 J-1.112
X148.155 Y364.656 Z-4.594 I-0.891 J1.112
X149.938 Y362.433 Z-4.751 I0.891 J-1.112
X148.155 Y364.656 Z-4.907 I-0.891 J1.112
X149.938 Y362.433 Z-5.063 I0.891 J-1.112
X148.155 Y364.656 Z-5.22 I-0.891 J1.112
X149.938 Y362.433 Z-5.376 I0.891 J-1.112
X148.155 Y364.656 Z-5.532 I-0.891 J1.112
X149.938 Y362.433 Z-5.689 I0.891 J-1.112
X148.155 Y364.656 Z-5.845 I-0.892 J1.112
X149.938 Y362.433 Z-6.001 I0.892 J-1.112
X148.155 Y364.656 Z-6.158 I-0.892 J1.112
X149.938 Y362.433 Z-6.314 I0.892 J-1.112
X148.155 Y364.656 Z-6.47 I-0.892 J1.112
X149.938 Y362.433 Z-6.627 I0.892 J-1.112
X148.155 Y364.656 Z-6.783 I-0.892 J1.112
X149.939 Y362.433 Z-6.939 I0.892 J-1.112
X148.155 Y364.656 Z-7.096 I-0.892 J1.112
X149.939 Y362.433 Z-7.252 I0.892 J-1.112
X148.155 Y364.656 Z-7.408 I-0.892 J1.112
X149.939 Y362.433 Z-7.565 I0.892 J-1.112
X148.155 Y364.656 Z-7.721 I-0.892 J1.112
X149.939 Y362.433 Z-7.877 I0.892 J-1.112
X149.047 Y364.97 Z-8 I-0.892 J1.112
G1 X148.754 F1000
G3 X148.434 Y364.65 I0 J-0.319
G1 Y363.064
G3 X148.754 Y362.744 I0.319 J0
G1 X149.34
G3 X149.66 Y363.064 I0 J0.319
G1 Y364.65
G3 X149.34 Y364.97 I-0.319 J0
G1 X149.047
G2 X147.989 Y365.687 I0 J1.139
G3 X146.734 Y365.445 I-0.604 J-0.241
G1 Y361.364
G3 X147.054 Y361.044 I0.319 J0
G1 X151.04
G3 X151.36 Y361.364 I0 J0.319
G1 Y366.35
G3 X151.04 Y366.67 I-0.319 J0
G1 X147.054
G3 X146.734 Y366.35 I0 J-0.319
G1 Y365.445
G2 X145.884 Y364.17 I-1.381 J0
G3 X145.034 Y362.895 I0.531 J-1.275
G1 Y359.664
G3 X145.354 Y359.344 I0.319 J0
G1 X152.74
G3 X153.06 Y359.664 I0 J0.319
G1 Y368.05
G3 X152.74 Y368.37 I-0.319 J0
G1 X145.354
G3 X145.034 Y368.05 I0 J-0.319
G1 Y362.895
G2 X144.184 Y361.62 I-1.381 J0
G3 X143.334 Y360.345 I0.531 J-1.275
G1 Y357.964
G3 X143.654 Y357.644 I0.319 J0
G1 X154.44
G3 X154.76 Y357.964 I0 J0.319
G1 Y369.75
G3 X154.44 Y370.07 I-0.319 J0
G1 X143.654
G3 X143.334 Y369.75 I0 J-0.319
G1 Y360.345
G2 X142.484 Y359.07 I-1.381 J0
G3 X141.634 Y357.795 I0.531 J-1.275
G1 Y356.264
G3 X141.954 Y355.944 I0.319 J0
G1 X156.14
G3 X156.46 Y356.264 I0 J0.319
G1 Y371.45
G3 X156.14 Y371.77 I-0.319 J0
G1 X141.954
G3 X141.634 Y371.45 I0 J-0.319
G1 Y357.795
G2 X140.785 Y356.523 I-1.378 J0
G3 X139.935 Y355.25 I0.53 J-1.274
G1 X139.934 Y354.564
G3 X140.254 Y354.244 I0.319 J0
G1 X157.84
G3 X158.16 Y354.564 I0 J0.319
G1 Y373.15
G3 X157.84 Y373.47 I-0.319 J0
G1 X140.229
G3 X139.925 Y373.155 I0 J-0.304
X139.941 Y372.881 I5.97 J0.197
G2 X139.951 Y372.607 I-3.468 J-0.274
G1 X139.935 Y355.25
G2 X139.145 Y353.993 I-1.398 J0.001
G3 X139.478 Y352.546 I0.331 J-0.685
G1 X158.297 Y352.583
G2 X158.924 Y352.551 I0 J-6.023
G3 X159.549 Y352.492 I3.209 J30.656
X159.86 Y352.777 I0.024 J0.286
G1 Y374.85
G3 X159.54 Y375.17 I-0.319 J0
G1 X138.325
G3 X138.063 Y374.864 I0 J-0.266
G2 X138.214 Y373.74 I-30.931 J-4.728
X138.279 Y372.607 I-9.769 J-1.133
G1 X138.234 Y352.864
G3 X138.554 Y352.544 I0.319 J0
G1 X139.478 Y352.546
G2 X140.752 Y351.701 I0.003 J-1.378
G3 X142.026 Y350.855 I1.271 J0.533
G1 X158.297 Y350.889
G2 X159.789 Y350.783 I0 J-10.484
X161.26 Y350.508 I-2.568 J-17.86
G3 X161.56 Y350.747 I0.055 J0.239
G1 Y376.55
G3 X161.24 Y376.87 I-0.319 J0
G1 X136.141
G3 X135.925 Y376.576 I0 J-0.226
G2 X136.404 Y374.616 I-14.796 J-4.65
X136.579 Y372.607 I-11.407 J-2.009
G1 X136.534 Y351.164
G3 X136.854 Y350.844 I0.319 J0
G1 X142.026 Y350.855
G2 X143.301 Y350.009 I0.003 J-1.379
G3 X144.576 Y349.163 I1.272 J0.533
G1 X158.297 Y349.189
G2 X160.69 Y348.916 I0 J-10.629
X162.975 Y348.153 I-2.854 J-12.347
G3 X163.26 Y348.338 I0.082 J0.185
G1 Y378.25
G3 X162.94 Y378.57 I-0.319 J0
G1 X133.497
G3 X133.336 Y378.293 I0 J-0.185
G2 X134.476 Y375.55 I-10.667 J-6.042
X134.879 Y372.607 I-10.534 J-2.943
G1 X134.834 Y349.464
G3 X135.154 Y349.144 I0.319 J0
G1 X144.576 Y349.163
G2 X145.851 Y348.315 I0.003 J-1.38
G3 X147.127 Y347.468 I1.273 J0.533
G1 X158.297 Y347.488
G2 X161.718 Y346.854 I0 J-9.538
X164.705 Y345.07 I-3.659 J-9.524
G3 X164.96 Y345.187 I0.1 J0.117
G1 Y379.957
G3 X164.647 Y380.27 I-0.313 J0
G1 X129.845
G3 X129.754 Y380.028 I0 J-0.138
G2 X132.271 Y376.689 I-6.622 J-7.61
X133.178 Y372.607 I-8.734 J-4.082
G1 X133.134 Y347.757
G3 X133.447 Y347.444 I0.313 J0
G1 X147.127 Y347.468
G2 X148.403 Y346.621 I0.002 J-1.38
G3 X149.679 Y345.774 I1.273 J0.533
G1 X158.297 Y345.788
G2 X166.478 Y337.607 I0 J-8.181
G1 Y-332.393
G2 X158.297 Y-340.574 I-8.181 J0
G1 X131.753 Y-340.529
G3 X131.433 Y-340.849 I0 J-0.319
G1 X131.478 Y-367.393
G2 X123.297 Y-375.574 I-8.181 J0
G1 X-128.703
G2 X-136.884 Y-367.393 I0 J8.181
G1 X-136.839 Y-340.849
G3 X-137.159 Y-340.529 I-0.319 J0
G1 X-163.703 Y-340.574
G2 X-171.884 Y-332.393 I0 J8.181
G1 Y337.607
G2 X-163.703 Y345.788 I8.181 J0
G1 X-137.159 Y345.743
G3 X-136.839 Y346.063 I0 J0.319
G1 X-136.884 Y372.607
G2 X-128.703 Y380.788 I8.181 J0
G1 X123.297
G2 X131.478 Y372.607 I0 J-8.181
G1 X131.433 Y346.063
G3 X131.753 Y345.743 I0.319 J0
G1 X149.679 Y345.774
G2 X150.828 Y345.01 I0.002 J-1.243
G3 X151.977 Y344.247 I1.147 J0.48
G1 X158.297 Y344.257
G2 X164.947 Y337.607 I0 J-6.65
G1 Y-332.393
G2 X158.297 Y-339.043 I-6.65 J0
G1 X130.221 Y-338.998
G3 X129.902 Y-339.317 I0 J-0.319
G1 X129.947 Y-367.393
G2 X123.297 Y-374.043 I-6.65 J0
G1 X-128.703
G2 X-135.353 Y-367.393 I0 J6.65
G1 X-135.308 Y-339.317
G3 X-135.627 Y-338.998 I-0.319 J0
G1 X-163.703 Y-339.043
G2 X-170.353 Y-332.393 I0 J6.65
G1 Y337.607
G2 X-163.703 Y344.257 I6.65 J0
G1 X-135.627 Y344.212
G3 X-135.308 Y344.531 I0 J0.319
G1 X-135.353 Y372.607
G2 X-128.703 Y379.257 I6.65 J0
G1 X123.297
G2 X129.947 Y372.607 I0 J-6.65
G1 X129.902 Y344.531
G3 X130.221 Y344.212 I0.319 J0
G1 X151.977 Y344.247
G2 X153.253 Y343.399 I0.002 J-1.381
G3 X154.529 Y342.551 I1.274 J0.533
G1 X158.297 Y342.557
G2 X163.247 Y337.607 I0 J-4.95
G1 Y-332.393
G2 X158.297 Y-337.343 I-4.95 J0
G1 X128.521 Y-337.298
G3 X128.202 Y-337.617 I0 J-0.319
G1 X128.247 Y-367.393
G2 X123.297 Y-372.343 I-4.95 J0
G1 X-128.703
G2 X-133.653 Y-367.393 I0 J4.95
G1 X-133.608 Y-337.617
G3 X-133.927 Y-337.298 I-0.319 J0
G1 X-163.703 Y-337.343
G2 X-168.653 Y-332.393 I0 J4.95
G1 Y337.607
G2 X-163.703 Y342.557 I4.95 J0
G1 X-133.927 Y342.512
G3 X-133.608 Y342.831 I0 J0.319
G1 X-133.653 Y372.607
G2 X-128.703 Y377.557 I4.95 J0
G1 X123.297
G2 X128.247 Y372.607 I0 J-4.95
G1 X128.202 Y342.831
G3 X128.521 Y342.512 I0.319 J0
G1 X154.529 Y342.551
G2 X155.805 Y341.703 I0.002 J-1.381
G3 X157.081 Y340.855 I1.274 J0.533
G1 X158.297 Y340.857
G2 X161.547 Y337.607 I0 J-3.25
G1 Y-332.393
G2 X158.297 Y-335.643 I-3.25 J0
G1 X126.821 Y-335.598
G3 X126.502 Y-335.917 I0 J-0.319
G1 X126.547 Y-367.393
G2 X123.297 Y-370.643 I-3.25 J0
G1 X-128.703
G2 X-131.953 Y-367.393 I0 J3.25
G1 X-131.908 Y-335.917
G3 X-132.227 Y-335.598 I-0.319 J0
G1 X-163.703 Y-335.643
G2 X-166.953 Y-332.393 I0 J3.25
G1 Y337.607
G2 X-163.703 Y340.857 I3.25 J0
G1 X-132.227 Y340.812
G3 X-131.908 Y341.131 I0 J0.319
G1 X-131.953 Y372.607
G2 X-128.703 Y375.857 I3.25 J0
G1 X123.297
G2 X126.547 Y372.607 I0 J-3.25
G1 X126.502 Y341.131
G3 X126.821 Y340.812 I0.319 J0
G1 X157.081 Y340.855
G2 X158.577 Y339.965 I0.002 J-1.698
G3 X159.508 Y338.493 I11.279 J6.098
G2 X159.797 Y337.607 I-1.211 J-0.886
G1 Y-332.393
G2 X158.297 Y-333.893 I-1.5 J0
G1 X124.797
Y-367.393
G2 X123.297 Y-368.893 I-1.5 J0
G1 X-128.703
G2 X-130.203 Y-367.393 I0 J1.5
G1 Y-333.893
X-163.703
G2 X-165.203 Y-332.393 I0 J1.5
G1 Y337.607
G2 X-163.703 Y339.107 I1.5 J0
G1 X-130.203
Y372.607
G2 X-128.703 Y374.107 I1.5 J0
G1 X123.297
G2 X124.797 Y372.607 I0 J-1.5
G1 Y339.107
X158.297
G2 X159.508 Y338.493 I0 J-1.5
G3 X159.862 Y338.558 I0.161 J0.118
G1 X166.654 Y363.308
X166.661 Y363.361
Y381.651
G3 X166.341 Y381.971 I-0.319 J0
G1 X-171.747
G3 X-172.067 Y381.651 I0 J-0.319
G1 Y-376.437
G3 X-171.747 Y-376.757 I0.319 J0
G1 X166.341
G3 X166.661 Y-376.437 I0 J0.319
G1 Y357.27
Y363.361
G2 X167.426 Y364.509 I1.244 J0
G3 X168.192 Y365.658 I-0.479 J1.148
G1 Y383.183
G3 X167.873 Y383.502 I-0.319 J0
G1 X-173.279
G3 X-173.598 Y383.183 I0 J-0.319
G1 Y-377.969
G3 X-173.279 Y-378.288 I0.319 J0
G1 X167.873
G3 X168.192 Y-377.969 I0 J0.319
G1 Y365.658
G2 X169.042 Y366.933 I1.381 J0
G3 X169.892 Y368.208 I-0.531 J1.275
G1 Y384.883
G3 X169.573 Y385.202 I-0.319 J0
G1 X-174.979
G3 X-175.298 Y384.883 I0 J-0.319
G1 Y-379.669
G3 X-174.979 Y-379.988 I0.319 J0
G1 X169.573
G3 X169.892 Y-379.669 I0 J0.319
G1 Y368.208
G2 X170.742 Y369.483 I1.381 J0
G3 X171.592 Y370.758 I-0.531 J1.275
G1 Y386.583
G3 X171.273 Y386.902 I-0.319 J0
G1 X-176.679
G3 X-176.998 Y386.583 I0 J-0.319
G1 Y-381.369
G3 X-176.679 Y-381.688 I0.319 J0
G1 X171.273
G3 X171.592 Y-381.369 I0 J0.319
G1 Y370.758
G2 X172.445 Y372.036 I1.385 J0
G3 X173.297 Y373.315 I-0.533 J1.279
G1 Y388.607
X-178.703
Y-383.393
X173.297
Y373.315
G3 X173.008 Y373.494 I-0.2 J0
G1 X150.119 Y362.072
G2 X149.909 Y362.41 I-0.089 J0.179
G3 X148.185 Y364.68 Z-8.156 I-0.862 J1.135 F333.3
X149.909 Y362.41 Z-8.313 I0.862 J-1.135
X148.185 Y364.68 Z-8.469 I-0.862 J1.135
X149.909 Y362.41 Z-8.625 I0.862 J-1.135
X148.185 Y364.68 Z-8.782 I-0.862 J1.135
X149.909 Y362.41 Z-8.938 I0.862 J-1.135
X148.185 Y364.68 Z-9.094 I-0.862 J1.135
X149.909 Y362.41 Z-9.251 I0.862 J-1.135
X148.185 Y364.68 Z-9.407 I-0.862 J1.135
X149.909 Y362.41 Z-9.563 I0.862 J-1.135
X148.185 Y364.68 Z-9.72 I-0.862 J1.135
X149.909 Y362.41 Z-9.876 I0.862 J-1.135
X149.047 Y364.97 Z-10 I-0.862 J1.135
G1 X148.754 F1000
G3 X148.434 Y364.65 I0 J-0.319
G1 Y363.064
G3 X148.754 Y362.744 I0.319 J0
G1 X149.34
G3 X149.66 Y363.064 I0 J0.319
G1 Y364.65
G3 X149.34 Y364.97 I-0.319 J0
G1 X149.047
G2 X147.989 Y365.687 I0 J1.139
G3 X146.734 Y365.445 I-0.604 J-0.241
G1 Y361.364
G3 X147.054 Y361.044 I0.319 J0
G1 X151.04
G3 X151.36 Y361.364 I0 J0.319
G1 Y366.35
G3 X151.04 Y366.67 I-0.319 J0
G1 X147.054
G3 X146.734 Y366.35 I0 J-0.319
G1 Y365.445
G2 X145.884 Y364.17 I-1.381 J0
G3 X145.034 Y362.895 I0.531 J-1.275
G1 Y359.664
G3 X145.354 Y359.344 I0.319 J0
G1 X152.74
G3 X153.06 Y359.664 I0 J0.319
G1 Y368.05
G3 X152.74 Y368.37 I-0.319 J0
G1 X145.354
G3 X145.034 Y368.05 I0 J-0.319
G1 Y362.895
G2 X144.184 Y361.62 I-1.381 J0
G3 X143.334 Y360.345 I0.531 J-1.275
G1 Y357.964
G3 X143.654 Y357.644 I0.319 J0
G1 X154.44
G3 X154.76 Y357.964 I0 J0.319
G1 Y369.75
G3 X154.44 Y370.07 I-0.319 J0
G1 X143.654
G3 X143.334 Y369.75 I0 J-0.319
G1 Y360.345
G2 X142.484 Y359.07 I-1.381 J0
G3 X141.634 Y357.795 I0.531 J-1.275
G1 Y356.264
G3 X141.954 Y355.944 I0.319 J0
G1 X156.14
G3 X156.46 Y356.264 I0 J0.319
G1 Y371.45
G3 X156.14 Y371.77 I-0.319 J0
G1 X141.954
G3 X141.634 Y371.45 I0 J-0.319
G1 Y357.795
G2 X140.785 Y356.523 I-1.378 J0
G3 X139.935 Y355.25 I0.53 J-1.274
G1 X139.934 Y354.564
G3 X140.254 Y354.244 I0.319 J0
G1 X157.84
G3 X158.16 Y354.564 I0 J0.319
G1 Y373.15
G3 X157.84 Y373.47 I-0.319 J0
G1 X140.229
G3 X139.925 Y373.155 I0 J-0.304
X139.941 Y372.881 I5.97 J0.197
G2 X139.951 Y372.607 I-3.468 J-0.274
G1 X139.935 Y355.25
G2 X139.145 Y353.993 I-1.398 J0.001
G3 X139.478 Y352.546 I0.331 J-0.685
G1 X158.297 Y352.583
G2 X158.924 Y352.551 I0 J-6.023
G3 X159.549 Y352.492 I3.209 J30.656
X159.86 Y352.777 I0.024 J0.286
G1 Y374.85
G3 X159.54 Y375.17 I-0.319 J0
G1 X138.325
G3 X138.063 Y374.864 I0 J-0.266
G2 X138.214 Y373.74 I-30.931 J-4.728
X138.279 Y372.607 I-9.769 J-1.133
G1 X138.234 Y352.864
G3 X138.554 Y352.544 I0.319 J0
G1 X139.478 Y352.546
G2 X140.752 Y351.701 I0.003 J-1.378
G3 X142.026 Y350.855 I1.271 J0.533
G1 X158.297 Y350.889
G2 X159.789 Y350.783 I0 J-10.484
X161.26 Y350.508 I-2.568 J-17.86
G3 X161.56 Y350.747 I0.055 J0.239
G1 Y376.55
G3 X161.24 Y376.87 I-0.319 J0
G1 X136.141
G3 X135.925 Y376.576 I0 J-0.226
G2 X136.404 Y374.616 I-14.796 J-4.65
X136.579 Y372.607 I-11.407 J-2.009
G1 X136.534 Y351.164
G3 X136.854 Y350.844 I0.319 J0
G1 X142.026 Y350.855
G2 X143.301 Y350.009 I0.003 J-1.379
G3 X144.576 Y349.163 I1.272 J0.533
G1 X158.297 Y349.189
G2 X160.69 Y348.916 I0 J-10.629
X162.975 Y348.153 I-2.854 J-12.347
G3 X163.26 Y348.338 I0.082 J0.185
G1 Y378.25
G3 X162.94 Y378.57 I-0.319 J0
G1 X133.497
G3 X133.336 Y378.293 I0 J-0.185
G2 X134.476 Y375.55 I-10.667 J-6.042
X134.879 Y372.607 I-10.534 J-2.943
G1 X134.834 Y349.464
G3 X135.154 Y349.144 I0.319 J0
G1 X144.576 Y349.163
G2 X145.851 Y348.315 I0.003 J-1.38
G3 X147.127 Y347.468 I1.273 J0.533
