(VanLiving_FensterrahmenHinten)
(T4 D=5 CR=0 - ZMIN=-5 - flat end mill)
G90 G94
G17
G21

(2D Contour2)
T4
S5000 M3
G54
M8
G0 X470 Y252
Z15
G0 Z5
G1 Z4 F333.3
Z-2.5
G18 G2 X470.5 Z-3 I0.5 K0 F1000
G1 X471
G17 G3 X471.5 Y252.5 I0 J0.5
G1 Y452
G3 X402 Y521.5 I-69.5 J0
G1 X103
G3 X33.5 Y452 I0 J-69.5
G1 Y103
G3 X103 Y33.5 I69.5 J0
G1 X402
G3 X471.5 Y103 I0 J69.5
G1 Y252.5
G3 X471 Y253 I-0.5 J0
G1 X470.5
G18 G3 X470 Z-2.5 I0 K0.5
G0 Z5
Y252
G1 Z1 F333.3
Z-4.5
G2 X470.5 Z-5 I0.5 K0 F1000
G1 X471
G17 G3 X471.5 Y252.5 I0 J0.5
G1 Y452
G3 X402 Y521.5 I-69.5 J0
G1 X103
G3 X33.5 Y452 I0 J-69.5
G1 Y103
G3 X103 Y33.5 I69.5 J0
G1 X402
G3 X471.5 Y103 I0 J69.5
G1 Y252.5
G3 X471 Y253 I-0.5 J0
G1 X470.5
G18 G3 X470 Z-4.5 I0 K0.5
G0 Z15
G17

(2D Contour3)
G0 X252 Y558
Z15
Z5
G1 Z4 F333.3
Z-2.5
G19 G2 Y557.5 Z-3 J-0.5 K0 F1000
G1 Y557
G17 G3 X252.5 Y556.5 I0.5 J0
G1 X402
G2 X506.5 Y452 I0 J-104.5
G1 Y103
G2 X402 Y-1.5 I-104.5 J0
G1 X103
G2 X-1.5 Y103 I0 J104.5
G1 Y452
G2 X103 Y556.5 I104.5 J0
G1 X252.5
G3 X253 Y557 I0 J0.5
G1 Y557.5
G19 G3 Y558 Z-2.5 J0 K0.5
G0 Z5
X252
G1 Z1 F333.3
Z-4.5
G2 Y557.5 Z-5 J-0.5 K0 F1000
G1 Y557
G17 G3 X252.5 Y556.5 I0.5 J0
G1 X402
G2 X506.5 Y452 I0 J-104.5
G1 Y103
G2 X402 Y-1.5 I-104.5 J0
G1 X103
G2 X-1.5 Y103 I0 J104.5
G1 Y452
G2 X103 Y556.5 I104.5 J0
G1 X252.5
G3 X253 Y557 I0 J0.5
G1 Y557.5
G19 G3 Y558 Z-4.5 J0 K0.5
G0 Z15
G17
M9
M5
M30
