(Winkelhalter_Gross)
(T4 D=5 CR=0 - ZMIN=-13 - flat end mill)
G90 G94
G17
G21
(-Attention- Property Safe Retracts is set to Clearance Height.)
(Ensure the clearance height will clear the part and or fixtures.)
(Raise the Z-axis to a safe height before starting the program.)

(2D Contour1)
T4
S5000 M3
G17 G90 G94
G54
M8
G0 X14 Y115.5
Z15
G0 Z5
G1 Z1 F333.3
Z-3
Y128.5 F1000
X8
Y112.5
X14
Y115.5
Z-6 F333.3
Y128.5 F1000
X8
Y112.5
X14
Y115.5
Z-9 F333.3
Y128.5 F1000
X8
Y112.5
X14
Y115.5
Z-12 F333.3
Y128.5 F1000
X8
Y112.5
X14
Y115.5
Z-13 F333.3
Y128.5 F1000
X8
Y112.5
X14
Y115.5
G0 Z5
X73.5 Y11
G1 Z1 F333.3
Z-3
Y14 F1000
X57.5
Y8
X73.5
Y11
Z-6 F333.3
Y14 F1000
X57.5
Y8
X73.5
Y11
Z-9 F333.3
Y14 F1000
X57.5
Y8
X73.5
Y11
Z-12 F333.3
Y14 F1000
X57.5
Y8
X73.5
Y11
Z-13 F333.3
Y14 F1000
X57.5
Y8
X73.5
Y11
G0 Z15

(Flat1)
G0 X11.711 Y127.49
Z15
Z0.5
G1 Z-3.5 F333.3
Y127.498 Z-3.587 F1000
Y127.52 Z-3.671
Y127.557 Z-3.75
Y127.607 Z-3.821
Y127.669 Z-3.883
Y127.74 Z-3.933
X11.71 Y127.819 Z-3.97
Y127.903 Z-3.992
Y127.99 Z-4
X11.709 Y128.49
X11.539 Y191.511
G3 X10.56 Y192.508 I-1 J-0.003
G1 X10.511 Y192.51
G3 X9.49 Y191.509 I-0.021 J-1
G1 X9.505 Y128.49
Y127.99
Y127.903 Z-3.992
Y127.819 Z-3.97
Y127.74 Z-3.933
Y127.669 Z-3.883
Y127.607 Z-3.821
Y127.557 Z-3.75
Y127.52 Z-3.671
Y127.498 Z-3.587
Y127.49 Z-3.5
G0 Z5
X18.315 Y80.459
Z0.5
G1 Z-3.5 F333.3
X18.31 Y80.465 Z-3.587 F1000
X18.293 Y80.48 Z-3.671
X18.267 Y80.506 Z-3.75
X18.23 Y80.54 Z-3.821
X18.186 Y80.583 Z-3.883
X18.134 Y80.632 Z-3.933
X18.077 Y80.687 Z-3.97
X18.016 Y80.745 Z-3.992
X17.954 Y80.805 Z-4
X17.592 Y81.151
X16.771 Y81.937
G3 X15.262 Y81.293 I-0.616 J-0.644
G1 X15.26 Y66.406
G3 X16.865 Y65.789 I0.921 J0
G1 X17.59 Y66.592
X17.926 Y66.963
X17.984 Y67.027 Z-3.992
X18.04 Y67.089 Z-3.97
X18.093 Y67.148 Z-3.933
X18.141 Y67.201 Z-3.883
X18.182 Y67.247 Z-3.821
X18.216 Y67.284 Z-3.75
X18.241 Y67.311 Z-3.671
X18.256 Y67.328 Z-3.587
X18.261 Y67.334 Z-3.5
G0 Z5
X19.766 Y83.482
Z0.5
G1 Z-3.5 F333.3
X19.76 Y83.486 Z-3.587 F1000
X19.742 Y83.5 Z-3.671
X19.713 Y83.523 Z-3.75
X19.674 Y83.553 Z-3.821
X19.625 Y83.591 Z-3.883
X19.569 Y83.635 Z-3.933
X19.506 Y83.683 Z-3.97
X19.44 Y83.735 Z-3.992
X19.371 Y83.788 Z-4
X18.977 Y84.095
X16.149 Y86.293
G2 X13.766 Y88.449 I13.201 J16.985
G1 X13.5 Y88.729
G3 X12.267 Y88.236 I-0.518 J-0.493
G1 X12.263 Y59.497
G3 X13.491 Y59 I0.714 J0
G1 X14.02 Y59.548
G2 X15.703 Y61.069 I12.073 J-11.664
G1 X18.974 Y63.646
X19.366 Y63.956
X19.435 Y64.01 Z-3.992
X19.501 Y64.062 Z-3.97
X19.563 Y64.111 Z-3.933
X19.619 Y64.155 Z-3.883
X19.667 Y64.193 Z-3.821
X19.707 Y64.224 Z-3.75
X19.736 Y64.247 Z-3.671
X19.753 Y64.261 Z-3.587
X19.759 Y64.265 Z-3.5
G0 Z5
X12.491 Y13.57
Z0.5
G1 Z-3.5 F333.3
Y13.563 Z-3.587 F1000
Y13.54 Z-3.671
Y13.503 Z-3.75
Y13.453 Z-3.821
Y13.392 Z-3.883
Y13.32 Z-3.933
Y13.241 Z-3.97
Y13.157 Z-3.992
Y13.07 Z-4
Y12.57
Y12.491
X12.569
X12.491 Y12.57
X12.14 Y12.927
X12.079 Y12.989 Z-3.992
X12.021 Y13.049 Z-3.97
X11.965 Y13.106 Z-3.933
X11.915 Y13.157 Z-3.883
X11.872 Y13.201 Z-3.821
X11.837 Y13.236 Z-3.75
X11.811 Y13.262 Z-3.671
X11.795 Y13.279 Z-3.587
X11.79 Y13.284 Z-3.5
G0 Z5
X9.505 Y113.51
Z0.5
G1 Z-3.5 F333.3
Y113.503 Z-3.587 F1000
Y113.48 Z-3.671
Y113.443 Z-3.75
Y113.393 Z-3.821
Y113.332 Z-3.883
Y113.26 Z-3.933
Y113.181 Z-3.97
Y113.097 Z-3.992
Y113.01 Z-4
Y112.51
X9.49 Y10.49
G3 X10.491 Y9.49 I1 J0
G1 X57.51 Y9.505
X58.01
X58.097 Z-3.992
X58.181 Z-3.97
X58.26 Z-3.933
X58.331 Z-3.883
X58.393 Z-3.821
X58.443 Z-3.75
X58.48 Z-3.671
X58.502 Z-3.587
X58.51 Z-3.5
G0 Z5
X21.468 Y86.024
Z0.5
G1 Z-3.5 F333.3
X21.462 Y86.028 Z-3.587 F1000
X21.443 Y86.041 Z-3.671
X21.413 Y86.062 Z-3.75
X21.372 Y86.09 Z-3.821
X21.321 Y86.125 Z-3.883
X21.262 Y86.165 Z-3.933
X21.197 Y86.21 Z-3.97
X21.127 Y86.257 Z-3.992
X21.055 Y86.306 Z-4
X20.643 Y86.589
X18.185 Y88.271
G2 X12.024 Y99.665 I8.002 J11.69
G1 X11.755 Y112.51
X11.745 Y113.01
X11.743 Y113.097 Z-3.992
X11.741 Y113.181 Z-3.97
X11.739 Y113.26 Z-3.933
X11.738 Y113.331 Z-3.883
X11.737 Y113.393 Z-3.821
X11.736 Y113.443 Z-3.75
X11.735 Y113.48 Z-3.671
X11.734 Y113.502 Z-3.587
Y113.51 Z-3.5
G0 Z5
X58.51 Y11.341
Z0.5
G1 Z-3.5 F333.3
X58.502 Z-3.587 F1000
X58.48 Z-3.671
X58.443 Z-3.75
X58.393 Z-3.821
X58.331 Y11.34 Z-3.883
X58.26 Z-3.933
X58.181 Z-3.97
X58.097 Z-3.992
X58.01 Z-4
X57.51 Y11.338
X22.727 Y11.244
G2 X14.703 Y14.599 I-0.03 J11.2
G1 X14.463 Y14.844
G2 X11.261 Y23.026 I7.993 J7.846
G1 X12.018 Y48.178
G2 X18.184 Y59.469 I14.202 J-0.427
G1 X20.642 Y61.154
X21.054 Y61.437
X21.126 Y61.486 Z-3.992
X21.195 Y61.533 Z-3.97
X21.261 Y61.578 Z-3.933
X21.319 Y61.618 Z-3.883
X21.37 Y61.653 Z-3.821
X21.411 Y61.681 Z-3.75
X21.442 Y61.702 Z-3.671
X21.46 Y61.715 Z-3.587
X21.467 Y61.719 Z-3.5
G0 Z5
X72.49 Y9.505
Z0.5
G1 Z-3.5 F333.3
X72.497 Z-3.587 F1000
X72.52 Z-3.671
X72.557 Z-3.75
X72.607 Z-3.821
X72.669 Z-3.883
X72.74 Z-3.933
X72.819 Z-3.97
X72.903 Z-3.992
X72.99 Z-4
X73.49
X121.509 Y9.49
G3 X122.509 Y10.461 I0 J1
G1 X122.51 Y10.493
G3 X121.508 Y11.522 I-1 J0.029
G1 X73.49 Y11.38
X72.99 Y11.379
X72.903 Y11.378 Z-3.992
X72.819 Z-3.97
X72.74 Z-3.933
X72.669 Z-3.883
X72.607 Y11.377 Z-3.821
X72.557 Z-3.75
X72.52 Z-3.671
X72.498 Z-3.587
X72.49 Z-3.5
G0 Z5
X24 Y88.766
Z0.5
G1 Z-3.5 F333.3
X23.993 Y88.77 Z-3.587 F1000
X23.973 Y88.781 Z-3.671
X23.941 Y88.798 Z-3.75
X23.897 Y88.821 Z-3.821
X23.842 Y88.85 Z-3.883
X23.779 Y88.884 Z-3.933
X23.709 Y88.921 Z-3.97
X23.635 Y88.961 Z-3.992
X23.558 Y89.001 Z-4
X23.117 Y89.236
X20.944 Y90.394
G2 X15.293 Y99.371 I5.021 J9.428
G1 X15.283 Y99.644
X15.015 Y194.998
G3 X14.015 Y195.995 I-1 J-0.003
G1 X7.005
G3 X6.005 Y194.995 I0 J-1
G1 Y7.005
G3 X7.005 Y6.005 I1 J0
G1 X124.995
G3 X125.995 Y7.005 I0 J1
G1 Y14.015
G3 X124.992 Y15.015 I-1 J0
G1 X22.306 Y14.746
G2 X14.752 Y22.442 I-0.02 J7.536
G1 X15.314 Y48.749
X15.34 Y49.007
G2 X20.942 Y57.347 I10.634 J-1.092
G1 X23.115 Y58.506
X23.556 Y58.742
X23.633 Y58.783 Z-3.992
X23.707 Y58.822 Z-3.97
X23.777 Y58.859 Z-3.933
X23.84 Y58.893 Z-3.883
X23.894 Y58.922 Z-3.821
X23.938 Y58.945 Z-3.75
X23.971 Y58.963 Z-3.671
X23.991 Y58.973 Z-3.587
X23.997 Y58.977 Z-3.5
G0 Z5
X28.799 Y91.867
Z0.5
G1 Z-3.5 F333.3
Y91.875 Z-3.587 F1000
Y91.898 Z-3.671
Y91.934 Z-3.75
X28.798 Y91.984 Z-3.821
Y92.046 Z-3.883
X28.797 Y92.117 Z-3.933
Y92.196 Z-3.97
X28.796 Y92.281 Z-3.992
Y92.367 Z-4
X28.792 Y92.867
Y92.884
X28.13 Y92.656
X27.719 Y92.543
X27.04 Y92.418
X26.495 Y92.36
X25.95 Y92.343
X25.405 Y92.369
X24.861 Y92.433
X24.316 Y92.538
X23.771 Y92.686
X23.226 Y92.878
X22.681 Y93.119
X22.136 Y93.415
X21.794 Y93.634
X21.34 Y93.967
X21.046 Y94.216
X20.782 Y94.46
X20.501 Y94.743
X20.273 Y95.003
X20.054 Y95.271
X19.673 Y95.817
X19.356 Y96.362
X19.098 Y96.908
X18.867 Y97.53
X18.731 Y97.999
X18.615 Y98.545
X18.541 Y99.09
X18.505 Y99.636
X18.5 Y100.182
Y199.48
X2.52
Y2.52
X129.48
Y18.5
X21.046
X20.774 Y18.51
X20.501 Y18.55
X20.229 Y18.621
X19.957 Y18.728
X19.662 Y18.888
X19.412 Y19.069
X19.213 Y19.251
X19.051 Y19.433
X18.867 Y19.696
X18.718 Y19.979
X18.614 Y20.252
X18.545 Y20.525
X18.507 Y20.797
X18.5 Y21.07
Y47.804
X18.515 Y48.35
X18.569 Y48.896
X18.663 Y49.441
X18.799 Y49.987
X18.867 Y50.212
X18.98 Y50.532
X19.208 Y51.078
X19.49 Y51.624
X19.837 Y52.169
X19.957 Y52.334
X20.256 Y52.715
X20.501 Y52.998
X20.757 Y53.26
X21.046 Y53.526
X21.38 Y53.806
X21.619 Y53.985
X21.864 Y54.154
X22.185 Y54.352
X22.681 Y54.62
X23.308 Y54.897
X23.771 Y55.058
X24.316 Y55.206
X24.861 Y55.311
X25.405 Y55.374
X25.95 Y55.397
X26.495 Y55.381
X27.04 Y55.323
X27.585 Y55.225
X28.13 Y55.086
X28.686 Y54.897
X28.709
X28.56 Y54.977
X28.118 Y55.212
X28.042 Y55.253 Z-3.992
X27.967 Y55.292 Z-3.97
X27.898 Y55.33 Z-3.933
X27.835 Y55.363 Z-3.883
X27.78 Y55.392 Z-3.821
X27.736 Y55.416 Z-3.75
X27.704 Y55.433 Z-3.671
X27.684 Y55.443 Z-3.587
X27.677 Y55.447 Z-3.5
G0 Z5
X11.711 Y127.49
Z-2.5
G1 Z-6.5 F333.3
Y127.498 Z-6.587 F1000
Y127.52 Z-6.671
Y127.557 Z-6.75
Y127.607 Z-6.821
Y127.669 Z-6.883
Y127.74 Z-6.933
X11.71 Y127.819 Z-6.97
Y127.903 Z-6.992
Y127.99 Z-7
X11.709 Y128.49
X11.539 Y191.511
G3 X10.56 Y192.508 I-1 J-0.003
G1 X10.511 Y192.51
G3 X9.49 Y191.509 I-0.021 J-1
G1 X9.505 Y128.49
Y127.99
Y127.903 Z-6.992
Y127.819 Z-6.97
Y127.74 Z-6.933
Y127.669 Z-6.883
Y127.607 Z-6.821
Y127.557 Z-6.75
Y127.52 Z-6.671
Y127.498 Z-6.587
Y127.49 Z-6.5
G0 Z5
X18.315 Y80.459
Z-2.5
G1 Z-6.5 F333.3
X18.31 Y80.465 Z-6.587 F1000
X18.293 Y80.48 Z-6.671
X18.267 Y80.506 Z-6.75
X18.23 Y80.54 Z-6.821
X18.186 Y80.583 Z-6.883
X18.134 Y80.632 Z-6.933
X18.077 Y80.687 Z-6.97
X18.016 Y80.745 Z-6.992
X17.954 Y80.805 Z-7
X17.592 Y81.151
X16.771 Y81.937
G3 X15.262 Y81.293 I-0.616 J-0.644
G1 X15.26 Y66.406
G3 X16.865 Y65.789 I0.921 J0
G1 X17.59 Y66.592
X17.926 Y66.963
X17.984 Y67.027 Z-6.992
X18.04 Y67.089 Z-6.97
X18.093 Y67.148 Z-6.933
X18.141 Y67.201 Z-6.883
X18.182 Y67.247 Z-6.821
X18.216 Y67.284 Z-6.75
X18.241 Y67.311 Z-6.671
X18.256 Y67.328 Z-6.587
X18.261 Y67.334 Z-6.5
G0 Z5
X19.766 Y83.482
Z-2.5
G1 Z-6.5 F333.3
X19.76 Y83.486 Z-6.587 F1000
X19.742 Y83.5 Z-6.671
X19.713 Y83.523 Z-6.75
X19.674 Y83.553 Z-6.821
X19.625 Y83.591 Z-6.883
X19.569 Y83.635 Z-6.933
X19.506 Y83.683 Z-6.97
X19.44 Y83.735 Z-6.992
X19.371 Y83.788 Z-7
X18.977 Y84.095
X16.149 Y86.293
G2 X13.766 Y88.449 I13.201 J16.985
G1 X13.5 Y88.729
G3 X12.267 Y88.236 I-0.518 J-0.493
G1 X12.263 Y59.497
G3 X13.491 Y59 I0.714 J0
G1 X14.02 Y59.548
G2 X15.703 Y61.069 I12.073 J-11.664
G1 X18.974 Y63.646
X19.366 Y63.956
X19.435 Y64.01 Z-6.992
X19.501 Y64.062 Z-6.97
X19.563 Y64.111 Z-6.933
X19.619 Y64.155 Z-6.883
X19.667 Y64.193 Z-6.821
X19.707 Y64.224 Z-6.75
X19.736 Y64.247 Z-6.671
X19.753 Y64.261 Z-6.587
X19.759 Y64.265 Z-6.5
G0 Z5
X12.491 Y13.57
Z-2.5
G1 Z-6.5 F333.3
Y13.563 Z-6.587 F1000
Y13.54 Z-6.671
Y13.503 Z-6.75
Y13.453 Z-6.821
Y13.392 Z-6.883
Y13.32 Z-6.933
Y13.241 Z-6.97
Y13.157 Z-6.992
Y13.07 Z-7
Y12.57
Y12.491
X12.569
X12.491 Y12.57
X12.14 Y12.927
X12.079 Y12.989 Z-6.992
X12.021 Y13.049 Z-6.97
X11.965 Y13.106 Z-6.933
X11.915 Y13.157 Z-6.883
X11.872 Y13.201 Z-6.821
X11.837 Y13.236 Z-6.75
X11.811 Y13.262 Z-6.671
X11.795 Y13.279 Z-6.587
X11.79 Y13.284 Z-6.5
G0 Z5
X9.505 Y113.51
Z-2.5
G1 Z-6.5 F333.3
Y113.503 Z-6.587 F1000
Y113.48 Z-6.671
Y113.443 Z-6.75
Y113.393 Z-6.821
Y113.332 Z-6.883
Y113.26 Z-6.933
Y113.181 Z-6.97
Y113.097 Z-6.992
Y113.01 Z-7
Y112.51
X9.49 Y10.49
G3 X10.491 Y9.49 I1 J0
G1 X57.51 Y9.505
X58.01
X58.097 Z-6.992
X58.181 Z-6.97
X58.26 Z-6.933
X58.331 Z-6.883
X58.393 Z-6.821
X58.443 Z-6.75
X58.48 Z-6.671
X58.502 Z-6.587
X58.51 Z-6.5
G0 Z5
X21.468 Y86.024
Z-2.5
G1 Z-6.5 F333.3
X21.462 Y86.028 Z-6.587 F1000
X21.443 Y86.041 Z-6.671
X21.413 Y86.062 Z-6.75
X21.372 Y86.09 Z-6.821
X21.321 Y86.125 Z-6.883
X21.262 Y86.165 Z-6.933
X21.197 Y86.21 Z-6.97
X21.127 Y86.257 Z-6.992
X21.055 Y86.306 Z-7
X20.643 Y86.589
X18.185 Y88.271
G2 X12.024 Y99.665 I8.002 J11.69
G1 X11.755 Y112.51
X11.745 Y113.01
X11.743 Y113.097 Z-6.992
X11.741 Y113.181 Z-6.97
X11.739 Y113.26 Z-6.933
X11.738 Y113.331 Z-6.883
X11.737 Y113.393 Z-6.821
X11.736 Y113.443 Z-6.75
X11.735 Y113.48 Z-6.671
X11.734 Y113.502 Z-6.587
Y113.51 Z-6.5
G0 Z5
X58.51 Y11.341
Z-2.5
G1 Z-6.5 F333.3
X58.502 Z-6.587 F1000
X58.48 Z-6.671
X58.443 Z-6.75
X58.393 Z-6.821
X58.331 Y11.34 Z-6.883
X58.26 Z-6.933
X58.181 Z-6.97
X58.097 Z-6.992
X58.01 Z-7
X57.51 Y11.338
X22.727 Y11.244
G2 X14.703 Y14.599 I-0.03 J11.2
G1 X14.463 Y14.844
G2 X11.261 Y23.026 I7.993 J7.846
G1 X12.018 Y48.178
G2 X18.184 Y59.469 I14.202 J-0.427
G1 X20.642 Y61.154
X21.054 Y61.437
X21.126 Y61.486 Z-6.992
X21.195 Y61.533 Z-6.97
X21.261 Y61.578 Z-6.933
X21.319 Y61.618 Z-6.883
X21.37 Y61.653 Z-6.821
X21.411 Y61.681 Z-6.75
X21.442 Y61.702 Z-6.671
X21.46 Y61.715 Z-6.587
X21.467 Y61.719 Z-6.5
G0 Z5
X72.49 Y9.505
Z-2.5
G1 Z-6.5 F333.3
X72.497 Z-6.587 F1000
X72.52 Z-6.671
X72.557 Z-6.75
X72.607 Z-6.821
X72.669 Z-6.883
X72.74 Z-6.933
X72.819 Z-6.97
X72.903 Z-6.992
X72.99 Z-7
X73.49
X121.509 Y9.49
G3 X122.509 Y10.461 I0 J1
G1 X122.51 Y10.493
G3 X121.508 Y11.522 I-1 J0.029
G1 X73.49 Y11.38
X72.99 Y11.379
X72.903 Y11.378 Z-6.992
X72.819 Z-6.97
X72.74 Z-6.933
X72.669 Z-6.883
X72.607 Y11.377 Z-6.821
X72.557 Z-6.75
X72.52 Z-6.671
X72.498 Z-6.587
X72.49 Z-6.5
G0 Z5
X24 Y88.766
Z-2.5
G1 Z-6.5 F333.3
X23.993 Y88.77 Z-6.587 F1000
X23.973 Y88.781 Z-6.671
X23.941 Y88.798 Z-6.75
X23.897 Y88.821 Z-6.821
X23.842 Y88.85 Z-6.883
X23.779 Y88.884 Z-6.933
X23.709 Y88.921 Z-6.97
X23.635 Y88.961 Z-6.992
X23.558 Y89.001 Z-7
X23.117 Y89.236
X20.944 Y90.394
G2 X15.293 Y99.371 I5.021 J9.428
G1 X15.283 Y99.644
X15.015 Y194.998
G3 X14.015 Y195.995 I-1 J-0.003
G1 X7.005
G3 X6.005 Y194.995 I0 J-1
G1 Y7.005
G3 X7.005 Y6.005 I1 J0
G1 X124.995
G3 X125.995 Y7.005 I0 J1
G1 Y14.015
G3 X124.992 Y15.015 I-1 J0
G1 X22.306 Y14.746
G2 X14.752 Y22.442 I-0.02 J7.536
G1 X15.314 Y48.749
X15.34 Y49.007
G2 X20.942 Y57.347 I10.634 J-1.092
G1 X23.115 Y58.506
X23.556 Y58.742
X23.633 Y58.783 Z-6.992
X23.707 Y58.822 Z-6.97
X23.777 Y58.859 Z-6.933
X23.84 Y58.893 Z-6.883
X23.894 Y58.922 Z-6.821
X23.938 Y58.945 Z-6.75
X23.971 Y58.963 Z-6.671
X23.991 Y58.973 Z-6.587
X23.997 Y58.977 Z-6.5
G0 Z5
X28.799 Y91.867
Z-2.5
G1 Z-6.5 F333.3
Y91.875 Z-6.587 F1000
Y91.898 Z-6.671
Y91.934 Z-6.75
X28.798 Y91.984 Z-6.821
Y92.046 Z-6.883
X28.797 Y92.117 Z-6.933
Y92.196 Z-6.97
X28.796 Y92.281 Z-6.992
Y92.367 Z-7
X28.792 Y92.867
Y92.884
X28.13 Y92.656
X27.719 Y92.543
X27.04 Y92.418
X26.495 Y92.36
X25.95 Y92.343
X25.405 Y92.369
X24.861 Y92.433
X24.316 Y92.538
X23.771 Y92.686
X23.226 Y92.878
X22.681 Y93.119
X22.136 Y93.415
X21.794 Y93.634
X21.34 Y93.967
X21.046 Y94.216
X20.782 Y94.46
X20.501 Y94.743
X20.273 Y95.003
X20.054 Y95.271
X19.673 Y95.817
X19.356 Y96.362
X19.098 Y96.908
X18.867 Y97.53
X18.731 Y97.999
X18.615 Y98.545
X18.541 Y99.09
X18.505 Y99.636
X18.5 Y100.182
Y199.48
X2.52
Y2.52
X129.48
Y18.5
X21.046
X20.774 Y18.51
X20.501 Y18.55
X20.229 Y18.621
X19.957 Y18.728
X19.662 Y18.888
X19.412 Y19.069
X19.213 Y19.251
X19.051 Y19.433
X18.867 Y19.696
X18.718 Y19.979
X18.614 Y20.252
X18.545 Y20.525
X18.507 Y20.797
X18.5 Y21.07
Y47.804
X18.515 Y48.35
X18.569 Y48.896
X18.663 Y49.441
X18.799 Y49.987
X18.867 Y50.212
X18.98 Y50.532
X19.208 Y51.078
X19.49 Y51.624
X19.837 Y52.169
X19.957 Y52.334
X20.256 Y52.715
X20.501 Y52.998
X20.757 Y53.26
X21.046 Y53.526
X21.38 Y53.806
X21.619 Y53.985
X21.864 Y54.154
X22.185 Y54.352
X22.681 Y54.62
X23.308 Y54.897
X23.771 Y55.058
X24.316 Y55.206
X24.861 Y55.311
X25.405 Y55.374
X25.95 Y55.397
X26.495 Y55.381
X27.04 Y55.323
X27.585 Y55.225
X28.13 Y55.086
X28.686 Y54.897
X28.709
X28.56 Y54.977
X28.118 Y55.212
X28.042 Y55.253 Z-6.992
X27.967 Y55.292 Z-6.97
X27.898 Y55.33 Z-6.933
X27.835 Y55.363 Z-6.883
X27.78 Y55.392 Z-6.821
X27.736 Y55.416 Z-6.75
X27.704 Y55.433 Z-6.671
X27.684 Y55.443 Z-6.587
X27.677 Y55.447 Z-6.5
G0 Z15

(2D Contour3)
G0 X132.36 Y43.097
Z15
Z5
G1 Z1 F333.3
Z-3
G2 X133.5 Y41 I-1.36 J-2.097 F1000
G1 Y1
G2 X131 Y-1.5 I-2.5 J0
G1 X1
G2 X-1.5 Y1 I0 J2.5
G1 Y201
G2 X1 Y203.5 I2.5 J0
G1 X41
G2 X43.5 Y201 I0 J-2.5
G1 Y106.515
G2 X33.234 Y94.217 I-12.5 J0
G3 X33.234 Y53.525 I3.696 J-20.346
G2 X43.291 Y43.5 I-2.234 J-12.299
G1 X131
G2 X132.36 Y43.097 I0 J-2.5
G1 Z-6 F333.3
G2 X133.5 Y41 I-1.36 J-2.097 F1000
G1 Y1
G2 X131 Y-1.5 I-2.5 J0
G1 X1
G2 X-1.5 Y1 I0 J2.5
G1 Y201
G2 X1 Y203.5 I2.5 J0
G1 X41
G2 X43.5 Y201 I0 J-2.5
G1 Y106.515
G2 X33.234 Y94.217 I-12.5 J0
G3 X33.234 Y53.525 I3.696 J-20.346
G2 X43.291 Y43.5 I-2.234 J-12.299
G1 X131
G2 X132.36 Y43.097 I0 J-2.5
G1 Z-9 F333.3
G2 X133.5 Y41 I-1.36 J-2.097 F1000
G1 Y1
G2 X131 Y-1.5 I-2.5 J0
G1 X1
G2 X-1.5 Y1 I0 J2.5
G1 Y201
G2 X1 Y203.5 I2.5 J0
G1 X41
G2 X43.5 Y201 I0 J-2.5
G1 Y106.515
G2 X33.234 Y94.217 I-12.5 J0
G3 X33.234 Y53.525 I3.696 J-20.346
G2 X43.291 Y43.5 I-2.234 J-12.299
G1 X131
G2 X132.36 Y43.097 I0 J-2.5
G1 Z-12 F333.3
G2 X133.5 Y41 I-1.36 J-2.097 F1000
G1 Y1
G2 X131 Y-1.5 I-2.5 J0
G1 X1
G2 X-1.5 Y1 I0 J2.5
G1 Y201
G2 X1 Y203.5 I2.5 J0
G1 X41
G2 X43.5 Y201 I0 J-2.5
G1 Y106.515
G2 X33.234 Y94.217 I-12.5 J0
G3 X33.234 Y53.525 I3.696 J-20.346
G2 X43.291 Y43.5 I-2.234 J-12.299
G1 X131
G2 X132.36 Y43.097 I0 J-2.5
G1 Z-13 F333.3
G2 X133.5 Y41 I-1.36 J-2.097 F1000
G1 Y1
G2 X131 Y-1.5 I-2.5 J0
G1 X1
G2 X-1.5 Y1 I0 J2.5
G1 Y201
G2 X1 Y203.5 I2.5 J0
G1 X41
G2 X43.5 Y201 I0 J-2.5
G1 Y106.515
G2 X33.234 Y94.217 I-12.5 J0
G3 X33.234 Y53.525 I3.696 J-20.346
G2 X43.291 Y43.5 I-2.234 J-12.299
G1 X131
G2 X132.36 Y43.097 I0 J-2.5
G0 Z15
M9
M5
M30
