(Winkelanschlag_Klein)
(T4 D=5 CR=0 - ZMIN=-13 - flat end mill)
G90 G94
G17
G21
(-Attention- Property Safe Retracts is set to Clearance Height.)
(Ensure the clearance height will clear the part and or fixtures.)
(Raise the Z-axis to a safe height before starting the program.)

(2D Contour1)
T4
S5000 M3
G17 G90 G94
G54
M8
G0 X14 Y105.5
Z15
G0 Z5
G1 Z1 F333.3
Z-3
Y118.5 F1000
X8
Y102.5
X14
Y105.5
Z-6 F333.3
Y118.5 F1000
X8
Y102.5
X14
Y105.5
Z-9 F333.3
Y118.5 F1000
X8
Y102.5
X14
Y105.5
Z-12 F333.3
Y118.5 F1000
X8
Y102.5
X14
Y105.5
Z-13 F333.3
Y118.5 F1000
X8
Y102.5
X14
Y105.5
G0 Z5
X58.5 Y11
G1 Z1 F333.3
Z-3
Y14 F1000
X42.5
Y8
X58.5
Y11
Z-6 F333.3
Y14 F1000
X42.5
Y8
X58.5
Y11
Z-9 F333.3
Y14 F1000
X42.5
Y8
X58.5
Y11
Z-12 F333.3
Y14 F1000
X42.5
Y8
X58.5
Y11
Z-13 F333.3
Y14 F1000
X42.5
Y8
X58.5
Y11
G0 Z15

(Flat1)
G0 X11.678 Y117.49
Z15
Z0.5
G1 Z-3.5 F333.3
Y117.498 Z-3.587 F1000
Y117.52 Z-3.671
Y117.557 Z-3.75
Y117.607 Z-3.821
X11.677 Y117.669 Z-3.883
Y117.74 Z-3.933
Y117.819 Z-3.97
X11.676 Y117.903 Z-3.992
Y117.99 Z-4
X11.673 Y118.49
X11.548 Y141.513
G3 X10.585 Y142.507 I-1 J-0.005
G1 X10.526 Y142.509
G3 X9.49 Y141.509 I-0.036 J-0.999
G1 X9.505 Y118.49
Y117.99
X9.506 Y117.903 Z-3.992
Y117.819 Z-3.97
Y117.74 Z-3.933
Y117.669 Z-3.883
Y117.607 Z-3.821
Y117.557 Z-3.75
Y117.52 Z-3.671
Y117.498 Z-3.587
Y117.49 Z-3.5
G0 Z5
X21.236 Y76.652
Z0.5
G1 Z-3.5 F333.3
X21.229 Y76.655 Z-3.587 F1000
X21.209 Y76.665 Z-3.671
X21.176 Y76.682 Z-3.75
X21.132 Y76.705 Z-3.821
X21.077 Y76.732 Z-3.883
X21.013 Y76.764 Z-3.933
X20.943 Y76.8 Z-3.97
X20.867 Y76.838 Z-3.992
X20.79 Y76.877 Z-4
X20.344 Y77.103
X19.874 Y77.34
G3 X18.666 Y76.594 I-0.376 J-0.743
G1 Y76.489
G3 X19.874 Y75.748 I0.833 J0.003
G1 X20.346 Y75.986
X20.792 Y76.212
X20.869 Y76.251 Z-3.992
X20.944 Y76.289 Z-3.97
X21.015 Y76.324 Z-3.933
X21.079 Y76.357 Z-3.883
X21.134 Y76.384 Z-3.821
X21.178 Y76.407 Z-3.75
X21.211 Y76.424 Z-3.671
X21.231 Y76.434 Z-3.587
X21.238 Y76.437 Z-3.5
G0 Z5
X21.594 Y80.074
Z0.5
G1 Z-3.5 F333.3
X21.587 Y80.078 Z-3.587 F1000
X21.568 Y80.09 Z-3.671
X21.536 Y80.109 Z-3.75
X21.493 Y80.134 Z-3.821
X21.44 Y80.166 Z-3.883
X21.379 Y80.203 Z-3.933
X21.312 Y80.243 Z-3.97
X21.239 Y80.287 Z-3.992
X21.165 Y80.331 Z-4
X20.736 Y80.589
X16.798 Y82.952
G3 X15.283 Y82.095 I-0.515 J-0.857
G1 X15.282 Y70.983
G3 X16.798 Y70.126 I1 J0
G1 X20.739 Y72.5
X21.167 Y72.758
X21.241 Y72.803 Z-3.992
X21.313 Y72.847 Z-3.97
X21.381 Y72.887 Z-3.933
X21.442 Y72.924 Z-3.883
X21.495 Y72.956 Z-3.821
X21.538 Y72.982 Z-3.75
X21.569 Y73.001 Z-3.671
X21.589 Y73.013 Z-3.587
X21.595 Y73.016 Z-3.5
G0 Z5
X22.497 Y83.241
Z0.5
G1 Z-3.5 F333.3
X22.49 Y83.244 Z-3.587 F1000
X22.47 Y83.255 Z-3.671
X22.438 Y83.273 Z-3.75
X22.394 Y83.297 Z-3.821
X22.34 Y83.326 Z-3.883
X22.277 Y83.361 Z-3.933
X22.208 Y83.399 Z-3.97
X22.134 Y83.439 Z-3.992
X22.058 Y83.481 Z-4
X21.619 Y83.72
X18.172 Y85.605
G2 X13.793 Y88.981 I8.522 J15.585
G1 X13.503 Y89.287
G3 X12.269 Y88.795 I-0.52 J-0.492
G1 X12.265 Y64.289
G3 X13.493 Y63.791 I0.715 J0
G1 X14.032 Y64.346
G2 X17.978 Y67.359 I12.071 J-11.718
G1 X21.62 Y69.368
X22.058 Y69.61
X22.134 Y69.651 Z-3.992
X22.207 Y69.692 Z-3.97
X22.277 Y69.73 Z-3.933
X22.339 Y69.765 Z-3.883
X22.393 Y69.795 Z-3.821
X22.437 Y69.819 Z-3.75
X22.469 Y69.836 Z-3.671
X22.489 Y69.847 Z-3.587
X22.495 Y69.851 Z-3.5
G0 Z5
X12.491 Y13.57
Z0.5
G1 Z-3.5 F333.3
Y13.562 Z-3.587 F1000
Y13.54 Z-3.671
Y13.503 Z-3.75
Y13.453 Z-3.821
Y13.391 Z-3.883
Y13.32 Z-3.933
Y13.241 Z-3.97
Y13.157 Z-3.992
Y13.07 Z-4
Y12.57
Y12.491
X12.568
X12.491 Y12.57
X12.139 Y12.926
X12.079 Y12.988 Z-3.992
X12.019 Y13.048 Z-3.97
X11.964 Y13.104 Z-3.933
X11.914 Y13.155 Z-3.883
X11.871 Y13.199 Z-3.821
X11.835 Y13.234 Z-3.75
X11.81 Y13.26 Z-3.671
X11.794 Y13.277 Z-3.587
X11.788 Y13.282 Z-3.5
G0 Z5
X9.505 Y103.51
Z0.5
G1 Z-3.5 F333.3
Y103.502 Z-3.587 F1000
Y103.48 Z-3.671
Y103.443 Z-3.75
Y103.393 Z-3.821
Y103.331 Z-3.883
Y103.26 Z-3.933
Y103.181 Z-3.97
Y103.097 Z-3.992
Y103.01 Z-4
Y102.51
X9.49 Y10.49
G3 X10.491 Y9.49 I1 J0
G1 X42.51 Y9.505
X43.01
X43.097 Z-3.992
X43.181 Z-3.97
X43.26 Z-3.933
X43.331 Y9.506 Z-3.883
X43.393 Z-3.821
X43.443 Z-3.75
X43.48 Z-3.671
X43.502 Z-3.587
X43.51 Z-3.5
G0 Z5
X23.77 Y86.025
Z0.5
G1 Z-3.5 F333.3
X23.763 Y86.029 Z-3.587 F1000
X23.743 Y86.038 Z-3.671
X23.71 Y86.054 Z-3.75
X23.664 Y86.075 Z-3.821
X23.609 Y86.101 Z-3.883
X23.544 Y86.131 Z-3.933
X23.472 Y86.165 Z-3.97
X23.396 Y86.2 Z-3.992
X23.317 Y86.237 Z-4
X22.865 Y86.449
X20.157 Y87.716
G2 X12.082 Y99.183 I5.986 J12.792
G1 X11.768 Y102.51
X11.721 Y103.008
X11.713 Y103.094 Z-3.992
X11.705 Y103.178 Z-3.97
X11.698 Y103.257 Z-3.933
X11.691 Y103.328 Z-3.883
X11.685 Y103.389 Z-3.821
X11.681 Y103.439 Z-3.75
X11.677 Y103.476 Z-3.671
X11.675 Y103.498 Z-3.587
X11.674 Y103.506 Z-3.5
G0 Z5
X43.51 Y11.354
Z0.5
G1 Z-3.5 F333.3
X43.502 Z-3.587 F1000
X43.48 Y11.353 Z-3.671
X43.443 Z-3.75
X43.393 Z-3.821
X43.331 Z-3.883
X43.26 Z-3.933
X43.181 Y11.352 Z-3.97
X43.097 Z-3.992
X43.01 Z-4
X42.51 Y11.35
X22.645 Y11.285
G2 X14.715 Y14.586 I-0.036 J11.086
G1 X14.474 Y14.831
G2 X11.285 Y22.885 I7.893 J7.784
G1 X12.016 Y52.909
G2 X20.162 Y65.375 I14.139 J-0.344
G1 X22.867 Y66.64
X23.319 Y66.852
X23.398 Y66.889 Z-3.992
X23.474 Y66.924 Z-3.97
X23.546 Y66.958 Z-3.933
X23.611 Y66.988 Z-3.883
X23.666 Y67.014 Z-3.821
X23.712 Y67.035 Z-3.75
X23.745 Y67.051 Z-3.671
X23.765 Y67.061 Z-3.587
X23.772 Y67.064 Z-3.5
G0 Z5
X57.49 Y9.506
Z0.5
G1 Z-3.5 F333.3
X57.497 Z-3.587 F1000
X57.52 Z-3.671
X57.557 Z-3.75
X57.607 Z-3.821
X57.669 Y9.505 Z-3.883
X57.74 Z-3.933
X57.819 Z-3.97
X57.903 Z-3.992
X57.99 Z-4
X58.49
X91.509 Y9.49
G3 X92.509 Y10.453 I0 J1
G1 X92.51 Y10.483
G3 X91.507 Y11.52 I-0.999 J0.037
G1 X58.49 Y11.4
X57.99 Y11.399
X57.903 Y11.398 Z-3.992
X57.819 Z-3.97
X57.74 Z-3.933
X57.669 Y11.397 Z-3.883
X57.607 Z-3.821
X57.557 Z-3.75
X57.52 Z-3.671
X57.498 Z-3.587
X57.49 Z-3.5
G0 Z5
X25.817 Y89.142
Z0.5
G1 Z-3.5 F333.3
X25.81 Y89.144 Z-3.587 F1000
X25.789 Y89.152 Z-3.671
X25.754 Y89.163 Z-3.75
X25.707 Y89.179 Z-3.821
X25.648 Y89.199 Z-3.883
X25.581 Y89.222 Z-3.933
X25.506 Y89.248 Z-3.97
X25.426 Y89.275 Z-3.992
X25.344 Y89.303 Z-4
X24.871 Y89.464
X22.538 Y90.257
G2 X15.295 Y99.879 I3.445 J10.131
G1 X15.282 Y100.156
X15.015 Y145.001
G3 X14.015 Y145.995 I-1 J-0.006
G1 X7.005
G3 X6.005 Y144.995 I0 J-1
G1 Y7.005
G3 X7.005 Y6.005 I1 J0
G1 X94.995
G3 X95.995 Y7.005 I0 J1
G1 Y14.015
G3 X94.992 Y15.015 I-1 J0
G1 X22.22 Y14.787
G2 X14.778 Y22.332 I-0.023 J7.419
G1 X15.313 Y53.548
X15.34 Y53.808
G2 X22.543 Y62.834 I10.644 J-1.106
G1 X24.876 Y63.626
X25.349 Y63.787
X25.432 Y63.815 Z-3.992
X25.511 Y63.842 Z-3.97
X25.586 Y63.867 Z-3.933
X25.654 Y63.89 Z-3.883
X25.712 Y63.91 Z-3.821
X25.759 Y63.926 Z-3.75
X25.794 Y63.938 Z-3.671
X25.816 Y63.945 Z-3.587
X25.823 Y63.948 Z-3.5
G0 Z5
X30.412 Y93.116
Z0.5
G1 Z-3.5 F333.3
X30.407 Y93.122 Z-3.587 F1000
X30.395 Y93.141 Z-3.671
X30.375 Y93.172 Z-3.75
X30.347 Y93.214 Z-3.821
X30.313 Y93.265 Z-3.883
X30.273 Y93.324 Z-3.933
X30.229 Y93.39 Z-3.97
X30.183 Y93.46 Z-3.992
X30.135 Y93.533 Z-4
X29.858 Y93.949
X29.85 Y93.96
X29.53 Y93.783
X29.211 Y93.623
X28.667 Y93.389
X28.122 Y93.206
X27.577 Y93.068
X27.032 Y92.973
X26.488 Y92.915
X25.943 Y92.9
X25.398 Y92.926
X24.853 Y92.99
X24.309 Y93.096
X23.764 Y93.244
X23.219 Y93.436
X22.675 Y93.678
X22.13 Y93.975
X21.636 Y94.302
X21.313 Y94.545
X20.957 Y94.848
X20.496 Y95.305
X20.182 Y95.668
X19.951 Y95.968
X19.602 Y96.487
X19.406 Y96.826
X19.3 Y97.033
X19.053 Y97.58
X18.862 Y98.102
X18.702 Y98.672
X18.593 Y99.219
X18.527 Y99.765
X18.501 Y100.311
X18.5 Y149.48
X2.52
Y2.52
X99.48
Y18.5
X21.04
X20.768 Y18.51
X20.496 Y18.551
X20.223 Y18.624
X19.951 Y18.73
X19.629 Y18.91
X19.406 Y19.073
X19.2 Y19.265
X19.033 Y19.456
X18.862 Y19.705
X18.707 Y20.002
X18.607 Y20.275
X18.541 Y20.549
X18.506 Y20.822
X18.5 Y21.095
X18.501 Y52.781
X18.527 Y53.328
X18.594 Y53.874
X18.703 Y54.42
X18.862 Y54.987
X19.054 Y55.513
X19.301 Y56.059
X19.406 Y56.264
X19.604 Y56.606
X19.951 Y57.12
X20.183 Y57.425
X20.496 Y57.784
X20.961 Y58.245
X21.313 Y58.545
X21.64 Y58.791
X22.13 Y59.114
X22.528 Y59.337
X22.675 Y59.411
X23.219 Y59.653
X23.887 Y59.884
X24.309 Y59.993
X24.853 Y60.099
X25.398 Y60.164
X25.943 Y60.19
X26.488 Y60.174
X27.032 Y60.118
X27.577 Y60.022
X28.122 Y59.883
X28.667 Y59.698
X29.211 Y59.465
X29.473 Y59.337
X29.952 Y59.064
X29.808 Y59.173
X29.41 Y59.475
X29.341 Y59.527 Z-3.992
X29.274 Y59.578 Z-3.97
X29.211 Y59.626 Z-3.933
X29.154 Y59.669 Z-3.883
X29.105 Y59.706 Z-3.821
X29.065 Y59.737 Z-3.75
X29.036 Y59.759 Z-3.671
X29.018 Y59.772 Z-3.587
X29.012 Y59.777 Z-3.5
G0 Z5
X11.678 Y117.49
Z-2.5
G1 Z-6.5 F333.3
Y117.498 Z-6.587 F1000
Y117.52 Z-6.671
Y117.557 Z-6.75
Y117.607 Z-6.821
X11.677 Y117.669 Z-6.883
Y117.74 Z-6.933
Y117.819 Z-6.97
X11.676 Y117.903 Z-6.992
Y117.99 Z-7
X11.673 Y118.49
X11.548 Y141.513
G3 X10.585 Y142.507 I-1 J-0.005
G1 X10.526 Y142.509
G3 X9.49 Y141.509 I-0.036 J-0.999
G1 X9.505 Y118.49
Y117.99
X9.506 Y117.903 Z-6.992
Y117.819 Z-6.97
Y117.74 Z-6.933
Y117.669 Z-6.883
Y117.607 Z-6.821
Y117.557 Z-6.75
Y117.52 Z-6.671
Y117.498 Z-6.587
Y117.49 Z-6.5
G0 Z5
X21.236 Y76.652
Z-2.5
G1 Z-6.5 F333.3
X21.229 Y76.655 Z-6.587 F1000
X21.209 Y76.665 Z-6.671
X21.176 Y76.682 Z-6.75
X21.132 Y76.705 Z-6.821
X21.077 Y76.732 Z-6.883
X21.013 Y76.764 Z-6.933
X20.943 Y76.8 Z-6.97
X20.867 Y76.838 Z-6.992
X20.79 Y76.877 Z-7
X20.344 Y77.103
X19.874 Y77.34
G3 X18.666 Y76.594 I-0.376 J-0.743
G1 Y76.489
G3 X19.874 Y75.748 I0.833 J0.003
G1 X20.346 Y75.986
X20.792 Y76.212
X20.869 Y76.251 Z-6.992
X20.944 Y76.289 Z-6.97
X21.015 Y76.324 Z-6.933
X21.079 Y76.357 Z-6.883
X21.134 Y76.384 Z-6.821
X21.178 Y76.407 Z-6.75
X21.211 Y76.424 Z-6.671
X21.231 Y76.434 Z-6.587
X21.238 Y76.437 Z-6.5
G0 Z5
X21.594 Y80.074
Z-2.5
G1 Z-6.5 F333.3
X21.587 Y80.078 Z-6.587 F1000
X21.568 Y80.09 Z-6.671
X21.536 Y80.109 Z-6.75
X21.493 Y80.134 Z-6.821
X21.44 Y80.166 Z-6.883
X21.379 Y80.203 Z-6.933
X21.312 Y80.243 Z-6.97
X21.239 Y80.287 Z-6.992
X21.165 Y80.331 Z-7
X20.736 Y80.589
X16.798 Y82.952
G3 X15.283 Y82.095 I-0.515 J-0.857
G1 X15.282 Y70.983
G3 X16.798 Y70.126 I1 J0
G1 X20.739 Y72.5
X21.167 Y72.758
X21.241 Y72.803 Z-6.992
X21.313 Y72.847 Z-6.97
X21.381 Y72.887 Z-6.933
X21.442 Y72.924 Z-6.883
X21.495 Y72.956 Z-6.821
X21.538 Y72.982 Z-6.75
X21.569 Y73.001 Z-6.671
X21.589 Y73.013 Z-6.587
X21.595 Y73.016 Z-6.5
G0 Z5
X22.497 Y83.241
Z-2.5
G1 Z-6.5 F333.3
X22.49 Y83.244 Z-6.587 F1000
X22.47 Y83.255 Z-6.671
X22.438 Y83.273 Z-6.75
X22.394 Y83.297 Z-6.821
X22.34 Y83.326 Z-6.883
X22.277 Y83.361 Z-6.933
X22.208 Y83.399 Z-6.97
X22.134 Y83.439 Z-6.992
X22.058 Y83.481 Z-7
X21.619 Y83.72
X18.172 Y85.605
G2 X13.793 Y88.981 I8.522 J15.585
G1 X13.503 Y89.287
G3 X12.269 Y88.795 I-0.52 J-0.492
G1 X12.265 Y64.289
G3 X13.493 Y63.791 I0.715 J0
G1 X14.032 Y64.346
G2 X17.978 Y67.359 I12.071 J-11.718
G1 X21.62 Y69.368
X22.058 Y69.61
X22.134 Y69.651 Z-6.992
X22.207 Y69.692 Z-6.97
X22.277 Y69.73 Z-6.933
X22.339 Y69.765 Z-6.883
X22.393 Y69.795 Z-6.821
X22.437 Y69.819 Z-6.75
X22.469 Y69.836 Z-6.671
X22.489 Y69.847 Z-6.587
X22.495 Y69.851 Z-6.5
G0 Z5
X12.491 Y13.57
Z-2.5
G1 Z-6.5 F333.3
Y13.562 Z-6.587 F1000
Y13.54 Z-6.671
Y13.503 Z-6.75
Y13.453 Z-6.821
Y13.391 Z-6.883
Y13.32 Z-6.933
Y13.241 Z-6.97
Y13.157 Z-6.992
Y13.07 Z-7
Y12.57
Y12.491
X12.568
X12.491 Y12.57
X12.139 Y12.926
X12.079 Y12.988 Z-6.992
X12.019 Y13.048 Z-6.97
X11.964 Y13.104 Z-6.933
X11.914 Y13.155 Z-6.883
X11.871 Y13.199 Z-6.821
X11.835 Y13.234 Z-6.75
X11.81 Y13.26 Z-6.671
X11.794 Y13.277 Z-6.587
X11.788 Y13.282 Z-6.5
G0 Z5
X9.505 Y103.51
Z-2.5
G1 Z-6.5 F333.3
Y103.502 Z-6.587 F1000
Y103.48 Z-6.671
Y103.443 Z-6.75
Y103.393 Z-6.821
Y103.331 Z-6.883
Y103.26 Z-6.933
Y103.181 Z-6.97
Y103.097 Z-6.992
Y103.01 Z-7
Y102.51
X9.49 Y10.49
G3 X10.491 Y9.49 I1 J0
G1 X42.51 Y9.505
X43.01
X43.097 Z-6.992
X43.181 Z-6.97
X43.26 Z-6.933
X43.331 Y9.506 Z-6.883
X43.393 Z-6.821
X43.443 Z-6.75
X43.48 Z-6.671
X43.502 Z-6.587
X43.51 Z-6.5
G0 Z5
X23.77 Y86.025
Z-2.5
G1 Z-6.5 F333.3
X23.763 Y86.029 Z-6.587 F1000
X23.743 Y86.038 Z-6.671
X23.71 Y86.054 Z-6.75
X23.664 Y86.075 Z-6.821
X23.609 Y86.101 Z-6.883
X23.544 Y86.131 Z-6.933
X23.472 Y86.165 Z-6.97
X23.396 Y86.2 Z-6.992
X23.317 Y86.237 Z-7
X22.865 Y86.449
X20.157 Y87.716
G2 X12.082 Y99.183 I5.986 J12.792
G1 X11.768 Y102.51
X11.721 Y103.008
X11.713 Y103.094 Z-6.992
X11.705 Y103.178 Z-6.97
X11.698 Y103.257 Z-6.933
X11.691 Y103.328 Z-6.883
X11.685 Y103.389 Z-6.821
X11.681 Y103.439 Z-6.75
X11.677 Y103.476 Z-6.671
X11.675 Y103.498 Z-6.587
X11.674 Y103.506 Z-6.5
G0 Z5
X43.51 Y11.354
Z-2.5
G1 Z-6.5 F333.3
X43.502 Z-6.587 F1000
X43.48 Y11.353 Z-6.671
X43.443 Z-6.75
X43.393 Z-6.821
X43.331 Z-6.883
X43.26 Z-6.933
X43.181 Y11.352 Z-6.97
X43.097 Z-6.992
X43.01 Z-7
X42.51 Y11.35
X22.645 Y11.285
G2 X14.715 Y14.586 I-0.036 J11.086
G1 X14.474 Y14.831
G2 X11.285 Y22.885 I7.893 J7.784
G1 X12.016 Y52.909
G2 X20.162 Y65.375 I14.139 J-0.344
G1 X22.867 Y66.64
X23.319 Y66.852
X23.398 Y66.889 Z-6.992
X23.474 Y66.924 Z-6.97
X23.546 Y66.958 Z-6.933
X23.611 Y66.988 Z-6.883
X23.666 Y67.014 Z-6.821
X23.712 Y67.035 Z-6.75
X23.745 Y67.051 Z-6.671
X23.765 Y67.061 Z-6.587
X23.772 Y67.064 Z-6.5
G0 Z5
X57.49 Y9.506
Z-2.5
G1 Z-6.5 F333.3
X57.497 Z-6.587 F1000
X57.52 Z-6.671
X57.557 Z-6.75
X57.607 Z-6.821
X57.669 Y9.505 Z-6.883
X57.74 Z-6.933
X57.819 Z-6.97
X57.903 Z-6.992
X57.99 Z-7
X58.49
X91.509 Y9.49
G3 X92.509 Y10.453 I0 J1
G1 X92.51 Y10.483
G3 X91.507 Y11.52 I-0.999 J0.037
G1 X58.49 Y11.4
X57.99 Y11.399
X57.903 Y11.398 Z-6.992
X57.819 Z-6.97
X57.74 Z-6.933
X57.669 Y11.397 Z-6.883
X57.607 Z-6.821
X57.557 Z-6.75
X57.52 Z-6.671
X57.498 Z-6.587
X57.49 Z-6.5
G0 Z5
X25.817 Y89.142
Z-2.5
G1 Z-6.5 F333.3
X25.81 Y89.144 Z-6.587 F1000
X25.789 Y89.152 Z-6.671
X25.754 Y89.163 Z-6.75
X25.707 Y89.179 Z-6.821
X25.648 Y89.199 Z-6.883
X25.581 Y89.222 Z-6.933
X25.506 Y89.248 Z-6.97
X25.426 Y89.275 Z-6.992
X25.344 Y89.303 Z-7
X24.871 Y89.464
X22.538 Y90.257
G2 X15.295 Y99.879 I3.445 J10.131
G1 X15.282 Y100.156
X15.015 Y145.001
G3 X14.015 Y145.995 I-1 J-0.006
G1 X7.005
G3 X6.005 Y144.995 I0 J-1
G1 Y7.005
G3 X7.005 Y6.005 I1 J0
G1 X94.995
G3 X95.995 Y7.005 I0 J1
G1 Y14.015
G3 X94.992 Y15.015 I-1 J0
G1 X22.22 Y14.787
G2 X14.778 Y22.332 I-0.023 J7.419
G1 X15.313 Y53.548
X15.34 Y53.808
G2 X22.543 Y62.834 I10.644 J-1.106
G1 X24.876 Y63.626
X25.349 Y63.787
X25.432 Y63.815 Z-6.992
X25.511 Y63.842 Z-6.97
X25.586 Y63.867 Z-6.933
X25.654 Y63.89 Z-6.883
X25.712 Y63.91 Z-6.821
X25.759 Y63.926 Z-6.75
X25.794 Y63.938 Z-6.671
X25.816 Y63.945 Z-6.587
X25.823 Y63.948 Z-6.5
G0 Z5
X30.412 Y93.116
Z-2.5
G1 Z-6.5 F333.3
X30.407 Y93.122 Z-6.587 F1000
X30.395 Y93.141 Z-6.671
X30.375 Y93.172 Z-6.75
X30.347 Y93.214 Z-6.821
X30.313 Y93.265 Z-6.883
X30.273 Y93.324 Z-6.933
X30.229 Y93.39 Z-6.97
X30.183 Y93.46 Z-6.992
X30.135 Y93.533 Z-7
X29.858 Y93.949
X29.85 Y93.96
X29.53 Y93.783
X29.211 Y93.623
X28.667 Y93.389
X28.122 Y93.206
X27.577 Y93.068
X27.032 Y92.973
X26.488 Y92.915
X25.943 Y92.9
X25.398 Y92.926
X24.853 Y92.99
X24.309 Y93.096
X23.764 Y93.244
X23.219 Y93.436
X22.675 Y93.678
X22.13 Y93.975
X21.636 Y94.302
X21.313 Y94.545
X20.957 Y94.848
X20.496 Y95.305
X20.182 Y95.668
X19.951 Y95.968
X19.602 Y96.487
X19.406 Y96.826
X19.3 Y97.033
X19.053 Y97.58
X18.862 Y98.102
X18.702 Y98.672
X18.593 Y99.219
X18.527 Y99.765
X18.501 Y100.311
X18.5 Y149.48
X2.52
Y2.52
X99.48
Y18.5
X21.04
X20.768 Y18.51
X20.496 Y18.551
X20.223 Y18.624
X19.951 Y18.73
X19.629 Y18.91
X19.406 Y19.073
X19.2 Y19.265
X19.033 Y19.456
X18.862 Y19.705
X18.707 Y20.002
X18.607 Y20.275
X18.541 Y20.549
X18.506 Y20.822
X18.5 Y21.095
X18.501 Y52.781
X18.527 Y53.328
X18.594 Y53.874
X18.703 Y54.42
X18.862 Y54.987
X19.054 Y55.513
X19.301 Y56.059
X19.406 Y56.264
X19.604 Y56.606
X19.951 Y57.12
X20.183 Y57.425
X20.496 Y57.784
X20.961 Y58.245
X21.313 Y58.545
X21.64 Y58.791
X22.13 Y59.114
X22.528 Y59.337
X22.675 Y59.411
X23.219 Y59.653
X23.887 Y59.884
X24.309 Y59.993
X24.853 Y60.099
X25.398 Y60.164
X25.943 Y60.19
X26.488 Y60.174
X27.032 Y60.118
X27.577 Y60.022
X28.122 Y59.883
X28.667 Y59.698
X29.211 Y59.465
X29.473 Y59.337
X29.952 Y59.064
X29.808 Y59.173
X29.41 Y59.475
X29.341 Y59.527 Z-6.992
X29.274 Y59.578 Z-6.97
X29.211 Y59.626 Z-6.933
X29.154 Y59.669 Z-6.883
X29.105 Y59.706 Z-6.821
X29.065 Y59.737 Z-6.75
X29.036 Y59.759 Z-6.671
X29.018 Y59.772 Z-6.587
X29.012 Y59.777 Z-6.5
G0 Z15

(2D Contour3)
G0 X41.166 Y153.495
Z15
Z5
G1 Z1 F333.3
Z-3
G2 X43.5 Y151 I-0.166 J-2.495 F1000
G1 Y108.181
G2 X34.768 Y96.262 I-12.5 J0
G3 X34.767 Y56.827 I6.232 J-19.717
G2 X43.5 Y44.909 I-3.767 J-11.919
G1 Y43.5
X101
G2 X103.5 Y41 I0 J-2.5
G1 Y1
G2 X101 Y-1.5 I-2.5 J0
G1 X1
G2 X-1.5 Y1 I0 J2.5
G1 Y151
G2 X1 Y153.5 I2.5 J0
G1 X41
X41.166 Y153.495
Z-6 F333.3
G2 X43.5 Y151 I-0.166 J-2.495 F1000
G1 Y108.181
G2 X34.768 Y96.262 I-12.5 J0
G3 X34.767 Y56.827 I6.232 J-19.717
G2 X43.5 Y44.909 I-3.767 J-11.919
G1 Y43.5
X101
G2 X103.5 Y41 I0 J-2.5
G1 Y1
G2 X101 Y-1.5 I-2.5 J0
G1 X1
G2 X-1.5 Y1 I0 J2.5
G1 Y151
G2 X1 Y153.5 I2.5 J0
G1 X41
X41.166 Y153.495
Z-9 F333.3
G2 X43.5 Y151 I-0.166 J-2.495 F1000
G1 Y108.181
G2 X34.768 Y96.262 I-12.5 J0
G3 X34.767 Y56.827 I6.232 J-19.717
G2 X43.5 Y44.909 I-3.767 J-11.919
G1 Y43.5
X101
G2 X103.5 Y41 I0 J-2.5
G1 Y1
G2 X101 Y-1.5 I-2.5 J0
G1 X1
G2 X-1.5 Y1 I0 J2.5
G1 Y151
G2 X1 Y153.5 I2.5 J0
G1 X41
X41.166 Y153.495
Z-12 F333.3
G2 X43.5 Y151 I-0.166 J-2.495 F1000
G1 Y108.181
G2 X34.768 Y96.262 I-12.5 J0
G3 X34.767 Y56.827 I6.232 J-19.717
G2 X43.5 Y44.909 I-3.767 J-11.919
G1 Y43.5
X101
G2 X103.5 Y41 I0 J-2.5
G1 Y1
G2 X101 Y-1.5 I-2.5 J0
G1 X1
G2 X-1.5 Y1 I0 J2.5
G1 Y151
G2 X1 Y153.5 I2.5 J0
G1 X41
X41.166 Y153.495
Z-13 F333.3
G2 X43.5 Y151 I-0.166 J-2.495 F1000
G1 Y108.181
G2 X34.768 Y96.262 I-12.5 J0
G3 X34.767 Y56.827 I6.232 J-19.717
G2 X43.5 Y44.909 I-3.767 J-11.919
G1 Y43.5
X101
G2 X103.5 Y41 I0 J-2.5
G1 Y1
G2 X101 Y-1.5 I-2.5 J0
G1 X1
G2 X-1.5 Y1 I0 J2.5
G1 Y151
G2 X1 Y153.5 I2.5 J0
G1 X41
X41.166 Y153.495
G0 Z15
M9
M5
M30
